nova/tdt-studio/app/Lut_mau/IWLTBAP/1 - LUTs by IWLTBAP (CUBE)/02 - Generic LOG/Psychedelia/Adoras - LOG.cube
# Copyright: (C) Copyright 2010-2018 by IWLTBAP SAS
# Cannot be resold, shared or otherwise redistributed
# Website: https://luts.iwltbap.com
TITLE "IWLTBAP Adoras (Generic LOG)"
LUT_3D_SIZE 9
0.000000 0.000000 0.000000
0.031433 0.003479 0.000000
0.195618 0.023285 0.000885
0.436096 0.089752 0.000702
0.716156 0.171906 0.000763
0.965240 0.276428 0.029755
0.981964 0.287720 0.047241
0.981964 0.287720 0.047241
0.981964 0.287720 0.047241
0.020813 0.021210 0.021088
0.020996 0.021851 0.021729
0.166412 0.038452 0.000946
0.389832 0.083160 0.000641
0.668915 0.157410 0.000732
0.947876 0.265747 0.020050
0.981964 0.287720 0.047241
0.981964 0.287720 0.047241
0.981964 0.287720 0.047241
0.158783 0.159576 0.158508
0.148346 0.147644 0.147522
0.153656 0.154846 0.153473
0.348602 0.160919 0.000671
0.606873 0.198700 0.000854
0.899200 0.268768 0.004974
0.985657 0.305298 0.048767
0.984894 0.301361 0.048431
0.984589 0.299835 0.048309
0.344147 0.344696 0.343414
0.331299 0.333832 0.331451
0.315460 0.319397 0.315735
0.329376 0.332245 0.329163
0.567200 0.329681 0.001984
0.854553 0.358795 0.001495
0.992004 0.383026 0.053833
0.990723 0.371796 0.053741
0.990265 0.367584 0.053711
0.558563 0.561371 0.559479
0.549347 0.552155 0.550873
0.531097 0.532562 0.530792
0.524994 0.523468 0.522186
0.544067 0.543396 0.542236
0.788361 0.526001 0.022644
0.996460 0.516083 0.063385
0.995941 0.502258 0.071106
0.995514 0.496399 0.068542
0.746094 0.746735 0.743896
0.740356 0.740387 0.737671
0.724884 0.727844 0.723907
0.708923 0.714417 0.709320
0.708862 0.712097 0.707977
0.729279 0.730347 0.726410
0.953400 0.700165 0.192993
0.994324 0.679535 0.187286
0.994385 0.673065 0.180420
0.883240 0.886200 0.883545
0.879883 0.882141 0.879791
0.872589 0.874390 0.871948
0.861969 0.863586 0.860596
0.854553 0.856659 0.853394
0.858154 0.858337 0.855499
0.876282 0.875488 0.873505
0.916382 0.881561 0.828278
0.920990 0.876129 0.807373
0.915436 0.914246 0.913239
0.915436 0.914246 0.913239
0.915436 0.914246 0.913239
0.915436 0.914246 0.913239
0.919708 0.917969 0.917633
0.931213 0.931213 0.931763
0.951721 0.953461 0.951569
0.979065 0.977600 0.975739
0.977753 0.976074 0.974243
0.915436 0.914246 0.913239
0.915436 0.914246 0.913239
0.915436 0.914246 0.913239
0.915436 0.914246 0.913239
0.918884 0.917206 0.916748
0.929810 0.929321 0.929901
0.948822 0.951172 0.949493
0.977661 0.975494 0.973816
0.979065 0.977600 0.975739
0.000610 0.001099 0.001404
0.030426 0.002777 0.008972
0.195984 0.016815 0.042664
0.423004 0.083862 0.039948
0.710022 0.168243 0.015594
0.963928 0.275604 0.028809
0.981964 0.287720 0.047241
0.981964 0.287720 0.047241
0.981964 0.287720 0.047241
0.020325 0.020905 0.020752
0.019653 0.020203 0.020233
0.160187 0.032623 0.018097
0.383331 0.079346 0.009583
0.664551 0.156067 0.000732
0.945557 0.264313 0.018799
0.981964 0.287720 0.047241
0.981964 0.287720 0.047241
0.981964 0.287720 0.047241
0.155151 0.155457 0.154755
0.145020 0.143829 0.144012
0.150299 0.151001 0.149872
0.344543 0.157471 0.000610
0.602325 0.195404 0.000854
0.896240 0.266296 0.004669
0.985504 0.304443 0.048676
0.984772 0.300690 0.048370
0.984467 0.299255 0.048248
0.339447 0.340698 0.339020
0.327240 0.330414 0.327698
0.312134 0.315887 0.312469
0.325562 0.328827 0.325409
0.563812 0.326691 0.001831
0.851318 0.356110 0.001343
0.991821 0.381592 0.053833
0.990540 0.370239 0.053741
0.990112 0.366241 0.053650
0.555420 0.558228 0.556549
0.546387 0.549164 0.548096
0.528412 0.529633 0.527740
0.521484 0.520416 0.518921
0.541168 0.540070 0.539124
0.786072 0.523102 0.021484
0.996368 0.514038 0.061890
0.995789 0.500092 0.070160
0.995361 0.494202 0.067596
0.744263 0.744690 0.741913
0.737793 0.738312 0.735413
0.722473 0.725891 0.721771
0.707336 0.712311 0.707489
0.706390 0.709839 0.705658
0.726532 0.728149 0.723938
0.952026 0.697906 0.189972
0.994354 0.677063 0.184662
0.994415 0.670563 0.177765
0.882111 0.884857 0.882263
0.878662 0.880646 0.878387
0.871094 0.872894 0.870361
0.860596 0.862183 0.859131
0.852661 0.855103 0.851685
0.856171 0.856659 0.853699
0.874420 0.873718 0.871582
0.917664 0.879700 0.821869
0.923859 0.873596 0.795898
0.915436 0.914246 0.913239
0.915436 0.914246 0.913239
0.915436 0.914246 0.913239
0.915436 0.914246 0.913239
0.919617 0.917877 0.917542
0.931061 0.931000 0.931549
0.951385 0.953217 0.951355
0.978729 0.977234 0.975372
0.977020 0.975189 0.973419
0.915436 0.914246 0.913239
0.915436 0.914246 0.913239
0.915436 0.914246 0.913239
0.915436 0.914246 0.913239
0.918793 0.917114 0.916656
0.929657 0.929108 0.929688
0.948486 0.950897 0.949249
0.977509 0.975250 0.973572
0.979065 0.977600 0.975739
0.000000 0.023102 0.114075
0.003174 0.034882 0.137848
0.204468 0.039246 0.151428
0.431091 0.027557 0.194489
0.677246 0.128815 0.196198
0.964813 0.231201 0.184998
0.992554 0.253571 0.163788
0.991272 0.257660 0.152130
0.990417 0.259827 0.146057
0.008026 0.039124 0.099304
0.012024 0.036621 0.097290
0.167511 0.042236 0.118835
0.390015 0.032013 0.166962
0.631775 0.130310 0.161865
0.941620 0.225800 0.151367
0.988983 0.263489 0.135681
0.988373 0.266754 0.126312
0.988098 0.268250 0.122070
0.152069 0.152222 0.152863
0.141449 0.141418 0.142242
0.134308 0.134888 0.134766
0.325531 0.142914 0.126587
0.584991 0.179321 0.107819
0.887939 0.247528 0.092896
0.988892 0.292328 0.098175
0.987488 0.291168 0.087921
0.986938 0.290710 0.083771
0.327576 0.330658 0.328735
0.315369 0.320496 0.317535
0.303192 0.306885 0.304474
0.314148 0.318787 0.315155
0.555084 0.316254 0.037842
0.838562 0.349670 0.010529
0.991425 0.377350 0.056274
0.990173 0.366699 0.053680
0.989777 0.363190 0.053528
0.547943 0.550659 0.549591
0.539673 0.541870 0.540649
0.521515 0.522217 0.520081
0.513367 0.513336 0.511353
0.535004 0.533356 0.532684
0.781372 0.517395 0.019287
0.996094 0.509827 0.059021
0.995453 0.495667 0.068237
0.995056 0.490082 0.065796
0.739929 0.740051 0.737305
0.732605 0.734100 0.730774
0.717529 0.721893 0.717377
0.704102 0.708069 0.703796
0.702057 0.705719 0.701508
0.721466 0.724091 0.719421
0.949066 0.693909 0.185547
0.994385 0.672882 0.180206
0.994446 0.666229 0.173157
0.880005 0.882294 0.879913
0.876282 0.878082 0.875824
0.868622 0.870392 0.867737
0.857635 0.859406 0.856262
0.849365 0.852386 0.848755
0.852844 0.853851 0.850708
0.871857 0.871277 0.868958
0.920502 0.876556 0.809387
0.928314 0.869690 0.778076
0.915436 0.914246 0.913239
0.915436 0.914246 0.913239
0.915436 0.914246 0.913239
0.915436 0.914246 0.913239
0.919495 0.917755 0.917389
0.930847 0.930695 0.931274
0.950928 0.952850 0.951019
0.977631 0.976074 0.974243
0.976227 0.974243 0.972504
0.915436 0.914246 0.913239
0.915436 0.914246 0.913239
0.915436 0.914246 0.913239
0.915436 0.914246 0.913239
0.918671 0.917023 0.916534
0.929443 0.928833 0.929413
0.948059 0.950562 0.948944
0.977295 0.974945 0.973297
0.979065 0.977600 0.975739
0.000000 0.088989 0.243591
0.000000 0.095947 0.257904
0.097748 0.141998 0.432587
0.404053 0.164398 0.385071
0.786743 0.000000 0.493805
0.967041 0.053467 0.382111
0.987854 0.127289 0.351837
0.985016 0.148132 0.340363
0.983826 0.158905 0.335510
0.000000 0.091034 0.225769
0.000000 0.090118 0.240295
0.032471 0.128601 0.371765
0.359558 0.135498 0.336212
0.726837 0.000000 0.433075
0.929047 0.069641 0.346222
0.981873 0.176392 0.327759
0.979889 0.195831 0.318512
0.980499 0.199005 0.312988
0.014526 0.162079 0.284943
0.014008 0.152618 0.273041
0.044952 0.153320 0.283600
0.312836 0.174103 0.293640
0.612762 0.093536 0.326843
0.848022 0.170380 0.294159
0.988647 0.236725 0.284698
0.990265 0.233978 0.269592
0.990753 0.233643 0.264008
0.323669 0.328461 0.327148
0.312836 0.318573 0.316528
0.299042 0.302643 0.302246
0.288727 0.293457 0.292389
0.518707 0.283905 0.260437
0.810364 0.308685 0.241699
0.994446 0.344940 0.232544
0.993958 0.334503 0.215912
0.993347 0.330902 0.209473
0.536133 0.538239 0.538544
0.527130 0.529114 0.528748
0.507935 0.509491 0.507721
0.497284 0.499359 0.497772
0.518738 0.518219 0.517670
0.777466 0.499664 0.183411
0.991211 0.497986 0.183167
0.993866 0.481842 0.166504
0.994446 0.476349 0.159668
0.729675 0.731842 0.728821
0.722473 0.725769 0.722290
0.708313 0.713898 0.709473
0.697815 0.700378 0.697296
0.695984 0.698395 0.695099
0.712799 0.717163 0.712006
0.946686 0.686188 0.203644
0.991577 0.663879 0.190369
0.991730 0.657745 0.181854
0.876678 0.878510 0.876404
0.872253 0.874084 0.871735
0.864655 0.866486 0.863678
0.852875 0.855133 0.851929
0.844238 0.848114 0.844177
0.847443 0.849274 0.845825
0.867310 0.866882 0.864258
0.928040 0.869934 0.779236
0.935638 0.863251 0.748779
0.915466 0.914276 0.913300
0.915466 0.914276 0.913269
0.915436 0.914246 0.913239
0.915436 0.914246 0.913239
0.919250 0.917542 0.917145
0.930450 0.930206 0.930756
0.950195 0.952271 0.950470
0.976227 0.974609 0.972778
0.975220 0.973022 0.971313
0.915436 0.914246 0.913239
0.915436 0.914246 0.913239
0.915436 0.914246 0.913239
0.915436 0.914246 0.913239
0.918488 0.916840 0.916321
0.929077 0.928375 0.928955
0.947388 0.949982 0.948425
0.976990 0.974487 0.972870
0.979065 0.977600 0.975739
0.000000 0.170715 0.409149
0.000000 0.173370 0.415802
0.000000 0.213684 0.531860
0.406586 0.294678 0.778290
0.687286 0.362366 0.712341
0.986511 0.261475 0.786285
0.997528 0.203430 0.768433
0.998169 0.158783 0.753754
0.997894 0.129456 0.745667
0.000000 0.164215 0.381897
0.000000 0.162537 0.387573
0.000000 0.192810 0.469910
0.347321 0.262085 0.733093
0.646912 0.315948 0.662201
0.972076 0.182465 0.749817
0.997467 0.087036 0.733917
0.997101 0.046082 0.716644
0.997009 0.033936 0.706909
0.000000 0.212128 0.420288
0.000000 0.203247 0.404388
0.000000 0.205017 0.419647
0.091919 0.269714 0.670410
0.576233 0.299530 0.588470
0.941650 0.096527 0.687866
0.996216 0.022888 0.629364
0.996155 0.044556 0.578339
0.995667 0.056915 0.559296
0.000000 0.342926 0.573029
0.000000 0.332733 0.556702
0.000885 0.316833 0.530609
0.031677 0.323853 0.557343
0.517303 0.369843 0.541992
0.889069 0.231689 0.605438
0.993622 0.271545 0.455231
0.992676 0.259430 0.435059
0.991516 0.257172 0.429047
0.536407 0.539825 0.541931
0.528961 0.531067 0.533081
0.510010 0.510803 0.512421
0.490356 0.495178 0.495789
0.486694 0.488312 0.488525
0.740967 0.458679 0.432098
0.978302 0.468323 0.410095
0.992065 0.455414 0.391663
0.992188 0.449646 0.384430
0.721466 0.725250 0.723083
0.714325 0.719208 0.716614
0.701233 0.706604 0.703857
0.691132 0.692291 0.691437
0.687134 0.688873 0.687286
0.703461 0.707001 0.703827
0.947174 0.671844 0.384766
0.994476 0.651276 0.363037
0.994476 0.645203 0.354950
0.871735 0.873810 0.872192
0.867249 0.869354 0.867493
0.859497 0.861664 0.859344
0.846161 0.849121 0.846588
0.837585 0.840942 0.838104
0.840851 0.843872 0.840790
0.861908 0.861969 0.859497
0.949188 0.858734 0.713593
0.956055 0.852112 0.683563
0.916199 0.915100 0.914673
0.916168 0.915039 0.914581
0.916077 0.914948 0.914429
0.915985 0.914825 0.914215
0.919373 0.917786 0.917664
0.930267 0.930054 0.930817
0.949463 0.951721 0.950104
0.974792 0.973145 0.971375
0.974091 0.971710 0.970093
0.916046 0.914917 0.914398
0.916016 0.914856 0.914307
0.915955 0.914795 0.914185
0.915833 0.914703 0.914032
0.918549 0.916992 0.916687
0.928833 0.928162 0.928864
0.946686 0.949402 0.947998
0.976685 0.974091 0.972534
0.979126 0.977692 0.975861
0.000000 0.241302 0.563110
0.000000 0.245697 0.572693
0.000305 0.281860 0.648804
0.114105 0.411560 0.896729
0.757294 0.630707 0.970428
0.913666 0.722809 0.942413
0.947266 0.694061 0.942017
0.948669 0.685577 0.940216
0.949646 0.672028 0.937195
0.000000 0.242340 0.551361
0.000000 0.241302 0.555847
0.000000 0.267090 0.620789
0.006500 0.363220 0.837585
0.705261 0.578583 0.955658
0.891205 0.693665 0.929779
0.950989 0.653320 0.933014
0.952942 0.626587 0.927032
0.954681 0.612854 0.923706
0.000000 0.268677 0.530640
0.000000 0.260040 0.516479
0.000000 0.267670 0.559357
0.001312 0.334991 0.734863
0.592407 0.499023 0.923920
0.845306 0.614868 0.890503
0.965149 0.551331 0.907318
0.970856 0.513428 0.897949
0.972961 0.498322 0.894073
0.000000 0.390900 0.703308
0.000000 0.380066 0.687958
0.000000 0.364410 0.669922
0.000000 0.378265 0.705505
0.361694 0.492218 0.886841
0.792480 0.587524 0.842926
0.981232 0.504272 0.877563
0.986969 0.459595 0.863373
0.987396 0.445190 0.857391
0.000000 0.555695 0.829102
0.000000 0.547760 0.821381
0.000000 0.529449 0.805389
0.020508 0.522736 0.808777
0.279053 0.550293 0.831787
0.756042 0.634918 0.827728
0.979889 0.550262 0.848755
0.993866 0.496735 0.809723
0.994690 0.478638 0.796936
0.725769 0.730774 0.731232
0.717712 0.724365 0.723999
0.706879 0.711609 0.712433
0.694092 0.696381 0.698639
0.685822 0.688171 0.691559
0.687408 0.689392 0.688782
0.906189 0.647064 0.628357
0.990753 0.630157 0.602905
0.991699 0.624146 0.596130
0.869995 0.872345 0.871674
0.865753 0.867584 0.866882
0.857422 0.859344 0.858398
0.842529 0.846375 0.844971
0.834717 0.837189 0.836090
0.836487 0.839386 0.837738
0.857269 0.857666 0.856140
0.988190 0.839386 0.632080
0.989655 0.833679 0.622833
0.919006 0.917786 0.918701
0.918823 0.917603 0.918457
0.918549 0.917328 0.918091
0.918182 0.916992 0.917603
0.920837 0.919403 0.920288
0.930939 0.931396 0.932831
0.949646 0.951752 0.950653
0.974274 0.972931 0.971588
0.973969 0.971649 0.970520
0.918457 0.917236 0.917938
0.918304 0.917084 0.917755
0.918091 0.916901 0.917480
0.917755 0.916595 0.917053
0.919830 0.918427 0.919098
0.929352 0.929199 0.930603
0.947449 0.950317 0.949310
0.977173 0.975067 0.973846
0.979858 0.979187 0.977570
0.000000 0.242706 0.565857
0.000000 0.247162 0.575836
0.000214 0.283661 0.652069
0.058044 0.404358 0.882965
0.726959 0.639709 0.984558
0.897888 0.737885 0.945374
0.926086 0.736389 0.948792
0.926086 0.736389 0.948792
0.926086 0.736389 0.948792
0.000000 0.246613 0.564941
0.000000 0.246063 0.567505
0.000000 0.273438 0.633698
0.000580 0.363800 0.823608
0.662048 0.614990 0.990417
0.889526 0.728424 0.948944
0.926086 0.736389 0.948792
0.926086 0.736389 0.948792
0.926086 0.736389 0.948792
0.000000 0.280914 0.559906
0.000000 0.277466 0.558319
0.000000 0.287201 0.600281
0.000458 0.353363 0.760071
0.516479 0.579163 0.990570
0.871216 0.712250 0.960663
0.927277 0.738525 0.948792
0.927002 0.737183 0.948822
0.926819 0.736877 0.948822
0.000000 0.404022 0.726624
0.000000 0.396271 0.717224
0.000000 0.384521 0.705017
0.000000 0.399658 0.735870
0.264160 0.528778 0.928619
0.820801 0.716858 0.975616
0.919342 0.759857 0.948853
0.923218 0.754700 0.948761
0.924438 0.753143 0.948792
0.116913 0.584900 0.908203
0.094299 0.577667 0.902679
0.044586 0.561615 0.890106
0.045410 0.555634 0.887390
0.176636 0.580566 0.918640
0.663452 0.728241 0.994873
0.913239 0.794861 0.951965
0.930511 0.783936 0.949310
0.932312 0.779999 0.949005
0.383514 0.740051 0.976807
0.369537 0.733307 0.972565
0.342651 0.720398 0.964478
0.326691 0.708710 0.961487
0.432648 0.723480 0.982178
0.588959 0.757812 0.988190
0.902466 0.835449 0.966919
0.942352 0.834015 0.956024
0.945068 0.827789 0.955353
0.877167 0.879578 0.882965
0.873138 0.874878 0.878571
0.864014 0.866608 0.869537
0.850342 0.854126 0.855957
0.840393 0.843842 0.846191
0.839142 0.843384 0.848480
0.851532 0.851868 0.851929
0.980286 0.818237 0.807068
0.980133 0.811890 0.799774
0.926819 0.926727 0.929535
0.926514 0.926331 0.929077
0.926056 0.925751 0.928436
0.925354 0.924866 0.927429
0.927002 0.926849 0.929382
0.935333 0.938019 0.939880
0.953217 0.954376 0.954010
0.975861 0.974854 0.974243
0.976196 0.974213 0.973724
0.925903 0.925537 0.928192
0.925598 0.925140 0.927765
0.925171 0.924622 0.927155
0.924561 0.923859 0.926270
0.925751 0.925232 0.927612
0.933441 0.935455 0.937500
0.952148 0.954285 0.953583
0.979187 0.978577 0.977631
0.981506 0.982727 0.981476
0.000000 0.242706 0.565857
0.000000 0.246735 0.574982
0.000153 0.282349 0.649841
0.031250 0.398102 0.876251
0.719696 0.636627 0.985138
0.896667 0.736847 0.945740
0.926086 0.736389 0.948792
0.926086 0.736389 0.948792
0.926086 0.736389 0.948792
0.000000 0.246216 0.566284
0.000000 0.245361 0.567169
0.000000 0.272430 0.631866
0.000061 0.360992 0.817993
0.653290 0.611847 0.991241
0.888245 0.726379 0.949799
0.926086 0.736389 0.948792
0.926086 0.736389 0.948792
0.926086 0.736389 0.948792
0.000000 0.279236 0.558685
0.000000 0.276123 0.558075
0.000000 0.284912 0.598053
0.000549 0.350494 0.755524
0.504944 0.574432 0.991241
0.869232 0.710022 0.961792
0.927185 0.738068 0.948792
0.926788 0.736938 0.948822
0.926575 0.736755 0.948822
0.000000 0.399261 0.720825
0.000000 0.391266 0.711029
0.000000 0.379120 0.697357
0.000000 0.393555 0.727173
0.247284 0.520966 0.923370
0.813843 0.712921 0.977539
0.917267 0.759705 0.948730
0.919952 0.756714 0.948578
0.920410 0.755554 0.948547
0.098389 0.578979 0.903717
0.076324 0.571869 0.898224
0.026398 0.555847 0.885803
0.030975 0.549316 0.882111
0.156128 0.574615 0.914276
0.629669 0.718842 0.995605
0.904419 0.797943 0.954712
0.918945 0.796753 0.950989
0.919434 0.794769 0.950775
0.388184 0.737671 0.979431
0.378265 0.731598 0.976501
0.359558 0.720154 0.970978
0.357727 0.711090 0.972961
0.454468 0.726288 0.995087
0.520935 0.746643 0.996216
0.872772 0.837097 0.977142
0.922913 0.851227 0.964417
0.923065 0.849457 0.964386
0.835510 0.904694 0.992767
0.821106 0.898590 0.993378
0.796600 0.888184 0.994415
0.749817 0.871216 0.994385
0.690826 0.854218 0.991882
0.717163 0.857849 0.993225
0.831268 0.889435 0.990936
0.934113 0.914673 0.972015
0.933105 0.912262 0.971588
0.934448 0.938629 0.943634
0.934448 0.938629 0.943634
0.934448 0.938629 0.943634
0.934448 0.938629 0.943634
0.936279 0.940826 0.945404
0.945312 0.950470 0.954010
0.960968 0.962860 0.968048
0.979095 0.978668 0.978729
0.984619 0.974365 0.974487
0.934448 0.938629 0.943634
0.934448 0.938629 0.943634
0.934448 0.938629 0.943634
0.934448 0.938629 0.943634
0.935486 0.939789 0.944366
0.943085 0.947876 0.950897
0.963226 0.962219 0.962860
0.981995 0.984070 0.983459
0.983734 0.987274 0.987000
0.000000 0.242706 0.565857
0.000000 0.246552 0.574585
0.000122 0.281677 0.648682
0.023376 0.394958 0.872070
0.715851 0.634979 0.985443
0.896057 0.736115 0.946014
0.926086 0.736389 0.948792
0.926086 0.736389 0.948792
0.926086 0.736389 0.948792
0.000000 0.245941 0.566254
0.000000 0.244995 0.566986
0.000000 0.271912 0.630707
0.000092 0.359589 0.814880
0.648865 0.610260 0.991669
0.887604 0.725372 0.950226
0.926086 0.736389 0.948792
0.926086 0.736389 0.948792
0.926086 0.736389 0.948792
0.000000 0.278503 0.558533
0.000000 0.275421 0.557953
0.000000 0.283966 0.597198
0.000610 0.349121 0.753387
0.499725 0.572357 0.991547
0.868378 0.709076 0.962250
0.927155 0.737915 0.948822
0.926727 0.736877 0.948822
0.926483 0.736694 0.948792
0.000000 0.397186 0.718323
0.000000 0.389343 0.708496
0.000000 0.376984 0.694305
0.000000 0.391296 0.723969
0.239746 0.517609 0.921143
0.811127 0.711456 0.977722
0.916992 0.759369 0.948700
0.920105 0.756317 0.948578
0.920563 0.755127 0.948547
0.091827 0.576874 0.902069
0.068817 0.569458 0.896362
0.020050 0.553802 0.884216
0.026123 0.546967 0.880066
0.148315 0.572235 0.912567
0.626007 0.717224 0.995483
0.903961 0.797058 0.954865
0.919098 0.796112 0.950928
0.919586 0.794128 0.950714
0.385284 0.735901 0.978577
0.375366 0.729828 0.975647
0.356781 0.718445 0.970154
0.354309 0.709167 0.972107
0.451782 0.724823 0.995026
0.516449 0.744507 0.996063
0.870972 0.835999 0.977295
0.922974 0.850616 0.964417
0.923126 0.848846 0.964355
0.831207 0.902863 0.992950
0.816254 0.896515 0.993591
0.791992 0.886230 0.994598
0.743347 0.869202 0.994141
0.683960 0.852142 0.991760
0.713409 0.856323 0.992889
0.828613 0.887695 0.990906
0.933746 0.913849 0.971863
0.932739 0.911407 0.971436
0.934448 0.938629 0.943634
0.934448 0.938629 0.943634
0.934448 0.938629 0.943634
0.934448 0.938629 0.943634
0.936218 0.940765 0.945343
0.944550 0.950348 0.955078
0.961761 0.966461 0.979279
0.976501 0.979340 0.985901
0.979950 0.978882 0.985413
0.934448 0.938629 0.943634
0.934448 0.938629 0.943634
0.934448 0.938629 0.943634
0.934448 0.938629 0.943634
0.935760 0.940216 0.944916
0.943756 0.948944 0.952484
0.964325 0.964905 0.969696
0.981995 0.985291 0.986176
0.984283 0.988220 0.988220
