nova/tdt-studio/app/Lut_mau/IWLTBAP/1 - LUTs by IWLTBAP (CUBE)/02 - Generic LOG/Psychedelia/Adoras - LOG.cube
# Copyright: (C) Copyright 2010-2018 by IWLTBAP SAS
# Cannot be resold, shared or otherwise redistributed
# Website: https://luts.iwltbap.com
TITLE "IWLTBAP Adoras (Generic LOG)"
LUT_3D_SIZE 33
0.000000 0.000000 0.000000
0.000000 0.000000 0.000000
0.000610 0.000000 0.000000
0.010010 0.000824 0.000000
0.031433 0.003479 0.000000
0.066315 0.006195 0.002472
0.105042 0.010468 0.004242
0.149017 0.016815 0.003510
0.195618 0.023285 0.000885
0.253052 0.038696 0.000519
0.311066 0.052856 0.000641
0.372192 0.069244 0.000671
0.436096 0.089752 0.000702
0.502319 0.109650 0.000702
0.571198 0.127625 0.000702
0.643158 0.149445 0.000641
0.716156 0.171906 0.000763
0.793304 0.193817 0.000885
0.861023 0.223480 0.003326
0.924866 0.253906 0.012665
0.965240 0.276428 0.029755
0.981964 0.287720 0.047241
0.981964 0.287720 0.047241
0.981964 0.287720 0.047241
0.981964 0.287720 0.047241
0.981964 0.287720 0.047241
0.981964 0.287720 0.047241
0.981964 0.287720 0.047241
0.981964 0.287720 0.047241
0.981964 0.287720 0.047241
0.981964 0.287720 0.047241
0.981964 0.287720 0.047241
0.981964 0.287720 0.047241
0.000000 0.000000 0.000000
0.000000 0.000000 0.000000
0.000000 0.000000 0.000000
0.006134 0.000305 0.000000
0.026031 0.002808 0.000000
0.058624 0.005585 0.001892
0.097931 0.009491 0.004120
0.141327 0.015930 0.003967
0.187286 0.022003 0.001343
0.243927 0.036072 0.000488
0.302124 0.050812 0.000641
0.363434 0.066589 0.000671
0.427185 0.086884 0.000702
0.493561 0.107361 0.000702
0.562042 0.125061 0.000702
0.634399 0.146759 0.000641
0.707153 0.169159 0.000763
0.784821 0.191437 0.000885
0.854187 0.219696 0.002838
0.918335 0.250824 0.011139
0.963135 0.275116 0.028381
0.980682 0.286865 0.045898
0.981964 0.287720 0.047241
0.981964 0.287720 0.047241
0.981964 0.287720 0.047241
0.981964 0.287720 0.047241
0.981964 0.287720 0.047241
0.981964 0.287720 0.047241
0.981964 0.287720 0.047241
0.981964 0.287720 0.047241
0.981964 0.287720 0.047241
0.981964 0.287720 0.047241
0.981964 0.287720 0.047241
0.000885 0.001526 0.001495
0.000763 0.001312 0.001312
0.001038 0.001587 0.001770
0.004059 0.000580 0.000000
0.022217 0.003601 0.000397
0.052460 0.005920 0.001343
0.090485 0.008453 0.003967
0.133728 0.014801 0.004120
0.178955 0.020691 0.001801
0.234436 0.033356 0.000427
0.293457 0.048828 0.000641
0.354248 0.063812 0.000641
0.418243 0.083984 0.000702
0.484253 0.104797 0.000702
0.553284 0.122803 0.000702
0.625549 0.144012 0.000641
0.698456 0.166504 0.000793
0.775574 0.188843 0.000885
0.847168 0.215790 0.002380
0.911713 0.247681 0.009613
0.960876 0.273712 0.027130
0.979034 0.285767 0.044189
0.981964 0.287720 0.047241
0.981964 0.287720 0.047241
0.981964 0.287720 0.047241
0.981964 0.287720 0.047241
0.981964 0.287720 0.047241
0.981964 0.287720 0.047241
0.981964 0.287720 0.047241
0.981964 0.287720 0.047241
0.981964 0.287720 0.047241
0.981964 0.287720 0.047241
0.981964 0.287720 0.047241
0.006226 0.007080 0.007416
0.005676 0.006531 0.006836
0.005585 0.006317 0.006561
0.006989 0.007660 0.007812
0.018524 0.006287 0.001465
0.048706 0.011383 0.001770
0.085052 0.013855 0.001953
0.126892 0.019653 0.002747
0.170898 0.025024 0.001892
0.222961 0.034027 0.000549
0.280640 0.047974 0.000610
0.340790 0.059723 0.000641
0.404541 0.079590 0.000702
0.470520 0.100555 0.000702
0.539062 0.119171 0.000702
0.611115 0.139587 0.000671
0.683746 0.161987 0.000793
0.760803 0.184692 0.000854
0.834503 0.209717 0.001801
0.899658 0.242249 0.007690
0.955139 0.270203 0.024017
0.976837 0.284271 0.041901
0.981964 0.287720 0.047241
0.981964 0.287720 0.047241
0.981964 0.287720 0.047241
0.981964 0.287720 0.047241
0.981964 0.287720 0.047241
0.981964 0.287720 0.047241
0.981964 0.287720 0.047241
0.981964 0.287720 0.047241
0.981964 0.287720 0.047241
0.981964 0.287720 0.047241
0.981964 0.287720 0.047241
0.020813 0.021210 0.021088
0.019592 0.020050 0.019989
0.018402 0.018860 0.018890
0.018494 0.019043 0.019135
0.020996 0.021851 0.021729
0.041931 0.022339 0.010406
0.080933 0.025757 0.001465
0.122345 0.031189 0.000275
0.166412 0.038452 0.000946
0.215424 0.045502 0.000519
0.268646 0.056946 0.000610
0.328522 0.069946 0.000580
0.389832 0.083160 0.000641
0.456543 0.100250 0.000671
0.524689 0.117889 0.000671
0.596313 0.135101 0.000671
0.668915 0.157410 0.000732
0.745453 0.180359 0.000824
0.821259 0.203979 0.001373
0.887360 0.236786 0.005951
0.947876 0.265747 0.020050
0.973755 0.282166 0.038635
0.981964 0.287720 0.047241
0.981964 0.287720 0.047241
0.981964 0.287720 0.047241
0.981964 0.287720 0.047241
0.981964 0.287720 0.047241
0.981964 0.287720 0.047241
0.981964 0.287720 0.047241
0.981964 0.287720 0.047241
0.981964 0.287720 0.047241
0.981964 0.287720 0.047241
0.981964 0.287720 0.047241
0.043365 0.045563 0.045380
0.041992 0.044037 0.043854
0.040405 0.042297 0.042084
0.039368 0.040833 0.040588
0.040466 0.041656 0.041351
0.044006 0.045197 0.045013
0.069153 0.045715 0.020081
0.115173 0.049530 0.000000
0.161011 0.055939 0.000061
0.208832 0.063171 0.000641
0.259003 0.071259 0.000580
0.316864 0.083649 0.000610
0.376526 0.096313 0.000580
0.441162 0.108307 0.000641
0.509857 0.125153 0.000641
0.579163 0.143494 0.000641
0.652069 0.161713 0.000824
0.729401 0.182709 0.000824
0.807037 0.201385 0.000916
0.873383 0.232147 0.004059
0.936920 0.260559 0.015259
0.970551 0.279999 0.035278
0.981964 0.287720 0.047241
0.981964 0.287720 0.047241
0.981964 0.287720 0.047241
0.981964 0.287720 0.047241
0.981964 0.287720 0.047241
0.981964 0.287720 0.047241
0.981964 0.287720 0.047241
0.981964 0.287720 0.047241
0.981964 0.287720 0.047241
0.981964 0.287720 0.047241
0.981964 0.287720 0.047241
0.080688 0.080017 0.079712
0.078705 0.077759 0.077515
0.076569 0.075867 0.075623
0.072815 0.072479 0.072235
0.071930 0.072266 0.071991
0.072876 0.073608 0.073212
0.077026 0.078033 0.077515
0.102264 0.076416 0.025848
0.152832 0.078644 0.000763
0.201965 0.084656 0.000793
0.251160 0.090759 0.000793
0.307709 0.098969 0.000641
0.367645 0.110962 0.000610
0.429413 0.123474 0.000641
0.495056 0.135498 0.000671
0.563110 0.151520 0.000702
0.635284 0.168060 0.000763
0.714569 0.189636 0.000946
0.791870 0.206879 0.000946
0.861450 0.232025 0.002777
0.924957 0.260406 0.011627
0.966370 0.282166 0.030090
0.982849 0.291962 0.047852
0.982635 0.290955 0.047699
0.982422 0.289856 0.047546
0.982330 0.289459 0.047485
0.982239 0.289062 0.047424
0.982178 0.288727 0.047394
0.982086 0.288330 0.047333
0.981995 0.287933 0.047272
0.981964 0.287720 0.047241
0.981964 0.287720 0.047241
0.981964 0.287720 0.047241
0.116119 0.118134 0.117401
0.114166 0.116455 0.115631
0.111847 0.114410 0.113464
0.107635 0.110748 0.109650
0.105255 0.107910 0.106812
0.106140 0.107788 0.106812
0.108734 0.109741 0.108856
0.114197 0.115082 0.114624
0.137360 0.110657 0.068115
0.190613 0.112823 0.001892
0.243500 0.117432 0.000031
0.299927 0.123230 0.000214
0.357941 0.132538 0.000641
0.419769 0.142517 0.000702
0.481628 0.154266 0.000702
0.548126 0.164398 0.000763
0.619293 0.178894 0.000793
0.698151 0.199829 0.000763
0.776001 0.219574 0.001038
0.848938 0.236755 0.001434
0.912598 0.262451 0.007294
0.962280 0.286255 0.028107
0.984436 0.299225 0.048248
0.984070 0.297455 0.048126
0.983734 0.295959 0.048035
0.983521 0.294983 0.048004
0.983398 0.294373 0.047974
0.983276 0.293854 0.047943
0.983154 0.293304 0.047913
0.983032 0.292755 0.047882
0.982910 0.292175 0.047852
0.982910 0.292145 0.047852
0.982910 0.292145 0.047852
0.158783 0.159576 0.158508
0.157166 0.157715 0.156799
0.155548 0.155884 0.155090
0.152100 0.151917 0.151489
0.148346 0.147644 0.147522
0.146851 0.145966 0.146210
0.145966 0.145996 0.145813
0.147461 0.148376 0.147675
0.153656 0.154846 0.153473
0.173676 0.151154 0.116852
0.229340 0.146851 0.009552
0.290802 0.152679 0.001068
0.348602 0.160919 0.000671
0.409668 0.165802 0.000702
0.471466 0.174988 0.000671
0.536621 0.186859 0.000671
0.606873 0.198700 0.000854
0.682190 0.215179 0.000793
0.760468 0.234314 0.000824
0.834106 0.249176 0.001160
0.899200 0.268768 0.004974
0.954346 0.291626 0.022400
0.986389 0.309662 0.049194
0.986023 0.307465 0.048981
0.985657 0.305298 0.048767
0.985352 0.303436 0.048584
0.985199 0.302704 0.048523
0.985046 0.302032 0.048462
0.984894 0.301361 0.048431
0.984741 0.300629 0.048370
0.984589 0.299927 0.048309
0.984589 0.299866 0.048309
0.984589 0.299835 0.048309
0.203491 0.203094 0.202484
0.201569 0.201416 0.200684
0.199646 0.199707 0.198853
0.195801 0.196320 0.195190
0.191345 0.192413 0.191010
0.187836 0.189453 0.187744
0.186432 0.188293 0.186310
0.187531 0.188812 0.186920
0.191711 0.191650 0.190491
0.197296 0.196960 0.196198
0.207947 0.195923 0.176117
0.268890 0.184601 0.022827
0.334290 0.191223 0.002869
0.400696 0.197174 0.000000
0.463318 0.203491 0.000427
0.528534 0.215088 0.000732
0.596741 0.224915 0.000885
0.669556 0.238861 0.000916
0.743011 0.253296 0.000732
0.821350 0.268311 0.001099
0.885620 0.281128 0.001770
0.948456 0.302704 0.016052
0.983887 0.320923 0.046539
0.987579 0.321259 0.050446
0.987366 0.318756 0.050171
0.987152 0.316345 0.049896
0.987061 0.315216 0.049774
0.986969 0.314148 0.049652
0.986877 0.312988 0.049530
0.986755 0.311981 0.049408
0.986603 0.311066 0.049316
0.986603 0.311035 0.049316
0.986603 0.310974 0.049316
0.243683 0.246613 0.244049
0.241699 0.244812 0.242096
0.240112 0.243073 0.240448
0.237122 0.239624 0.237274
0.233978 0.235992 0.233948
0.230682 0.232056 0.230316
0.228821 0.229675 0.228271
0.227722 0.228180 0.227051
0.227783 0.228516 0.227417
0.229065 0.231628 0.229736
0.236206 0.238556 0.236237
0.250366 0.247314 0.242126
0.312439 0.224915 0.031006
0.385498 0.229980 0.003693
0.453766 0.238922 0.000854
0.522614 0.248199 0.000916
0.590363 0.254822 0.000916
0.660034 0.264923 0.001068
0.732361 0.278503 0.000916
0.806396 0.288727 0.000916
0.874298 0.301270 0.001038
0.939056 0.316528 0.007812
0.980682 0.334839 0.040863
0.988007 0.338196 0.051758
0.987915 0.334930 0.051422
0.987854 0.332001 0.051239
0.987823 0.330719 0.051147
0.987823 0.329498 0.051056
0.987793 0.328186 0.050995
0.987762 0.326965 0.050903
0.987762 0.325745 0.050812
0.987762 0.325684 0.050812
0.987762 0.325623 0.050812
0.293304 0.295563 0.293579
0.291840 0.293793 0.291992
0.290375 0.292084 0.290466
0.287659 0.288849 0.287537
0.284668 0.285278 0.284332
0.280273 0.280457 0.279755
0.276215 0.277069 0.276001
0.272888 0.274414 0.273010
0.271149 0.273315 0.271454
0.272552 0.274475 0.272430
0.278137 0.278534 0.277008
0.285095 0.285583 0.284760
0.291687 0.295837 0.293243
0.361359 0.267517 0.069031
0.434540 0.274689 0.008850
0.510101 0.284058 0.000702
0.583130 0.290588 0.000366
0.653046 0.297974 0.001099
0.722748 0.308136 0.000885
0.794769 0.317261 0.000702
0.863983 0.327087 0.001373
0.931976 0.337952 0.001099
0.978882 0.353088 0.027985
0.989014 0.360168 0.052277
0.989105 0.356781 0.053253
0.988647 0.352539 0.053070
0.988434 0.350433 0.052979
0.988342 0.348877 0.052856
0.988281 0.347473 0.052704
0.988251 0.345886 0.052551
0.988190 0.344452 0.052399
0.988190 0.344360 0.052368
0.988190 0.344269 0.052368
0.344147 0.344696 0.343414
0.341949 0.342834 0.341370
0.339417 0.340668 0.338989
0.335358 0.337250 0.335205
0.331299 0.333832 0.331451
0.325836 0.329224 0.326385
0.320343 0.324677 0.321259
0.316345 0.321228 0.317261
0.315460 0.319397 0.315735
0.316223 0.319000 0.316010
0.318787 0.320801 0.318390
0.322510 0.325317 0.322815
0.329376 0.332245 0.329163
0.344696 0.343445 0.341400
0.409607 0.313141 0.129700
0.488220 0.321350 0.015381
0.567200 0.329681 0.001984
0.645660 0.335785 0.000702
0.714691 0.343109 0.000580
0.785187 0.349609 0.000366
0.854553 0.358795 0.001495
0.922333 0.368866 0.003815
0.975769 0.376740 0.012665
0.990448 0.385040 0.046814
0.992004 0.383026 0.053833
0.991486 0.378540 0.053802
0.991150 0.375641 0.053772
0.990936 0.373718 0.053772
0.990723 0.371796 0.053741
0.990509 0.369720 0.053741
0.990295 0.367798 0.053711
0.990265 0.367676 0.053711
0.990265 0.367584 0.053711
0.392639 0.397064 0.394226
0.390320 0.395111 0.392181
0.388062 0.393188 0.390198
0.385437 0.390167 0.387329
0.382355 0.386414 0.383881
0.378662 0.381958 0.379730
0.374756 0.377167 0.375305
0.371613 0.373138 0.371643
0.369446 0.370148 0.369110
0.368378 0.368530 0.368042
0.367340 0.368195 0.367828
0.367828 0.370148 0.368652
0.372955 0.375092 0.373047
0.381958 0.382996 0.381348
0.392548 0.393982 0.391327
0.460114 0.365540 0.188446
0.538330 0.369659 0.020966
0.627045 0.378204 0.002228
0.710297 0.383698 0.000183
0.777832 0.388428 0.000244
0.843475 0.395203 0.000275
0.909424 0.400879 0.003387
0.969849 0.406830 0.004913
0.989410 0.412354 0.037018
0.992493 0.411987 0.051971
0.992950 0.407562 0.053284
0.992889 0.404480 0.053375
0.992828 0.402313 0.053436
0.992767 0.400330 0.053497
0.992737 0.398346 0.053558
0.992706 0.396362 0.053619
0.992676 0.396271 0.053619
0.992676 0.396179 0.053619
0.450134 0.450928 0.448975
0.448456 0.448944 0.447052
0.446533 0.446686 0.444885
0.443909 0.443604 0.441925
0.441315 0.440552 0.438965
0.437439 0.436035 0.434601
0.432587 0.430786 0.429474
0.427002 0.426147 0.424591
0.422516 0.422485 0.420807
0.418610 0.419495 0.417542
0.416626 0.418304 0.415894
0.416718 0.418518 0.415619
0.421295 0.421173 0.418518
0.428955 0.427216 0.425842
0.435669 0.435028 0.433624
0.447113 0.446167 0.442810
0.509888 0.419159 0.253998
0.595154 0.420654 0.027985
0.685120 0.428223 0.003418
0.768005 0.432098 0.000000
0.834564 0.435272 0.000031
0.895905 0.437256 0.000732
0.957153 0.438721 0.004822
0.989838 0.442322 0.030334
0.991241 0.441101 0.047058
0.991760 0.437195 0.051575
0.991730 0.433411 0.051483
0.991730 0.431213 0.051453
0.991730 0.429016 0.051392
0.991791 0.426758 0.051483
0.991913 0.424805 0.051666
0.991913 0.424713 0.051666
0.991943 0.424591 0.051666
0.506104 0.506287 0.503601
0.503967 0.504364 0.501648
0.501862 0.502441 0.499756
0.498932 0.499786 0.497070
0.495483 0.496643 0.493958
0.490234 0.491882 0.489197
0.484894 0.487000 0.484344
0.479004 0.481659 0.479004
0.473907 0.477325 0.474487
0.469849 0.473907 0.470764
0.468536 0.471771 0.468719
0.468781 0.470703 0.467987
0.470764 0.471649 0.469421
0.473602 0.474670 0.472565
0.477844 0.480774 0.477661
0.486267 0.488831 0.484955
0.501495 0.500732 0.498199
0.559753 0.476715 0.329865
0.649200 0.472168 0.054657
0.740082 0.478821 0.005249
0.822327 0.479614 0.000641
0.885620 0.479431 0.000458
0.945282 0.477753 0.007080
0.990082 0.479004 0.033051
0.993805 0.477753 0.053589
0.993774 0.473175 0.058807
0.993347 0.468262 0.057343
0.993134 0.465485 0.056519
0.992889 0.462952 0.055756
0.992676 0.460449 0.054993
0.992462 0.457947 0.054260
0.992462 0.457825 0.054230
0.992462 0.457703 0.054169
0.558563 0.561371 0.559479
0.556671 0.559479 0.557709
0.554810 0.557617 0.555969
0.552185 0.554962 0.553497
0.549347 0.552155 0.550873
0.545013 0.547699 0.546570
0.540619 0.542938 0.541595
0.535431 0.537323 0.535767
0.531097 0.532562 0.530792
0.527649 0.528564 0.526581
0.525482 0.525452 0.523499
0.525177 0.523773 0.522186
0.524994 0.523468 0.522186
0.524902 0.524780 0.523315
0.527649 0.528442 0.526520
0.534607 0.534637 0.532776
0.544067 0.543396 0.542236
0.552338 0.555084 0.553497
0.604767 0.532806 0.412476
0.706024 0.522858 0.115540
0.788361 0.526001 0.022644
0.864899 0.524261 0.007507
0.931274 0.521545 0.004517
0.991699 0.518250 0.030396
0.996460 0.516083 0.063385
0.996155 0.512726 0.074524
0.996094 0.507385 0.072876
0.996063 0.504883 0.072083
0.995941 0.502258 0.071106
0.995728 0.499542 0.069916
0.995514 0.496643 0.068665
0.995514 0.496521 0.068604
0.995514 0.496399 0.068542
0.613739 0.614288 0.613037
0.611877 0.612549 0.611145
0.609924 0.610748 0.609222
0.607574 0.608582 0.606873
0.604645 0.605896 0.603943
0.600372 0.601959 0.599670
0.595795 0.597748 0.595123
0.590424 0.592773 0.589722
0.585419 0.588104 0.584656
0.581543 0.583984 0.580719
0.578125 0.580261 0.577423
0.575562 0.577698 0.575195
0.573425 0.576141 0.573700
0.572662 0.576263 0.573608
0.573700 0.577820 0.574432
0.580597 0.582123 0.578979
0.588440 0.588257 0.586029
0.595856 0.596313 0.594238
0.608185 0.607330 0.604950
0.648621 0.590668 0.498260
0.754883 0.572357 0.156433
0.832001 0.570282 0.048309
0.907990 0.568054 0.034973
0.978699 0.563660 0.044037
0.999756 0.556976 0.070648
0.996216 0.551117 0.087921
0.996277 0.545319 0.085754
0.996277 0.542450 0.084686
0.996307 0.539856 0.083710
0.996338 0.537170 0.082703
0.996338 0.534637 0.081757
0.996338 0.534485 0.081696
0.996338 0.534393 0.081665
0.658295 0.662018 0.658447
0.656464 0.660461 0.656769
0.654602 0.658905 0.655090
0.652161 0.656891 0.652893
0.649597 0.654755 0.650604
0.646484 0.651184 0.647369
0.643463 0.647583 0.644135
0.639648 0.642975 0.640045
0.635925 0.638550 0.636108
0.632568 0.634430 0.632507
0.629425 0.630768 0.629333
0.626892 0.628143 0.627075
0.624023 0.625916 0.624420
0.623077 0.625092 0.622986
0.624115 0.625397 0.623199
0.626984 0.627350 0.625580
0.630585 0.631409 0.629913
0.634186 0.637482 0.634857
0.642365 0.644745 0.641357
0.654419 0.654968 0.652069
0.688721 0.649475 0.583679
0.797516 0.621368 0.246429
0.875549 0.614655 0.097107
0.951599 0.612457 0.093506
0.994263 0.605255 0.101440
0.995300 0.596863 0.111450
0.995453 0.589844 0.106903
0.995575 0.585693 0.104248
0.995636 0.582397 0.102570
0.995697 0.579437 0.101135
0.995758 0.576538 0.099731
0.995758 0.576385 0.099670
0.995758 0.576233 0.099609
0.701965 0.706268 0.701935
0.700928 0.704865 0.700684
0.699829 0.703430 0.699432
0.698517 0.701660 0.697876
0.696991 0.699646 0.696106
0.694855 0.696777 0.693634
0.692535 0.693695 0.690918
0.689606 0.689758 0.687469
0.686768 0.685944 0.684174
0.681885 0.681763 0.679718
0.676849 0.677704 0.675232
0.672791 0.674377 0.671570
0.669678 0.671753 0.668549
0.668579 0.670441 0.667023
0.669495 0.670135 0.666962
0.671387 0.671021 0.668457
0.672913 0.672913 0.670410
0.676605 0.677002 0.674042
0.683228 0.682617 0.679749
0.691803 0.689941 0.687836
0.698273 0.698883 0.695587
0.724762 0.697479 0.643677
0.837006 0.667511 0.335663
0.917633 0.659058 0.144226
0.980988 0.654205 0.146301
0.994507 0.646454 0.151367
0.994690 0.639160 0.145508
0.994720 0.634308 0.140900
0.994720 0.630829 0.137573
0.994751 0.627655 0.134552
0.994781 0.624451 0.131500
0.994781 0.624329 0.131409
0.994781 0.624176 0.131256
0.746094 0.746735 0.743896
0.744904 0.745392 0.742584
0.743683 0.744019 0.741241
0.742126 0.742310 0.739594
0.740356 0.740387 0.737671
0.737030 0.737701 0.734741
0.733765 0.735046 0.731812
0.729523 0.731598 0.728027
0.724884 0.727844 0.723907
0.720123 0.723969 0.719666
0.715637 0.720428 0.715668
0.711578 0.717346 0.712128
0.708923 0.714417 0.709320
0.708038 0.712219 0.707703
0.707886 0.711029 0.707001
0.708252 0.710907 0.707123
0.708862 0.712097 0.707977
0.709473 0.714386 0.709137
0.714966 0.718353 0.713593
0.722321 0.723541 0.719757
0.729279 0.730347 0.726410
0.739441 0.739136 0.735687
0.763031 0.740814 0.704163
0.869934 0.711487 0.418518
0.953400 0.700165 0.192993
0.990265 0.694458 0.199432
0.993958 0.687897 0.196198
0.994232 0.682892 0.190857
0.994324 0.679535 0.187286
0.994354 0.676453 0.183990
0.994385 0.673401 0.180756
0.994385 0.673279 0.180603
0.994385 0.673065 0.180420
0.782074 0.786194 0.782257
0.780945 0.784973 0.781067
0.779785 0.783722 0.779877
0.778351 0.782196 0.778381
0.776917 0.780640 0.776886
0.774719 0.778259 0.774597
0.772461 0.775818 0.772247
0.769623 0.772766 0.769257
0.766449 0.769318 0.765961
0.763000 0.765533 0.762268
0.759674 0.761810 0.758606
0.756378 0.758118 0.755005
0.754028 0.755188 0.752228
0.752319 0.752563 0.749878
0.751831 0.750916 0.748657
0.751129 0.749847 0.747742
0.750214 0.750031 0.747345
0.750916 0.751221 0.748260
0.754059 0.753845 0.751007
0.759308 0.758179 0.755737
0.764130 0.764099 0.761169
0.768494 0.770630 0.766663
0.777466 0.778900 0.775146
0.794525 0.779449 0.755249
0.899292 0.758606 0.513245
0.977234 0.741150 0.245026
0.991486 0.734558 0.247192
0.991943 0.729095 0.241272
0.992065 0.726135 0.237915
0.992188 0.723022 0.234406
0.992279 0.720154 0.231171
0.992310 0.719971 0.230988
0.992310 0.719818 0.230835
0.821899 0.821838 0.819672
0.820831 0.820465 0.818420
0.819916 0.819275 0.817322
0.818756 0.817780 0.815979
0.817596 0.816284 0.814575
0.815399 0.814209 0.812439
0.812592 0.811981 0.809967
0.809052 0.809174 0.806854
0.805176 0.806122 0.803467
0.800842 0.802704 0.799683
0.796692 0.799377 0.796021
0.792786 0.796295 0.792572
0.789642 0.793579 0.789642
0.787781 0.791138 0.787415
0.786102 0.789093 0.785492
0.784821 0.787872 0.784180
0.783630 0.787231 0.783234
0.783264 0.787567 0.783234
0.785156 0.788788 0.784637
0.789734 0.791443 0.787964
0.794678 0.795471 0.792206
0.800598 0.800690 0.797668
0.808990 0.807037 0.804688
0.818726 0.815033 0.813354
0.827759 0.822662 0.814362
0.924744 0.802002 0.595398
0.985046 0.787109 0.404449
0.994141 0.778656 0.341827
0.995605 0.774811 0.322784
0.995422 0.771332 0.314148
0.994995 0.768127 0.307831
0.994995 0.767975 0.307526
0.994965 0.767761 0.307129
0.854645 0.856781 0.853546
0.853485 0.855713 0.852448
0.852295 0.854675 0.851349
0.850677 0.853180 0.849854
0.849152 0.851807 0.848450
0.847290 0.850098 0.846710
0.845184 0.848175 0.844757
0.842224 0.845490 0.841980
0.839142 0.842682 0.839142
0.835815 0.839630 0.836029
0.832916 0.836090 0.832733
0.830414 0.832794 0.829712
0.828186 0.829742 0.826965
0.826508 0.827240 0.824768
0.825134 0.825043 0.822876
0.824127 0.823517 0.821564
0.822540 0.822479 0.820251
0.821930 0.822296 0.819794
0.822662 0.822662 0.820160
0.825012 0.824188 0.821869
0.828003 0.827118 0.824860
0.831116 0.831879 0.828888
0.836426 0.837250 0.833923
0.843689 0.843506 0.840424
0.851044 0.851227 0.847839
0.861450 0.859985 0.857056
0.930511 0.843170 0.709137
0.962646 0.835388 0.621155
0.966461 0.831482 0.600739
0.968994 0.828156 0.584808
0.971527 0.824829 0.568878
0.971649 0.824707 0.568237
0.971802 0.824463 0.567139
0.883240 0.886200 0.883545
0.882507 0.885315 0.882690
0.881744 0.884399 0.881866
0.880859 0.883301 0.880859
0.879883 0.882141 0.879791
0.878632 0.880615 0.878387
0.877380 0.879181 0.876984
0.875122 0.876923 0.874603
0.872589 0.874390 0.871948
0.869904 0.871704 0.869110
0.867157 0.868927 0.866211
0.864197 0.865997 0.863098
0.861969 0.863586 0.860596
0.859894 0.861237 0.858185
0.857758 0.859192 0.856171
0.855804 0.857513 0.854401
0.854553 0.856659 0.853394
0.853821 0.856232 0.852753
0.854401 0.856537 0.852966
0.856140 0.857056 0.853882
0.858154 0.858337 0.855499
0.860809 0.861176 0.858276
0.865387 0.865173 0.862457
0.871521 0.869873 0.867767
0.876282 0.875488 0.873505
0.881714 0.882172 0.879700
0.888763 0.889435 0.886688
0.908295 0.885376 0.849487
0.916382 0.881561 0.828278
0.918030 0.879211 0.820068
0.920685 0.876404 0.808685
0.920807 0.876282 0.808105
0.920990 0.876129 0.807373
0.914276 0.913391 0.912262
0.913147 0.912567 0.911316
0.912018 0.911743 0.910339
0.910370 0.910522 0.908966
0.908936 0.909454 0.907745
0.907288 0.908264 0.906372
0.905487 0.906921 0.904846
0.902588 0.904816 0.902405
0.899689 0.902679 0.899933
0.896545 0.900360 0.897278
0.893097 0.897827 0.894379
0.890625 0.895172 0.891815
0.888641 0.892639 0.889496
0.886902 0.890442 0.887482
0.885315 0.888458 0.885712
0.884033 0.887085 0.884430
0.882690 0.886047 0.883392
0.882019 0.885437 0.882599
0.882294 0.885193 0.882355
0.883240 0.885498 0.882812
0.884369 0.886383 0.883820
0.885651 0.888275 0.885559
0.887726 0.890930 0.887787
0.892426 0.894379 0.891388
0.898071 0.898804 0.896179
0.904449 0.904572 0.902222
0.913116 0.910767 0.909088
0.917114 0.913635 0.912628
0.916962 0.913635 0.912598
0.914948 0.912079 0.910767
0.912842 0.910400 0.908813
0.912750 0.910309 0.908722
0.912628 0.910217 0.908630
0.915253 0.914124 0.913086
0.915222 0.914093 0.913055
0.915222 0.914093 0.913055
0.915222 0.914093 0.913055
0.915222 0.914093 0.913055
0.915222 0.914093 0.913055
0.915192 0.914062 0.913025
0.914948 0.913879 0.912811
0.914154 0.913300 0.912140
0.913177 0.912598 0.911346
0.912445 0.912048 0.910706
0.910675 0.910767 0.909210
0.909515 0.909943 0.908264
0.908722 0.909363 0.907654
0.907776 0.908783 0.906921
0.907349 0.908569 0.906647
0.907257 0.908661 0.906647
0.907776 0.909058 0.907043
0.908752 0.909546 0.907501
0.910889 0.910431 0.908661
0.913666 0.912262 0.910980
0.915161 0.914032 0.912994
0.917236 0.916504 0.915497
