nova/tdt-studio/app/Lut_mau/IWLTBAP/1 - LUTs by IWLTBAP (CUBE)/02 - Generic LOG/Psychedelia/Adoras - LOG.cube
# Copyright: (C) Copyright 2010-2018 by IWLTBAP SAS
# Cannot be resold, shared or otherwise redistributed
# Website: https://luts.iwltbap.com
TITLE "IWLTBAP Adoras (Generic LOG)"
LUT_3D_SIZE 5
0.000000 0.000000 0.000000
0.195618 0.023285 0.000885
0.716156 0.171906 0.000763
0.981964 0.287720 0.047241
0.981964 0.287720 0.047241
0.158783 0.159576 0.158508
0.153656 0.154846 0.153473
0.606873 0.198700 0.000854
0.985657 0.305298 0.048767
0.984589 0.299835 0.048309
0.558563 0.561371 0.559479
0.531097 0.532562 0.530792
0.544067 0.543396 0.542236
0.996460 0.516083 0.063385
0.995514 0.496399 0.068542
0.883240 0.886200 0.883545
0.872589 0.874390 0.871948
0.854553 0.856659 0.853394
0.876282 0.875488 0.873505
0.920990 0.876129 0.807373
0.915436 0.914246 0.913239
0.915436 0.914246 0.913239
0.918884 0.917206 0.916748
0.948822 0.951172 0.949493
0.979065 0.977600 0.975739
0.000000 0.023102 0.114075
0.204468 0.039246 0.151428
0.677246 0.128815 0.196198
0.992554 0.253571 0.163788
0.990417 0.259827 0.146057
0.152069 0.152222 0.152863
0.134308 0.134888 0.134766
0.584991 0.179321 0.107819
0.988892 0.292328 0.098175
0.986938 0.290710 0.083771
0.547943 0.550659 0.549591
0.521515 0.522217 0.520081
0.535004 0.533356 0.532684
0.996094 0.509827 0.059021
0.995056 0.490082 0.065796
0.880005 0.882294 0.879913
0.868622 0.870392 0.867737
0.849365 0.852386 0.848755
0.871857 0.871277 0.868958
0.928314 0.869690 0.778076
0.915436 0.914246 0.913239
0.915436 0.914246 0.913239
0.918671 0.917023 0.916534
0.948059 0.950562 0.948944
0.979065 0.977600 0.975739
0.000000 0.170715 0.409149
0.000000 0.213684 0.531860
0.687286 0.362366 0.712341
0.997528 0.203430 0.768433
0.997894 0.129456 0.745667
0.000000 0.212128 0.420288
0.000000 0.205017 0.419647
0.576233 0.299530 0.588470
0.996216 0.022888 0.629364
0.995667 0.056915 0.559296
0.536407 0.539825 0.541931
0.510010 0.510803 0.512421
0.486694 0.488312 0.488525
0.978302 0.468323 0.410095
0.992188 0.449646 0.384430
0.871735 0.873810 0.872192
0.859497 0.861664 0.859344
0.837585 0.840942 0.838104
0.861908 0.861969 0.859497
0.956055 0.852112 0.683563
0.916046 0.914917 0.914398
0.915955 0.914795 0.914185
0.918549 0.916992 0.916687
0.946686 0.949402 0.947998
0.979126 0.977692 0.975861
0.000000 0.242706 0.565857
0.000214 0.283661 0.652069
0.726959 0.639709 0.984558
0.926086 0.736389 0.948792
0.926086 0.736389 0.948792
0.000000 0.280914 0.559906
0.000000 0.287201 0.600281
0.516479 0.579163 0.990570
0.927277 0.738525 0.948792
0.926819 0.736877 0.948822
0.116913 0.584900 0.908203
0.044586 0.561615 0.890106
0.176636 0.580566 0.918640
0.913239 0.794861 0.951965
0.932312 0.779999 0.949005
0.877167 0.879578 0.882965
0.864014 0.866608 0.869537
0.840393 0.843842 0.846191
0.851532 0.851868 0.851929
0.980133 0.811890 0.799774
0.925903 0.925537 0.928192
0.925171 0.924622 0.927155
0.925751 0.925232 0.927612
0.952148 0.954285 0.953583
0.981506 0.982727 0.981476
0.000000 0.242706 0.565857
0.000122 0.281677 0.648682
0.715851 0.634979 0.985443
0.926086 0.736389 0.948792
0.926086 0.736389 0.948792
0.000000 0.278503 0.558533
0.000000 0.283966 0.597198
0.499725 0.572357 0.991547
0.927155 0.737915 0.948822
0.926483 0.736694 0.948792
0.091827 0.576874 0.902069
0.020050 0.553802 0.884216
0.148315 0.572235 0.912567
0.903961 0.797058 0.954865
0.919586 0.794128 0.950714
0.831207 0.902863 0.992950
0.791992 0.886230 0.994598
0.683960 0.852142 0.991760
0.828613 0.887695 0.990906
0.932739 0.911407 0.971436
0.934448 0.938629 0.943634
0.934448 0.938629 0.943634
0.935760 0.940216 0.944916
0.964325 0.964905 0.969696
0.984283 0.988220 0.988220
