nova/tdt-studio/app/Lut_mau/IWLTBAP/1 - LUTs by IWLTBAP (CUBE)/02 - Generic LOG/Psychedelia/Choweed - LOG.cube
# Copyright: (C) Copyright 2010-2018 by IWLTBAP SAS
# Cannot be resold, shared or otherwise redistributed
# Website: https://luts.iwltbap.com
TITLE "IWLTBAP Choweed (Generic LOG)"
LUT_3D_SIZE 33
0.002380 0.000000 0.000793
0.003387 0.000061 0.001251
0.019348 0.001709 0.009186
0.048553 0.009064 0.024384
0.083862 0.021606 0.038940
0.127502 0.037750 0.051910
0.168793 0.052246 0.061707
0.213501 0.063904 0.069763
0.254211 0.073608 0.076355
0.291260 0.083008 0.084473
0.325684 0.091095 0.091919
0.360016 0.098419 0.098206
0.392212 0.105988 0.103333
0.425873 0.115143 0.111115
0.456665 0.121277 0.115723
0.486786 0.127289 0.122711
0.516846 0.133240 0.127045
0.551117 0.139496 0.131744
0.589722 0.145355 0.134613
0.643585 0.148224 0.125671
0.691956 0.150208 0.111450
0.721344 0.152649 0.101013
0.721344 0.152649 0.101013
0.721344 0.152649 0.101013
0.721344 0.152649 0.101013
0.721344 0.152649 0.101013
0.721344 0.152649 0.101013
0.721344 0.152649 0.101013
0.721344 0.152649 0.101013
0.721344 0.152649 0.101013
0.721344 0.152649 0.101013
0.721344 0.152649 0.101013
0.721344 0.152649 0.101013
0.002380 0.000000 0.000793
0.002380 0.000000 0.000793
0.013977 0.000854 0.006256
0.040466 0.006653 0.020905
0.076019 0.018555 0.035767
0.119385 0.034332 0.049927
0.161133 0.050018 0.059937
0.206696 0.062103 0.068634
0.247009 0.072021 0.075226
0.285889 0.081665 0.083466
0.320221 0.089935 0.090729
0.355530 0.097412 0.097504
0.387756 0.104889 0.102539
0.421692 0.114319 0.110565
0.452759 0.120483 0.115082
0.483185 0.126587 0.121674
0.513184 0.132507 0.126526
0.547455 0.138763 0.131226
0.584900 0.144806 0.135040
0.637695 0.148041 0.127106
0.688873 0.150055 0.112457
0.719086 0.152466 0.101807
0.721344 0.152649 0.101013
0.721344 0.152649 0.101013
0.721344 0.152649 0.101013
0.721344 0.152649 0.101013
0.721344 0.152649 0.101013
0.721344 0.152649 0.101013
0.721344 0.152649 0.101013
0.721344 0.152649 0.101013
0.721344 0.152649 0.101013
0.721344 0.152649 0.101013
0.721344 0.152649 0.101013
0.002380 0.002167 0.003510
0.002380 0.001892 0.003143
0.003967 0.003174 0.005585
0.027466 0.008118 0.018005
0.071472 0.017609 0.027100
0.111084 0.031525 0.044861
0.153107 0.047729 0.058105
0.199005 0.060150 0.067322
0.239777 0.070404 0.074066
0.280304 0.080261 0.082397
0.315094 0.088745 0.089539
0.350830 0.096344 0.096771
0.383270 0.103790 0.101746
0.417114 0.113220 0.109650
0.448975 0.119720 0.114502
0.479492 0.125885 0.120636
0.509674 0.131805 0.126038
0.543457 0.137939 0.130676
0.579926 0.144257 0.135468
0.631714 0.147827 0.128540
0.685699 0.149902 0.113464
0.716217 0.152222 0.102844
0.721344 0.152649 0.101013
0.721344 0.152649 0.101013
0.721344 0.152649 0.101013
0.721344 0.152649 0.101013
0.721344 0.152649 0.101013
0.721344 0.152649 0.101013
0.721344 0.152649 0.101013
0.721344 0.152649 0.101013
0.721344 0.152649 0.101013
0.721344 0.152649 0.101013
0.721344 0.152649 0.101013
0.002930 0.007629 0.012024
0.002869 0.007141 0.011200
0.003113 0.007141 0.010803
0.007080 0.010681 0.015564
0.051605 0.023712 0.021851
0.109070 0.034485 0.021118
0.145416 0.044647 0.039825
0.188354 0.057220 0.053436
0.230347 0.068420 0.065491
0.272644 0.078796 0.075775
0.308441 0.087738 0.086060
0.343903 0.094788 0.095703
0.376373 0.102173 0.100647
0.409912 0.110992 0.107605
0.442780 0.118500 0.113525
0.473511 0.124725 0.118927
0.503693 0.130615 0.125183
0.536957 0.136688 0.129761
0.572205 0.143188 0.135071
0.621094 0.147400 0.130402
0.677704 0.149536 0.115967
0.712341 0.151917 0.104218
0.721344 0.152649 0.101013
0.721344 0.152649 0.101013
0.721344 0.152649 0.101013
0.721344 0.152649 0.101013
0.721344 0.152649 0.101013
0.721344 0.152649 0.101013
0.721344 0.152649 0.101013
0.721344 0.152649 0.101013
0.721344 0.152649 0.101013
0.721344 0.152649 0.101013
0.721344 0.152649 0.101013
0.003754 0.016815 0.022339
0.003693 0.016113 0.021637
0.003632 0.015411 0.020935
0.005310 0.016968 0.022491
0.013214 0.021973 0.030029
0.064911 0.039398 0.034729
0.142548 0.058228 0.020508
0.183014 0.063263 0.033661
0.224304 0.070587 0.046783
0.267120 0.080261 0.060577
0.304535 0.089722 0.072601
0.342438 0.098755 0.084198
0.376190 0.106384 0.094757
0.409576 0.114014 0.102722
0.440552 0.120453 0.111603
0.467316 0.123474 0.117554
0.497528 0.129395 0.124298
0.529907 0.135529 0.128815
0.564972 0.141998 0.133881
0.610352 0.146942 0.132111
0.667603 0.149078 0.119171
0.706909 0.151459 0.106140
0.721344 0.152649 0.101013
0.721344 0.152649 0.101013
0.721344 0.152649 0.101013
0.721344 0.152649 0.101013
0.721344 0.152649 0.101013
0.721344 0.152649 0.101013
0.721344 0.152649 0.101013
0.721344 0.152649 0.101013
0.721344 0.152649 0.101013
0.721344 0.152649 0.101013
0.721344 0.152649 0.101013
0.007477 0.029602 0.037262
0.007233 0.028839 0.036316
0.006927 0.027954 0.035248
0.007172 0.027588 0.034973
0.010956 0.030975 0.038940
0.026886 0.035614 0.047638
0.082489 0.052612 0.050720
0.171906 0.081512 0.024658
0.224609 0.085754 0.027069
0.265808 0.089111 0.041473
0.305603 0.096344 0.055756
0.346252 0.105438 0.069183
0.381775 0.113831 0.080841
0.418732 0.122864 0.092651
0.452637 0.132416 0.103485
0.484528 0.138184 0.111572
0.514557 0.142517 0.119843
0.542999 0.146118 0.125610
0.572662 0.148956 0.129669
0.609283 0.151428 0.131439
0.658264 0.151215 0.122528
0.701263 0.151001 0.108124
0.721344 0.152649 0.101013
0.721344 0.152649 0.101013
0.721344 0.152649 0.101013
0.721344 0.152649 0.101013
0.721344 0.152649 0.101013
0.721344 0.152649 0.101013
0.721344 0.152649 0.101013
0.721344 0.152649 0.101013
0.721344 0.152649 0.101013
0.721344 0.152649 0.101013
0.721344 0.152649 0.101013
0.013977 0.044373 0.051331
0.013367 0.043213 0.050262
0.013031 0.042419 0.049530
0.012390 0.041016 0.048218
0.014221 0.042542 0.051208
0.022095 0.047821 0.056061
0.050018 0.053406 0.066284
0.107697 0.069550 0.062988
0.199768 0.101471 0.032410
0.268433 0.112488 0.021667
0.309143 0.111938 0.036255
0.351135 0.116364 0.051422
0.390411 0.123199 0.063751
0.429199 0.131409 0.077576
0.465149 0.141937 0.089905
0.500824 0.149200 0.100433
0.531799 0.154938 0.109436
0.563141 0.159607 0.117249
0.596436 0.163147 0.122467
0.631683 0.166168 0.124207
0.670288 0.167267 0.120728
0.707855 0.167023 0.111664
0.732300 0.166199 0.102753
0.729736 0.163025 0.102325
0.726898 0.159515 0.101898
0.725830 0.158173 0.101715
0.724792 0.156891 0.101562
0.723907 0.155823 0.101410
0.722961 0.154633 0.101257
0.721893 0.153351 0.101105
0.721344 0.152649 0.101013
0.721344 0.152649 0.101013
0.721344 0.152649 0.101013
0.026306 0.063721 0.069366
0.025482 0.062958 0.068634
0.024475 0.062042 0.067780
0.022675 0.060425 0.066193
0.021790 0.059174 0.064636
0.027557 0.062195 0.067780
0.044220 0.068878 0.074646
0.080933 0.074066 0.082428
0.137512 0.082764 0.072021
0.233032 0.120239 0.038910
0.307159 0.139435 0.021851
0.355957 0.138916 0.031067
0.397583 0.140167 0.045563
0.438324 0.144592 0.059021
0.478607 0.153015 0.072571
0.516113 0.160645 0.085236
0.551361 0.167267 0.095123
0.583588 0.172546 0.104156
0.615906 0.176788 0.109650
0.651428 0.180450 0.114136
0.686035 0.183258 0.114197
0.721069 0.184631 0.110901
0.745575 0.184174 0.105286
0.742981 0.180817 0.105255
0.740295 0.177246 0.104858
0.738403 0.174591 0.104340
0.737183 0.172913 0.104034
0.736115 0.171448 0.103760
0.735016 0.169952 0.103455
0.733917 0.168396 0.103180
0.732758 0.166840 0.102875
0.732727 0.166748 0.102844
0.732666 0.166687 0.102844
0.044434 0.081024 0.085236
0.043732 0.080292 0.084625
0.043060 0.079590 0.084045
0.041595 0.078094 0.082794
0.040039 0.076447 0.081451
0.039886 0.076324 0.081726
0.048615 0.082092 0.085449
0.073059 0.089996 0.094757
0.116760 0.095306 0.094727
0.184021 0.103729 0.074219
0.272766 0.139496 0.044495
0.346741 0.165192 0.025543
0.401306 0.168701 0.026154
0.444977 0.166412 0.040100
0.487457 0.170258 0.053741
0.527649 0.175598 0.067444
0.565399 0.180908 0.079956
0.599487 0.186035 0.089539
0.631409 0.190399 0.097504
0.664490 0.194122 0.103241
0.698273 0.197693 0.106140
0.731323 0.199951 0.106659
0.759735 0.201324 0.102814
0.756958 0.198120 0.103729
0.754242 0.195007 0.104584
0.751862 0.192261 0.105347
0.750793 0.190887 0.105347
0.749817 0.189606 0.105316
0.748810 0.188324 0.105316
0.747681 0.186859 0.105316
0.746643 0.185547 0.105286
0.746582 0.185455 0.105286
0.746521 0.185394 0.105286
0.063202 0.099304 0.102051
0.062408 0.098572 0.101318
0.061584 0.097809 0.100586
0.059967 0.096283 0.099091
0.058105 0.094543 0.097382
0.055054 0.092377 0.095093
0.058533 0.095062 0.099091
0.074341 0.103943 0.106232
0.107361 0.111725 0.121185
0.159485 0.118347 0.101624
0.233032 0.128540 0.077576
0.317169 0.160736 0.050446
0.385742 0.189362 0.030609
0.446167 0.200714 0.022736
0.491882 0.197601 0.034515
0.535919 0.197845 0.048004
0.576447 0.200470 0.061371
0.613678 0.203796 0.073730
0.646362 0.207153 0.083282
0.677887 0.210510 0.090088
0.712067 0.213898 0.094757
0.743896 0.216888 0.096924
0.772522 0.219299 0.096161
0.773560 0.216522 0.097137
0.770630 0.213379 0.098419
0.767822 0.210327 0.099670
0.766479 0.208893 0.100250
0.765228 0.207520 0.100800
0.763885 0.206055 0.101379
0.762665 0.204712 0.101868
0.761505 0.203400 0.102234
0.761444 0.203339 0.102264
0.761414 0.203247 0.102295
0.083099 0.118286 0.118378
0.082153 0.117584 0.117584
0.081360 0.116852 0.116943
0.079803 0.115326 0.115723
0.078186 0.113739 0.114410
0.075684 0.111450 0.112335
0.073517 0.110168 0.111511
0.082520 0.116760 0.116882
0.105927 0.128052 0.134277
0.143799 0.136871 0.133148
0.206635 0.144104 0.104584
0.288605 0.158447 0.080811
0.361664 0.184784 0.056580
0.426849 0.216370 0.035126
0.487122 0.232147 0.023621
0.539276 0.229950 0.029327
0.583710 0.227051 0.042877
0.623230 0.226868 0.055359
0.658630 0.228088 0.066467
0.692383 0.229675 0.076752
0.723450 0.231873 0.082703
0.754639 0.235291 0.086548
0.785889 0.238831 0.088684
0.793457 0.237762 0.089752
0.790192 0.234314 0.091034
0.786591 0.230469 0.092316
0.785034 0.228790 0.092865
0.783569 0.227234 0.093414
0.781952 0.225494 0.093994
0.780457 0.223938 0.094513
0.778992 0.222351 0.095032
0.778900 0.222260 0.095062
0.778839 0.222198 0.095093
0.106506 0.138031 0.140930
0.105804 0.137268 0.139954
0.105133 0.136536 0.139008
0.103851 0.135132 0.137207
0.102448 0.133606 0.135223
0.100372 0.131592 0.132721
0.096008 0.128448 0.129028
0.097229 0.130859 0.133362
0.110840 0.141052 0.145782
0.142273 0.157806 0.161682
0.191284 0.165497 0.144592
0.262543 0.176575 0.108337
0.343170 0.189178 0.084747
0.409393 0.209381 0.064545
0.469208 0.241821 0.041199
0.528992 0.260712 0.028564
0.584503 0.265137 0.025055
0.628876 0.259003 0.037689
0.668518 0.256348 0.049164
0.703461 0.255035 0.059509
0.735138 0.255371 0.067444
0.766724 0.257874 0.073212
0.798248 0.260376 0.077240
0.812714 0.261169 0.079956
0.810394 0.257172 0.081848
0.807007 0.252716 0.083862
0.805328 0.250488 0.084869
0.803925 0.248871 0.085510
0.802521 0.247406 0.086090
0.800995 0.245758 0.086700
0.799591 0.244263 0.087280
0.799500 0.244171 0.087311
0.799408 0.244080 0.087341
0.127411 0.160248 0.164368
0.126587 0.159363 0.163574
0.125610 0.158356 0.162689
0.124084 0.156738 0.161255
0.122559 0.155151 0.159851
0.120483 0.152985 0.157928
0.116455 0.148895 0.154541
0.114136 0.147705 0.152649
0.121918 0.154907 0.159119
0.141663 0.173370 0.180206
0.183289 0.191650 0.184509
0.244904 0.197815 0.150513
0.320465 0.207245 0.113617
0.393646 0.219879 0.089630
0.454041 0.232697 0.075256
0.513153 0.268280 0.049072
0.570221 0.289001 0.033936
0.627045 0.299072 0.024567
0.673218 0.292755 0.033264
0.711853 0.287720 0.043396
0.746216 0.284760 0.052582
0.778961 0.284973 0.060272
0.809448 0.286133 0.065918
0.828949 0.285950 0.069305
0.830139 0.282562 0.071259
0.826904 0.278503 0.072845
0.824829 0.275879 0.073853
0.823456 0.274139 0.074524
0.822083 0.272400 0.075195
0.820587 0.270538 0.075928
0.819214 0.268799 0.076599
0.819122 0.268677 0.076660
0.819061 0.268585 0.076691
0.148865 0.185455 0.190063
0.147858 0.184540 0.188965
0.146851 0.183655 0.187927
0.145630 0.182190 0.186371
0.144196 0.180359 0.184479
0.142487 0.178192 0.182220
0.140320 0.175598 0.179474
0.135590 0.170166 0.174835
0.138123 0.174866 0.176636
0.151154 0.187927 0.192780
0.180481 0.208466 0.215546
0.233185 0.225067 0.202667
0.299347 0.228790 0.158691
0.374512 0.239319 0.123749
0.444733 0.252716 0.101288
0.503418 0.260956 0.085999
0.557892 0.297760 0.058197
0.611450 0.319641 0.040009
0.666534 0.332550 0.027771
0.716309 0.330353 0.029480
0.755096 0.323486 0.038452
0.789124 0.318298 0.046326
0.820618 0.316406 0.053131
0.846252 0.314850 0.058563
0.851044 0.311401 0.061310
0.847809 0.306458 0.063202
0.845581 0.303406 0.064209
0.843994 0.301239 0.064911
0.842590 0.299286 0.065552
0.841156 0.297333 0.066193
0.839752 0.295380 0.066803
0.839661 0.295288 0.066833
0.839600 0.295197 0.066864
0.176056 0.211578 0.222748
0.175110 0.210541 0.221344
0.174011 0.209381 0.219788
0.172546 0.207764 0.217621
0.171082 0.206177 0.215454
0.168915 0.203796 0.212280
0.166382 0.201141 0.208801
0.161377 0.196991 0.203247
0.159149 0.196381 0.201935
0.166473 0.205017 0.213806
0.186035 0.223114 0.235779
0.225922 0.249786 0.247253
0.288696 0.263824 0.217285
0.357056 0.265198 0.169800
0.426544 0.277802 0.134460
0.493988 0.290802 0.111023
0.552063 0.300720 0.097198
0.600464 0.329803 0.068085
0.649658 0.351044 0.047943
0.704010 0.363831 0.034302
0.757660 0.366852 0.028595
0.797333 0.358826 0.035248
0.830811 0.351929 0.042236
0.862427 0.348114 0.048462
0.870697 0.343628 0.051331
0.870300 0.338470 0.052887
0.867828 0.334381 0.053833
0.866394 0.331970 0.054382
0.864960 0.329620 0.054932
0.863312 0.327179 0.055634
0.861694 0.325043 0.056427
0.861633 0.324951 0.056458
0.861542 0.324829 0.056488
0.204468 0.242767 0.262756
0.203430 0.241638 0.261322
0.202423 0.240509 0.259949
0.200989 0.238953 0.257965
0.199310 0.237122 0.255676
0.196777 0.234314 0.252197
0.194183 0.231476 0.248596
0.191345 0.228333 0.244690
0.185028 0.223450 0.237640
0.188049 0.227661 0.246429
0.200684 0.242035 0.258331
0.230225 0.271545 0.281342
0.278229 0.299377 0.281250
0.344086 0.304840 0.236572
0.413300 0.305634 0.185272
0.479584 0.315613 0.149414
0.543396 0.327850 0.125519
0.598419 0.335815 0.109863
0.640472 0.359161 0.083496
0.687836 0.381104 0.058716
0.738586 0.395050 0.041779
0.796844 0.402863 0.029297
0.840240 0.396149 0.032867
0.874512 0.387787 0.040161
0.889130 0.381622 0.043915
0.891541 0.375580 0.045807
0.888824 0.370667 0.046631
0.887268 0.367859 0.047119
0.885864 0.365326 0.047546
0.884460 0.362793 0.047974
0.883087 0.360291 0.048401
0.883026 0.360168 0.048401
0.882935 0.360046 0.048431
0.240112 0.282715 0.303833
0.238983 0.281250 0.302338
0.237854 0.279846 0.300842
0.236298 0.277832 0.298737
0.234589 0.275696 0.296478
0.231842 0.272339 0.292999
0.228638 0.268890 0.289520
0.224854 0.264801 0.285431
0.218109 0.258972 0.277740
0.216278 0.259979 0.275970
0.225006 0.272461 0.287567
0.245514 0.295715 0.314484
0.282104 0.324554 0.334503
0.336792 0.345459 0.318176
0.402527 0.345459 0.258453
0.465118 0.344269 0.204803
0.528107 0.354431 0.171143
0.590332 0.366028 0.144379
0.639496 0.371765 0.126556
0.680298 0.390564 0.100006
0.721741 0.413055 0.071320
0.773285 0.427490 0.050720
0.830872 0.436035 0.035339
0.884186 0.434875 0.031433
0.906555 0.425049 0.037140
0.912964 0.417847 0.039612
0.909851 0.411285 0.040436
0.908386 0.408234 0.040802
0.906921 0.405304 0.041229
0.905487 0.402527 0.041656
0.903961 0.399567 0.042084
0.903900 0.399414 0.042114
0.903839 0.399292 0.042145
0.271881 0.320343 0.346100
0.270813 0.319214 0.344696
0.269745 0.317993 0.343262
0.268433 0.316559 0.341553
0.266815 0.314758 0.339386
0.264435 0.312134 0.336243
0.261902 0.309296 0.332886
0.258881 0.305969 0.328918
0.254730 0.302032 0.324127
0.249847 0.299072 0.318848
0.254303 0.306458 0.325073
0.268616 0.322723 0.344360
0.295349 0.347870 0.372894
0.336700 0.380951 0.388184
0.391571 0.396973 0.353729
0.458099 0.391479 0.285522
0.517700 0.388214 0.231476
0.579742 0.397797 0.194733
0.634979 0.410706 0.167603
0.680328 0.415497 0.148468
0.715393 0.427795 0.120728
0.756073 0.448578 0.085632
0.803741 0.461914 0.062164
0.862152 0.470612 0.044617
0.915100 0.473999 0.033081
0.935059 0.466583 0.033936
0.931763 0.459045 0.034760
0.930145 0.455322 0.035187
0.928680 0.451965 0.035553
0.927155 0.448486 0.035950
0.925720 0.445190 0.036285
0.925629 0.445007 0.036316
0.925568 0.444855 0.036346
0.305786 0.354034 0.386658
0.304810 0.352936 0.385345
0.303833 0.351807 0.384064
0.302551 0.350342 0.382355
0.301239 0.348816 0.380554
0.298584 0.346283 0.377502
0.295868 0.343689 0.374359
0.292389 0.340424 0.370392
0.289032 0.337280 0.366547
0.283508 0.334686 0.361176
0.284424 0.338501 0.364594
0.296814 0.351501 0.378082
0.315277 0.374451 0.404175
0.348297 0.407593 0.432739
0.390747 0.437714 0.435303
0.446106 0.441956 0.384674
0.508331 0.433075 0.311432
0.566071 0.430511 0.256409
0.624451 0.441284 0.220093
0.676544 0.451660 0.190552
0.717255 0.455170 0.169006
0.748718 0.462799 0.142181
0.785370 0.482422 0.102631
0.832825 0.495300 0.074890
0.886719 0.502258 0.055481
0.930542 0.504242 0.043365
0.933258 0.499969 0.040405
0.934845 0.497467 0.038666
0.935272 0.494812 0.037964
0.935455 0.492310 0.037476
0.935669 0.489838 0.037018
0.935669 0.489685 0.036987
0.935699 0.489563 0.036957
0.334198 0.389343 0.423645
0.333252 0.388092 0.422455
0.332306 0.386810 0.421265
0.331146 0.385254 0.419800
0.329803 0.383453 0.418091
0.327911 0.380920 0.415741
0.325867 0.378174 0.413147
0.323273 0.374695 0.409882
0.320770 0.371307 0.406738
0.317810 0.369202 0.403198
0.316528 0.371490 0.403107
0.322540 0.383453 0.413605
0.338776 0.402527 0.432159
0.365814 0.432526 0.462341
0.400330 0.466492 0.490967
0.442230 0.488831 0.476959
0.496185 0.484436 0.412415
0.557281 0.472961 0.338684
0.612091 0.471008 0.283112
0.667480 0.482697 0.246277
0.712311 0.491089 0.214722
0.750336 0.495819 0.189484
0.776123 0.498413 0.165497
0.813843 0.515381 0.120270
0.860382 0.526794 0.088135
0.907318 0.531891 0.067444
0.914307 0.528595 0.062683
0.916138 0.525940 0.060303
0.917450 0.524017 0.058594
0.918671 0.522278 0.057037
0.919891 0.520538 0.055450
0.919922 0.520447 0.055389
0.919983 0.520355 0.055328
0.363190 0.419281 0.456146
0.362457 0.418427 0.455200
0.361725 0.417542 0.454193
0.360779 0.416473 0.452972
0.359711 0.415222 0.451569
0.357635 0.413269 0.449402
0.355560 0.411377 0.447235
0.352905 0.408875 0.444427
0.350006 0.406158 0.441345
0.347137 0.403748 0.438446
0.345612 0.406219 0.440979
0.351654 0.414093 0.447601
0.362274 0.429657 0.462280
0.383209 0.455231 0.488281
0.414032 0.489929 0.523132
0.447876 0.525208 0.543945
0.486847 0.536072 0.509277
0.541229 0.526154 0.431763
0.599792 0.512634 0.358643
0.652008 0.511505 0.308289
0.703491 0.523468 0.268463
0.747833 0.530090 0.237183
0.779510 0.530334 0.211365
0.802368 0.529541 0.187225
0.836090 0.546387 0.141174
0.881897 0.555359 0.103546
0.896179 0.553925 0.091766
0.898010 0.551178 0.087677
0.899261 0.549408 0.085449
0.900391 0.547852 0.083618
0.901520 0.546326 0.081818
0.901581 0.546265 0.081757
0.901642 0.546173 0.081635
0.384827 0.444702 0.485168
0.384155 0.443909 0.484253
0.383484 0.443115 0.483337
0.382629 0.442108 0.482147
0.381775 0.441101 0.480988
0.380463 0.439545 0.479187
0.379150 0.437958 0.477356
0.377441 0.435944 0.475037
0.375580 0.433716 0.472443
0.373505 0.431274 0.469666
0.372803 0.432556 0.470184
0.374756 0.439758 0.477631
0.382202 0.452637 0.487732
0.399658 0.475006 0.511261
0.427521 0.509003 0.546906
0.457397 0.544617 0.578522
0.488678 0.572357 0.586029
0.524933 0.572510 0.531342
0.583923 0.558685 0.446686
0.637726 0.544525 0.374268
0.688141 0.547699 0.329071
0.738556 0.557220 0.290283
0.777985 0.561157 0.255707
0.805450 0.559662 0.230255
0.821472 0.555695 0.213470
0.855713 0.572662 0.160339
0.878754 0.576813 0.135132
0.881226 0.574615 0.129120
0.882263 0.573334 0.126038
0.883392 0.571991 0.122833
0.884399 0.570770 0.119873
0.884460 0.570709 0.119690
0.884521 0.570648 0.119537
0.404907 0.467285 0.511566
0.404022 0.466492 0.510742
0.403259 0.465820 0.510010
0.402283 0.464935 0.509094
0.401306 0.464050 0.508179
0.400055 0.462799 0.506714
0.398865 0.461365 0.505005
0.397339 0.459564 0.502838
0.395691 0.457581 0.500458
0.393829 0.455383 0.497833
0.392029 0.453247 0.495270
0.395050 0.461487 0.503357
0.399323 0.472412 0.510651
0.414886 0.491974 0.529602
0.436279 0.521423 0.560242
0.464233 0.554504 0.599854
0.495087 0.589050 0.624542
0.520020 0.608673 0.610931
0.561340 0.600067 0.539520
0.623108 0.582825 0.450500
0.672699 0.570312 0.384674
0.723206 0.576874 0.344421
0.767639 0.584991 0.305756
0.803894 0.586761 0.272614
0.825928 0.585052 0.249054
0.840637 0.581085 0.232635
0.860931 0.588348 0.198975
0.867645 0.589569 0.184753
0.868652 0.589172 0.180267
0.869507 0.588287 0.176208
0.870300 0.587372 0.172546
0.870331 0.587341 0.172363
0.870392 0.587280 0.172150
0.426483 0.489471 0.533966
0.425842 0.488739 0.533264
0.425232 0.488007 0.532532
0.424377 0.487000 0.531555
0.423553 0.486053 0.530640
0.422577 0.484863 0.529480
0.421478 0.483551 0.528198
0.419891 0.481689 0.526398
0.418274 0.479767 0.524506
0.416504 0.477661 0.522461
0.414215 0.475555 0.520294
0.414520 0.479919 0.524292
0.417603 0.490753 0.529388
0.426483 0.505768 0.543823
0.442749 0.530182 0.570618
0.468262 0.559692 0.608246
0.495972 0.592438 0.642578
0.522644 0.626892 0.653564
0.547913 0.635773 0.618805
0.595612 0.622925 0.533630
0.653687 0.601379 0.450256
0.700989 0.593597 0.393311
0.751312 0.601105 0.354767
0.795349 0.609222 0.320740
0.824554 0.609558 0.287384
0.845825 0.608063 0.267029
0.856964 0.603790 0.252899
0.859589 0.601013 0.243683
0.859711 0.599823 0.240173
0.859589 0.598694 0.237366
0.859497 0.597565 0.234528
0.859497 0.597534 0.234436
0.859497 0.597443 0.234222
0.456940 0.527771 0.573151
0.455383 0.526184 0.571259
0.453827 0.524597 0.569397
0.451904 0.522614 0.567078
0.449921 0.520569 0.564636
0.447296 0.517853 0.561462
0.445160 0.515503 0.558807
0.443146 0.512665 0.556091
0.440918 0.509460 0.553070
0.438538 0.506073 0.549835
0.436066 0.502594 0.546509
0.433899 0.500854 0.545349
0.434235 0.510101 0.552643
0.437714 0.520538 0.558136
0.449188 0.537964 0.581940
0.469513 0.561951 0.611938
0.493835 0.590454 0.648407
0.517334 0.625305 0.671906
0.543488 0.650543 0.669189
0.569916 0.652344 0.616516
0.625153 0.638062 0.529938
0.680023 0.618805 0.450073
0.728394 0.615356 0.399109
0.778931 0.624603 0.363190
0.817017 0.629761 0.331543
0.845551 0.631134 0.303223
0.862213 0.630829 0.285156
0.866455 0.628296 0.277435
0.866760 0.626434 0.274231
0.866272 0.625092 0.272461
0.865723 0.623444 0.270599
0.865723 0.623383 0.270538
0.865692 0.623260 0.270447
0.509735 0.587250 0.646179
0.507996 0.585205 0.643616
0.506226 0.583099 0.641022
0.503723 0.580139 0.637299
0.501495 0.577515 0.634003
0.499023 0.574585 0.630341
0.496216 0.571259 0.626190
0.491791 0.566040 0.619629
0.487335 0.560791 0.613037
0.482483 0.555054 0.605865
0.477203 0.548828 0.598022
0.472412 0.543732 0.591949
0.467529 0.544037 0.591644
0.464996 0.548737 0.596039
0.468384 0.558594 0.608612
0.480713 0.574127 0.627472
0.495575 0.593414 0.653381
0.514435 0.621399 0.676422
0.537048 0.647980 0.692261
0.557770 0.667511 0.679443
0.588867 0.666687 0.619385
0.644043 0.652130 0.534210
0.697998 0.634125 0.458221
0.750732 0.633362 0.406189
0.800934 0.640900 0.368744
0.836853 0.645905 0.339691
0.862305 0.648071 0.319122
0.871460 0.647461 0.305206
0.874115 0.646210 0.298676
0.873688 0.645111 0.297424
0.873199 0.643921 0.296112
0.873199 0.643860 0.296051
0.873169 0.643799 0.295990
0.511230 0.588989 0.648376
0.511200 0.588959 0.648346
0.511200 0.588959 0.648346
0.511139 0.588898 0.648285
0.511139 0.588898 0.648285
0.511139 0.588898 0.648285
0.511108 0.588867 0.648224
0.510742 0.588409 0.647675
0.509521 0.587006 0.645874
0.508026 0.585236 0.643677
0.506897 0.583893 0.641998
0.504211 0.580688 0.638000
0.501038 0.580078 0.637787
0.498291 0.583466 0.641174
0.499939 0.591156 0.647095
0.506012 0.604126 0.660583
0.514191 0.615631 0.672516
0.524628 0.632111 0.685089
0.540222 0.648804 0.702026
0.554047 0.668793 0.713623
0.570984 0.685425 0.700104
0.604736 0.687744 0.644531
0.651672 0.672974 0.564941
