nova/tdt-studio/app/Lut_mau/IWLTBAP/1 - LUTs by IWLTBAP (CUBE)/02 - Generic LOG/Psychedelia/Choweed - LOG.cube
# Copyright: (C) Copyright 2010-2018 by IWLTBAP SAS
# Cannot be resold, shared or otherwise redistributed
# Website: https://luts.iwltbap.com
TITLE "IWLTBAP Choweed (Generic LOG)"
LUT_3D_SIZE 9
0.002380 0.000000 0.000793
0.083862 0.021606 0.038940
0.254211 0.073608 0.076355
0.392212 0.105988 0.103333
0.516846 0.133240 0.127045
0.691956 0.150208 0.111450
0.721344 0.152649 0.101013
0.721344 0.152649 0.101013
0.721344 0.152649 0.101013
0.003754 0.016815 0.022339
0.013214 0.021973 0.030029
0.224304 0.070587 0.046783
0.376190 0.106384 0.094757
0.497528 0.129395 0.124298
0.667603 0.149078 0.119171
0.721344 0.152649 0.101013
0.721344 0.152649 0.101013
0.721344 0.152649 0.101013
0.044434 0.081024 0.085236
0.040039 0.076447 0.081451
0.116760 0.095306 0.094727
0.401306 0.168701 0.026154
0.565399 0.180908 0.079956
0.698273 0.197693 0.106140
0.754242 0.195007 0.104584
0.748810 0.188324 0.105316
0.746521 0.185394 0.105286
0.127411 0.160248 0.164368
0.122559 0.155151 0.159851
0.121918 0.154907 0.159119
0.320465 0.207245 0.113617
0.570221 0.289001 0.033936
0.746216 0.284760 0.052582
0.830139 0.282562 0.071259
0.822083 0.272400 0.075195
0.819061 0.268585 0.076691
0.240112 0.282715 0.303833
0.234589 0.275696 0.296478
0.218109 0.258972 0.277740
0.282104 0.324554 0.334503
0.528107 0.354431 0.171143
0.721741 0.413055 0.071320
0.906555 0.425049 0.037140
0.906921 0.405304 0.041229
0.903839 0.399292 0.042145
0.363190 0.419281 0.456146
0.359711 0.415222 0.451569
0.350006 0.406158 0.441345
0.362274 0.429657 0.462280
0.486847 0.536072 0.509277
0.703491 0.523468 0.268463
0.836090 0.546387 0.141174
0.899261 0.549408 0.085449
0.901642 0.546173 0.081635
0.456940 0.527771 0.573151
0.449921 0.520569 0.564636
0.440918 0.509460 0.553070
0.434235 0.510101 0.552643
0.493835 0.590454 0.648407
0.625153 0.638062 0.529938
0.817017 0.629761 0.331543
0.866760 0.626434 0.274231
0.865692 0.623260 0.270447
0.511505 0.589325 0.648804
0.511505 0.589325 0.648804
0.511505 0.589325 0.648804
0.511505 0.589325 0.648804
0.523895 0.627960 0.683655
0.565643 0.682312 0.734283
0.686768 0.688080 0.553894
0.896362 0.689575 0.363190
0.895477 0.688141 0.361053
0.511505 0.589325 0.648804
0.511505 0.589325 0.648804
0.511505 0.589325 0.648804
0.511505 0.589325 0.648804
0.520630 0.622437 0.679535
0.560516 0.674957 0.729095
0.661804 0.696564 0.589020
0.883850 0.687408 0.372894
0.896362 0.689575 0.363190
0.002380 0.006775 0.009552
0.083130 0.048584 0.071533
0.256256 0.109253 0.123047
0.389618 0.118347 0.134308
0.513214 0.135712 0.141357
0.689941 0.150085 0.112122
0.721344 0.152649 0.101013
0.721344 0.152649 0.101013
0.721344 0.152649 0.101013
0.006958 0.025848 0.033386
0.016510 0.028870 0.038849
0.224365 0.076782 0.074738
0.372192 0.107605 0.105255
0.495697 0.129059 0.124023
0.664337 0.148956 0.120209
0.721344 0.152649 0.101013
0.721344 0.152649 0.101013
0.721344 0.152649 0.101013
0.044373 0.080627 0.085388
0.038635 0.074982 0.080231
0.113373 0.093292 0.093658
0.397400 0.166016 0.026703
0.561493 0.178986 0.080719
0.694916 0.196167 0.106873
0.753143 0.193756 0.104950
0.747803 0.187042 0.105316
0.745667 0.184296 0.105286
0.125641 0.158386 0.162689
0.121002 0.153534 0.158417
0.119629 0.152527 0.156921
0.316650 0.205109 0.112854
0.567841 0.287231 0.033508
0.743744 0.282806 0.053131
0.829102 0.281250 0.071747
0.820953 0.270996 0.075745
0.817963 0.267151 0.077332
0.238220 0.280304 0.301331
0.232819 0.273438 0.294098
0.216248 0.256836 0.275665
0.278778 0.321472 0.331268
0.524841 0.351868 0.169647
0.719910 0.411072 0.070190
0.904846 0.422852 0.037323
0.905792 0.403076 0.041565
0.902679 0.397064 0.042480
0.362091 0.417969 0.454681
0.358093 0.413727 0.449890
0.348511 0.404755 0.439758
0.359955 0.427124 0.459503
0.484589 0.533691 0.507599
0.701416 0.521484 0.267242
0.835114 0.544952 0.139832
0.900177 0.548187 0.083984
0.902557 0.544922 0.080170
0.454559 0.525360 0.570282
0.447327 0.517883 0.561493
0.439575 0.507568 0.551270
0.433014 0.508362 0.550903
0.492584 0.588806 0.646423
0.623779 0.637360 0.530151
0.815796 0.628693 0.330811
0.866364 0.625397 0.272827
0.865234 0.621735 0.268921
0.511505 0.589325 0.648804
0.511505 0.589325 0.648804
0.511505 0.589325 0.648804
0.511505 0.589325 0.648804
0.523560 0.627350 0.683228
0.565094 0.681519 0.733704
0.684601 0.689026 0.557220
0.895874 0.689270 0.363098
0.894989 0.687317 0.359833
0.511505 0.589325 0.648804
0.511505 0.589325 0.648804
0.511505 0.589325 0.648804
0.511505 0.589325 0.648804
0.520264 0.621826 0.679016
0.559967 0.674164 0.728546
0.658691 0.697540 0.593353
0.882355 0.687134 0.374023
0.896362 0.689575 0.363190
0.007721 0.054901 0.073090
0.071075 0.068604 0.098419
0.275177 0.162506 0.183411
0.382935 0.215240 0.225586
0.480133 0.199921 0.239502
0.646362 0.212463 0.249542
0.695923 0.198242 0.212311
0.701385 0.191223 0.199371
0.704254 0.187622 0.192627
0.024963 0.076599 0.088806
0.014191 0.048126 0.062927
0.215790 0.130768 0.149475
0.361816 0.198578 0.201874
0.467651 0.180511 0.219452
0.633209 0.192139 0.228333
0.709320 0.181488 0.181000
0.714996 0.176300 0.170135
0.717590 0.173950 0.165192
0.090607 0.124939 0.131805
0.082397 0.117554 0.123962
0.127716 0.120270 0.127625
0.406952 0.171478 0.113403
0.562012 0.187073 0.138611
0.691589 0.197327 0.140686
0.755127 0.195679 0.124786
0.750031 0.187805 0.120850
0.747986 0.184631 0.119263
0.182129 0.209259 0.220612
0.173737 0.200806 0.209900
0.137726 0.169525 0.176117
0.322540 0.210083 0.115967
0.565002 0.284363 0.075775
0.734985 0.276703 0.082672
0.825439 0.277435 0.075806
0.818329 0.267639 0.077118
0.815521 0.263947 0.078796
0.264160 0.307068 0.332123
0.254730 0.296906 0.320496
0.225891 0.266327 0.287811
0.270844 0.314240 0.323975
0.518402 0.346832 0.166687
0.716156 0.407104 0.068054
0.901367 0.418182 0.037750
0.903442 0.398529 0.042267
0.900513 0.392822 0.043121
0.359436 0.414978 0.451294
0.354828 0.410675 0.446472
0.345398 0.401855 0.436493
0.355164 0.421906 0.453796
0.480042 0.529449 0.505371
0.697601 0.517883 0.264954
0.833069 0.542236 0.137695
0.901733 0.546082 0.081512
0.904175 0.542725 0.077606
0.450165 0.520813 0.564941
0.444183 0.514130 0.557495
0.437378 0.504456 0.548279
0.431091 0.505188 0.547943
0.490448 0.585968 0.643097
0.621552 0.636169 0.530426
0.814087 0.627228 0.329803
0.865753 0.623535 0.270691
0.864502 0.619324 0.266571
0.511505 0.589325 0.648804
0.511505 0.589325 0.648804
0.511505 0.589325 0.648804
0.511505 0.589325 0.648804
0.523010 0.626434 0.682526
0.564270 0.680328 0.732880
0.681091 0.690399 0.562317
0.894287 0.688263 0.362793
0.894470 0.686432 0.358521
0.511505 0.589325 0.648804
0.511505 0.589325 0.648804
0.511505 0.589325 0.648804
0.511505 0.589325 0.648804
0.519745 0.620911 0.678284
0.559296 0.673157 0.727600
0.655060 0.698730 0.598389
0.880463 0.686829 0.375519
0.896362 0.689575 0.363190
0.020142 0.103943 0.134735
0.078064 0.095245 0.135712
0.306183 0.179993 0.227905
0.409210 0.238068 0.275208
0.476074 0.283051 0.305695
0.527618 0.321289 0.347565
0.571320 0.316498 0.358185
0.580627 0.308136 0.354126
0.585266 0.304413 0.352356
0.050964 0.129761 0.157288
0.025177 0.095428 0.122711
0.231598 0.140961 0.191345
0.386658 0.226257 0.258453
0.460815 0.271240 0.293396
0.523010 0.299652 0.330292
0.592773 0.298401 0.349548
0.601562 0.291382 0.346130
0.605743 0.288116 0.343719
0.126862 0.182556 0.204559
0.119446 0.174988 0.196808
0.070038 0.130737 0.156708
0.338440 0.234589 0.262787
0.477417 0.283875 0.283539
0.584320 0.286194 0.292206
0.681061 0.270050 0.266510
0.679871 0.261841 0.266541
0.678864 0.258545 0.266510
0.216522 0.243073 0.262115
0.209991 0.236755 0.255707
0.184570 0.214508 0.230652
0.296112 0.264465 0.261078
0.566711 0.308868 0.215424
0.718384 0.302582 0.200867
0.799164 0.291138 0.180267
0.796051 0.280365 0.171997
0.794739 0.276581 0.169220
0.344482 0.373260 0.414490
0.337402 0.366577 0.406250
0.323273 0.353363 0.389984
0.286407 0.324677 0.351074
0.508301 0.365021 0.204529
0.724457 0.405884 0.159088
0.884277 0.398132 0.153442
0.884338 0.376953 0.140045
0.881714 0.371582 0.136292
0.429138 0.478760 0.530518
0.424408 0.473419 0.524872
0.414795 0.462555 0.513428
0.386871 0.448517 0.489288
0.453766 0.526337 0.540802
0.697601 0.505981 0.248566
0.843597 0.531036 0.144623
0.908234 0.536743 0.102448
0.909973 0.534180 0.096497
0.472443 0.539581 0.587524
0.466370 0.533905 0.580750
0.455719 0.523651 0.568787
0.441467 0.513763 0.557648
0.484833 0.579010 0.634888
0.615479 0.636780 0.538147
0.811066 0.624634 0.328003
0.864563 0.619476 0.266724
0.863312 0.615387 0.262726
0.515289 0.592804 0.653412
0.514191 0.591797 0.652069
0.512207 0.589966 0.649658
0.511505 0.589325 0.648804
0.522095 0.624908 0.681396
0.562897 0.678406 0.731537
0.674377 0.692535 0.571594
0.892273 0.686951 0.362396
0.893768 0.685303 0.356812
0.511536 0.589355 0.648865
0.511505 0.589325 0.648804
0.511505 0.589325 0.648804
0.511505 0.589325 0.648804
0.518829 0.619293 0.676971
0.558197 0.671539 0.725861
0.649231 0.700745 0.607544
0.877777 0.686340 0.377594
0.896362 0.689575 0.363190
0.027069 0.137695 0.182648
0.106140 0.134033 0.191101
0.355865 0.208496 0.288422
0.452240 0.264069 0.339172
0.512390 0.304779 0.365143
0.561462 0.347412 0.407257
0.569031 0.371857 0.424255
0.566711 0.370331 0.420563
0.565491 0.369446 0.417999
0.078094 0.185425 0.231262
0.049835 0.145477 0.190887
0.282288 0.176392 0.259735
0.432129 0.248718 0.322998
0.498901 0.296539 0.352905
0.548553 0.333099 0.388184
0.563721 0.368164 0.414246
0.561523 0.366394 0.410156
0.560455 0.365479 0.408569
0.148712 0.234772 0.276917
0.141998 0.228668 0.269135
0.071014 0.186615 0.237732
0.328033 0.231445 0.314056
0.489166 0.309845 0.363068
0.548187 0.349792 0.391388
0.568298 0.376526 0.408020
0.563446 0.369751 0.400574
0.561401 0.367157 0.397491
0.241302 0.297119 0.338226
0.235992 0.291046 0.332062
0.203094 0.273163 0.317444
0.209900 0.278015 0.333740
0.485901 0.382416 0.435211
0.604462 0.407166 0.419312
0.666656 0.367554 0.303101
0.665314 0.357361 0.292664
0.665527 0.353699 0.291138
0.341614 0.367981 0.409027
0.335388 0.362427 0.402374
0.324158 0.352203 0.390198
0.326447 0.354370 0.392090
0.469055 0.436188 0.450500
0.717194 0.455902 0.362061
0.825623 0.419220 0.296143
0.828949 0.392120 0.267242
0.827698 0.386993 0.262939
0.476013 0.523926 0.586609
0.471008 0.519043 0.581879
0.460968 0.508118 0.571320
0.462158 0.513458 0.572266
0.463745 0.524780 0.574097
0.668488 0.564606 0.393921
0.880524 0.566315 0.262726
0.943024 0.547272 0.268921
0.944061 0.543152 0.266418
0.519531 0.582794 0.645538
0.515839 0.578552 0.639465
0.509460 0.571198 0.628784
0.502045 0.565826 0.620758
0.499664 0.588470 0.649017
0.584137 0.687561 0.684082
0.845856 0.652832 0.342529
0.902893 0.633484 0.257263
0.898865 0.626495 0.249481
0.560638 0.635223 0.703247
0.559448 0.634033 0.702026
0.557526 0.632141 0.700012
0.554230 0.628937 0.696381
0.539948 0.630646 0.693268
0.559662 0.670593 0.724823
0.652466 0.723297 0.648438
0.899719 0.695068 0.373291
0.902344 0.693512 0.367157
0.556793 0.631439 0.699280
0.555481 0.630157 0.697937
0.553558 0.628296 0.695160
0.550110 0.625092 0.689087
0.536316 0.625946 0.686584
0.554382 0.664276 0.715912
0.636658 0.726501 0.670776
0.879395 0.692139 0.387054
0.901398 0.695404 0.369843
0.077423 0.201996 0.255554
0.108215 0.160522 0.222260
0.407257 0.238922 0.340088
0.497833 0.296539 0.388458
0.562897 0.335785 0.429291
0.609344 0.384399 0.477264
0.619720 0.408264 0.496185
0.616486 0.403259 0.489471
0.615082 0.401489 0.487061
0.122955 0.237244 0.293457
0.084503 0.200348 0.256470
0.368469 0.223236 0.328644
0.486786 0.289948 0.382935
0.553192 0.329315 0.423004
0.591064 0.360657 0.452484
0.613190 0.399109 0.483795
0.610504 0.395721 0.479156
0.609375 0.394562 0.477081
0.203033 0.306580 0.364410
0.197144 0.301605 0.359161
0.105438 0.233765 0.305206
0.365662 0.258453 0.376556
0.517853 0.326111 0.423706
0.587341 0.364166 0.449219
0.614502 0.415741 0.490234
0.608429 0.406647 0.478851
0.606049 0.403107 0.474396
0.254913 0.343475 0.400787
0.249786 0.338715 0.395813
0.216309 0.321472 0.381622
0.182831 0.311859 0.388428
0.466217 0.363281 0.464691
0.605713 0.431824 0.504425
0.627808 0.470184 0.526917
0.621460 0.460388 0.513641
0.619324 0.456757 0.508789
0.354492 0.410187 0.467621
0.349091 0.405212 0.461395
0.336700 0.392944 0.449188
0.298492 0.378845 0.442261
0.390778 0.438293 0.519135
0.622955 0.525879 0.591522
0.687439 0.516144 0.536774
0.687317 0.477051 0.472870
0.686462 0.472107 0.464569
0.480896 0.516357 0.575867
0.476501 0.511230 0.569916
0.465759 0.498993 0.555450
0.486694 0.523560 0.583710
0.493744 0.533081 0.593933
0.639130 0.644592 0.677490
0.862671 0.619934 0.523712
0.876678 0.549805 0.428925
0.874573 0.542664 0.421143
0.571259 0.634186 0.701080
0.567932 0.630249 0.696411
0.562622 0.623444 0.688782
0.558685 0.620544 0.684387
0.560150 0.634216 0.701233
0.611725 0.704590 0.770813
0.852966 0.734619 0.531403
0.949982 0.698914 0.380432
0.948822 0.692993 0.370483
0.597748 0.667999 0.743622
0.595825 0.666748 0.742462
0.592987 0.664917 0.740753
0.588806 0.661987 0.737488
0.569550 0.651489 0.722046
0.581390 0.682434 0.744873
0.650665 0.758026 0.752106
0.926941 0.741302 0.435944
0.934418 0.743256 0.432587
0.591919 0.664215 0.740112
0.590149 0.662964 0.738678
0.587830 0.661285 0.736603
0.584381 0.658569 0.732880
0.567352 0.648560 0.719543
0.576080 0.675873 0.737976
0.635193 0.751587 0.763947
0.890839 0.731140 0.448090
0.928314 0.736115 0.420288
0.077148 0.201691 0.255219
0.092316 0.158905 0.215820
0.397766 0.234375 0.335999
0.493896 0.293976 0.384888
0.562164 0.335083 0.428741
0.619263 0.402618 0.493622
0.637878 0.438385 0.529633
0.637878 0.438385 0.529633
0.637878 0.438385 0.529633
0.113312 0.229218 0.284302
0.081543 0.200012 0.255219
0.367096 0.219421 0.322083
0.482483 0.286987 0.379089
0.554138 0.329681 0.423767
0.610596 0.383179 0.480530
0.637878 0.438385 0.529633
0.637878 0.438385 0.529633
0.637878 0.438385 0.529633
0.208038 0.310211 0.366455
0.203583 0.306702 0.362915
0.106537 0.241241 0.317932
0.377655 0.268768 0.386749
0.528198 0.329468 0.432587
0.614685 0.398926 0.493225
0.646667 0.457428 0.547028
0.643463 0.450317 0.539612
0.642090 0.447388 0.537048
0.282166 0.366760 0.427155
0.277679 0.363892 0.424225
0.241211 0.340332 0.402649
0.180023 0.313324 0.395355
0.460632 0.351410 0.465851
0.619751 0.441101 0.534485
0.675140 0.518738 0.602173
0.671661 0.511353 0.593811
0.670166 0.507324 0.590485
0.376556 0.440765 0.504669
0.372070 0.437439 0.500854
0.361816 0.429871 0.491852
0.266632 0.373718 0.444000
0.301178 0.396362 0.481659
0.593719 0.476379 0.573761
0.686768 0.554840 0.634949
0.686554 0.557373 0.634796
0.684692 0.553833 0.630341
0.486389 0.527954 0.591583
0.481232 0.523926 0.587250
0.471252 0.516174 0.578888
0.451508 0.501648 0.566101
0.403290 0.480957 0.551941
0.586395 0.588898 0.686707
0.739685 0.657837 0.728882
0.748810 0.644257 0.697052
0.745575 0.638672 0.690887
0.576050 0.624756 0.690552
0.573730 0.621765 0.687500
0.569672 0.615509 0.683777
0.568298 0.615479 0.682129
0.599426 0.652100 0.724823
0.636017 0.700317 0.779449
0.805634 0.851471 0.884857
0.958221 0.788269 0.712952
0.955963 0.778656 0.700897
0.611542 0.672211 0.747437
0.612488 0.673798 0.748932
0.613892 0.676178 0.751190
0.617188 0.681213 0.758362
0.634583 0.708527 0.786957
0.624542 0.706543 0.780426
0.679718 0.791595 0.863190
0.948883 0.821503 0.618652
0.962189 0.825531 0.618713
0.614685 0.677399 0.752960
0.616119 0.679596 0.756042
0.618073 0.682587 0.760284
0.620605 0.686859 0.764679
0.630310 0.704193 0.782867
0.616211 0.697754 0.769348
0.661316 0.768982 0.843079
0.904724 0.799927 0.608673
0.952087 0.784241 0.527039
0.077148 0.201691 0.255219
0.084839 0.158356 0.212860
0.394287 0.232819 0.334839
0.492462 0.293091 0.384094
0.561188 0.334412 0.428131
0.618103 0.400055 0.491791
0.637878 0.438385 0.529633
0.637878 0.438385 0.529633
0.637878 0.438385 0.529633
0.109039 0.225800 0.280548
0.080658 0.200378 0.255219
0.363983 0.217834 0.320496
0.480835 0.285980 0.378174
0.553070 0.328979 0.423126
0.609375 0.381287 0.478577
0.637878 0.438385 0.529633
0.637878 0.438385 0.529633
0.637878 0.438385 0.529633
0.205994 0.308716 0.364838
0.201782 0.305206 0.361450
0.105042 0.239410 0.315613
0.376312 0.266052 0.384277
0.525909 0.327026 0.429932
0.612274 0.393921 0.489166
0.645599 0.455078 0.544586
0.642120 0.447479 0.537109
0.640717 0.444458 0.534637
0.279419 0.364990 0.425354
0.274963 0.362061 0.422272
0.241028 0.339783 0.401978
0.176849 0.310822 0.392334
0.456390 0.348236 0.463074
0.616760 0.436829 0.530457
0.674927 0.518097 0.601135
0.673431 0.514374 0.597015
0.672546 0.512177 0.595215
0.372894 0.438049 0.501587
0.368500 0.434784 0.497681
0.358521 0.427399 0.488831
0.265656 0.372101 0.441925
0.288574 0.387238 0.472839
0.582306 0.460571 0.559479
0.690948 0.557617 0.640808
0.697418 0.571228 0.654694
0.696564 0.569153 0.652954
0.483276 0.525879 0.589081
0.478699 0.522278 0.585052
0.470062 0.515533 0.577484
0.441925 0.493317 0.558777
0.357574 0.446686 0.516754
0.507355 0.525726 0.622162
0.704071 0.621460 0.705963
0.734833 0.652954 0.735199
0.733002 0.649261 0.731232
0.574829 0.621216 0.685669
0.572784 0.617737 0.683563
0.569275 0.611786 0.679993
0.564148 0.605011 0.674072
0.568756 0.610382 0.678131
0.566071 0.614990 0.684326
0.750031 0.773560 0.860626
0.900635 0.826843 0.842560
0.892365 0.818817 0.839081
0.612885 0.666138 0.739929
0.612885 0.666138 0.739929
0.612885 0.666138 0.739929
0.612885 0.666138 0.739929
0.625366 0.681885 0.755890
0.638062 0.698273 0.773254
0.675720 0.748016 0.821472
0.964569 0.977692 0.982727
1.000000 0.980011 0.968384
0.612885 0.666138 0.739929
0.612885 0.666138 0.739929
0.612885 0.666138 0.739929
0.612885 0.666138 0.739929
0.624176 0.680695 0.754150
0.637634 0.698700 0.774261
0.672638 0.746094 0.821716
0.894135 0.943115 0.966644
0.986755 0.969147 0.924988
0.077148 0.201691 0.255219
0.082306 0.158844 0.212677
0.392487 0.232025 0.334229
0.491638 0.292603 0.383636
0.560669 0.334076 0.427826
0.617462 0.398621 0.490845
0.637878 0.438385 0.529633
0.637878 0.438385 0.529633
0.637878 0.438385 0.529633
0.106506 0.223907 0.278534
0.080139 0.200562 0.255219
0.362061 0.216949 0.319519
0.479828 0.285339 0.377625
0.552551 0.328644 0.422791
0.608795 0.380371 0.477661
0.637878 0.438385 0.529633
0.637878 0.438385 0.529633
0.637878 0.438385 0.529633
0.205017 0.307892 0.364044
0.200867 0.304413 0.360718
0.104401 0.238556 0.314270
0.375671 0.264862 0.383301
0.524872 0.326019 0.428802
0.611298 0.391968 0.487549
0.645233 0.454254 0.543701
0.641663 0.446472 0.536285
0.640228 0.443390 0.533752
0.278229 0.364227 0.424591
0.274109 0.361359 0.421417
0.240875 0.339539 0.401703
0.175659 0.309906 0.391205
0.455017 0.347046 0.461853
0.615631 0.435272 0.528961
0.674500 0.517059 0.600037
0.673126 0.513611 0.596405
0.672211 0.511353 0.594513
0.371582 0.437073 0.500427
0.366974 0.433685 0.496338
0.357239 0.426453 0.487732
0.265198 0.371521 0.441284
0.286804 0.386017 0.471802
0.580536 0.458832 0.558075
0.690308 0.556213 0.639435
0.697144 0.570587 0.654114
0.696259 0.568481 0.652374
0.481934 0.524811 0.587921
0.477356 0.521240 0.583893
0.468781 0.514526 0.576385
0.440643 0.491974 0.557709
0.355713 0.445465 0.515656
0.503754 0.523315 0.619812
0.702576 0.619476 0.704041
0.734192 0.651672 0.733826
0.732391 0.648041 0.729889
0.574219 0.620178 0.685028
0.572083 0.616547 0.682861
0.568604 0.610687 0.679352
0.563232 0.604004 0.673065
0.567505 0.608612 0.676453
0.563812 0.612335 0.681732
0.747498 0.769897 0.857971
0.897766 0.824066 0.841370
0.889526 0.816101 0.837891
0.612885 0.666138 0.739929
0.612885 0.666138 0.739929
0.612885 0.666138 0.739929
0.612885 0.666138 0.739929
0.625244 0.681732 0.755585
0.637665 0.697784 0.772705
0.671906 0.742493 0.815155
0.958008 0.976562 0.994232
0.999908 0.990692 0.987518
0.612885 0.666138 0.739929
0.612885 0.666138 0.739929
0.612885 0.666138 0.739929
0.612885 0.666138 0.739929
0.623840 0.679962 0.752777
0.636444 0.696167 0.770874
0.665253 0.734131 0.807709
0.883026 0.942413 1.000000
1.000000 0.999481 1.000000
