nova/tdt-studio/app/Lut_mau/IWLTBAP/1 - LUTs by IWLTBAP (CUBE)/02 - Generic LOG/Psychedelia/Choweed - LOG.cube
# Copyright: (C) Copyright 2010-2018 by IWLTBAP SAS
# Cannot be resold, shared or otherwise redistributed
# Website: https://luts.iwltbap.com
TITLE "IWLTBAP Choweed (Generic LOG)"
LUT_3D_SIZE 5
0.002380 0.000000 0.000793
0.254211 0.073608 0.076355
0.516846 0.133240 0.127045
0.721344 0.152649 0.101013
0.721344 0.152649 0.101013
0.044434 0.081024 0.085236
0.116760 0.095306 0.094727
0.565399 0.180908 0.079956
0.754242 0.195007 0.104584
0.746521 0.185394 0.105286
0.240112 0.282715 0.303833
0.218109 0.258972 0.277740
0.528107 0.354431 0.171143
0.906555 0.425049 0.037140
0.903839 0.399292 0.042145
0.456940 0.527771 0.573151
0.440918 0.509460 0.553070
0.493835 0.590454 0.648407
0.817017 0.629761 0.331543
0.865692 0.623260 0.270447
0.511505 0.589325 0.648804
0.511505 0.589325 0.648804
0.520630 0.622437 0.679535
0.661804 0.696564 0.589020
0.896362 0.689575 0.363190
0.007721 0.054901 0.073090
0.275177 0.162506 0.183411
0.480133 0.199921 0.239502
0.695923 0.198242 0.212311
0.704254 0.187622 0.192627
0.090607 0.124939 0.131805
0.127716 0.120270 0.127625
0.562012 0.187073 0.138611
0.755127 0.195679 0.124786
0.747986 0.184631 0.119263
0.264160 0.307068 0.332123
0.225891 0.266327 0.287811
0.518402 0.346832 0.166687
0.901367 0.418182 0.037750
0.900513 0.392822 0.043121
0.450165 0.520813 0.564941
0.437378 0.504456 0.548279
0.490448 0.585968 0.643097
0.814087 0.627228 0.329803
0.864502 0.619324 0.266571
0.511505 0.589325 0.648804
0.511505 0.589325 0.648804
0.519745 0.620911 0.678284
0.655060 0.698730 0.598389
0.896362 0.689575 0.363190
0.027069 0.137695 0.182648
0.355865 0.208496 0.288422
0.512390 0.304779 0.365143
0.569031 0.371857 0.424255
0.565491 0.369446 0.417999
0.148712 0.234772 0.276917
0.071014 0.186615 0.237732
0.489166 0.309845 0.363068
0.568298 0.376526 0.408020
0.561401 0.367157 0.397491
0.341614 0.367981 0.409027
0.324158 0.352203 0.390198
0.469055 0.436188 0.450500
0.825623 0.419220 0.296143
0.827698 0.386993 0.262939
0.519531 0.582794 0.645538
0.509460 0.571198 0.628784
0.499664 0.588470 0.649017
0.845856 0.652832 0.342529
0.898865 0.626495 0.249481
0.556793 0.631439 0.699280
0.553558 0.628296 0.695160
0.536316 0.625946 0.686584
0.636658 0.726501 0.670776
0.901398 0.695404 0.369843
0.077148 0.201691 0.255219
0.397766 0.234375 0.335999
0.562164 0.335083 0.428741
0.637878 0.438385 0.529633
0.637878 0.438385 0.529633
0.208038 0.310211 0.366455
0.106537 0.241241 0.317932
0.528198 0.329468 0.432587
0.646667 0.457428 0.547028
0.642090 0.447388 0.537048
0.376556 0.440765 0.504669
0.361816 0.429871 0.491852
0.301178 0.396362 0.481659
0.686768 0.554840 0.634949
0.684692 0.553833 0.630341
0.576050 0.624756 0.690552
0.569672 0.615509 0.683777
0.599426 0.652100 0.724823
0.805634 0.851471 0.884857
0.955963 0.778656 0.700897
0.614685 0.677399 0.752960
0.618073 0.682587 0.760284
0.630310 0.704193 0.782867
0.661316 0.768982 0.843079
0.952087 0.784241 0.527039
0.077148 0.201691 0.255219
0.392487 0.232025 0.334229
0.560669 0.334076 0.427826
0.637878 0.438385 0.529633
0.637878 0.438385 0.529633
0.205017 0.307892 0.364044
0.104401 0.238556 0.314270
0.524872 0.326019 0.428802
0.645233 0.454254 0.543701
0.640228 0.443390 0.533752
0.371582 0.437073 0.500427
0.357239 0.426453 0.487732
0.286804 0.386017 0.471802
0.690308 0.556213 0.639435
0.696259 0.568481 0.652374
0.574219 0.620178 0.685028
0.568604 0.610687 0.679352
0.567505 0.608612 0.676453
0.747498 0.769897 0.857971
0.889526 0.816101 0.837891
0.612885 0.666138 0.739929
0.612885 0.666138 0.739929
0.623840 0.679962 0.752777
0.665253 0.734131 0.807709
1.000000 0.999481 1.000000
