nova/tdt-studio/app/Lut_mau/IWLTBAP/1 - LUTs by IWLTBAP (CUBE)/02 - Generic LOG/Psychedelia/Esromen - LOG.cube
# Copyright: (C) Copyright 2010-2018 by IWLTBAP SAS
# Cannot be resold, shared or otherwise redistributed
# Website: https://luts.iwltbap.com
TITLE "IWLTBAP Esromen (Generic LOG)"
LUT_3D_SIZE 33
0.000000 0.000000 0.000000
0.002167 0.000122 0.000092
0.034698 0.001801 0.001465
0.074463 0.004028 0.002899
0.113556 0.006256 0.004120
0.156738 0.008698 0.004974
0.199005 0.011475 0.005524
0.244812 0.014221 0.005615
0.290405 0.016876 0.005371
0.338959 0.019623 0.005096
0.388428 0.022308 0.004852
0.440094 0.024994 0.004852
0.492645 0.027771 0.004852
0.546173 0.030457 0.004852
0.598999 0.033081 0.005096
0.652313 0.035706 0.005096
0.704529 0.038147 0.005310
0.756653 0.040527 0.005341
0.808136 0.042755 0.005341
0.860199 0.045044 0.005615
0.901611 0.046814 0.005615
0.927765 0.047913 0.005615
0.927765 0.047913 0.005615
0.927765 0.047913 0.005615
0.927765 0.047913 0.005615
0.927765 0.047913 0.005615
0.927765 0.047913 0.005615
0.927765 0.047913 0.005615
0.927765 0.047913 0.005615
0.927765 0.047913 0.005615
0.927765 0.047913 0.005615
0.927765 0.047913 0.005615
0.927765 0.047913 0.005615
0.000000 0.000000 0.000000
0.000000 0.000000 0.000000
0.024963 0.001282 0.001038
0.065430 0.003571 0.002686
0.104919 0.005737 0.003815
0.148285 0.008118 0.004822
0.191254 0.010986 0.005463
0.237030 0.013794 0.005615
0.282471 0.016418 0.005432
0.331390 0.019165 0.005096
0.380707 0.021912 0.004883
0.432800 0.024597 0.004852
0.485291 0.027405 0.004852
0.539337 0.030090 0.004852
0.592102 0.032715 0.005066
0.645905 0.035400 0.005096
0.698181 0.037842 0.005249
0.750946 0.040283 0.005341
0.802521 0.042542 0.005341
0.854736 0.044830 0.005615
0.899017 0.046692 0.005615
0.925781 0.047821 0.005615
0.927765 0.047913 0.005615
0.927765 0.047913 0.005615
0.927765 0.047913 0.005615
0.927765 0.047913 0.005615
0.927765 0.047913 0.005615
0.927765 0.047913 0.005615
0.927765 0.047913 0.005615
0.927765 0.047913 0.005615
0.927765 0.047913 0.005615
0.927765 0.047913 0.005615
0.927765 0.047913 0.005615
0.000549 0.012543 0.020203
0.000488 0.010864 0.017487
0.013733 0.012787 0.012512
0.054993 0.014191 0.005585
0.096069 0.012238 0.005249
0.139587 0.011017 0.005402
0.183167 0.010498 0.005402
0.229187 0.013306 0.005615
0.274475 0.015930 0.005524
0.323517 0.018738 0.005096
0.373260 0.021515 0.004944
0.425171 0.024200 0.004852
0.477905 0.027069 0.004852
0.531982 0.029694 0.004852
0.585419 0.032410 0.005035
0.639404 0.035095 0.005096
0.692078 0.037567 0.005188
0.744720 0.039978 0.005341
0.796722 0.042297 0.005341
0.849182 0.044586 0.005615
0.896423 0.046600 0.005615
0.923187 0.047729 0.005615
0.927765 0.047913 0.005615
0.927765 0.047913 0.005615
0.927765 0.047913 0.005615
0.927765 0.047913 0.005615
0.927765 0.047913 0.005615
0.927765 0.047913 0.005615
0.927765 0.047913 0.005615
0.927765 0.047913 0.005615
0.927765 0.047913 0.005615
0.927765 0.047913 0.005615
0.927765 0.047913 0.005615
0.000793 0.031006 0.050537
0.000793 0.029572 0.048157
0.005737 0.029053 0.044891
0.036530 0.035400 0.032959
0.082581 0.038605 0.012604
0.126404 0.036682 0.011353
0.170502 0.034332 0.009857
0.217255 0.032593 0.008545
0.263550 0.030548 0.007294
0.313080 0.028229 0.005920
0.362335 0.025970 0.005249
0.414001 0.023590 0.004852
0.466644 0.026459 0.004852
0.520813 0.029144 0.004852
0.574585 0.031921 0.004944
0.628815 0.034576 0.005096
0.681732 0.037079 0.005096
0.734741 0.039551 0.005341
0.786804 0.041870 0.005341
0.839417 0.044159 0.005524
0.889832 0.046295 0.005615
0.919769 0.047577 0.005615
0.927765 0.047913 0.005615
0.927765 0.047913 0.005615
0.927765 0.047913 0.005615
0.927765 0.047913 0.005615
0.927765 0.047913 0.005615
0.927765 0.047913 0.005615
0.927765 0.047913 0.005615
0.927765 0.047913 0.005615
0.927765 0.047913 0.005615
0.927765 0.047913 0.005615
0.927765 0.047913 0.005615
0.000793 0.051758 0.082886
0.000793 0.050293 0.080627
0.000793 0.048798 0.078339
0.020935 0.051453 0.073059
0.058807 0.060486 0.052246
0.111298 0.066925 0.019379
0.155914 0.065155 0.016754
0.203278 0.063416 0.014069
0.251068 0.061523 0.011383
0.301483 0.058746 0.008942
0.351715 0.056152 0.007172
0.404480 0.053040 0.006012
0.457062 0.049255 0.005371
0.510834 0.045197 0.005096
0.564270 0.040161 0.004913
0.617828 0.034027 0.005096
0.670990 0.036591 0.005096
0.724457 0.039062 0.005341
0.776794 0.041412 0.005341
0.829559 0.043701 0.005432
0.881500 0.045959 0.005615
0.914917 0.047363 0.005615
0.927765 0.047913 0.005615
0.927765 0.047913 0.005615
0.927765 0.047913 0.005615
0.927765 0.047913 0.005615
0.927765 0.047913 0.005615
0.927765 0.047913 0.005615
0.927765 0.047913 0.005615
0.927765 0.047913 0.005615
0.927765 0.047913 0.005615
0.927765 0.047913 0.005615
0.927765 0.047913 0.005615
0.001495 0.073761 0.116821
0.001434 0.072479 0.114838
0.001373 0.071014 0.112579
0.010162 0.071350 0.107330
0.039856 0.077026 0.097687
0.079865 0.087067 0.069672
0.139648 0.096466 0.025238
0.187073 0.094757 0.021057
0.235626 0.093262 0.017181
0.287140 0.091553 0.013275
0.338898 0.089233 0.010162
0.393005 0.086884 0.007996
0.446472 0.084167 0.006500
0.501129 0.080902 0.005829
0.555115 0.077545 0.005432
0.609222 0.073425 0.005463
0.662018 0.069397 0.005432
0.715118 0.064514 0.005585
0.766998 0.059601 0.005676
0.819000 0.054779 0.005554
0.870728 0.051025 0.005707
0.909912 0.047150 0.005615
0.927765 0.047913 0.005615
0.927765 0.047913 0.005615
0.927765 0.047913 0.005615
0.927765 0.047913 0.005615
0.927765 0.047913 0.005615
0.927765 0.047913 0.005615
0.927765 0.047913 0.005615
0.927765 0.047913 0.005615
0.927765 0.047913 0.005615
0.927765 0.047913 0.005615
0.927765 0.047913 0.005615
0.001587 0.097748 0.153046
0.001587 0.096222 0.150818
0.001587 0.094910 0.148834
0.001587 0.092590 0.145325
0.024841 0.097656 0.135376
0.056549 0.104675 0.120941
0.100525 0.115753 0.085846
0.168945 0.127014 0.031494
0.219055 0.125549 0.024811
0.271332 0.123901 0.019379
0.324341 0.122040 0.014801
0.379974 0.119629 0.010925
0.434692 0.117157 0.008423
0.490417 0.114136 0.006836
0.544922 0.110992 0.006042
0.599548 0.107483 0.005768
0.652893 0.103363 0.005829
0.706573 0.099304 0.005951
0.758820 0.094727 0.006104
0.811096 0.090302 0.006226
0.863098 0.085419 0.006348
0.905731 0.080750 0.006287
0.930878 0.075562 0.006348
0.930145 0.069061 0.006195
0.929352 0.061920 0.005981
0.929047 0.059204 0.005920
0.928741 0.056580 0.005859
0.928497 0.054382 0.005798
0.928223 0.051971 0.005737
0.927917 0.049316 0.005646
0.927765 0.047913 0.005615
0.927765 0.047913 0.005615
0.927765 0.047913 0.005615
0.001801 0.123718 0.190552
0.001740 0.122559 0.188873
0.001709 0.121124 0.186829
0.001617 0.118622 0.183228
0.011627 0.119629 0.175995
0.039551 0.126801 0.161896
0.071259 0.134094 0.143738
0.121399 0.146118 0.101471
0.198303 0.158844 0.037964
0.252777 0.158020 0.028198
0.307159 0.156128 0.021484
0.363953 0.154266 0.015961
0.420288 0.152161 0.011749
0.477448 0.149384 0.008911
0.533295 0.146576 0.007324
0.588745 0.143005 0.006592
0.642792 0.139618 0.006500
0.696716 0.135559 0.006409
0.749420 0.131622 0.006592
0.802368 0.127228 0.006927
0.854492 0.122925 0.007019
0.903229 0.118347 0.007294
0.935211 0.112671 0.007385
0.934357 0.105530 0.007202
0.933472 0.098114 0.006989
0.932861 0.092712 0.006836
0.932465 0.089264 0.006744
0.932129 0.086273 0.006653
0.931763 0.083191 0.006561
0.931396 0.080048 0.006470
0.931030 0.076843 0.006378
0.931000 0.076691 0.006378
0.931000 0.076538 0.006378
0.002380 0.151459 0.229980
0.002350 0.150269 0.228302
0.002350 0.149078 0.226624
0.002350 0.146576 0.223083
0.002350 0.143829 0.219208
0.025665 0.150818 0.205688
0.051788 0.157898 0.188873
0.086182 0.165039 0.166412
0.142883 0.177551 0.116791
0.230286 0.191895 0.043060
0.287537 0.190796 0.031403
0.345764 0.188965 0.023529
0.403870 0.186676 0.017120
0.462921 0.184265 0.012421
0.520294 0.181274 0.009521
0.576996 0.178101 0.007996
0.632172 0.174652 0.007233
0.686768 0.170715 0.007202
0.739899 0.166840 0.007324
0.793152 0.162537 0.007538
0.845825 0.158386 0.007874
0.895721 0.153809 0.008148
0.939636 0.149231 0.008423
0.938812 0.142365 0.008209
0.937988 0.135712 0.008026
0.937286 0.129852 0.007874
0.936920 0.126953 0.007782
0.936615 0.124207 0.007721
0.936279 0.121460 0.007629
0.935913 0.118408 0.007538
0.935547 0.115570 0.007477
0.935547 0.115387 0.007477
0.935516 0.115265 0.007477
0.002960 0.181030 0.271210
0.002930 0.179840 0.269562
0.002899 0.178619 0.267883
0.002808 0.176239 0.264557
0.002716 0.173462 0.260742
0.013611 0.176605 0.251678
0.034241 0.183319 0.237732
0.063416 0.190491 0.215637
0.100616 0.197479 0.190430
0.165955 0.210449 0.132507
0.263214 0.226074 0.048004
0.323944 0.225128 0.034637
0.383759 0.223022 0.025696
0.445160 0.220764 0.018463
0.504333 0.217987 0.013489
0.563110 0.215027 0.010468
0.619812 0.211792 0.008881
0.675507 0.207947 0.008331
0.729614 0.204285 0.008118
0.783539 0.200165 0.008453
0.836548 0.196136 0.008942
0.889587 0.191772 0.009369
0.937836 0.187317 0.009644
0.943634 0.180817 0.009491
0.942810 0.174316 0.009247
0.941986 0.167999 0.009033
0.941620 0.165070 0.008911
0.941254 0.162292 0.008820
0.940887 0.159210 0.008698
0.940521 0.156433 0.008606
0.940186 0.153595 0.008545
0.940155 0.153473 0.008514
0.940155 0.153320 0.008514
0.003235 0.211060 0.313049
0.003174 0.209930 0.311462
0.003174 0.208771 0.309845
0.003174 0.206390 0.306549
0.003174 0.203888 0.303040
0.006073 0.203094 0.297607
0.021454 0.209839 0.286621
0.043213 0.216888 0.269135
0.073639 0.224213 0.244873
0.117035 0.231140 0.214325
0.190063 0.244019 0.148407
0.297394 0.260925 0.052673
0.360687 0.259644 0.037964
0.423767 0.257477 0.027893
0.485779 0.254974 0.020172
0.547394 0.251923 0.014679
0.606201 0.248749 0.011597
0.663513 0.245056 0.010040
0.718781 0.241394 0.009552
0.773651 0.237274 0.009613
0.826996 0.233276 0.009918
0.880585 0.228912 0.010376
0.933563 0.224731 0.010712
0.948608 0.218689 0.010620
0.947723 0.212280 0.010376
0.946869 0.205627 0.010193
0.946503 0.202759 0.010132
0.946136 0.200043 0.010040
0.945740 0.197052 0.009979
0.945374 0.194305 0.009888
0.945038 0.191589 0.009827
0.945007 0.191437 0.009827
0.945007 0.191315 0.009827
0.004242 0.241760 0.355713
0.004211 0.240601 0.354095
0.004181 0.239471 0.352539
0.004089 0.237366 0.349609
0.004028 0.235016 0.346375
0.003906 0.231934 0.342041
0.013092 0.237183 0.334381
0.027649 0.244110 0.322327
0.050415 0.251099 0.302551
0.085510 0.258453 0.273773
0.132874 0.264679 0.238983
0.214996 0.278320 0.164490
0.328339 0.295654 0.063110
0.398438 0.295197 0.041504
0.462952 0.292999 0.030548
0.527588 0.290222 0.021942
0.589355 0.287262 0.016479
0.649475 0.283813 0.013153
0.706757 0.280365 0.011658
0.762756 0.276398 0.011017
0.817139 0.272552 0.011169
0.871002 0.268280 0.011475
0.924591 0.264130 0.012024
0.952698 0.258636 0.012054
0.953217 0.252350 0.011841
0.952240 0.245544 0.011597
0.951782 0.242157 0.011475
0.951385 0.239349 0.011383
0.951019 0.236603 0.011261
0.950623 0.233551 0.011169
0.950226 0.230774 0.011047
0.950195 0.230591 0.011047
0.950195 0.230438 0.011047
0.005310 0.271820 0.397675
0.005280 0.270752 0.396179
0.005219 0.269501 0.394409
0.005157 0.267517 0.391632
0.005096 0.265533 0.388855
0.004974 0.262848 0.385132
0.007996 0.263824 0.380035
0.018036 0.270905 0.371796
0.033051 0.277710 0.359009
0.059052 0.285339 0.334900
0.096741 0.292450 0.303284
0.150085 0.298737 0.263458
0.240295 0.313019 0.181000
0.360382 0.330597 0.074005
0.435883 0.331238 0.045380
0.503784 0.328888 0.033295
0.569153 0.326050 0.024292
0.632629 0.323059 0.018280
0.692780 0.319519 0.014893
0.751038 0.315918 0.013275
0.806458 0.311859 0.012787
0.861450 0.307770 0.012726
0.915222 0.303406 0.013000
0.952209 0.298401 0.013153
0.958832 0.292084 0.013031
0.957886 0.285583 0.012878
0.957306 0.281403 0.012756
0.956909 0.278595 0.012695
0.956512 0.275818 0.012604
0.956085 0.272827 0.012543
0.955688 0.270050 0.012451
0.955658 0.269867 0.012451
0.955658 0.269714 0.012451
0.007324 0.301331 0.439301
0.007202 0.300293 0.437866
0.007111 0.299286 0.436432
0.006958 0.297607 0.434021
0.006805 0.295502 0.431061
0.006622 0.292969 0.427490
0.006836 0.290955 0.423676
0.012848 0.296936 0.418701
0.022461 0.304077 0.410583
0.039307 0.311646 0.394684
0.066528 0.319061 0.368286
0.108978 0.326202 0.332153
0.166138 0.332581 0.288910
0.265869 0.347778 0.197632
0.390778 0.365784 0.087128
0.474731 0.368042 0.049438
0.543610 0.365814 0.036621
0.611511 0.363037 0.026855
0.675842 0.360138 0.020477
0.736938 0.356598 0.016754
0.794556 0.352936 0.014893
0.850952 0.348724 0.014252
0.905609 0.344604 0.014282
0.950867 0.339752 0.014374
0.963959 0.333954 0.014343
0.963867 0.327271 0.014191
0.963226 0.322815 0.014038
0.962769 0.319733 0.013916
0.962372 0.316895 0.013824
0.961975 0.314056 0.013733
0.961548 0.311249 0.013641
0.961548 0.311096 0.013641
0.961517 0.311005 0.013641
0.010590 0.329376 0.479156
0.010468 0.328369 0.477722
0.010345 0.327240 0.476105
0.010162 0.325684 0.473877
0.009979 0.324127 0.471649
0.009705 0.321838 0.468384
0.009399 0.319183 0.464569
0.011292 0.321442 0.461395
0.017426 0.329071 0.457092
0.027588 0.336365 0.448090
0.045197 0.344147 0.429504
0.075806 0.351959 0.399719
0.120728 0.359436 0.361206
0.183136 0.366241 0.313873
0.291687 0.382629 0.214478
0.423401 0.401581 0.099182
0.513245 0.405457 0.053833
0.585602 0.403442 0.039825
0.654358 0.400726 0.029449
0.719757 0.397736 0.022491
0.780945 0.394043 0.018433
0.839355 0.390167 0.016388
0.895111 0.385803 0.015625
0.948090 0.381317 0.015259
0.966309 0.375458 0.015137
0.969727 0.368896 0.015076
0.969025 0.363892 0.015015
0.968628 0.360931 0.014954
0.968201 0.358032 0.014923
0.967773 0.354919 0.014862
0.967377 0.352081 0.014771
0.967346 0.351929 0.014771
0.967346 0.351807 0.014771
0.014679 0.356842 0.518646
0.014526 0.355896 0.517273
0.014374 0.354950 0.515930
0.014160 0.353638 0.514038
0.013885 0.352112 0.511841
0.013519 0.349792 0.508453
0.013123 0.347382 0.505005
0.012665 0.344788 0.501251
0.016937 0.353058 0.500092
0.022491 0.360687 0.495850
0.032562 0.368164 0.485809
0.051941 0.376434 0.463837
0.083405 0.384491 0.432861
0.132690 0.392395 0.390320
0.199738 0.399963 0.339661
0.318176 0.418091 0.231903
0.454742 0.437897 0.113190
0.553284 0.443756 0.058289
0.626770 0.441895 0.043365
0.697815 0.439240 0.031891
0.763519 0.436157 0.024323
0.825439 0.432312 0.019775
0.883148 0.428192 0.017517
0.939484 0.423645 0.016510
0.967255 0.418304 0.016174
0.975647 0.412018 0.015961
0.974915 0.406494 0.015808
0.974487 0.403351 0.015747
0.974091 0.400482 0.015686
0.973694 0.397644 0.015625
0.973328 0.394867 0.015564
0.973297 0.394714 0.015564
0.973297 0.394562 0.015564
0.019409 0.383301 0.557098
0.019226 0.382385 0.555756
0.019012 0.381500 0.554443
0.018738 0.380219 0.552582
0.018463 0.378876 0.550598
0.018005 0.376740 0.547485
0.017639 0.374451 0.544159
0.017181 0.371765 0.540253
0.018707 0.375732 0.539215
0.022675 0.383362 0.538208
0.027893 0.390686 0.533325
0.038483 0.399017 0.520660
0.058380 0.407532 0.497650
0.092316 0.416321 0.463928
0.144287 0.424927 0.419678
0.217651 0.433472 0.364990
0.345337 0.453918 0.249786
0.489563 0.475006 0.125244
0.593262 0.482666 0.062866
0.669464 0.480743 0.046509
0.740906 0.478333 0.034210
0.807800 0.474884 0.025818
0.869202 0.470947 0.020996
0.927460 0.466370 0.018250
0.966461 0.461090 0.017090
0.981110 0.455200 0.016815
0.980347 0.448944 0.016724
0.980011 0.446014 0.016693
0.979645 0.443085 0.016632
0.979279 0.440186 0.016571
0.978882 0.437134 0.016510
0.978882 0.436981 0.016510
0.978851 0.436859 0.016510
0.025146 0.409302 0.595337
0.024963 0.408447 0.594055
0.024750 0.407562 0.592743
0.024506 0.406464 0.591125
0.024200 0.405121 0.589142
0.023773 0.403137 0.586243
0.023315 0.401031 0.583130
0.022766 0.398560 0.579437
0.022919 0.398285 0.577057
0.025421 0.405762 0.577942
0.028229 0.413086 0.576660
0.033356 0.420868 0.571381
0.043823 0.429535 0.556580
0.064362 0.438904 0.531982
0.099731 0.448059 0.497009
0.156036 0.457794 0.449860
0.234772 0.467590 0.392181
0.373260 0.490387 0.268127
0.521637 0.512482 0.140259
0.633789 0.522095 0.067352
0.711487 0.520325 0.049469
0.784271 0.517700 0.036011
0.850830 0.513977 0.026947
0.913055 0.509796 0.021576
0.959412 0.504669 0.018768
0.986023 0.499084 0.017639
0.985321 0.492584 0.017487
0.984985 0.489380 0.017426
0.984650 0.486481 0.017365
0.984344 0.483459 0.017303
0.984039 0.480621 0.017242
0.984009 0.480469 0.017242
0.984009 0.480347 0.017242
0.030548 0.434509 0.632996
0.030426 0.433685 0.631744
0.030304 0.432831 0.630463
0.030151 0.431732 0.628815
0.029999 0.430573 0.627075
0.029572 0.428680 0.624237
0.029144 0.426758 0.621368
0.028564 0.424316 0.617706
0.028046 0.421967 0.614197
0.029236 0.427399 0.615234
0.031036 0.434418 0.615967
0.033478 0.442078 0.614471
0.038300 0.450134 0.607880
0.049011 0.459839 0.591278
0.070251 0.469421 0.565857
0.108032 0.479553 0.528992
0.168182 0.490387 0.479767
0.253937 0.501892 0.418488
0.401428 0.526855 0.286224
0.557129 0.550476 0.152466
0.672882 0.560913 0.074158
0.753906 0.559845 0.051941
0.826965 0.556885 0.037415
0.894501 0.553162 0.027527
0.951111 0.548401 0.021576
0.990082 0.543152 0.018555
0.989563 0.536713 0.018433
0.989258 0.532959 0.018341
0.988983 0.529816 0.018280
0.988708 0.526947 0.018219
0.988434 0.524139 0.018158
0.988434 0.523987 0.018158
0.988403 0.523865 0.018158
0.034637 0.459442 0.670410
0.034485 0.458618 0.669189
0.034332 0.457764 0.667908
0.034149 0.456726 0.666351
0.033905 0.455566 0.664581
0.033600 0.453888 0.662079
0.033264 0.452057 0.659332
0.032806 0.449768 0.655884
0.032410 0.447540 0.652557
0.033417 0.449249 0.651672
0.034454 0.455505 0.653320
0.035767 0.462860 0.654205
0.037842 0.470642 0.652344
0.042542 0.479919 0.643829
0.053223 0.489899 0.626709
0.075714 0.500519 0.600250
0.116119 0.511505 0.562256
0.180786 0.523743 0.510803
0.271729 0.536560 0.446289
0.430145 0.564178 0.304413
0.589478 0.588562 0.166870
0.711060 0.600342 0.082001
0.794861 0.599731 0.054352
0.869598 0.596771 0.038269
0.936707 0.592590 0.027130
0.988770 0.587738 0.020233
0.992798 0.581451 0.019592
0.992523 0.577118 0.019440
0.992310 0.573975 0.019318
0.992126 0.571136 0.019226
0.991943 0.568268 0.019135
0.991943 0.568146 0.019135
0.991943 0.568024 0.019135
0.037079 0.483551 0.706665
0.037079 0.482788 0.705505
0.037079 0.481995 0.704346
0.037079 0.481018 0.702850
0.037079 0.479919 0.701172
0.036896 0.478302 0.698761
0.036743 0.476685 0.696320
0.036560 0.474609 0.693207
0.036316 0.472351 0.689789
0.036194 0.470490 0.686646
0.037354 0.476013 0.688568
0.038696 0.483215 0.690826
0.039886 0.490753 0.691406
0.041199 0.499237 0.689484
0.046234 0.509399 0.678955
0.057831 0.520050 0.660889
0.081818 0.531219 0.634064
0.125458 0.543427 0.594177
0.194153 0.556824 0.540771
0.291504 0.571106 0.471741
0.457764 0.600586 0.321686
0.623657 0.626404 0.178406
0.750183 0.639313 0.087097
0.836884 0.639374 0.055573
0.912323 0.636078 0.037720
0.979767 0.632050 0.024567
0.994720 0.626129 0.021790
0.994659 0.621307 0.021454
0.994537 0.618164 0.021271
0.994415 0.615356 0.021118
0.994293 0.612549 0.020996
0.994293 0.612427 0.020966
0.994293 0.612274 0.020966
0.037079 0.507263 0.742188
0.037079 0.506500 0.741058
0.037079 0.505707 0.739868
0.037079 0.504730 0.738434
0.037079 0.503754 0.736969
0.037079 0.502258 0.734741
0.037079 0.500732 0.732452
0.037079 0.498810 0.729553
0.037079 0.496643 0.726349
0.037079 0.494385 0.722961
0.037903 0.496338 0.722717
0.039551 0.503143 0.725372
0.040649 0.510529 0.727478
0.042236 0.518768 0.727966
0.044495 0.528320 0.724731
0.049957 0.539215 0.713196
0.062622 0.550354 0.695190
0.088562 0.562164 0.666992
0.134186 0.575287 0.626434
0.207367 0.589722 0.569885
0.308685 0.605316 0.498169
0.484772 0.637238 0.338501
0.654633 0.664062 0.191681
0.787354 0.678619 0.093658
0.878601 0.679749 0.056061
0.957764 0.676697 0.035004
0.994019 0.671631 0.025879
0.994904 0.666321 0.025177
0.994934 0.663391 0.024872
0.994965 0.660309 0.024536
0.995026 0.657501 0.024261
0.995026 0.657318 0.024231
0.995026 0.657166 0.024231
0.034851 0.530182 0.776031
0.034973 0.529327 0.774811
0.035095 0.528595 0.773743
0.035248 0.527679 0.772400
0.035400 0.526733 0.771057
0.035583 0.525421 0.769104
0.035736 0.523956 0.766937
0.035919 0.522125 0.764221
0.036133 0.520111 0.761292
0.036377 0.517883 0.757965
0.036591 0.515717 0.754791
0.038757 0.522766 0.758118
0.040710 0.529846 0.760925
0.042633 0.538116 0.763062
0.044861 0.547241 0.763458
0.048279 0.558136 0.757965
0.054932 0.569214 0.746155
0.068695 0.580872 0.727448
0.095642 0.592987 0.698761
0.143890 0.606812 0.656281
0.219269 0.621918 0.597687
0.325806 0.638306 0.521088
0.510193 0.672699 0.354065
0.687836 0.701202 0.201202
0.825684 0.717346 0.099396
0.924957 0.720032 0.053558
0.983551 0.716675 0.035522
0.992828 0.710999 0.031830
0.993134 0.708038 0.031128
0.993347 0.704987 0.030640
0.993500 0.702148 0.030182
0.993500 0.701996 0.030151
0.993500 0.701843 0.030121
0.030518 0.552795 0.808777
0.030670 0.552094 0.807739
0.030853 0.551361 0.806702
0.031067 0.550354 0.805237
0.031250 0.549408 0.803925
0.031525 0.548279 0.802277
0.031799 0.546967 0.800385
0.032196 0.545135 0.797760
0.032593 0.543243 0.795044
0.033051 0.541199 0.792084
0.033417 0.538971 0.788879
0.035217 0.542236 0.789551
0.038116 0.549011 0.792389
0.041534 0.557251 0.795349
0.044891 0.566498 0.797394
0.048126 0.576965 0.797241
0.052887 0.588409 0.790039
0.060486 0.599915 0.777527
0.074493 0.611084 0.758148
0.101807 0.623352 0.728699
0.151398 0.637238 0.684906
0.229645 0.653137 0.623840
0.339111 0.670227 0.544403
0.534760 0.707733 0.368805
0.719635 0.738281 0.212097
0.867615 0.756958 0.103577
0.960754 0.761353 0.054138
0.985504 0.756470 0.044434
0.986969 0.753296 0.043121
0.987488 0.750488 0.042206
0.988007 0.747681 0.041260
0.988007 0.747559 0.041229
0.988068 0.747375 0.041168
0.024261 0.575104 0.840240
0.024506 0.574371 0.839203
0.024750 0.573639 0.838196
0.025055 0.572754 0.836945
0.025360 0.571808 0.835663
0.025757 0.570587 0.833954
0.026123 0.569427 0.832336
0.026581 0.567719 0.829926
0.027100 0.565826 0.827209
0.027679 0.563782 0.824341
0.028229 0.561676 0.821381
0.029419 0.561066 0.819275
0.033020 0.567993 0.822357
0.038055 0.575958 0.825409
0.042786 0.585541 0.828583
0.048096 0.596313 0.830688
0.053192 0.607880 0.828949
0.058807 0.619568 0.820374
0.066193 0.630310 0.807190
0.079529 0.640839 0.786835
0.105988 0.652313 0.756836
0.156067 0.666168 0.711639
0.235352 0.682373 0.649628
0.350952 0.700989 0.566772
0.559479 0.742493 0.383881
0.757172 0.776489 0.221100
0.911957 0.797363 0.109222
0.963501 0.799530 0.073792
0.974396 0.797394 0.064697
0.976166 0.795074 0.061401
0.977448 0.792480 0.059113
0.977478 0.792389 0.059052
0.977539 0.792236 0.058990
0.017548 0.597565 0.871399
0.017761 0.596863 0.870422
0.017944 0.596161 0.869446
0.018219 0.595154 0.868042
0.018463 0.594269 0.866821
0.018738 0.593262 0.865448
0.019073 0.592163 0.863892
0.019562 0.590393 0.861420
0.020050 0.588593 0.858948
0.020599 0.586670 0.856262
0.021179 0.584534 0.853333
0.021881 0.582367 0.850311
0.025909 0.587036 0.851593
0.031891 0.594849 0.854675
0.038849 0.604462 0.858063
0.046661 0.615967 0.861572
0.053528 0.627747 0.863434
0.059509 0.640015 0.859161
0.064575 0.650604 0.849579
0.070282 0.659882 0.835144
0.081482 0.668854 0.814209
0.106445 0.679596 0.783936
0.154419 0.693024 0.739746
0.236145 0.710327 0.677155
0.358551 0.731384 0.594025
0.587189 0.779053 0.403137
0.799622 0.817596 0.234833
0.902832 0.831085 0.156067
0.937988 0.833221 0.128754
0.940796 0.831116 0.123932
0.943787 0.828888 0.118866
0.943970 0.828766 0.118561
0.944092 0.828644 0.118347
0.017395 0.598145 0.872223
0.017395 0.598145 0.872192
0.017395 0.598145 0.872192
0.017395 0.598114 0.872192
0.017395 0.598114 0.872192
0.017395 0.598114 0.872192
0.017395 0.598114 0.872162
0.017456 0.597961 0.871948
0.017578 0.597473 0.871277
0.017761 0.596863 0.870453
0.017883 0.596436 0.869812
0.018188 0.595337 0.868317
0.020660 0.598328 0.869476
0.025818 0.606628 0.873840
0.033783 0.617126 0.878723
0.043304 0.630157 0.884338
0.052979 0.644165 0.889160
0.060333 0.657715 0.891235
0.065979 0.669891 0.885498
0.068481 0.679443 0.875763
0.070435 0.687073 0.861755
0.077484 0.694275 0.841156
0.097534 0.703918 0.813110
