nova/tdt-studio/app/Lut_mau/IWLTBAP/1 - LUTs by IWLTBAP (CUBE)/02 - Generic LOG/Psychedelia/Esromen - LOG.cube
# Copyright: (C) Copyright 2010-2018 by IWLTBAP SAS
# Cannot be resold, shared or otherwise redistributed
# Website: https://luts.iwltbap.com
TITLE "IWLTBAP Esromen (Generic LOG)"
LUT_3D_SIZE 9
0.000000 0.000000 0.000000
0.113556 0.006256 0.004120
0.290405 0.016876 0.005371
0.492645 0.027771 0.004852
0.704529 0.038147 0.005310
0.901611 0.046814 0.005615
0.927765 0.047913 0.005615
0.927765 0.047913 0.005615
0.927765 0.047913 0.005615
0.000793 0.051758 0.082886
0.058807 0.060486 0.052246
0.251068 0.061523 0.011383
0.457062 0.049255 0.005371
0.670990 0.036591 0.005096
0.881500 0.045959 0.005615
0.927765 0.047913 0.005615
0.927765 0.047913 0.005615
0.927765 0.047913 0.005615
0.002380 0.151459 0.229980
0.002350 0.143829 0.219208
0.142883 0.177551 0.116791
0.403870 0.186676 0.017120
0.632172 0.174652 0.007233
0.845825 0.158386 0.007874
0.937988 0.135712 0.008026
0.936279 0.121460 0.007629
0.935516 0.115265 0.007477
0.005310 0.271820 0.397675
0.005096 0.265533 0.388855
0.033051 0.277710 0.359009
0.240295 0.313019 0.181000
0.569153 0.326050 0.024292
0.806458 0.311859 0.012787
0.958832 0.292084 0.013031
0.956512 0.275818 0.012604
0.955658 0.269714 0.012451
0.019409 0.383301 0.557098
0.018463 0.378876 0.550598
0.018707 0.375732 0.539215
0.058380 0.407532 0.497650
0.345337 0.453918 0.249786
0.740906 0.478333 0.034210
0.966461 0.461090 0.017090
0.979645 0.443085 0.016632
0.978851 0.436859 0.016510
0.037079 0.483551 0.706665
0.037079 0.479919 0.701172
0.036316 0.472351 0.689789
0.039886 0.490753 0.691406
0.081818 0.531219 0.634064
0.457764 0.600586 0.321686
0.912323 0.636078 0.037720
0.994537 0.618164 0.021271
0.994293 0.612274 0.020966
0.024261 0.575104 0.840240
0.025360 0.571808 0.835663
0.027100 0.565826 0.827209
0.033020 0.567993 0.822357
0.053192 0.607880 0.828949
0.105988 0.652313 0.756836
0.559479 0.742493 0.383881
0.974396 0.797394 0.064697
0.977539 0.792236 0.058990
0.017365 0.598267 0.872375
0.017365 0.598267 0.872375
0.017365 0.598267 0.872375
0.017365 0.598267 0.872375
0.046875 0.643402 0.896729
0.068695 0.697266 0.894531
0.094818 0.738373 0.836212
0.686096 0.899414 0.504181
0.696136 0.898041 0.489838
0.017365 0.598267 0.872375
0.017365 0.598267 0.872375
0.017365 0.598267 0.872375
0.017365 0.598267 0.872375
0.042450 0.636627 0.893616
0.069397 0.693695 0.897827
0.081848 0.731506 0.845367
0.608246 0.880249 0.558472
0.686096 0.899414 0.504181
0.003937 0.009949 0.034302
0.096405 0.024506 0.046661
0.286407 0.015747 0.077728
0.488312 0.022400 0.058777
0.700806 0.033020 0.035034
0.899902 0.046753 0.005615
0.927765 0.047913 0.005615
0.927765 0.047913 0.005615
0.927765 0.047913 0.005615
0.002380 0.055939 0.097809
0.053467 0.058441 0.081573
0.247742 0.057312 0.049316
0.453278 0.043884 0.022858
0.667816 0.036438 0.005096
0.878815 0.045837 0.005615
0.927765 0.047913 0.005615
0.927765 0.047913 0.005615
0.927765 0.047913 0.005615
0.002472 0.149384 0.227570
0.002350 0.141388 0.215790
0.140869 0.174622 0.115417
0.400543 0.183746 0.016998
0.628998 0.171570 0.007141
0.843109 0.155579 0.007782
0.937653 0.133026 0.007965
0.935944 0.118744 0.007568
0.935242 0.112885 0.007385
0.005219 0.269531 0.394440
0.005005 0.263550 0.386078
0.032410 0.274994 0.356384
0.238586 0.310669 0.179871
0.566681 0.323700 0.024109
0.804108 0.309601 0.012695
0.958527 0.289978 0.013000
0.956177 0.273560 0.012543
0.955322 0.267517 0.012360
0.019104 0.381805 0.554871
0.018127 0.377441 0.548492
0.018341 0.373932 0.536987
0.057861 0.405701 0.495850
0.343628 0.451660 0.248657
0.738586 0.475891 0.034027
0.965118 0.458923 0.017059
0.979340 0.440765 0.016571
0.978546 0.434540 0.016449
0.037079 0.482391 0.704926
0.036957 0.478668 0.699310
0.036194 0.471161 0.688019
0.039642 0.489197 0.689423
0.081451 0.529419 0.632080
0.456238 0.598572 0.320740
0.910278 0.633942 0.037720
0.994446 0.615906 0.021149
0.994202 0.609985 0.020844
0.024628 0.574005 0.838684
0.025757 0.570587 0.833954
0.027435 0.564667 0.825592
0.033051 0.566559 0.820679
0.052856 0.606110 0.827362
0.105743 0.650787 0.755463
0.558014 0.740448 0.382996
0.975769 0.795593 0.062134
0.978119 0.790009 0.058014
0.017365 0.598267 0.872375
0.017365 0.598267 0.872375
0.017365 0.598267 0.872375
0.017365 0.598267 0.872375
0.046387 0.642670 0.896393
0.068756 0.696869 0.894897
0.092834 0.737518 0.837372
0.685394 0.898560 0.503357
0.701813 0.897247 0.481781
0.017365 0.598267 0.872375
0.017365 0.598267 0.872375
0.017365 0.598267 0.872375
0.017365 0.598267 0.872375
0.041931 0.635956 0.893250
0.069458 0.693298 0.898193
0.080444 0.730713 0.846405
0.599060 0.877991 0.564880
0.686096 0.899414 0.504181
0.003937 0.042694 0.106720
0.074188 0.050049 0.119476
0.240234 0.051880 0.123016
0.484344 0.011414 0.224884
0.695709 0.010895 0.213959
0.898407 0.016907 0.191345
0.929596 0.020660 0.165009
0.929474 0.022339 0.152283
0.929413 0.023285 0.145477
0.003632 0.076202 0.142365
0.043549 0.073883 0.136322
0.207336 0.075867 0.126251
0.448578 0.026245 0.194550
0.662567 0.012970 0.181580
0.875305 0.020050 0.159637
0.929321 0.024933 0.133575
0.929199 0.026855 0.121246
0.929138 0.027710 0.115662
0.003937 0.165710 0.265930
0.003845 0.157776 0.254242
0.134430 0.169250 0.208435
0.397736 0.176422 0.163330
0.624176 0.158356 0.133026
0.839264 0.139587 0.107147
0.938568 0.117584 0.081299
0.936462 0.104187 0.067200
0.935608 0.098785 0.061493
0.005859 0.275665 0.422516
0.005646 0.269318 0.412262
0.040253 0.274506 0.378265
0.246613 0.306519 0.228821
0.562042 0.317657 0.085205
0.799072 0.302948 0.046143
0.957428 0.284424 0.016937
0.955444 0.268280 0.012390
0.954651 0.262634 0.012207
0.018311 0.380157 0.559479
0.017578 0.375732 0.552124
0.017426 0.370209 0.536407
0.056946 0.401550 0.492310
0.340210 0.447144 0.246368
0.733856 0.471130 0.033691
0.962555 0.454407 0.016968
0.978760 0.436066 0.016479
0.977997 0.430145 0.016357
0.037048 0.479706 0.700867
0.036682 0.476105 0.695496
0.035980 0.468750 0.684387
0.039185 0.486023 0.685333
0.080414 0.526031 0.628876
0.453461 0.594849 0.319000
0.906097 0.630066 0.037842
0.994293 0.612091 0.020966
0.994019 0.606018 0.020660
0.025330 0.571930 0.835815
0.026337 0.568604 0.831177
0.027924 0.562805 0.822937
0.033203 0.563965 0.817505
0.052307 0.603088 0.824585
0.105408 0.648254 0.753082
0.556000 0.737640 0.381744
0.977417 0.792633 0.059174
0.979065 0.786530 0.056458
0.017365 0.598267 0.872375
0.017365 0.598267 0.872375
0.017365 0.598267 0.872375
0.017365 0.598267 0.872375
0.045654 0.641541 0.895874
0.068878 0.696320 0.895416
0.090363 0.736359 0.838928
0.683136 0.895905 0.500732
0.708038 0.896393 0.472900
0.017365 0.598267 0.872375
0.017365 0.598267 0.872375
0.017365 0.598267 0.872375
0.017365 0.598267 0.872375
0.041199 0.634949 0.892761
0.069427 0.692688 0.898621
0.078827 0.729797 0.847626
0.587250 0.875092 0.573090
0.686096 0.899414 0.504181
0.004730 0.094879 0.186615
0.043427 0.099548 0.209534
0.199249 0.098328 0.232269
0.439117 0.051514 0.217255
0.663757 0.010803 0.313019
0.896393 0.008240 0.391388
0.931427 0.009033 0.370941
0.931244 0.009155 0.358490
0.931183 0.009216 0.352142
0.004730 0.113708 0.199829
0.025757 0.109985 0.204407
0.166718 0.106201 0.221710
0.401459 0.053497 0.199585
0.638885 0.010101 0.306885
0.871765 0.008026 0.361420
0.931091 0.009308 0.341858
0.930969 0.009460 0.329773
0.930908 0.009613 0.323761
0.004333 0.185181 0.282257
0.004059 0.177521 0.272675
0.113739 0.179108 0.271393
0.364899 0.178345 0.248962
0.615936 0.145081 0.312500
0.835907 0.120422 0.315765
0.940796 0.093292 0.292297
0.938477 0.076538 0.277344
0.937561 0.069824 0.271301
0.005676 0.285889 0.445648
0.005493 0.280151 0.436768
0.047852 0.277618 0.412659
0.253632 0.295746 0.350128
0.560455 0.310699 0.297699
0.795563 0.291290 0.265137
0.961823 0.268921 0.235077
0.959839 0.251617 0.217133
0.958862 0.245483 0.210785
0.013153 0.383362 0.601227
0.012787 0.379181 0.593933
0.014984 0.372528 0.577942
0.093475 0.398590 0.534363
0.375122 0.446991 0.369537
0.731415 0.464661 0.216217
0.962494 0.445496 0.170349
0.981445 0.426849 0.148865
0.980560 0.420654 0.142487
0.031921 0.479187 0.722290
0.031555 0.475372 0.715942
0.030884 0.467896 0.703278
0.040588 0.483246 0.698456
0.101074 0.526550 0.646912
0.464020 0.594513 0.379242
0.901672 0.624207 0.113068
0.994720 0.605682 0.071228
0.994415 0.599792 0.064636
0.035858 0.573914 0.840851
0.035278 0.570007 0.835419
0.034271 0.563263 0.825989
0.037292 0.562256 0.818024
0.054047 0.599670 0.823273
0.106262 0.644989 0.751495
0.552399 0.732605 0.379547
0.979004 0.786774 0.056549
0.980591 0.780853 0.053925
0.020477 0.599731 0.874207
0.019562 0.599304 0.873688
0.017944 0.598541 0.872711
0.017365 0.598267 0.872375
0.044434 0.639679 0.894989
0.069061 0.695374 0.896301
0.087402 0.734680 0.841187
0.680267 0.892487 0.497314
0.715912 0.895325 0.461609
0.017395 0.598267 0.872406
0.017365 0.598267 0.872375
0.017365 0.598267 0.872375
0.017365 0.598267 0.872375
0.039917 0.633209 0.891907
0.069275 0.691559 0.899353
0.076355 0.728271 0.849701
0.570618 0.871002 0.584686
0.686096 0.899414 0.504181
0.005890 0.168762 0.286072
0.023315 0.171631 0.310577
0.138519 0.173370 0.361786
0.401489 0.144623 0.376617
0.637634 0.052124 0.315643
0.809052 0.053192 0.338959
0.876709 0.043671 0.426941
0.884491 0.036957 0.440491
0.888885 0.033966 0.446655
0.005646 0.175507 0.287079
0.014465 0.170715 0.291443
0.111206 0.168518 0.338074
0.363190 0.138275 0.353241
0.609375 0.050232 0.300873
0.792114 0.035248 0.343506
0.895264 0.029663 0.455566
0.903809 0.024780 0.465363
0.908173 0.022766 0.469208
0.006500 0.225433 0.332336
0.006287 0.218292 0.323547
0.071655 0.213959 0.348480
0.309814 0.207245 0.369202
0.590485 0.151672 0.321442
0.785919 0.111084 0.365234
0.937469 0.085785 0.486908
0.941010 0.066345 0.483917
0.939972 0.058899 0.478760
0.008667 0.305206 0.439911
0.008240 0.299255 0.431793
0.035217 0.291809 0.424469
0.224701 0.297760 0.421295
0.544983 0.305908 0.385010
0.780121 0.283936 0.410583
0.962799 0.260132 0.464203
0.961517 0.241516 0.447327
0.960632 0.234955 0.441254
0.014160 0.392334 0.616089
0.013275 0.388275 0.609528
0.013062 0.379517 0.594543
0.120148 0.393677 0.570190
0.417877 0.439880 0.500610
0.731171 0.463867 0.440277
0.959656 0.442047 0.418549
0.983337 0.421753 0.396851
0.982635 0.415100 0.389893
0.038940 0.479156 0.764771
0.036346 0.475403 0.758850
0.031433 0.467712 0.746490
0.053802 0.478607 0.737000
0.200470 0.527435 0.687225
0.534821 0.605255 0.527130
0.900208 0.623566 0.365723
0.996552 0.603241 0.329041
0.996368 0.596710 0.321899
0.091187 0.581238 0.869263
0.085602 0.577118 0.864014
0.076080 0.569977 0.854889
0.069672 0.565948 0.844391
0.103546 0.602295 0.844025
0.191803 0.661987 0.787872
0.595367 0.747864 0.528931
0.984131 0.786804 0.275452
0.985413 0.780334 0.266388
0.083313 0.618347 0.902344
0.079620 0.617889 0.901306
0.074585 0.617035 0.899658
0.066528 0.615570 0.896881
0.089996 0.648651 0.910767
0.115051 0.704437 0.909729
0.117523 0.748291 0.864014
0.696564 0.898163 0.564606
0.742157 0.902405 0.519653
0.072815 0.616730 0.899048
0.069550 0.616150 0.897949
0.065155 0.615265 0.896362
0.058136 0.613708 0.893646
0.076294 0.641815 0.906189
0.104614 0.698029 0.910278
0.098541 0.738617 0.867157
0.565979 0.873657 0.642548
0.698242 0.905548 0.550446
0.007111 0.234924 0.388428
0.014618 0.237457 0.408691
0.085785 0.234497 0.464386
0.321716 0.238953 0.514160
0.608582 0.192291 0.501770
0.823578 0.162842 0.442322
0.863464 0.186401 0.416351
0.861694 0.179962 0.404419
0.860687 0.176453 0.398804
0.007477 0.242950 0.395081
0.010498 0.240295 0.398865
0.063629 0.233948 0.447906
0.280029 0.230774 0.498291
0.574951 0.189087 0.488800
0.795959 0.132874 0.419403
0.859314 0.171692 0.391205
0.857330 0.164886 0.380371
0.856354 0.161407 0.375824
0.007904 0.277679 0.422577
0.007904 0.272461 0.416016
0.041779 0.264557 0.440643
0.219940 0.255066 0.489136
0.536560 0.232269 0.488159
0.771637 0.154144 0.408966
0.865540 0.184631 0.372345
0.858826 0.165070 0.358643
0.856171 0.157318 0.353363
0.011292 0.334564 0.470398
0.010895 0.329712 0.464478
0.024292 0.320648 0.462799
0.149506 0.313477 0.493103
0.479095 0.324310 0.513611
0.766968 0.289886 0.449493
0.905609 0.299011 0.417358
0.899628 0.278839 0.404327
0.899109 0.270660 0.406769
0.024384 0.413727 0.589447
0.023315 0.409485 0.583466
0.021576 0.400024 0.570099
0.090057 0.400146 0.569305
0.385284 0.432587 0.571777
0.732819 0.467438 0.536011
0.939362 0.459351 0.524872
0.965424 0.434052 0.542023
0.965179 0.426392 0.541504
0.076050 0.494293 0.769043
0.070923 0.490204 0.763824
0.062897 0.482208 0.752930
0.080139 0.483307 0.746002
0.281250 0.523560 0.722107
0.612305 0.607239 0.660675
0.898529 0.634125 0.593201
0.994690 0.607483 0.578613
0.994690 0.600250 0.572693
0.248260 0.586670 0.889984
0.233795 0.581970 0.886414
0.210907 0.574219 0.880157
0.185272 0.567200 0.872009
0.241486 0.599457 0.868591
0.419006 0.679779 0.823059
0.706085 0.768585 0.682007
0.990631 0.790436 0.536896
0.991394 0.783997 0.528870
0.284027 0.628357 0.922821
0.275269 0.627899 0.922516
0.262421 0.627228 0.922058
0.242035 0.626251 0.921234
0.268707 0.654694 0.927063
0.328247 0.720978 0.925262
0.338104 0.787354 0.897583
0.780914 0.917389 0.711731
0.825836 0.922241 0.674530
0.257629 0.626953 0.921906
0.248901 0.626556 0.921539
0.237061 0.626038 0.921021
0.217438 0.625244 0.920013
0.236267 0.648712 0.925415
0.298065 0.711884 0.925720
0.296448 0.776398 0.900635
0.653778 0.895935 0.772552
0.778473 0.927856 0.701050
0.007111 0.236053 0.390228
0.013397 0.238861 0.408752
0.077332 0.238068 0.467010
0.302765 0.244781 0.523621
0.592773 0.220734 0.529510
0.821655 0.182953 0.490112
0.872559 0.220703 0.485901
0.872559 0.220703 0.485901
0.872559 0.220703 0.485901
0.007233 0.244324 0.398712
0.009338 0.242065 0.401123
0.055084 0.239410 0.455170
0.255676 0.241119 0.516327
0.552307 0.233826 0.533936
0.794403 0.169739 0.493317
0.872559 0.220703 0.485901
0.872559 0.220703 0.485901
0.872559 0.220703 0.485901
0.007935 0.284851 0.438263
0.007904 0.281921 0.435577
0.033112 0.277496 0.463470
0.180878 0.268829 0.523987
0.490479 0.281891 0.560577
0.762970 0.210663 0.520538
0.882751 0.246216 0.497345
0.878815 0.236603 0.492950
0.877258 0.232697 0.491150
0.010529 0.345734 0.492401
0.010345 0.342438 0.489319
0.019867 0.335724 0.492340
0.107819 0.326385 0.535156
0.400238 0.344482 0.600159
0.736969 0.339050 0.589722
0.920624 0.347931 0.544830
0.918427 0.334778 0.532593
0.916534 0.329773 0.528595
0.023773 0.427307 0.583160
0.023041 0.423828 0.578644
0.021484 0.416046 0.568695
0.058838 0.411285 0.579285
0.280884 0.424072 0.630646
0.676880 0.474976 0.669037
0.937775 0.484009 0.609924
0.962128 0.470123 0.581573
0.960510 0.463684 0.575073
0.065582 0.520691 0.733978
0.063141 0.516479 0.728241
0.058350 0.508484 0.717163
0.062439 0.502930 0.708099
0.200500 0.520416 0.714417
0.580597 0.593628 0.732880
0.900665 0.646149 0.698761
0.988098 0.638763 0.660583
0.987488 0.632172 0.653595
0.307068 0.613678 0.883057
0.293396 0.608551 0.879395
0.272797 0.600189 0.873169
0.245422 0.589630 0.864777
0.295563 0.606384 0.864349
0.528717 0.682709 0.850800
0.802246 0.791229 0.813904
0.983582 0.811188 0.765594
0.984283 0.805298 0.758087
0.483276 0.654449 0.925842
0.480560 0.653381 0.925751
0.476532 0.651825 0.925629
0.468018 0.649384 0.925507
0.485809 0.669495 0.928619
0.545746 0.734039 0.933472
0.626862 0.825531 0.926483
0.869690 0.934326 0.855103
0.903442 0.939178 0.830780
0.474426 0.651215 0.925598
0.470764 0.650177 0.925537
0.465729 0.648743 0.925476
0.455688 0.646393 0.925354
0.467590 0.663208 0.928131
0.522339 0.724152 0.932373
0.591400 0.814514 0.927704
0.792328 0.921112 0.881927
0.873596 0.949524 0.840179
0.007111 0.236053 0.390228
0.012756 0.238708 0.407379
0.074310 0.238220 0.465668
0.296753 0.244324 0.522827
0.587524 0.222717 0.530212
0.818054 0.181091 0.490509
0.872559 0.220703 0.485901
0.872559 0.220703 0.485901
0.872559 0.220703 0.485901
0.007111 0.243195 0.397522
0.008881 0.240814 0.398895
0.053040 0.239563 0.453979
0.250488 0.240784 0.515350
0.547272 0.235321 0.534424
0.790558 0.168884 0.493896
0.872559 0.220703 0.485901
0.872559 0.220703 0.485901
0.872559 0.220703 0.485901
0.007904 0.283539 0.437073
0.007904 0.280701 0.434448
0.031647 0.276306 0.461487
0.175781 0.267334 0.521881
0.483734 0.280365 0.559357
0.757263 0.207428 0.519928
0.881439 0.243042 0.495911
0.877289 0.232788 0.491241
0.875732 0.228790 0.489471
0.010406 0.343719 0.490509
0.010223 0.340302 0.487335
0.019012 0.333649 0.489960
0.103851 0.324097 0.532196
0.391632 0.340607 0.597229
0.728912 0.335236 0.588745
0.917694 0.343933 0.546173
0.917480 0.333038 0.538788
0.915833 0.328705 0.536621
0.023193 0.424469 0.579437
0.022461 0.421021 0.575012
0.020874 0.413269 0.565033
0.055817 0.408325 0.575775
0.267914 0.419312 0.629669
0.660614 0.470734 0.679657
0.932678 0.482788 0.632874
0.962708 0.472626 0.614227
0.961334 0.467010 0.610962
0.061371 0.519623 0.726044
0.058655 0.515778 0.719666
0.053528 0.508545 0.707703
0.054718 0.503357 0.697174
0.164307 0.516388 0.707489
0.536072 0.580383 0.751404
0.889221 0.643616 0.750000
0.988831 0.642853 0.719604
0.988342 0.636749 0.715607
0.279938 0.622772 0.874573
0.266693 0.618866 0.870056
0.244141 0.612244 0.862396
0.213593 0.603241 0.850677
0.236755 0.613861 0.847137
0.478302 0.673157 0.848450
0.814087 0.774597 0.856049
0.998932 0.820709 0.843475
0.998688 0.815033 0.839203
0.497955 0.677429 0.927582
0.497955 0.677429 0.927582
0.497955 0.677429 0.927582
0.497955 0.677429 0.927582
0.520966 0.690796 0.929657
0.614563 0.740051 0.937561
0.796906 0.844055 0.950836
0.973999 0.963470 0.969757
0.985809 0.967194 0.965698
0.497955 0.677429 0.927582
0.497955 0.677429 0.927582
0.497955 0.677429 0.927582
0.497955 0.677429 0.927582
0.516663 0.687439 0.929260
0.599152 0.731567 0.936310
0.769379 0.833588 0.951294
0.931396 0.955872 0.973755
0.962616 0.979156 0.977631
0.007111 0.236053 0.390228
0.012482 0.238617 0.406677
0.072693 0.238312 0.464935
0.293335 0.244049 0.522339
0.584778 0.223755 0.530579
0.816010 0.180084 0.490753
0.872559 0.220703 0.485901
0.872559 0.220703 0.485901
0.872559 0.220703 0.485901
0.007111 0.242615 0.396942
0.008636 0.240143 0.397644
0.052032 0.239624 0.453339
0.247528 0.240601 0.514801
0.544708 0.236053 0.534668
0.788727 0.168457 0.494171
0.872559 0.220703 0.485901
0.872559 0.220703 0.485901
0.872559 0.220703 0.485901
0.007904 0.282867 0.436462
0.007904 0.280090 0.433899
0.031128 0.275757 0.460541
0.173767 0.266754 0.520935
0.480713 0.279755 0.558868
0.754883 0.206299 0.519775
0.880981 0.241943 0.495392
0.876770 0.231476 0.490662
0.875183 0.227386 0.488861
0.010376 0.342834 0.489685
0.010162 0.339478 0.486633
0.018707 0.332825 0.489044
0.102386 0.323242 0.531097
0.388580 0.339172 0.596130
0.725983 0.333740 0.588135
0.916626 0.342072 0.545410
0.916931 0.331573 0.538055
0.915192 0.327087 0.535797
0.022980 0.423431 0.578125
0.022247 0.419861 0.573517
0.020691 0.412262 0.563751
0.055023 0.407196 0.574371
0.265289 0.417755 0.628296
0.657074 0.468811 0.678680
0.931000 0.480652 0.632080
0.962280 0.470825 0.613190
0.960876 0.465149 0.609894
0.060577 0.518494 0.724182
0.057861 0.514648 0.717834
0.052765 0.507477 0.705933
0.053864 0.502014 0.695099
0.161743 0.514740 0.705688
0.532104 0.577911 0.749847
0.887207 0.641327 0.749054
0.988678 0.640747 0.718231
0.988159 0.634705 0.714264
0.276001 0.621613 0.873230
0.262207 0.617554 0.868561
0.239899 0.610992 0.860962
0.210114 0.601990 0.849182
0.232391 0.612305 0.845612
0.473511 0.670990 0.847015
0.810913 0.772003 0.854675
0.998840 0.818756 0.842010
0.998627 0.813110 0.837738
0.497955 0.677429 0.927582
0.497955 0.677429 0.927582
0.497955 0.677429 0.927582
0.497955 0.677429 0.927582
0.520447 0.690491 0.929596
0.611542 0.738800 0.937012
0.797241 0.842285 0.950195
0.982452 0.964233 0.974548
1.000000 0.974030 0.974609
0.497955 0.677429 0.927582
0.497955 0.677429 0.927582
0.497955 0.677429 0.927582
0.497955 0.677429 0.927582
0.515839 0.687927 0.929230
0.598022 0.731537 0.936218
0.781830 0.833801 0.952972
0.962738 0.964447 0.986176
0.999817 0.997040 0.998352
