nova/tdt-studio/app/Lut_mau/IWLTBAP/1 - LUTs by IWLTBAP (CUBE)/02 - Generic LOG/Psychedelia/Esromen - LOG.cube
# Copyright: (C) Copyright 2010-2018 by IWLTBAP SAS
# Cannot be resold, shared or otherwise redistributed
# Website: https://luts.iwltbap.com
TITLE "IWLTBAP Esromen (Generic LOG)"
LUT_3D_SIZE 5
0.000000 0.000000 0.000000
0.290405 0.016876 0.005371
0.704529 0.038147 0.005310
0.927765 0.047913 0.005615
0.927765 0.047913 0.005615
0.002380 0.151459 0.229980
0.142883 0.177551 0.116791
0.632172 0.174652 0.007233
0.937988 0.135712 0.008026
0.935516 0.115265 0.007477
0.019409 0.383301 0.557098
0.018707 0.375732 0.539215
0.345337 0.453918 0.249786
0.966461 0.461090 0.017090
0.978851 0.436859 0.016510
0.024261 0.575104 0.840240
0.027100 0.565826 0.827209
0.053192 0.607880 0.828949
0.559479 0.742493 0.383881
0.977539 0.792236 0.058990
0.017365 0.598267 0.872375
0.017365 0.598267 0.872375
0.042450 0.636627 0.893616
0.081848 0.731506 0.845367
0.686096 0.899414 0.504181
0.003937 0.042694 0.106720
0.240234 0.051880 0.123016
0.695709 0.010895 0.213959
0.929596 0.020660 0.165009
0.929413 0.023285 0.145477
0.003937 0.165710 0.265930
0.134430 0.169250 0.208435
0.624176 0.158356 0.133026
0.938568 0.117584 0.081299
0.935608 0.098785 0.061493
0.018311 0.380157 0.559479
0.017426 0.370209 0.536407
0.340210 0.447144 0.246368
0.962555 0.454407 0.016968
0.977997 0.430145 0.016357
0.025330 0.571930 0.835815
0.027924 0.562805 0.822937
0.052307 0.603088 0.824585
0.556000 0.737640 0.381744
0.979065 0.786530 0.056458
0.017365 0.598267 0.872375
0.017365 0.598267 0.872375
0.041199 0.634949 0.892761
0.078827 0.729797 0.847626
0.686096 0.899414 0.504181
0.005890 0.168762 0.286072
0.138519 0.173370 0.361786
0.637634 0.052124 0.315643
0.876709 0.043671 0.426941
0.888885 0.033966 0.446655
0.006500 0.225433 0.332336
0.071655 0.213959 0.348480
0.590485 0.151672 0.321442
0.937469 0.085785 0.486908
0.939972 0.058899 0.478760
0.014160 0.392334 0.616089
0.013062 0.379517 0.594543
0.417877 0.439880 0.500610
0.959656 0.442047 0.418549
0.982635 0.415100 0.389893
0.091187 0.581238 0.869263
0.076080 0.569977 0.854889
0.103546 0.602295 0.844025
0.595367 0.747864 0.528931
0.985413 0.780334 0.266388
0.072815 0.616730 0.899048
0.065155 0.615265 0.896362
0.076294 0.641815 0.906189
0.098541 0.738617 0.867157
0.698242 0.905548 0.550446
0.007111 0.236053 0.390228
0.077332 0.238068 0.467010
0.592773 0.220734 0.529510
0.872559 0.220703 0.485901
0.872559 0.220703 0.485901
0.007935 0.284851 0.438263
0.033112 0.277496 0.463470
0.490479 0.281891 0.560577
0.882751 0.246216 0.497345
0.877258 0.232697 0.491150
0.023773 0.427307 0.583160
0.021484 0.416046 0.568695
0.280884 0.424072 0.630646
0.937775 0.484009 0.609924
0.960510 0.463684 0.575073
0.307068 0.613678 0.883057
0.272797 0.600189 0.873169
0.295563 0.606384 0.864349
0.802246 0.791229 0.813904
0.984283 0.805298 0.758087
0.474426 0.651215 0.925598
0.465729 0.648743 0.925476
0.467590 0.663208 0.928131
0.591400 0.814514 0.927704
0.873596 0.949524 0.840179
0.007111 0.236053 0.390228
0.072693 0.238312 0.464935
0.584778 0.223755 0.530579
0.872559 0.220703 0.485901
0.872559 0.220703 0.485901
0.007904 0.282867 0.436462
0.031128 0.275757 0.460541
0.480713 0.279755 0.558868
0.880981 0.241943 0.495392
0.875183 0.227386 0.488861
0.022980 0.423431 0.578125
0.020691 0.412262 0.563751
0.265289 0.417755 0.628296
0.931000 0.480652 0.632080
0.960876 0.465149 0.609894
0.276001 0.621613 0.873230
0.239899 0.610992 0.860962
0.232391 0.612305 0.845612
0.810913 0.772003 0.854675
0.998627 0.813110 0.837738
0.497955 0.677429 0.927582
0.497955 0.677429 0.927582
0.515839 0.687927 0.929230
0.781830 0.833801 0.952972
0.999817 0.997040 0.998352
