nova/tdt-studio/app/Lut_mau/IWLTBAP/1 - LUTs by IWLTBAP (CUBE)/02 - Generic LOG/Psychedelia/Gyrenam - LOG.cube
# Copyright: (C) Copyright 2010-2018 by IWLTBAP SAS
# Cannot be resold, shared or otherwise redistributed
# Website: https://luts.iwltbap.com
TITLE "IWLTBAP Gyrenam (Generic LOG)"
LUT_3D_SIZE 5
0.000000 0.000000 0.000000
0.262848 0.011536 0.026520
0.649353 0.044159 0.065033
0.849091 0.055634 0.082550
0.849091 0.055634 0.082550
0.306427 0.096405 0.006714
0.220398 0.118011 0.018372
0.605927 0.071045 0.050598
0.857666 0.065704 0.081085
0.854980 0.062439 0.081360
0.629395 0.242981 0.025208
0.607635 0.231171 0.023407
0.562378 0.328644 0.056274
0.894501 0.302765 0.048584
0.932037 0.254486 0.033905
0.957153 0.634583 0.473358
0.949310 0.604065 0.425781
0.939636 0.563782 0.350006
0.958649 0.641907 0.097656
0.957123 0.660065 0.401062
0.973846 0.711823 0.583221
0.973846 0.711823 0.583221
0.975555 0.718658 0.594543
0.991974 0.803619 0.702637
0.996002 0.917511 0.824219
0.000000 0.061279 0.086945
0.236572 0.015442 0.302582
0.684631 0.030090 0.127045
0.863190 0.040924 0.108154
0.860291 0.042938 0.102448
0.062561 0.134247 0.137909
0.125763 0.180756 0.193420
0.570953 0.149048 0.122437
0.857910 0.068970 0.089020
0.856659 0.059082 0.084503
0.622955 0.238831 0.024597
0.599792 0.228271 0.027283
0.555298 0.322632 0.055481
0.892792 0.293640 0.044373
0.932648 0.243805 0.035126
0.954590 0.623627 0.457397
0.946625 0.594788 0.409943
0.937469 0.552734 0.332123
0.950562 0.635498 0.096191
0.956024 0.653412 0.374329
0.973846 0.711823 0.583221
0.973846 0.711823 0.583221
0.975494 0.718353 0.593994
0.991760 0.801666 0.700256
0.996002 0.917511 0.824219
0.004669 0.182922 0.212738
0.010590 0.206787 0.247101
0.684113 0.090393 0.642700
0.930298 0.092865 0.570404
0.927826 0.085022 0.545074
0.006805 0.208893 0.240814
0.008881 0.208130 0.240356
0.603302 0.164581 0.576385
0.926697 0.092346 0.460632
0.924622 0.067383 0.437012
0.354614 0.380707 0.340668
0.333679 0.360901 0.322876
0.487885 0.471771 0.451050
0.839355 0.443726 0.380096
0.864746 0.421570 0.361847
0.952881 0.612244 0.444977
0.945435 0.585175 0.400238
0.936646 0.551910 0.344391
0.914368 0.634552 0.264465
0.955963 0.646515 0.314178
0.974579 0.714447 0.587677
0.974426 0.713959 0.586853
0.976227 0.721008 0.599762
0.991516 0.799683 0.698303
0.996002 0.917938 0.824738
0.011047 0.238129 0.268921
0.012939 0.259186 0.294678
0.178406 0.495941 0.597992
0.971252 0.158051 0.891693
0.971252 0.158051 0.891693
0.011932 0.271851 0.303558
0.014557 0.273163 0.305756
0.056274 0.399261 0.462280
0.973419 0.191589 0.892395
0.972198 0.174194 0.891876
0.052460 0.466492 0.467255
0.047119 0.452454 0.454681
0.214813 0.479126 0.490356
0.934967 0.476074 0.857452
0.958557 0.450439 0.829224
0.713257 0.694550 0.611023
0.691650 0.677826 0.597717
0.671539 0.659760 0.586487
0.785950 0.750610 0.707703
0.962036 0.739136 0.677246
0.982727 0.744720 0.611755
0.982117 0.742889 0.613892
0.982666 0.746460 0.627228
0.994171 0.848267 0.766022
0.995880 0.953705 0.893738
0.011047 0.238129 0.268921
0.012756 0.257843 0.293213
0.160492 0.483856 0.581604
0.971252 0.158051 0.891693
0.971252 0.158051 0.891693
0.011841 0.269775 0.301697
0.014099 0.270508 0.303284
0.054260 0.394501 0.455719
0.973053 0.186157 0.892242
0.971802 0.167023 0.891846
0.050629 0.461700 0.462921
0.045319 0.447784 0.450653
0.200623 0.473602 0.484436
0.922943 0.488098 0.893494
0.978851 0.459961 0.906250
0.162994 0.768829 0.685425
0.161743 0.747223 0.675171
0.308960 0.720703 0.667786
0.679504 0.770081 0.764191
0.989594 0.762451 0.932007
0.816345 0.781738 0.669250
0.816345 0.781738 0.669250
0.824738 0.786072 0.673523
0.918762 0.874878 0.771301
0.999176 1.000000 1.000000
