nova/tdt-studio/app/Lut_mau/IWLTBAP/1 - LUTs by IWLTBAP (CUBE)/02 - Generic LOG/Psychedelia/Gyrenam - LOG.cube
# Copyright: (C) Copyright 2010-2018 by IWLTBAP SAS
# Cannot be resold, shared or otherwise redistributed
# Website: https://luts.iwltbap.com
TITLE "IWLTBAP Gyrenam (Generic LOG)"
LUT_3D_SIZE 9
0.000000 0.000000 0.000000
0.041626 0.000000 0.008240
0.262848 0.011536 0.026520
0.468933 0.030273 0.044037
0.649353 0.044159 0.065033
0.823639 0.052979 0.081116
0.849091 0.055634 0.082550
0.849091 0.055634 0.082550
0.849091 0.055634 0.082550
0.088684 0.017090 0.001373
0.040802 0.028534 0.005371
0.267578 0.020966 0.010406
0.438873 0.028961 0.039917
0.624695 0.043579 0.061462
0.802704 0.052429 0.081085
0.849091 0.055634 0.082550
0.849091 0.055634 0.082550
0.849091 0.055634 0.082550
0.306427 0.096405 0.006714
0.295166 0.091217 0.005920
0.220398 0.118011 0.018372
0.421936 0.118347 0.016541
0.605927 0.071045 0.050598
0.769714 0.067841 0.073334
0.857666 0.065704 0.081085
0.855713 0.063263 0.081238
0.854980 0.062439 0.081360
0.470459 0.163635 0.016357
0.461243 0.158783 0.016144
0.445923 0.154663 0.015686
0.392365 0.209290 0.036530
0.515076 0.226196 0.043610
0.761719 0.149872 0.038147
0.903015 0.131561 0.075256
0.894775 0.121338 0.075836
0.891693 0.117523 0.076050
0.629395 0.242981 0.025208
0.622650 0.239349 0.024628
0.607635 0.231171 0.023407
0.593964 0.235321 0.025513
0.562378 0.328644 0.056274
0.638641 0.360382 0.073242
0.894501 0.302765 0.048584
0.931458 0.264435 0.032745
0.932037 0.254486 0.033905
0.847870 0.353851 0.044678
0.835693 0.347504 0.044128
0.812561 0.337158 0.042664
0.787292 0.330231 0.042084
0.776123 0.342621 0.045502
0.724091 0.472046 0.078339
0.801727 0.527679 0.085419
0.868317 0.516937 0.113586
0.867493 0.509186 0.112671
0.957153 0.634583 0.473358
0.954498 0.623230 0.456818
0.949310 0.604065 0.425781
0.942383 0.580292 0.384735
0.939636 0.563782 0.350006
0.939911 0.577271 0.353424
0.958649 0.641907 0.097656
0.959442 0.666321 0.422424
0.957123 0.660065 0.401062
0.973846 0.711823 0.583221
0.973846 0.711823 0.583221
0.973846 0.711823 0.583221
0.973846 0.711823 0.583221
0.976074 0.720734 0.598114
0.983063 0.748688 0.635590
0.992737 0.811432 0.712952
0.996002 0.917511 0.824219
0.995972 0.910522 0.814941
0.973846 0.711823 0.583221
0.973846 0.711823 0.583221
0.973846 0.711823 0.583221
0.973846 0.711823 0.583221
0.975555 0.718658 0.594543
0.982269 0.744415 0.630127
0.991974 0.803619 0.702637
0.996643 0.908142 0.804504
0.996002 0.917511 0.824219
0.000000 0.004242 0.013397
0.012848 0.026367 0.115326
0.259949 0.006866 0.062500
0.470703 0.024658 0.048981
0.648926 0.042175 0.066010
0.821899 0.052887 0.081085
0.849091 0.055634 0.082550
0.849091 0.055634 0.082550
0.849091 0.055634 0.082550
0.003540 0.038116 0.051239
0.010620 0.058502 0.079010
0.215240 0.034821 0.050018
0.433380 0.033112 0.042206
0.622314 0.043396 0.061127
0.799896 0.052368 0.081085
0.849091 0.055634 0.082550
0.849091 0.055634 0.082550
0.849091 0.055634 0.082550
0.303070 0.094666 0.006439
0.291595 0.089569 0.005676
0.217072 0.116272 0.018036
0.420685 0.114807 0.016541
0.602722 0.069427 0.050537
0.767242 0.067230 0.073242
0.857239 0.065094 0.081085
0.855377 0.062897 0.081299
0.854675 0.062134 0.081421
0.467072 0.161865 0.016266
0.458344 0.157257 0.016052
0.443329 0.153351 0.015625
0.389221 0.207642 0.036163
0.513641 0.224152 0.043121
0.759216 0.148682 0.038940
0.901947 0.130249 0.075317
0.893616 0.119904 0.075928
0.890900 0.116455 0.076172
0.627106 0.241730 0.025024
0.620453 0.238190 0.024445
0.605377 0.229828 0.023224
0.591919 0.233887 0.025208
0.560059 0.326691 0.056030
0.636810 0.357788 0.073059
0.893768 0.299805 0.047241
0.931671 0.260742 0.033173
0.932251 0.250763 0.034302
0.843964 0.351807 0.044495
0.831879 0.345795 0.043884
0.808960 0.335541 0.042419
0.784332 0.328613 0.041748
0.772675 0.340698 0.045197
0.721649 0.469910 0.078064
0.799316 0.525574 0.085571
0.868011 0.513977 0.113220
0.867188 0.506195 0.112305
0.956268 0.630768 0.467804
0.953522 0.619049 0.450714
0.948303 0.600555 0.419800
0.941437 0.577118 0.379303
0.938843 0.559753 0.343506
0.939301 0.573547 0.347229
0.955261 0.639221 0.097046
0.958405 0.664062 0.415375
0.956696 0.657471 0.390564
0.973846 0.711823 0.583221
0.973846 0.711823 0.583221
0.973846 0.711823 0.583221
0.973846 0.711823 0.583221
0.976013 0.720490 0.597717
0.982971 0.748230 0.635010
0.992676 0.810486 0.711365
0.996002 0.915924 0.821594
0.995972 0.906555 0.809723
0.973846 0.711823 0.583221
0.973846 0.711823 0.583221
0.973846 0.711823 0.583221
0.973846 0.711823 0.583221
0.975525 0.718536 0.594299
0.982178 0.743958 0.629517
0.991852 0.802734 0.701538
0.996704 0.907043 0.802185
0.996002 0.917511 0.824219
0.000000 0.061279 0.086945
0.000000 0.080627 0.113159
0.236572 0.015442 0.302582
0.511078 0.019012 0.201172
0.684631 0.030090 0.127045
0.839783 0.039246 0.113251
0.863190 0.040924 0.108154
0.861267 0.042145 0.104279
0.860291 0.042938 0.102448
0.000000 0.082275 0.111084
0.000000 0.083069 0.113220
0.175751 0.036316 0.260620
0.464020 0.017609 0.161316
0.650360 0.028320 0.101257
0.811310 0.040375 0.105316
0.858582 0.044312 0.099243
0.857208 0.045685 0.095978
0.856567 0.046326 0.094482
0.062561 0.134247 0.137909
0.056763 0.128601 0.132904
0.125763 0.180756 0.193420
0.365906 0.153381 0.134064
0.570953 0.149048 0.122437
0.758026 0.124664 0.112701
0.857910 0.068970 0.089020
0.857025 0.061920 0.085785
0.856659 0.059082 0.084503
0.467804 0.156555 0.016113
0.458496 0.152649 0.015900
0.406982 0.187744 0.091003
0.376709 0.216827 0.088440
0.510132 0.222565 0.063263
0.754913 0.151367 0.049286
0.899017 0.126587 0.075470
0.891174 0.116821 0.076141
0.889160 0.114075 0.076447
0.622955 0.238831 0.024597
0.616119 0.235046 0.024048
0.599792 0.228271 0.027283
0.587341 0.230560 0.024567
0.555298 0.322632 0.055481
0.633118 0.352722 0.072632
0.892792 0.293640 0.044373
0.932098 0.253235 0.034027
0.932648 0.243805 0.035126
0.835052 0.347229 0.044098
0.824097 0.342316 0.043396
0.801544 0.332214 0.041962
0.778320 0.325348 0.041046
0.766510 0.337158 0.044647
0.717163 0.465973 0.077515
0.794891 0.521545 0.085815
0.867493 0.508942 0.112640
0.866638 0.500977 0.111694
0.954590 0.623627 0.457397
0.951813 0.612610 0.440430
0.946625 0.594788 0.409943
0.940186 0.570526 0.368408
0.937469 0.552734 0.332123
0.938293 0.567291 0.336823
0.950562 0.635498 0.096191
0.957214 0.660522 0.402893
0.956024 0.653412 0.374329
0.973846 0.711823 0.583221
0.973846 0.711823 0.583221
0.973846 0.711823 0.583221
0.973846 0.711823 0.583221
0.975922 0.720154 0.597107
0.982849 0.747528 0.634125
0.992584 0.809235 0.709442
0.995972 0.910858 0.813293
0.995941 0.902222 0.803955
0.973846 0.711823 0.583221
0.973846 0.711823 0.583221
0.973846 0.711823 0.583221
0.973846 0.711823 0.583221
0.975494 0.718353 0.593994
0.982056 0.743347 0.628693
0.991760 0.801666 0.700256
0.996796 0.905640 0.799194
0.996002 0.917511 0.824219
0.000000 0.124939 0.152710
0.000122 0.128815 0.158295
0.011108 0.177063 0.223053
0.481842 0.053070 0.480652
0.698456 0.056488 0.413788
0.875092 0.038513 0.316101
0.910400 0.037079 0.274475
0.908142 0.037079 0.256683
0.906586 0.037079 0.249817
0.000122 0.127502 0.156250
0.000000 0.126190 0.155426
0.006744 0.158722 0.202667
0.440399 0.047333 0.449677
0.670563 0.049164 0.378021
0.849976 0.036896 0.276093
0.903961 0.037079 0.238953
0.900818 0.037079 0.226166
0.898682 0.037079 0.219727
0.001892 0.174316 0.199310
0.001404 0.167389 0.193695
0.011414 0.184448 0.211334
0.374023 0.164551 0.396820
0.626587 0.131134 0.296661
0.798248 0.090057 0.214325
0.894012 0.044098 0.181152
0.890137 0.038666 0.169434
0.888519 0.037842 0.164825
0.183655 0.241943 0.229675
0.176056 0.235870 0.224792
0.181305 0.233948 0.225616
0.313812 0.322510 0.322235
0.518585 0.292847 0.249084
0.694641 0.295441 0.246948
0.854187 0.278107 0.234772
0.854340 0.259308 0.218903
0.854218 0.253265 0.212952
0.628082 0.234772 0.022858
0.621613 0.230408 0.022125
0.604889 0.224823 0.033264
0.532593 0.310089 0.197449
0.522949 0.348297 0.192596
0.622223 0.351929 0.147766
0.909576 0.308319 0.127441
0.937164 0.282288 0.116547
0.936981 0.273895 0.110840
0.833160 0.341583 0.042023
0.821075 0.336456 0.041504
0.797302 0.326477 0.040436
0.743958 0.357941 0.142334
0.737976 0.360443 0.125793
0.701843 0.465546 0.139404
0.787354 0.515167 0.119385
0.866394 0.501343 0.122253
0.865570 0.493561 0.119904
0.952667 0.615082 0.445374
0.949707 0.604889 0.428009
0.944641 0.587402 0.398132
0.938965 0.560913 0.352997
0.935364 0.542145 0.314819
0.936859 0.557831 0.321442
0.942200 0.628906 0.094666
0.956055 0.653687 0.375366
0.954926 0.646790 0.347565
0.973846 0.711884 0.583313
0.973846 0.711884 0.583282
0.973846 0.711823 0.583221
0.973846 0.711823 0.583221
0.975800 0.719574 0.596130
0.982635 0.746399 0.632690
0.992371 0.807281 0.707062
0.995941 0.904327 0.802582
0.995941 0.896729 0.796661
0.973846 0.711823 0.583221
0.973846 0.711823 0.583221
0.973846 0.711823 0.583221
0.973846 0.711823 0.583221
0.975433 0.718048 0.593414
0.981842 0.742279 0.627258
0.991516 0.799774 0.697968
0.996948 0.903625 0.794983
0.996002 0.917511 0.824219
0.004669 0.182922 0.212738
0.004761 0.183594 0.213531
0.010590 0.206787 0.247101
0.054291 0.325806 0.405823
0.684113 0.090393 0.642700
0.888123 0.105560 0.610413
0.930298 0.092865 0.570404
0.928558 0.087402 0.554077
0.927826 0.085022 0.545074
0.004059 0.179901 0.209015
0.004120 0.177704 0.206909
0.007660 0.193420 0.230927
0.042786 0.292938 0.362061
0.653839 0.084930 0.619873
0.861572 0.095947 0.581329
0.926727 0.081512 0.532074
0.925476 0.077026 0.515961
0.924988 0.074799 0.508423
0.006805 0.208893 0.240814
0.006531 0.202759 0.234955
0.008881 0.208130 0.240356
0.028656 0.271790 0.327332
0.603302 0.164581 0.576385
0.814392 0.146973 0.524323
0.926697 0.092346 0.460632
0.925446 0.073395 0.443176
0.924622 0.067383 0.437012
0.008698 0.288239 0.309967
0.008484 0.281433 0.303986
0.012177 0.275696 0.299530
0.111481 0.318420 0.341309
0.544250 0.312683 0.523468
0.757629 0.274323 0.437439
0.921082 0.225800 0.355164
0.920715 0.207672 0.335175
0.920105 0.201691 0.328613
0.354614 0.380707 0.340668
0.348358 0.374512 0.335083
0.333679 0.360901 0.322876
0.362976 0.380951 0.344299
0.487885 0.471771 0.451050
0.640167 0.434845 0.376495
0.839355 0.443726 0.380096
0.865723 0.427979 0.367279
0.864746 0.421570 0.361847
0.823181 0.349396 0.044830
0.812225 0.343811 0.044159
0.791718 0.332367 0.042603
0.750336 0.354279 0.137268
0.656891 0.454041 0.337555
0.660339 0.503784 0.333008
0.776367 0.520111 0.268677
0.885223 0.498260 0.252350
0.885803 0.490173 0.247131
0.952881 0.612244 0.444977
0.950134 0.602295 0.428497
0.945435 0.585175 0.400238
0.939972 0.557007 0.354462
0.936646 0.551910 0.344391
0.936981 0.561340 0.334900
0.914368 0.634552 0.264465
0.957123 0.652832 0.341980
0.955963 0.646515 0.314178
0.974670 0.714874 0.588531
0.974640 0.714722 0.588135
0.974609 0.714539 0.587799
0.974487 0.714142 0.587158
0.976929 0.723511 0.603333
0.982971 0.748230 0.635559
0.992371 0.807556 0.707947
0.995911 0.897888 0.791687
0.995880 0.890686 0.788605
0.974579 0.714447 0.587677
0.974548 0.714325 0.587463
0.974426 0.713959 0.586853
0.974182 0.713074 0.585205
0.976227 0.721008 0.599762
0.982056 0.743591 0.629456
0.991516 0.799683 0.698303
0.996979 0.901703 0.792664
0.996002 0.917938 0.824738
0.010956 0.236847 0.268066
0.011292 0.238556 0.270050
0.013153 0.257782 0.293457
0.030182 0.323425 0.373383
0.264099 0.551178 0.685791
0.904633 0.137970 0.828125
0.942810 0.134094 0.806976
0.939606 0.131226 0.793945
0.938385 0.130280 0.786682
0.011108 0.238220 0.269653
0.011414 0.237335 0.268677
0.012604 0.247986 0.281555
0.026001 0.306305 0.353455
0.201538 0.500916 0.618256
0.867523 0.128632 0.796783
0.936707 0.129028 0.776794
0.934357 0.127228 0.762726
0.933929 0.126801 0.757477
0.011841 0.262390 0.294556
0.011841 0.256439 0.289215
0.014587 0.257935 0.289856
0.022858 0.294708 0.335602
0.145782 0.444489 0.535950
0.809875 0.176514 0.747711
0.934021 0.159607 0.729614
0.933441 0.147369 0.714539
0.933197 0.142670 0.708588
0.016479 0.332275 0.353912
0.016083 0.325714 0.347443
0.015533 0.315948 0.339569
0.064911 0.336853 0.362671
0.125427 0.412262 0.469818
0.749786 0.306183 0.696686
0.934631 0.291962 0.658051
0.937653 0.272278 0.640533
0.937927 0.265808 0.634674
0.041016 0.446594 0.439575
0.038391 0.440765 0.434265
0.032196 0.425842 0.422821
0.095154 0.426727 0.426880
0.303040 0.469788 0.487488
0.684662 0.474060 0.641052
0.919006 0.435730 0.563293
0.945343 0.407196 0.535400
0.944183 0.400085 0.528015
0.524597 0.532959 0.471558
0.517120 0.527039 0.465179
0.503754 0.516510 0.455536
0.494781 0.507568 0.448669
0.533630 0.529846 0.480743
0.641174 0.608124 0.572296
0.799561 0.580658 0.518005
0.910004 0.584503 0.514313
0.908722 0.578735 0.509491
0.950470 0.618744 0.430603
0.947479 0.607361 0.411194
0.942993 0.587830 0.378632
0.937347 0.557800 0.331329
0.938843 0.557739 0.346344
0.856934 0.630463 0.507965
0.850952 0.669281 0.492798
0.946655 0.683105 0.413879
0.938660 0.678101 0.404602
0.978546 0.728485 0.614410
0.978577 0.728424 0.614868
0.978607 0.728363 0.615540
0.978180 0.726959 0.613586
0.979675 0.732635 0.620300
0.986786 0.771393 0.668243
0.992950 0.820740 0.729645
0.995850 0.902313 0.804596
0.995911 0.895905 0.800964
0.978607 0.728302 0.615784
0.978424 0.727661 0.614838
0.978027 0.726471 0.612701
0.977478 0.724731 0.609650
0.978912 0.729858 0.616211
0.985474 0.762024 0.659912
0.992828 0.813538 0.718781
0.996338 0.909821 0.812439
0.995514 0.928558 0.847839
0.011047 0.238129 0.268921
0.011200 0.239960 0.270996
0.012939 0.259186 0.294678
0.028992 0.323975 0.371765
0.178406 0.495941 0.597992
0.886902 0.224457 0.876404
0.971252 0.158051 0.891693
0.971252 0.158051 0.891693
0.971252 0.158051 0.891693
0.011169 0.240906 0.271698
0.011597 0.240448 0.271271
0.012634 0.252991 0.288177
0.025299 0.311005 0.355865
0.098389 0.445007 0.529266
0.847137 0.241699 0.874054
0.971252 0.158051 0.891693
0.971252 0.158051 0.891693
0.971252 0.158051 0.891693
0.011932 0.271851 0.303558
0.011841 0.268768 0.300781
0.014557 0.273163 0.305756
0.023315 0.310272 0.346436
0.056274 0.399261 0.462280
0.793549 0.250549 0.886536
0.973419 0.191589 0.892395
0.972565 0.179382 0.892090
0.972198 0.174194 0.891876
0.018921 0.351074 0.372559
0.018921 0.346771 0.369080
0.018341 0.340332 0.364471
0.059967 0.358032 0.382202
0.090149 0.410919 0.452820
0.506531 0.650848 0.855164
0.970856 0.329132 0.893066
0.971558 0.310883 0.884491
0.970032 0.303528 0.881805
0.052460 0.466492 0.467255
0.050812 0.462189 0.463318
0.047119 0.452454 0.454681
0.083923 0.452209 0.456085
0.214813 0.479126 0.490356
0.336670 0.566986 0.618591
0.934967 0.476074 0.857452
0.961060 0.456757 0.835297
0.958557 0.450439 0.829224
0.112885 0.603485 0.577454
0.109009 0.597321 0.572052
0.101562 0.585541 0.561737
0.117188 0.571075 0.551727
0.263916 0.581818 0.564209
0.508087 0.619141 0.631287
0.865997 0.625702 0.782227
0.968689 0.608948 0.732880
0.968170 0.603546 0.724884
0.713257 0.694550 0.611023
0.705414 0.687836 0.606689
0.691650 0.677826 0.597717
0.671387 0.662964 0.584503
0.671539 0.659760 0.586487
0.707062 0.682281 0.620422
0.785950 0.750610 0.707703
0.964355 0.745056 0.684326
0.962036 0.739136 0.677246
0.983246 0.745880 0.605530
0.983093 0.745575 0.607910
0.982849 0.745148 0.611237
0.982269 0.743347 0.613312
0.983490 0.750641 0.630493
0.989807 0.787903 0.686493
0.994354 0.853271 0.776001
0.996521 0.921326 0.839447
0.995911 0.920929 0.841827
0.982727 0.744720 0.611755
0.982452 0.743927 0.612640
0.982117 0.742889 0.613892
0.981689 0.741730 0.615967
0.982666 0.746460 0.627228
0.988678 0.780762 0.678436
0.994171 0.848267 0.766022
0.995605 0.935150 0.865936
0.995880 0.953705 0.893738
0.011047 0.238129 0.268921
0.011078 0.239746 0.270782
0.012817 0.258301 0.293701
0.028503 0.322327 0.369690
0.166656 0.488007 0.587280
0.881348 0.227234 0.875916
0.971252 0.158051 0.891693
0.971252 0.158051 0.891693
0.971252 0.158051 0.891693
0.011047 0.240509 0.271301
0.011475 0.239990 0.270782
0.012634 0.252411 0.287628
0.024902 0.309601 0.353760
0.089172 0.439392 0.521698
0.842407 0.241364 0.875244
0.971252 0.158051 0.891693
0.971252 0.158051 0.891693
0.971252 0.158051 0.891693
0.011841 0.270447 0.302307
0.011841 0.267517 0.299652
0.014221 0.271301 0.304016
0.022736 0.307983 0.343567
0.054871 0.395966 0.457733
0.789185 0.244476 0.887085
0.973145 0.187561 0.892303
0.972260 0.174286 0.891998
0.971924 0.168915 0.891876
0.018921 0.348450 0.370422
0.018860 0.343994 0.366852
0.018066 0.337311 0.362061
0.057037 0.354462 0.379120
0.084961 0.406250 0.447784
0.497406 0.672760 0.847565
0.969116 0.327881 0.896576
0.975464 0.309387 0.896240
0.975220 0.303284 0.896088
0.051117 0.462982 0.464020
0.049500 0.458710 0.460266
0.045807 0.449036 0.451752
0.079224 0.448761 0.453003
0.203400 0.475220 0.486084
0.292877 0.553986 0.604370
0.925446 0.489594 0.894073
0.978821 0.466553 0.906189
0.978851 0.461609 0.906250
0.111725 0.600311 0.576447
0.108276 0.594666 0.571777
0.101776 0.584015 0.563019
0.108826 0.570435 0.555176
0.246490 0.581757 0.567200
0.481384 0.614014 0.626648
0.798798 0.653259 0.904205
0.984833 0.621277 0.917267
0.984741 0.615997 0.916962
0.163147 0.771179 0.686554
0.162689 0.763245 0.682800
0.161896 0.749756 0.676361
0.159454 0.731293 0.665955
0.311768 0.722778 0.669098
0.502197 0.737610 0.699188
0.682159 0.772644 0.766022
0.989838 0.770660 0.933105
0.989655 0.764526 0.932281
0.816345 0.781738 0.669250
0.816345 0.781738 0.669250
0.816345 0.781738 0.669250
0.816345 0.781738 0.669250
0.826569 0.787720 0.675171
0.858948 0.816284 0.706085
0.916687 0.874695 0.778534
0.989288 0.968170 0.943054
0.996918 0.967712 0.937073
0.816345 0.781738 0.669250
0.816345 0.781738 0.669250
0.816345 0.781738 0.669250
0.816345 0.781738 0.669250
0.848450 0.781158 0.653046
0.923798 0.800507 0.652954
0.996002 0.861725 0.746429
0.997437 0.978516 0.950256
0.997986 0.990509 0.972534
0.011047 0.238129 0.268921
0.011047 0.239655 0.270691
0.012756 0.257843 0.293213
0.028229 0.321411 0.368530
0.160492 0.483856 0.581604
0.878387 0.228485 0.875763
0.971252 0.158051 0.891693
0.971252 0.158051 0.891693
0.971252 0.158051 0.891693
0.011047 0.240326 0.271118
0.011414 0.239716 0.270508
0.012634 0.252136 0.287262
0.024658 0.308777 0.352509
0.084503 0.436554 0.517883
0.840149 0.241180 0.875824
0.971252 0.158051 0.891693
0.971252 0.158051 0.891693
0.971252 0.158051 0.891693
0.011841 0.269775 0.301697
0.011841 0.266876 0.299072
0.014099 0.270508 0.303284
0.022430 0.306793 0.342346
0.054260 0.394501 0.455719
0.786652 0.243073 0.887329
0.973053 0.186157 0.892242
0.972137 0.172516 0.891968
0.971802 0.167023 0.891846
0.018921 0.347290 0.369507
0.018738 0.342896 0.365967
0.017975 0.336121 0.361115
0.055969 0.353149 0.377991
0.083405 0.404602 0.446136
0.487549 0.666779 0.837921
0.968384 0.326294 0.896210
0.975372 0.307343 0.896179
0.975128 0.300964 0.896027
0.050629 0.461700 0.462921
0.048920 0.457245 0.458984
0.045319 0.447784 0.450653
0.077667 0.447235 0.451660
0.200623 0.473602 0.484436
0.287384 0.551575 0.601532
0.922943 0.488098 0.893494
0.978821 0.464966 0.906189
0.978851 0.459961 0.906250
0.110718 0.598663 0.575073
0.107269 0.593018 0.570435
0.100800 0.582428 0.561737
0.106689 0.568329 0.553650
0.243347 0.579895 0.565674
0.478088 0.611969 0.624786
0.793121 0.652313 0.903412
0.984802 0.619446 0.917175
0.984711 0.614227 0.916840
0.162994 0.768829 0.685425
0.162537 0.760590 0.681519
0.161743 0.747223 0.675171
0.158875 0.729462 0.664612
0.308960 0.720703 0.667786
0.499725 0.735535 0.697693
0.679504 0.770081 0.764191
0.989777 0.768524 0.932831
0.989594 0.762451 0.932007
0.816345 0.781738 0.669250
0.816345 0.781738 0.669250
0.816345 0.781738 0.669250
0.816345 0.781738 0.669250
0.826385 0.787567 0.674988
0.851685 0.817169 0.705261
0.852997 0.897766 0.790649
0.963196 0.970642 0.948700
0.997192 0.975983 0.980896
0.816345 0.781738 0.669250
0.816345 0.781738 0.669250
0.816345 0.781738 0.669250
0.816345 0.781738 0.669250
0.824738 0.786072 0.673523
0.853546 0.811340 0.700684
0.918762 0.874878 0.771301
0.992249 0.981201 0.947418
0.999176 1.000000 1.000000
