nova/tdt-studio/app/Lut_mau/IWLTBAP/1 - LUTs by IWLTBAP (CUBE)/02 - Generic LOG/Psychedelia/Gyrenam - LOG.cube
# Copyright: (C) Copyright 2010-2018 by IWLTBAP SAS
# Cannot be resold, shared or otherwise redistributed
# Website: https://luts.iwltbap.com
TITLE "IWLTBAP Gyrenam (Generic LOG)"
LUT_3D_SIZE 33
0.000000 0.000000 0.000000
0.000000 0.000000 0.000122
0.000366 0.000000 0.001953
0.009644 0.000000 0.005096
0.041626 0.000000 0.008240
0.098175 0.000458 0.009460
0.158295 0.002136 0.011780
0.213531 0.006775 0.021240
0.262848 0.011536 0.026520
0.317627 0.017792 0.033325
0.369171 0.021545 0.036438
0.420532 0.024261 0.039124
0.468933 0.030273 0.044037
0.519897 0.035797 0.049042
0.566315 0.038879 0.054688
0.610596 0.042542 0.059479
0.649353 0.044159 0.065033
0.692230 0.048737 0.070343
0.734680 0.055939 0.072113
0.782715 0.052582 0.078766
0.823639 0.052979 0.081116
0.849091 0.055634 0.082550
0.849091 0.055634 0.082550
0.849091 0.055634 0.082550
0.849091 0.055634 0.082550
0.849091 0.055634 0.082550
0.849091 0.055634 0.082550
0.849091 0.055634 0.082550
0.849091 0.055634 0.082550
0.849091 0.055634 0.082550
0.849091 0.055634 0.082550
0.849091 0.055634 0.082550
0.849091 0.055634 0.082550
0.000000 0.000000 0.000000
0.000000 0.000000 0.000000
0.000000 0.000000 0.001312
0.005066 0.000000 0.004364
0.032867 0.000000 0.007538
0.084991 0.000000 0.009460
0.148346 0.001923 0.010925
0.205414 0.005737 0.019958
0.253998 0.010895 0.025879
0.308868 0.017181 0.032928
0.360962 0.021088 0.036133
0.414001 0.023865 0.038574
0.461182 0.028900 0.043457
0.513489 0.035614 0.048370
0.560760 0.038452 0.054016
0.604919 0.042023 0.058899
0.644745 0.044159 0.064362
0.687073 0.047363 0.070099
0.730011 0.056061 0.071991
0.777893 0.052734 0.077850
0.820953 0.052856 0.081085
0.847137 0.055420 0.082428
0.849091 0.055634 0.082550
0.849091 0.055634 0.082550
0.849091 0.055634 0.082550
0.849091 0.055634 0.082550
0.849091 0.055634 0.082550
0.849091 0.055634 0.082550
0.849091 0.055634 0.082550
0.849091 0.055634 0.082550
0.849091 0.055634 0.082550
0.849091 0.055634 0.082550
0.849091 0.055634 0.082550
0.002167 0.001068 0.000549
0.001892 0.000946 0.000488
0.001587 0.001587 0.000397
0.003937 0.002594 0.002594
0.034943 0.002106 0.004913
0.081665 0.000854 0.008270
0.137939 0.001709 0.010071
0.195984 0.004822 0.018158
0.245148 0.010254 0.025238
0.299713 0.016571 0.032532
0.353668 0.020508 0.035583
0.407166 0.023468 0.037994
0.453369 0.027496 0.042877
0.506653 0.035217 0.047668
0.555054 0.037903 0.053223
0.599182 0.041473 0.058319
0.640320 0.044159 0.063721
0.681458 0.045837 0.069855
0.725250 0.056213 0.071869
0.773010 0.052856 0.076904
0.818237 0.052795 0.081085
0.844635 0.055176 0.082306
0.849091 0.055634 0.082550
0.849091 0.055634 0.082550
0.849091 0.055634 0.082550
0.849091 0.055634 0.082550
0.849091 0.055634 0.082550
0.849091 0.055634 0.082550
0.849091 0.055634 0.082550
0.849091 0.055634 0.082550
0.849091 0.055634 0.082550
0.849091 0.055634 0.082550
0.849091 0.055634 0.082550
0.029449 0.006042 0.000793
0.026520 0.005554 0.000793
0.023834 0.005554 0.000946
0.011597 0.009094 0.002045
0.036774 0.013367 0.002625
0.108215 0.010437 0.001221
0.166962 0.007599 0.004944
0.207397 0.009277 0.010437
0.248108 0.012421 0.019958
0.293335 0.016571 0.028107
0.344727 0.020355 0.034058
0.397125 0.022888 0.037140
0.443115 0.026215 0.041809
0.496399 0.034119 0.046570
0.545746 0.037048 0.051971
0.589874 0.040619 0.057373
0.632751 0.044159 0.062622
0.672821 0.044159 0.069153
0.717194 0.055115 0.071564
0.763611 0.053680 0.075378
0.811371 0.052643 0.081085
0.841309 0.054840 0.082123
0.849091 0.055634 0.082550
0.849091 0.055634 0.082550
0.849091 0.055634 0.082550
0.849091 0.055634 0.082550
0.849091 0.055634 0.082550
0.849091 0.055634 0.082550
0.849091 0.055634 0.082550
0.849091 0.055634 0.082550
0.849091 0.055634 0.082550
0.849091 0.055634 0.082550
0.849091 0.055634 0.082550
0.088684 0.017090 0.001373
0.084045 0.016205 0.001343
0.079376 0.015320 0.001282
0.079132 0.017761 0.001465
0.040802 0.028534 0.005371
0.081635 0.037292 0.005310
0.166168 0.040649 0.003876
0.237366 0.023407 0.003662
0.267578 0.020966 0.010406
0.303345 0.022003 0.021454
0.346954 0.024597 0.030182
0.394348 0.026794 0.034271
0.438873 0.028961 0.039917
0.488831 0.035095 0.044952
0.537842 0.037231 0.050476
0.580841 0.039886 0.056396
0.624695 0.043579 0.061462
0.664734 0.044159 0.067688
0.709198 0.053131 0.071136
0.753906 0.054688 0.073822
0.802704 0.052429 0.081085
0.836578 0.054321 0.081848
0.849091 0.055634 0.082550
0.849091 0.055634 0.082550
0.849091 0.055634 0.082550
0.849091 0.055634 0.082550
0.849091 0.055634 0.082550
0.849091 0.055634 0.082550
0.849091 0.055634 0.082550
0.849091 0.055634 0.082550
0.849091 0.055634 0.082550
0.849091 0.055634 0.082550
0.849091 0.055634 0.082550
0.164307 0.043152 0.001587
0.159821 0.041443 0.001587
0.154663 0.039490 0.001587
0.147644 0.037781 0.001923
0.146210 0.040436 0.002228
0.085846 0.054626 0.009033
0.123444 0.061218 0.008392
0.199097 0.067352 0.006592
0.278259 0.054291 0.005005
0.324280 0.038391 0.011536
0.355713 0.035339 0.023254
0.395599 0.037109 0.031281
0.437958 0.036926 0.037445
0.484741 0.038971 0.042755
0.531921 0.041199 0.048065
0.575287 0.043213 0.054291
0.618652 0.046326 0.059998
0.657562 0.045746 0.065857
0.701080 0.052612 0.070312
0.743774 0.056519 0.072296
0.791809 0.052765 0.080231
0.831696 0.053833 0.081573
0.849091 0.055634 0.082550
0.849091 0.055634 0.082550
0.849091 0.055634 0.082550
0.849091 0.055634 0.082550
0.849091 0.055634 0.082550
0.849091 0.055634 0.082550
0.849091 0.055634 0.082550
0.849091 0.055634 0.082550
0.849091 0.055634 0.082550
0.849091 0.055634 0.082550
0.849091 0.055634 0.082550
0.221436 0.062347 0.002411
0.218567 0.061310 0.002350
0.215546 0.060303 0.002289
0.210175 0.058533 0.002197
0.206238 0.060059 0.002350
0.202332 0.062775 0.003021
0.132812 0.076752 0.012329
0.168182 0.080780 0.009918
0.222443 0.089081 0.010895
0.304779 0.081238 0.008575
0.367188 0.058716 0.013458
0.406403 0.051605 0.023590
0.443115 0.047791 0.034943
0.485077 0.047272 0.040649
0.526062 0.047363 0.045197
0.570282 0.047607 0.052124
0.612183 0.050385 0.057770
0.651459 0.049805 0.063721
0.694763 0.054413 0.068848
0.737244 0.059631 0.071625
0.783905 0.055237 0.077881
0.826569 0.056335 0.080078
0.851196 0.058258 0.082062
0.850708 0.057648 0.082184
0.850159 0.056976 0.082306
0.849945 0.056702 0.082336
0.849762 0.056458 0.082397
0.849579 0.056244 0.082428
0.849396 0.056030 0.082489
0.849182 0.055756 0.082520
0.849091 0.055634 0.082550
0.849091 0.055634 0.082550
0.849091 0.055634 0.082550
0.266602 0.079407 0.003784
0.264923 0.078735 0.003662
0.262939 0.077942 0.003510
0.259369 0.076508 0.003235
0.254852 0.075714 0.003571
0.250580 0.077057 0.003571
0.243896 0.080383 0.004700
0.179108 0.097778 0.015320
0.220154 0.097534 0.011444
0.249512 0.111542 0.014557
0.324738 0.109009 0.012177
0.398682 0.089935 0.015015
0.449524 0.069092 0.020782
0.488953 0.064056 0.034149
0.525665 0.060394 0.041718
0.566864 0.056488 0.048004
0.606232 0.058472 0.054810
0.646790 0.057312 0.060577
0.689148 0.059692 0.066498
0.728790 0.064301 0.070648
0.775696 0.059814 0.075897
0.823151 0.060516 0.078979
0.854675 0.062103 0.081421
0.853821 0.061157 0.081543
0.853088 0.060364 0.081665
0.852631 0.059845 0.081757
0.852325 0.059540 0.081818
0.852081 0.059265 0.081879
0.851837 0.058960 0.081940
0.851562 0.058685 0.081970
0.851288 0.058380 0.082031
0.851288 0.058350 0.082031
0.851257 0.058350 0.082031
0.306427 0.096405 0.006714
0.304688 0.095612 0.006592
0.302917 0.094788 0.006470
0.299225 0.093079 0.006195
0.295166 0.091217 0.005920
0.291260 0.091400 0.005585
0.287659 0.093018 0.005585
0.278503 0.099335 0.006500
0.220398 0.118011 0.018372
0.260742 0.116608 0.012451
0.277863 0.130371 0.018524
0.349457 0.130798 0.017059
0.421936 0.118347 0.016541
0.485962 0.093811 0.019806
0.527954 0.080933 0.030914
0.567383 0.076111 0.042175
0.605927 0.071045 0.050598
0.644379 0.070068 0.057068
0.684021 0.069183 0.063599
0.724426 0.071442 0.068634
0.769714 0.067841 0.073334
0.815277 0.065552 0.077026
0.859863 0.068787 0.081085
0.858765 0.067230 0.081085
0.857666 0.065704 0.081085
0.856720 0.064392 0.081085
0.856354 0.063995 0.081146
0.856049 0.063629 0.081207
0.855713 0.063263 0.081238
0.855347 0.062866 0.081299
0.855011 0.062500 0.081360
0.854980 0.062469 0.081360
0.854980 0.062439 0.081360
0.348511 0.112854 0.009094
0.346863 0.112274 0.009033
0.345184 0.111694 0.008942
0.341827 0.110535 0.008789
0.337982 0.109222 0.008606
0.335022 0.109222 0.008423
0.330780 0.109528 0.008301
0.327209 0.111633 0.008179
0.319611 0.116211 0.009033
0.260895 0.137146 0.021393
0.304382 0.133148 0.014679
0.308411 0.151306 0.022308
0.374298 0.153107 0.022308
0.440430 0.144897 0.020477
0.507843 0.124207 0.017395
0.564453 0.102600 0.024170
0.604523 0.097046 0.039856
0.643402 0.090210 0.052795
0.683990 0.084839 0.059753
0.721375 0.085205 0.065887
0.764801 0.080750 0.070587
0.811157 0.076721 0.074402
0.860901 0.077698 0.079285
0.865784 0.076080 0.080261
0.864532 0.074554 0.080505
0.863281 0.073090 0.080719
0.862701 0.072418 0.080811
0.862152 0.071777 0.080902
0.861572 0.071075 0.081024
0.861053 0.070435 0.081085
0.860596 0.069794 0.081085
0.860565 0.069763 0.081085
0.860535 0.069733 0.081085
0.388611 0.127991 0.011963
0.386993 0.127411 0.011841
0.385437 0.126801 0.011719
0.382294 0.125610 0.011475
0.378998 0.124329 0.011230
0.375214 0.123138 0.010925
0.371918 0.123138 0.011414
0.367828 0.123962 0.011047
0.365845 0.126617 0.011017
0.358246 0.132599 0.012543
0.301849 0.157684 0.024780
0.349365 0.149750 0.016724
0.345612 0.176880 0.025940
0.403320 0.179413 0.029846
0.465363 0.172760 0.025940
0.525696 0.154785 0.017487
0.590942 0.127197 0.019043
0.641052 0.117096 0.032288
0.680359 0.111267 0.052734
0.720520 0.107269 0.060577
0.763397 0.102539 0.067139
0.808350 0.093933 0.071564
0.861481 0.093842 0.076965
0.875214 0.090515 0.078796
0.873444 0.086975 0.079132
0.871796 0.084564 0.079376
0.871063 0.083496 0.079468
0.870392 0.082520 0.079559
0.869629 0.081421 0.079681
0.868958 0.080414 0.079773
0.868256 0.079437 0.079865
0.868225 0.079376 0.079895
0.868195 0.079315 0.079895
0.430481 0.143982 0.014801
0.429138 0.143402 0.014740
0.427826 0.142822 0.014648
0.425354 0.141724 0.014496
0.422607 0.140533 0.014343
0.418732 0.138916 0.014099
0.415283 0.138580 0.013794
0.410950 0.138489 0.013794
0.407379 0.139557 0.013855
0.406403 0.142670 0.014282
0.400879 0.149200 0.014648
0.349243 0.184784 0.029510
0.395569 0.169556 0.018707
0.390137 0.198517 0.030640
0.431091 0.203613 0.038513
0.490173 0.198578 0.035950
0.547546 0.185913 0.023132
0.611237 0.163330 0.021759
0.669220 0.139038 0.026428
0.718903 0.130280 0.046173
0.763702 0.127838 0.059967
0.805115 0.119354 0.068542
0.859161 0.114716 0.073730
0.886383 0.112091 0.076538
0.885498 0.109070 0.076996
0.883057 0.105774 0.077393
0.881866 0.104126 0.077576
0.881012 0.102570 0.077698
0.880219 0.100983 0.077850
0.879395 0.099213 0.078033
0.878601 0.097565 0.078156
0.878540 0.097473 0.078186
0.878510 0.097382 0.078186
0.470459 0.163635 0.016357
0.468872 0.162811 0.016327
0.467041 0.161835 0.016266
0.464142 0.160309 0.016205
0.461243 0.158783 0.016144
0.457336 0.156708 0.016022
0.453278 0.155090 0.015930
0.449524 0.154358 0.015808
0.445923 0.154663 0.015686
0.443329 0.156555 0.016113
0.441406 0.162415 0.016235
0.431824 0.173157 0.018341
0.392365 0.209290 0.036530
0.436279 0.187012 0.021393
0.433411 0.218597 0.035858
0.466431 0.231567 0.044006
0.515076 0.226196 0.043610
0.569092 0.214050 0.034912
0.632080 0.194702 0.025574
0.700745 0.166016 0.026031
0.761719 0.149872 0.038147
0.810028 0.147736 0.057617
0.859344 0.139984 0.070618
0.897583 0.135651 0.074585
0.903015 0.131561 0.075256
0.899719 0.127472 0.075470
0.897583 0.124847 0.075623
0.896179 0.123077 0.075745
0.894775 0.121338 0.075836
0.893250 0.119446 0.075928
0.891846 0.117706 0.076050
0.891754 0.117584 0.076050
0.891693 0.117523 0.076050
0.508453 0.181580 0.017456
0.507141 0.180939 0.017395
0.505859 0.180267 0.017365
0.503754 0.179321 0.017303
0.501129 0.178131 0.017242
0.498016 0.176727 0.017120
0.494659 0.175293 0.017029
0.491577 0.175018 0.016907
0.488495 0.175201 0.017029
0.485291 0.176331 0.017548
0.483307 0.178650 0.017365
0.480591 0.182953 0.018463
0.466919 0.197784 0.022644
0.436554 0.235596 0.041962
0.481079 0.203918 0.023254
0.478424 0.243713 0.039978
0.499481 0.262024 0.049316
0.544708 0.255402 0.051208
0.592621 0.243927 0.047638
0.652191 0.226624 0.035736
0.722961 0.200104 0.031158
0.800293 0.176025 0.035675
0.862152 0.171814 0.050537
0.906342 0.165802 0.070282
0.919373 0.160492 0.073273
0.917603 0.154907 0.074463
0.915833 0.151947 0.074554
0.914612 0.149841 0.074615
0.913513 0.147949 0.074677
0.912415 0.146057 0.074707
0.911285 0.144165 0.074768
0.911224 0.144073 0.074768
0.911194 0.143982 0.074768
0.546967 0.200012 0.018921
0.545380 0.199341 0.018829
0.543610 0.198517 0.018738
0.541138 0.197449 0.018616
0.538696 0.196350 0.018494
0.535095 0.194763 0.018311
0.531097 0.192932 0.018127
0.527863 0.191895 0.018036
0.525330 0.191650 0.018005
0.522003 0.191986 0.018555
0.519714 0.193512 0.019501
0.518372 0.196869 0.020020
0.515930 0.200989 0.020569
0.501526 0.222473 0.028381
0.479675 0.264191 0.046722
0.519287 0.221558 0.025970
0.519501 0.266144 0.043365
0.535431 0.292542 0.053040
0.573273 0.284973 0.059906
0.620422 0.275116 0.057922
0.676239 0.261017 0.050140
0.751129 0.237823 0.037933
0.841888 0.208221 0.035217
0.920563 0.188568 0.040710
0.931091 0.189056 0.050354
0.933380 0.185608 0.058228
0.931824 0.183105 0.062897
0.930878 0.181641 0.065613
0.929962 0.180206 0.068298
0.928833 0.178070 0.069855
0.927673 0.175690 0.070343
0.927612 0.175568 0.070374
0.927582 0.175446 0.070404
0.587830 0.219421 0.021851
0.586487 0.218719 0.021729
0.585144 0.218079 0.021606
0.583252 0.217133 0.021454
0.581055 0.216064 0.021271
0.577698 0.214386 0.020966
0.574249 0.212708 0.020691
0.570465 0.210846 0.020355
0.567169 0.210022 0.020111
0.564056 0.210022 0.020447
0.560242 0.210541 0.020752
0.557648 0.212372 0.021515
0.557129 0.215942 0.022308
0.554932 0.221252 0.023651
0.536926 0.252808 0.037476
0.521545 0.294342 0.051300
0.557800 0.248474 0.034149
0.560608 0.290039 0.047058
0.572266 0.326050 0.056183
0.605835 0.323029 0.067871
0.647003 0.311676 0.068146
0.704987 0.296753 0.062958
0.783844 0.278229 0.050690
0.882599 0.250275 0.032867
0.926422 0.227844 0.034882
0.934509 0.217133 0.038361
0.935394 0.212250 0.039246
0.935883 0.209473 0.039764
0.936371 0.206940 0.040222
0.936829 0.204437 0.040680
0.937256 0.201935 0.041107
0.937286 0.201813 0.041138
0.937317 0.201691 0.041168
0.629395 0.242981 0.025208
0.628021 0.242218 0.025085
0.626648 0.241486 0.024994
0.624695 0.240448 0.024811
0.622650 0.239349 0.024628
0.619324 0.237518 0.024353
0.615692 0.235382 0.024078
0.611389 0.232880 0.023743
0.607635 0.231171 0.023407
0.604248 0.230164 0.023834
0.600281 0.229523 0.024231
0.596588 0.230377 0.024658
0.593964 0.235321 0.025513
0.592743 0.239014 0.026520
0.591278 0.245270 0.028564
0.574493 0.283447 0.045105
0.562378 0.328644 0.056274
0.592834 0.276001 0.041443
0.597717 0.319489 0.050812
0.610870 0.355042 0.059967
0.638641 0.360382 0.073242
0.678192 0.349121 0.077332
0.735077 0.334564 0.073517
0.820892 0.318726 0.063721
0.894501 0.302765 0.048584
0.925568 0.285553 0.040466
0.928955 0.274506 0.035797
0.930511 0.269348 0.033630
0.931458 0.264435 0.032745
0.931732 0.259827 0.033295
0.932007 0.254944 0.033844
0.932007 0.254700 0.033875
0.932037 0.254486 0.033905
0.670837 0.265106 0.030029
0.669403 0.264343 0.029816
0.667908 0.263550 0.029602
0.666107 0.262604 0.029358
0.663879 0.261414 0.029053
0.660614 0.259674 0.028595
0.657135 0.257812 0.028107
0.653015 0.255615 0.027527
0.649139 0.253662 0.026947
0.645844 0.252716 0.026520
0.642822 0.252502 0.027069
0.639343 0.252869 0.027893
0.636200 0.254303 0.028442
0.634521 0.257355 0.030243
0.633209 0.261932 0.033783
0.631561 0.267944 0.035400
0.611694 0.317322 0.051483
0.601715 0.362427 0.061035
0.631714 0.313354 0.046692
0.638580 0.347168 0.054993
0.648010 0.391174 0.064240
0.673340 0.400970 0.078918
0.713776 0.393219 0.087433
0.776001 0.378845 0.084229
0.846191 0.362610 0.079346
0.897858 0.350922 0.070740
0.902405 0.342529 0.066498
0.904663 0.338409 0.064423
0.906677 0.334686 0.062531
0.908783 0.330811 0.060577
0.910797 0.327179 0.058746
0.910889 0.326935 0.058624
0.910980 0.326813 0.058533
0.717621 0.289307 0.034821
0.715881 0.288239 0.034668
0.714142 0.287170 0.034515
0.711853 0.285767 0.034332
0.709473 0.284271 0.034119
0.705933 0.282501 0.033783
0.702362 0.280762 0.033417
0.697845 0.278564 0.032959
0.693512 0.276459 0.032532
0.689606 0.274933 0.032074
0.686401 0.274170 0.032410
0.683594 0.274200 0.032684
0.679596 0.274841 0.033905
0.676239 0.276886 0.034790
0.674103 0.280640 0.036438
0.671722 0.286133 0.037872
0.670532 0.293518 0.039734
0.647827 0.352753 0.057739
0.640778 0.397888 0.067352
0.672058 0.346130 0.052094
0.680176 0.378601 0.058472
0.690338 0.421997 0.068268
0.710999 0.442627 0.083405
0.756226 0.438232 0.098907
0.814575 0.426056 0.096924
0.875397 0.413818 0.093140
0.877747 0.404388 0.090454
0.879120 0.398865 0.088867
0.880737 0.394348 0.087311
0.882263 0.390259 0.085815
0.883759 0.386230 0.084351
0.883850 0.386047 0.084259
0.883911 0.385834 0.084198
0.775299 0.320221 0.039948
0.773163 0.319214 0.039764
0.770996 0.318207 0.039551
0.768311 0.316956 0.039307
0.765259 0.315521 0.039032
0.760956 0.313507 0.038635
0.756287 0.311310 0.038208
0.750336 0.308533 0.037659
0.744598 0.305847 0.037140
0.739838 0.303192 0.036682
0.735748 0.301086 0.036835
0.733093 0.300079 0.036804
0.728638 0.299469 0.037659
0.724213 0.301056 0.037994
0.720337 0.305847 0.039093
0.719299 0.310120 0.040527
0.717773 0.316864 0.042206
0.718140 0.325562 0.044434
0.688995 0.393921 0.064056
0.680908 0.436462 0.072845
0.715515 0.385773 0.058441
0.727264 0.412170 0.062592
0.734680 0.457916 0.072021
0.754181 0.483185 0.086273
0.803467 0.483978 0.106354
0.859070 0.477142 0.108521
0.865875 0.468109 0.106567
0.866455 0.462158 0.105316
0.866913 0.457825 0.104401
0.867279 0.453918 0.103577
0.867676 0.449982 0.102722
0.867706 0.449829 0.102692
0.867706 0.449615 0.102661
0.847870 0.353851 0.044678
0.845276 0.352509 0.044556
0.842651 0.351135 0.044434
0.839386 0.349426 0.044312
0.835693 0.347504 0.044128
0.830750 0.345306 0.043823
0.825836 0.343079 0.043518
0.819489 0.340240 0.043091
0.812561 0.337158 0.042664
0.805389 0.333984 0.042206
0.798645 0.331787 0.041718
0.792572 0.330566 0.041962
0.787292 0.330231 0.042084
0.782990 0.330750 0.042358
0.779541 0.332672 0.042999
0.776917 0.336426 0.044281
0.776123 0.342621 0.045502
0.773773 0.349884 0.047272
0.774506 0.362091 0.049713
0.733337 0.435303 0.070557
0.724091 0.472046 0.078339
0.770142 0.427094 0.062988
0.784485 0.452728 0.066559
0.788666 0.496582 0.075378
0.801727 0.527679 0.085419
0.856812 0.530365 0.111633
0.869965 0.525513 0.113831
0.868866 0.520691 0.113892
0.868317 0.516937 0.113586
0.867920 0.513214 0.113129
0.867554 0.509552 0.112701
0.867523 0.509399 0.112701
0.867493 0.509186 0.112671
0.919403 0.392426 0.048645
0.917358 0.391296 0.048523
0.915253 0.390137 0.048370
0.912659 0.388672 0.048187
0.910065 0.387207 0.047974
0.906036 0.384949 0.047699
0.901947 0.382660 0.047394
0.896790 0.379761 0.047028
0.891022 0.376526 0.046600
0.884033 0.372803 0.046234
0.876862 0.369354 0.045898
0.870056 0.366486 0.045532
0.865143 0.364899 0.045929
0.858093 0.363739 0.046326
0.851746 0.364014 0.046661
0.846558 0.369537 0.047729
0.844299 0.373260 0.048767
0.842926 0.380096 0.049957
0.841827 0.388092 0.051514
0.842346 0.401367 0.053864
0.786713 0.479980 0.076294
0.774902 0.514587 0.082550
0.833984 0.472870 0.067932
0.858337 0.492645 0.069489
0.854950 0.535980 0.078430
0.862305 0.570190 0.084595
0.880981 0.571350 0.104889
0.880157 0.566010 0.107147
0.879333 0.563019 0.108246
0.878448 0.559875 0.109406
0.877655 0.556976 0.110474
0.877625 0.556824 0.110535
0.877563 0.556671 0.110565
0.930145 0.477783 0.212524
0.929871 0.474274 0.206360
0.929626 0.471222 0.201019
0.929321 0.467407 0.194336
0.929016 0.463531 0.187561
0.928894 0.458008 0.176666
0.928986 0.451935 0.163696
0.929077 0.444244 0.147339
0.929199 0.435883 0.129547
0.929352 0.426544 0.109619
0.929474 0.417511 0.090393
0.929626 0.408875 0.069763
0.929260 0.401062 0.050079
0.924316 0.401672 0.055389
0.919769 0.403656 0.063110
0.917114 0.404907 0.061401
0.916809 0.412048 0.069885
0.921448 0.415070 0.061554
0.925049 0.419617 0.053619
0.916504 0.431061 0.055145
0.907745 0.451263 0.058655
0.850586 0.528107 0.082031
0.832275 0.554871 0.087433
0.905243 0.523590 0.072571
0.922302 0.533020 0.088867
0.923309 0.577209 0.081177
0.924255 0.597595 0.086212
0.918610 0.598389 0.086823
0.914978 0.597260 0.086823
0.911682 0.595428 0.088226
0.908691 0.593597 0.089752
0.908539 0.593506 0.089844
0.908356 0.593384 0.089935
0.938843 0.563232 0.356720
0.938538 0.560730 0.352692
0.938232 0.558258 0.348694
0.937775 0.554810 0.343109
0.937378 0.551575 0.337891
0.936859 0.547638 0.331512
0.936310 0.543182 0.324280
0.935516 0.536896 0.314117
0.934692 0.530365 0.303589
0.933777 0.523254 0.292084
0.933014 0.514313 0.276550
0.932281 0.505432 0.260376
0.931671 0.498871 0.248383
0.931152 0.493958 0.238129
0.930634 0.491150 0.230774
0.929504 0.481323 0.205902
0.929901 0.482422 0.204712
0.929565 0.490295 0.209595
0.928955 0.489136 0.197083
0.930298 0.499695 0.213287
0.929443 0.508240 0.211700
0.929596 0.525513 0.197693
0.914429 0.572693 0.086609
0.896759 0.598450 0.089539
0.939117 0.576050 0.177246
0.939697 0.593597 0.277588
0.948486 0.618256 0.255432
0.951172 0.622070 0.217102
0.951050 0.620117 0.196289
0.950867 0.618134 0.177948
0.950653 0.616150 0.159607
0.950653 0.616058 0.158875
0.950623 0.615906 0.157593
0.957153 0.634583 0.473358
0.956573 0.632080 0.469696
0.955994 0.629578 0.466034
0.955261 0.626465 0.461548
0.954498 0.623230 0.456818
0.953522 0.618988 0.450623
0.952545 0.615143 0.444794
0.951019 0.609894 0.435791
0.949310 0.604065 0.425781
0.947479 0.597809 0.415100
0.945618 0.591400 0.404114
0.943817 0.585114 0.393494
0.942383 0.580292 0.384735
0.941345 0.575897 0.376404
0.941467 0.572357 0.369995
0.940735 0.568085 0.360840
0.939636 0.563782 0.350006
0.938690 0.563385 0.348389
0.937592 0.564545 0.346130
0.938110 0.572021 0.350403
0.939911 0.577271 0.353424
0.941498 0.586243 0.361694
0.942291 0.599731 0.353424
0.953278 0.620697 0.190979
0.958649 0.641907 0.097656
0.952087 0.642273 0.374847
0.957794 0.661804 0.444244
0.960358 0.667908 0.433228
0.959442 0.666321 0.422424
0.958130 0.663452 0.413422
0.957184 0.660370 0.402222
0.957153 0.660217 0.401703
0.957123 0.660065 0.401062
0.973389 0.709503 0.579987
0.972931 0.707245 0.576843
0.972443 0.704956 0.573608
0.971771 0.701660 0.569000
0.971191 0.698761 0.564941
0.970520 0.695526 0.560394
0.969788 0.691864 0.555298
0.968597 0.686096 0.547211
0.967407 0.680267 0.539062
0.966125 0.673950 0.530212
0.964722 0.667023 0.520538
0.963013 0.659637 0.509857
0.961517 0.652771 0.499664
0.960297 0.647156 0.491577
0.959106 0.642151 0.483948
0.958221 0.638367 0.478668
0.956818 0.636414 0.468475
0.956268 0.636536 0.469543
0.956238 0.637207 0.468903
0.956757 0.638885 0.468628
0.957733 0.644104 0.472687
0.957916 0.649719 0.475403
0.960052 0.658203 0.488770
0.963074 0.670685 0.485901
0.970184 0.684601 0.402252
0.976776 0.698334 0.370056
0.975861 0.713165 0.522339
0.976105 0.718689 0.560028
0.976562 0.718842 0.559692
0.975769 0.715088 0.551697
0.974945 0.711151 0.543243
0.974884 0.710907 0.542755
0.974854 0.710724 0.542358
0.973785 0.711456 0.582703
0.973755 0.711426 0.582642
0.973755 0.711426 0.582642
0.973755 0.711365 0.582581
0.973755 0.711365 0.582581
0.973755 0.711365 0.582581
0.973755 0.711334 0.582520
0.973633 0.710815 0.581818
0.973328 0.709259 0.579620
0.972931 0.707306 0.576904
0.972626 0.705811 0.574799
0.971893 0.702301 0.569885
0.971436 0.699860 0.566315
0.971191 0.698303 0.563873
0.970978 0.696533 0.561127
0.971100 0.696533 0.564056
0.971252 0.696991 0.565094
0.971222 0.696594 0.563354
0.971191 0.698273 0.565582
0.971741 0.702118 0.569092
0.973083 0.709290 0.572632
0.974762 0.714142 0.581940
0.975952 0.718323 0.586609
