nova/tdt-studio/app/Lut_mau/IWLTBAP/1 - LUTs by IWLTBAP (CUBE)/02 - Generic LOG/Psychedelia/Suppol - LOG.cube
# Copyright: (C) Copyright 2010-2018 by IWLTBAP SAS
# Cannot be resold, shared or otherwise redistributed
# Website: https://luts.iwltbap.com
TITLE "IWLTBAP Suppol (Generic LOG)"
LUT_3D_SIZE 33
0.003296 0.001770 0.002533
0.004272 0.001648 0.002533
0.018585 0.000305 0.002533
0.038208 0.000977 0.002136
0.065338 0.000336 0.001099
0.098633 0.000000 0.000732
0.134918 0.000000 0.000061
0.178589 0.000000 0.000000
0.228455 0.000000 0.000000
0.284882 0.000000 0.000092
0.345398 0.000000 0.003113
0.415680 0.000000 0.007751
0.486176 0.000000 0.012482
0.564789 0.000000 0.020844
0.645325 0.000000 0.025970
0.727570 0.000000 0.031372
0.805450 0.000000 0.039612
0.880493 0.000000 0.053253
0.946289 0.000000 0.064575
0.996429 0.000000 0.081543
1.000000 0.000000 0.093231
1.000000 0.000000 0.103394
1.000000 0.000000 0.103394
1.000000 0.000000 0.103394
1.000000 0.000000 0.103394
1.000000 0.000000 0.103394
1.000000 0.000000 0.103394
1.000000 0.000000 0.103394
1.000000 0.000000 0.103394
1.000000 0.000000 0.103394
1.000000 0.000000 0.103394
1.000000 0.000000 0.103394
1.000000 0.000000 0.103394
0.003296 0.001770 0.002533
0.003296 0.001770 0.002533
0.014496 0.000427 0.002533
0.032227 0.000977 0.002380
0.059174 0.000549 0.001312
0.091705 0.000000 0.000946
0.127991 0.000000 0.000092
0.170776 0.000000 0.000000
0.219208 0.000000 0.000000
0.275269 0.000000 0.000031
0.335388 0.000000 0.002350
0.405670 0.000000 0.007202
0.475708 0.000000 0.011658
0.554504 0.000000 0.020172
0.634674 0.000000 0.025238
0.717682 0.000000 0.030792
0.795959 0.000000 0.038544
0.872833 0.000000 0.052094
0.939850 0.000000 0.063232
0.995026 0.000000 0.080017
1.000000 0.000000 0.092438
1.000000 0.000000 0.102631
1.000000 0.000000 0.103394
1.000000 0.000000 0.103394
1.000000 0.000000 0.103394
1.000000 0.000000 0.103394
1.000000 0.000000 0.103394
1.000000 0.000000 0.103394
1.000000 0.000000 0.103394
1.000000 0.000000 0.103394
1.000000 0.000000 0.103394
1.000000 0.000000 0.103394
1.000000 0.000000 0.103394
0.019409 0.008423 0.029572
0.017273 0.007538 0.025970
0.015778 0.009247 0.025665
0.029633 0.008209 0.020966
0.052765 0.005371 0.007599
0.085205 0.002075 0.002197
0.120789 0.000000 0.000153
0.163239 0.000000 0.000000
0.209930 0.000000 0.000000
0.265259 0.000000 0.000000
0.326599 0.000000 0.001770
0.395142 0.000000 0.006592
0.465179 0.000000 0.010864
0.543518 0.000000 0.019196
0.624451 0.000000 0.024597
0.707703 0.000000 0.030212
0.786835 0.000000 0.037537
0.864502 0.000000 0.050781
0.933258 0.000000 0.061890
0.993591 0.000000 0.078461
1.000000 0.000000 0.091705
1.000000 0.000000 0.101624
1.000000 0.000000 0.103394
1.000000 0.000000 0.103394
1.000000 0.000000 0.103394
1.000000 0.000000 0.103394
1.000000 0.000000 0.103394
1.000000 0.000000 0.103394
1.000000 0.000000 0.103394
1.000000 0.000000 0.103394
1.000000 0.000000 0.103394
1.000000 0.000000 0.103394
1.000000 0.000000 0.103394
0.043579 0.018585 0.069000
0.041687 0.017792 0.065948
0.038239 0.017731 0.063904
0.034637 0.022125 0.065948
0.046387 0.022308 0.049530
0.074982 0.018768 0.021851
0.112488 0.013092 0.006317
0.153961 0.006653 0.001160
0.198853 0.002289 0.000000
0.254272 0.000000 0.000336
0.313995 0.000000 0.001282
0.379761 0.000000 0.005737
0.450195 0.000000 0.009857
0.527069 0.000000 0.016998
0.607819 0.000000 0.023560
0.691437 0.000000 0.029266
0.771301 0.000000 0.035797
0.850708 0.000000 0.048401
0.920776 0.000000 0.059662
0.983643 0.000000 0.074890
1.000000 0.000000 0.089844
1.000000 0.000000 0.100281
1.000000 0.000000 0.103394
1.000000 0.000000 0.103394
1.000000 0.000000 0.103394
1.000000 0.000000 0.103394
1.000000 0.000000 0.103394
1.000000 0.000000 0.103394
1.000000 0.000000 0.103394
1.000000 0.000000 0.103394
1.000000 0.000000 0.103394
1.000000 0.000000 0.103394
1.000000 0.000000 0.103394
0.069031 0.027161 0.108337
0.067261 0.026611 0.105652
0.065491 0.026062 0.102936
0.056458 0.029358 0.108246
0.047272 0.036804 0.111267
0.063416 0.037048 0.079254
0.099213 0.031952 0.033905
0.143860 0.026672 0.008911
0.190399 0.019012 0.001923
0.243896 0.009888 0.001801
0.302490 0.003784 0.003052
0.367706 0.000244 0.006012
0.439514 0.000000 0.009277
0.512512 0.000000 0.014709
0.592072 0.000000 0.022491
0.674469 0.000000 0.028137
0.755341 0.000000 0.034149
0.835266 0.000000 0.045135
0.907379 0.000000 0.057526
0.971558 0.000000 0.071075
1.000000 0.000000 0.087524
1.000000 0.000000 0.098389
1.000000 0.000000 0.103394
1.000000 0.000000 0.103394
1.000000 0.000000 0.103394
1.000000 0.000000 0.103394
1.000000 0.000000 0.103394
1.000000 0.000000 0.103394
1.000000 0.000000 0.103394
1.000000 0.000000 0.103394
1.000000 0.000000 0.103394
1.000000 0.000000 0.103394
1.000000 0.000000 0.103394
0.100372 0.033691 0.149078
0.098480 0.033325 0.146698
0.096313 0.032898 0.143982
0.089264 0.036316 0.147552
0.071442 0.043213 0.162079
0.057159 0.051971 0.161804
0.080139 0.055969 0.111847
0.126678 0.050323 0.045898
0.176880 0.043854 0.013336
0.231445 0.034912 0.006439
0.288788 0.024658 0.006104
0.356689 0.012421 0.007355
0.425446 0.002594 0.009583
0.501495 0.000000 0.014038
0.578552 0.000000 0.020874
0.660889 0.000000 0.026123
0.742462 0.000000 0.032013
0.820679 0.000000 0.041290
0.894531 0.000000 0.054962
0.957855 0.000000 0.066833
0.998993 0.000000 0.084412
1.000000 0.000000 0.096466
1.000000 0.000000 0.103394
1.000000 0.000000 0.103394
1.000000 0.000000 0.103394
1.000000 0.000000 0.103394
1.000000 0.000000 0.103394
1.000000 0.000000 0.103394
1.000000 0.000000 0.103394
1.000000 0.000000 0.103394
1.000000 0.000000 0.103394
1.000000 0.000000 0.103394
1.000000 0.000000 0.103394
0.142609 0.046021 0.199463
0.139832 0.045349 0.196350
0.137512 0.044647 0.193573
0.133362 0.043396 0.188629
0.118927 0.049316 0.202484
0.093842 0.055939 0.223145
0.071320 0.067444 0.216888
0.098602 0.076721 0.141541
0.155182 0.069733 0.062042
0.217651 0.059845 0.023560
0.276947 0.050751 0.014374
0.342651 0.040283 0.011200
0.411926 0.028351 0.011078
0.488373 0.016174 0.013214
0.567444 0.003540 0.018707
0.647003 0.000000 0.024017
0.727875 0.000000 0.029358
0.809631 0.000000 0.037567
0.881866 0.000000 0.051971
0.946747 0.000000 0.064240
0.996490 0.000000 0.082001
1.000000 0.000000 0.094269
1.000000 0.000000 0.104767
1.000000 0.000000 0.104431
1.000000 0.000000 0.104095
1.000000 0.000000 0.103943
1.000000 0.000000 0.103821
1.000000 0.000000 0.103699
1.000000 0.000000 0.103607
1.000000 0.000000 0.103455
1.000000 0.000000 0.103394
1.000000 0.000000 0.103394
1.000000 0.000000 0.103394
0.191071 0.057617 0.253601
0.188690 0.057037 0.250916
0.185822 0.056305 0.247711
0.180695 0.055023 0.241974
0.171722 0.056519 0.244354
0.153290 0.063049 0.266266
0.120605 0.072327 0.293182
0.084290 0.087402 0.281525
0.114960 0.098419 0.195282
0.185699 0.091156 0.084015
0.259216 0.082153 0.032837
0.325684 0.072388 0.021729
0.397858 0.061157 0.017273
0.473267 0.044891 0.015656
0.552094 0.031677 0.018005
0.634552 0.019897 0.022125
0.714081 0.011627 0.026672
0.793793 0.007690 0.034058
0.866486 0.006042 0.048523
0.933838 0.003815 0.061005
0.993652 0.005615 0.078766
1.000000 0.010834 0.093353
1.000000 0.007721 0.106812
1.000000 0.002289 0.106476
1.000000 0.000000 0.106079
1.000000 0.000000 0.105743
1.000000 0.000000 0.105560
1.000000 0.000000 0.105377
1.000000 0.000000 0.105194
1.000000 0.000000 0.105011
1.000000 0.000000 0.104828
1.000000 0.000000 0.104828
1.000000 0.000000 0.104797
0.251495 0.072296 0.317352
0.248657 0.071625 0.314575
0.245819 0.070953 0.311829
0.239777 0.069519 0.305939
0.233185 0.067993 0.299530
0.218658 0.074524 0.311829
0.197021 0.078705 0.336090
0.149506 0.089111 0.370026
0.098969 0.106018 0.357788
0.135651 0.121307 0.244171
0.224213 0.117523 0.107025
0.306702 0.108093 0.043549
0.380402 0.096924 0.027161
0.458954 0.082184 0.021332
0.535980 0.066925 0.019653
0.618469 0.053925 0.021118
0.700684 0.039490 0.024231
0.778748 0.031372 0.030823
0.853577 0.030762 0.042542
0.920685 0.031250 0.057495
0.981567 0.032013 0.073883
1.000000 0.034698 0.091278
1.000000 0.039215 0.109039
1.000000 0.032684 0.108551
1.000000 0.026367 0.108093
1.000000 0.020813 0.107666
1.000000 0.018585 0.107513
1.000000 0.016510 0.107391
1.000000 0.014404 0.107239
1.000000 0.012085 0.107117
1.000000 0.009918 0.106964
1.000000 0.009796 0.106964
1.000000 0.009674 0.106964
0.322357 0.089386 0.387268
0.319489 0.088684 0.384430
0.316589 0.087982 0.381531
0.310852 0.086548 0.375824
0.304230 0.084930 0.369232
0.292023 0.087006 0.369110
0.277344 0.089874 0.384338
0.247498 0.097046 0.418152
0.186249 0.106750 0.459259
0.122375 0.128479 0.443695
0.159210 0.150696 0.302094
0.262970 0.148376 0.135162
0.356537 0.138214 0.057281
0.439819 0.126343 0.031982
0.520813 0.111511 0.024719
0.602264 0.096558 0.021515
0.683411 0.084290 0.022308
0.765106 0.072144 0.027222
0.838806 0.066681 0.036377
0.907471 0.067261 0.053284
0.968811 0.068665 0.068207
0.999817 0.073608 0.089539
1.000000 0.080017 0.109070
1.000000 0.073486 0.111572
1.000000 0.066101 0.111023
1.000000 0.058990 0.110504
1.000000 0.055664 0.110260
1.000000 0.052490 0.110016
1.000000 0.049042 0.109772
1.000000 0.046051 0.109558
1.000000 0.043365 0.109344
1.000000 0.043243 0.109344
1.000000 0.043121 0.109344
0.403717 0.106873 0.461334
0.400360 0.105927 0.458374
0.397125 0.105225 0.455475
0.390533 0.103851 0.449585
0.383606 0.102448 0.443390
0.374542 0.101929 0.438141
0.363098 0.105011 0.443756
0.344116 0.108856 0.465302
0.311707 0.114044 0.503967
0.237732 0.129791 0.555176
0.159454 0.157227 0.537292
0.185638 0.184448 0.371216
0.304565 0.184631 0.164795
0.413940 0.173798 0.066833
0.500610 0.161072 0.036713
0.585938 0.148254 0.026215
0.668884 0.132690 0.022980
0.747925 0.122101 0.024719
0.823578 0.115509 0.032379
0.893250 0.111938 0.048157
0.954071 0.114075 0.064514
0.998657 0.120148 0.086884
1.000000 0.128723 0.110077
1.000000 0.123383 0.115540
1.000000 0.113800 0.114716
1.000000 0.105133 0.114044
1.000000 0.101379 0.113739
1.000000 0.097809 0.113464
1.000000 0.093903 0.113159
1.000000 0.090332 0.112885
1.000000 0.086761 0.112610
1.000000 0.086578 0.112579
1.000000 0.086426 0.112579
0.494263 0.133759 0.541718
0.490906 0.132599 0.538696
0.487610 0.131500 0.535736
0.481445 0.129395 0.530151
0.474609 0.127075 0.523987
0.465485 0.124115 0.515808
0.454681 0.125671 0.516113
0.442535 0.126923 0.526489
0.423431 0.131287 0.552429
0.387054 0.140747 0.598145
0.311371 0.161316 0.655853
0.210114 0.194305 0.636505
0.214111 0.224274 0.444183
0.349579 0.225586 0.198761
0.471619 0.216553 0.080841
0.563904 0.202942 0.041382
0.648987 0.191559 0.029114
0.732361 0.180878 0.025970
0.808044 0.172791 0.029938
0.877747 0.169525 0.042358
0.939758 0.170410 0.060364
0.994934 0.174988 0.083496
1.000000 0.183502 0.109253
1.000000 0.185822 0.120728
1.000000 0.175903 0.120270
1.000000 0.164795 0.119202
1.000000 0.159332 0.118652
1.000000 0.154938 0.118256
1.000000 0.150726 0.117920
1.000000 0.146088 0.117493
1.000000 0.141846 0.117126
1.000000 0.141541 0.117126
1.000000 0.141327 0.117096
0.586365 0.170441 0.622894
0.582947 0.168915 0.619934
0.578949 0.167145 0.616486
0.572632 0.164337 0.611023
0.566345 0.161530 0.605591
0.557831 0.157715 0.598236
0.546875 0.155975 0.592926
0.536530 0.156219 0.596771
0.526245 0.158051 0.613495
0.509735 0.164948 0.642395
0.477051 0.179260 0.693909
0.396393 0.206787 0.753174
0.261932 0.239929 0.719360
0.244751 0.264740 0.506439
0.395477 0.270203 0.239624
0.531860 0.264374 0.101013
0.626099 0.254089 0.050842
0.711670 0.245514 0.035156
0.788788 0.237488 0.032654
0.859711 0.232025 0.040405
0.922394 0.231812 0.057251
0.980377 0.235657 0.080200
1.000000 0.244659 0.107452
1.000000 0.247406 0.125153
1.000000 0.239807 0.127319
1.000000 0.229431 0.126068
1.000000 0.222778 0.125275
1.000000 0.218353 0.124725
1.000000 0.213928 0.124207
1.000000 0.209167 0.123627
1.000000 0.204742 0.123077
1.000000 0.204468 0.123047
1.000000 0.204254 0.123047
0.679840 0.223083 0.705322
0.676636 0.220551 0.702454
0.673492 0.218048 0.699677
0.668121 0.214844 0.694885
0.661469 0.211029 0.688995
0.653473 0.206482 0.681946
0.644714 0.201996 0.674683
0.634399 0.202576 0.673615
0.626678 0.202209 0.681793
0.617981 0.208527 0.701660
0.602478 0.215790 0.734314
0.573792 0.236389 0.786499
0.476501 0.264557 0.830780
0.301086 0.285461 0.774536
0.273804 0.306671 0.567566
0.439117 0.318085 0.291565
0.587067 0.315460 0.129272
0.686737 0.308441 0.063385
0.767670 0.302856 0.046173
0.839355 0.299469 0.045715
0.903931 0.297089 0.057404
0.964020 0.301208 0.079498
0.999329 0.306335 0.108002
1.000000 0.313049 0.132935
1.000000 0.307220 0.140289
1.000000 0.296509 0.139038
1.000000 0.289337 0.137421
1.000000 0.284302 0.136292
1.000000 0.279724 0.135254
1.000000 0.275177 0.134216
1.000000 0.270599 0.133179
1.000000 0.270355 0.133148
1.000000 0.270172 0.133087
0.763519 0.298706 0.782104
0.760742 0.295563 0.779419
0.757629 0.292023 0.776367
0.753326 0.287140 0.772186
0.749084 0.282318 0.768066
0.742767 0.275146 0.761932
0.735199 0.267212 0.754730
0.725983 0.264038 0.749878
0.718262 0.266022 0.752472
0.710297 0.267395 0.765106
0.702484 0.276245 0.786072
0.687683 0.291473 0.819214
0.649872 0.310089 0.858948
0.522644 0.321045 0.870911
0.330811 0.330414 0.808167
0.305481 0.351379 0.620422
0.480682 0.368622 0.351471
0.642456 0.372589 0.160461
0.741028 0.366394 0.081421
0.816803 0.363190 0.062225
0.884674 0.363342 0.065643
0.943512 0.363434 0.083710
0.995300 0.369965 0.110718
1.000000 0.377747 0.141144
1.000000 0.373383 0.149841
1.000000 0.364105 0.150665
1.000000 0.356110 0.149078
1.000000 0.351440 0.148163
1.000000 0.346832 0.147247
1.000000 0.341827 0.146332
1.000000 0.337158 0.145599
1.000000 0.336914 0.145569
1.000000 0.336700 0.145508
0.832550 0.388672 0.849915
0.830292 0.385468 0.847687
0.828094 0.382324 0.845490
0.824982 0.377930 0.842407
0.821350 0.372772 0.838806
0.815796 0.364899 0.833344
0.810120 0.356842 0.827728
0.803894 0.348022 0.821564
0.797028 0.345856 0.822754
0.791748 0.345062 0.827698
0.783539 0.351196 0.840424
0.770691 0.360291 0.857788
0.747253 0.369446 0.876068
0.682404 0.376709 0.888275
0.543671 0.374756 0.881287
0.360168 0.373230 0.830688
0.339081 0.394287 0.674530
0.525085 0.421722 0.412415
0.688873 0.429138 0.202271
0.788055 0.426727 0.108032
0.860229 0.424774 0.087311
0.922424 0.427521 0.096283
0.977448 0.429504 0.116272
1.000000 0.436707 0.149261
1.000000 0.434998 0.165558
1.000000 0.428131 0.169189
1.000000 0.420288 0.166412
1.000000 0.415833 0.164825
1.000000 0.411774 0.163391
1.000000 0.407745 0.161957
1.000000 0.403778 0.160553
1.000000 0.403564 0.160492
1.000000 0.403381 0.160400
0.871765 0.471436 0.892151
0.870941 0.468811 0.891205
0.870117 0.466217 0.890289
0.868988 0.462555 0.888947
0.867767 0.458649 0.887543
0.865387 0.452301 0.884888
0.861786 0.445007 0.881012
0.857544 0.436462 0.876465
0.852386 0.431671 0.873779
0.846893 0.428741 0.874847
0.840057 0.430176 0.881897
0.829010 0.431946 0.888916
0.805634 0.436676 0.895203
0.763885 0.435547 0.897919
0.691132 0.431885 0.893829
0.557953 0.423859 0.885803
0.394684 0.420227 0.849701
0.383545 0.440857 0.716522
0.562378 0.472412 0.478516
0.730865 0.485107 0.251892
0.829559 0.484589 0.144867
0.898438 0.485443 0.122681
0.955658 0.489868 0.134247
1.000000 0.493134 0.163208
1.000000 0.494659 0.185028
1.000000 0.489929 0.190704
1.000000 0.481354 0.186676
1.000000 0.477325 0.184814
1.000000 0.473206 0.183228
1.000000 0.468994 0.181915
1.000000 0.464539 0.180573
1.000000 0.464355 0.180511
1.000000 0.464142 0.180420
0.885193 0.540466 0.909393
0.885040 0.538361 0.909088
0.884888 0.536133 0.908813
0.884674 0.533447 0.908447
0.884430 0.530151 0.907990
0.884094 0.525299 0.907318
0.883698 0.520111 0.906616
0.883240 0.513977 0.905792
0.882233 0.508331 0.905121
0.877319 0.503693 0.903992
0.868774 0.501831 0.903259
0.856781 0.500092 0.904846
0.837128 0.497406 0.905792
0.808533 0.495392 0.905090
0.764923 0.491333 0.903015
0.693939 0.482269 0.897278
0.576050 0.470184 0.889618
0.432678 0.464142 0.864319
0.416351 0.485016 0.760101
0.595245 0.522522 0.542755
0.767181 0.538116 0.311584
0.864624 0.540039 0.192505
0.931519 0.542755 0.167725
0.986603 0.546021 0.185547
1.000000 0.549683 0.206909
1.000000 0.547150 0.220947
1.000000 0.538971 0.216248
1.000000 0.534943 0.213928
1.000000 0.531311 0.211823
1.000000 0.527557 0.209625
1.000000 0.523987 0.207581
1.000000 0.523773 0.207458
1.000000 0.523621 0.207367
0.885681 0.591003 0.913696
0.885712 0.589508 0.913605
0.885742 0.588013 0.913483
0.885773 0.586029 0.913361
0.885803 0.583954 0.913239
0.885803 0.580292 0.912964
0.885834 0.576538 0.912689
0.885834 0.571777 0.912323
0.885834 0.567169 0.911957
0.883728 0.562927 0.911652
0.879211 0.559021 0.911346
0.869476 0.555817 0.911041
0.855774 0.551971 0.910309
0.834137 0.547943 0.909241
0.805389 0.542877 0.907623
0.763275 0.536469 0.905121
0.696472 0.528137 0.901215
0.592377 0.518158 0.893036
0.466583 0.510956 0.876801
0.452423 0.530334 0.793427
0.624298 0.569183 0.604187
0.799744 0.588684 0.378113
0.897156 0.594238 0.247375
0.961945 0.596405 0.224152
0.999329 0.598450 0.240143
1.000000 0.599060 0.253693
1.000000 0.591309 0.247803
1.000000 0.586761 0.244324
1.000000 0.583099 0.242065
1.000000 0.579803 0.240112
1.000000 0.576569 0.238220
1.000000 0.576385 0.238129
1.000000 0.576233 0.238007
0.885193 0.636139 0.916656
0.885193 0.634613 0.916534
0.885193 0.633087 0.916443
0.885223 0.631165 0.916321
0.885223 0.628998 0.916168
0.885254 0.625916 0.915985
0.885254 0.622589 0.915771
0.885284 0.618347 0.915497
0.885315 0.614258 0.915222
0.884613 0.610107 0.914917
0.881866 0.606049 0.914612
0.876678 0.602386 0.914246
0.864777 0.599213 0.913696
0.851654 0.595886 0.912964
0.831543 0.592285 0.911835
0.802490 0.587341 0.910248
0.764435 0.580322 0.907990
0.702637 0.571533 0.904724
0.611511 0.562347 0.898254
0.503113 0.556824 0.885345
0.487335 0.576935 0.827026
0.652069 0.613159 0.666748
0.823853 0.638855 0.453400
0.926758 0.642609 0.316193
0.986206 0.646027 0.287903
1.000000 0.648651 0.295319
1.000000 0.642700 0.290588
1.000000 0.638000 0.286224
1.000000 0.634613 0.283051
1.000000 0.631531 0.280151
1.000000 0.628448 0.277283
1.000000 0.628296 0.277161
1.000000 0.628143 0.277008
0.885040 0.674896 0.919373
0.885040 0.673737 0.919281
0.885071 0.672546 0.919189
0.885071 0.671082 0.919098
0.885071 0.669403 0.918976
0.885071 0.666870 0.918793
0.885071 0.664368 0.918610
0.885101 0.661102 0.918365
0.885101 0.657562 0.918121
0.885010 0.653900 0.917847
0.883392 0.650879 0.917542
0.879883 0.648376 0.917267
0.874084 0.644684 0.916870
0.862091 0.640900 0.916351
0.849243 0.637482 0.915588
0.829315 0.633636 0.914490
0.802094 0.629578 0.913025
0.766479 0.623932 0.910950
0.712219 0.615997 0.908142
0.634460 0.607178 0.904297
0.544067 0.603546 0.894104
0.534637 0.622559 0.853790
0.683899 0.658447 0.727142
0.851898 0.682739 0.528076
0.951630 0.688843 0.386871
1.000000 0.691956 0.347900
1.000000 0.687805 0.341248
1.000000 0.683197 0.334503
1.000000 0.680115 0.330658
1.000000 0.677307 0.327484
1.000000 0.674530 0.324371
1.000000 0.674408 0.324249
1.000000 0.674225 0.324036
0.885101 0.711365 0.923187
0.885101 0.710144 0.923035
0.885101 0.708893 0.922852
0.885071 0.707367 0.922668
0.885071 0.705811 0.922455
0.885040 0.703461 0.922150
0.885040 0.701019 0.921814
0.885010 0.697968 0.921417
0.884979 0.694550 0.920959
0.884979 0.691101 0.920624
0.884338 0.687897 0.920349
0.882141 0.684784 0.920044
0.878326 0.682617 0.919769
0.870392 0.680664 0.919373
0.860168 0.678253 0.918823
0.845978 0.675079 0.918152
0.828888 0.671692 0.917267
0.803436 0.667847 0.915985
0.771393 0.663666 0.914307
0.724121 0.658752 0.912048
0.663269 0.654114 0.909302
0.590729 0.652985 0.905060
0.586548 0.670074 0.877655
0.717285 0.702087 0.779602
0.871918 0.724213 0.606598
0.975372 0.733093 0.459747
0.999817 0.730530 0.410553
1.000000 0.725677 0.401550
1.000000 0.722961 0.396759
1.000000 0.720123 0.391693
1.000000 0.717499 0.387054
1.000000 0.717346 0.386780
1.000000 0.717224 0.386566
0.885895 0.747498 0.929382
0.885803 0.746124 0.929199
0.885773 0.744965 0.929047
0.885681 0.743500 0.928864
0.885590 0.742004 0.928650
0.885529 0.739929 0.928284
0.885498 0.737640 0.927856
0.885437 0.734741 0.927307
0.885406 0.731598 0.926697
0.885345 0.728119 0.926025
0.885284 0.724701 0.925385
0.883759 0.721313 0.924683
0.881165 0.718262 0.924042
0.877075 0.715393 0.923492
0.868103 0.712952 0.922882
0.859039 0.711670 0.922089
0.844910 0.710266 0.921265
0.829834 0.708038 0.920288
0.807587 0.705261 0.919250
0.778839 0.702545 0.918091
0.742065 0.699585 0.916626
0.695251 0.697327 0.914948
0.643616 0.700134 0.913635
0.644531 0.715454 0.899048
0.751984 0.743866 0.826141
0.896820 0.767181 0.672668
0.977417 0.771210 0.552826
0.992249 0.766663 0.515350
0.994751 0.763977 0.503662
0.995544 0.761200 0.494720
0.996033 0.758606 0.486908
0.996063 0.758484 0.486511
0.996094 0.758331 0.486023
0.888855 0.783844 0.934418
0.888733 0.782654 0.934265
0.888611 0.781494 0.934082
0.888428 0.779877 0.933868
0.888275 0.778381 0.933655
0.888062 0.776520 0.933411
0.887848 0.774414 0.933105
0.887512 0.771454 0.932678
0.887177 0.768402 0.932251
0.886841 0.765076 0.931793
0.886627 0.761536 0.931305
0.885956 0.758209 0.930817
0.884216 0.754913 0.930420
0.881378 0.752014 0.929932
0.877106 0.749084 0.929535
0.868408 0.746948 0.929169
0.859650 0.746338 0.928406
0.847687 0.745819 0.927490
0.833588 0.744110 0.926392
0.815887 0.742737 0.925201
0.792755 0.741455 0.923859
0.765503 0.740875 0.922821
0.732697 0.743774 0.922821
0.697632 0.749664 0.924011
0.702942 0.762787 0.915955
0.790710 0.785980 0.867523
0.902344 0.803772 0.761932
0.943207 0.805817 0.703827
0.948669 0.803314 0.688538
0.952362 0.801025 0.676392
0.956055 0.798737 0.664246
0.956207 0.798645 0.663757
0.956482 0.798492 0.662933
0.898926 0.820801 0.940613
0.898590 0.819580 0.940369
0.898285 0.818329 0.940125
0.897858 0.816803 0.939850
0.897430 0.815216 0.939545
0.896881 0.813141 0.939148
0.896362 0.811188 0.938782
0.895508 0.808380 0.938324
0.894531 0.805206 0.937805
0.893524 0.801849 0.937256
0.892456 0.798401 0.936707
0.891174 0.794708 0.936096
0.889282 0.791565 0.935577
0.886749 0.788391 0.935059
0.883881 0.785736 0.934692
0.879822 0.783142 0.934326
0.873413 0.781097 0.933960
0.864105 0.779510 0.933655
0.855164 0.781006 0.933319
0.841797 0.780975 0.933105
0.830261 0.780823 0.933075
0.814453 0.781189 0.932983
0.794159 0.784180 0.933105
0.772400 0.790009 0.933929
0.754608 0.795715 0.935364
0.760742 0.809448 0.931396
0.828491 0.829071 0.902802
0.871674 0.835785 0.872223
0.884399 0.836029 0.858185
0.887604 0.834503 0.851746
0.891418 0.832703 0.843170
0.891571 0.832611 0.842743
0.891785 0.832520 0.842224
0.909393 0.859680 0.948364
0.909058 0.858490 0.948120
0.908722 0.857239 0.947845
0.908234 0.855469 0.947479
0.907837 0.853912 0.947174
0.907349 0.852173 0.946808
0.906830 0.850189 0.946411
0.905975 0.847076 0.945770
0.905121 0.843964 0.945129
0.904205 0.840546 0.944427
0.903198 0.836823 0.943665
0.902191 0.833130 0.942963
0.900909 0.829712 0.942291
0.898621 0.826477 0.941711
0.895050 0.823456 0.941193
0.891144 0.821014 0.940735
0.886597 0.818726 0.940338
0.881958 0.817169 0.940125
0.875336 0.816223 0.940033
0.868134 0.818970 0.940063
0.859802 0.819550 0.940155
0.850250 0.820648 0.940521
0.838562 0.823578 0.941071
0.828339 0.830078 0.942230
0.818085 0.835541 0.943939
0.810669 0.846008 0.946198
0.819305 0.857178 0.947723
0.835388 0.864136 0.943329
0.846863 0.864868 0.936951
0.848175 0.862762 0.933838
0.849548 0.860535 0.930511
0.849609 0.860413 0.930328
0.849670 0.860291 0.930176
0.909668 0.860748 0.948578
0.909668 0.860718 0.948578
0.909668 0.860718 0.948578
0.909668 0.860687 0.948547
0.909668 0.860687 0.948547
0.909668 0.860687 0.948547
0.909668 0.860657 0.948547
0.909576 0.860382 0.948486
0.909363 0.859558 0.948334
0.909058 0.858490 0.948120
0.908844 0.857697 0.947937
0.908325 0.855804 0.947571
0.907959 0.854553 0.947266
0.907318 0.853668 0.947144
0.906067 0.852539 0.946991
0.904541 0.851929 0.946960
0.902618 0.851715 0.947083
0.899811 0.851868 0.947266
0.895233 0.852264 0.947540
0.890320 0.854187 0.948029
0.886719 0.858826 0.948578
0.881836 0.859955 0.949249
0.876709 0.862305 0.950592
