nova/tdt-studio/app/Lut_mau/IWLTBAP/1 - LUTs by IWLTBAP (CUBE)/02 - Generic LOG/Psychedelia/Suppol - LOG.cube
# Copyright: (C) Copyright 2010-2018 by IWLTBAP SAS
# Cannot be resold, shared or otherwise redistributed
# Website: https://luts.iwltbap.com
TITLE "IWLTBAP Suppol (Generic LOG)"
LUT_3D_SIZE 9
0.003296 0.001770 0.002533
0.065338 0.000336 0.001099
0.228455 0.000000 0.000000
0.486176 0.000000 0.012482
0.805450 0.000000 0.039612
1.000000 0.000000 0.093231
1.000000 0.000000 0.103394
1.000000 0.000000 0.103394
1.000000 0.000000 0.103394
0.069031 0.027161 0.108337
0.047272 0.036804 0.111267
0.190399 0.019012 0.001923
0.439514 0.000000 0.009277
0.755341 0.000000 0.034149
1.000000 0.000000 0.087524
1.000000 0.000000 0.103394
1.000000 0.000000 0.103394
1.000000 0.000000 0.103394
0.251495 0.072296 0.317352
0.233185 0.067993 0.299530
0.098969 0.106018 0.357788
0.380402 0.096924 0.027161
0.700684 0.039490 0.024231
0.981567 0.032013 0.073883
1.000000 0.026367 0.108093
1.000000 0.014404 0.107239
1.000000 0.009674 0.106964
0.586365 0.170441 0.622894
0.566345 0.161530 0.605591
0.526245 0.158051 0.613495
0.261932 0.239929 0.719360
0.626099 0.254089 0.050842
0.922394 0.231812 0.057251
1.000000 0.239807 0.127319
1.000000 0.213928 0.124207
1.000000 0.204254 0.123047
0.871765 0.471436 0.892151
0.867767 0.458649 0.887543
0.852386 0.431671 0.873779
0.805634 0.436676 0.895203
0.394684 0.420227 0.849701
0.829559 0.484589 0.144867
1.000000 0.494659 0.185028
1.000000 0.473206 0.183228
1.000000 0.464142 0.180420
0.885040 0.674896 0.919373
0.885071 0.669403 0.918976
0.885101 0.657562 0.918121
0.874084 0.644684 0.916870
0.802094 0.629578 0.913025
0.544067 0.603546 0.894104
0.951630 0.688843 0.386871
1.000000 0.680115 0.330658
1.000000 0.674225 0.324036
0.898926 0.820801 0.940613
0.897430 0.815216 0.939545
0.894531 0.805206 0.937805
0.889282 0.791565 0.935577
0.873413 0.781097 0.933960
0.830261 0.780823 0.933075
0.754608 0.795715 0.935364
0.884399 0.836029 0.858185
0.891785 0.832520 0.842224
0.909729 0.860931 0.948608
0.909729 0.860931 0.948608
0.909729 0.860931 0.948608
0.909729 0.860931 0.948608
0.908325 0.865234 0.949829
0.906433 0.881073 0.955566
0.915833 0.917847 0.968384
0.954651 0.969849 0.989624
0.950775 0.966797 0.988190
0.909729 0.860931 0.948608
0.909729 0.860931 0.948608
0.909729 0.860931 0.948608
0.909729 0.860931 0.948608
0.908600 0.864349 0.949585
0.906494 0.877808 0.954254
0.913208 0.913300 0.967072
0.951263 0.965729 0.987518
0.954651 0.969849 0.989624
0.000000 0.022308 0.025574
0.038818 0.022583 0.047882
0.213013 0.000427 0.029541
0.478027 0.000000 0.027100
0.801025 0.000000 0.042450
1.000000 0.000000 0.092682
1.000000 0.000000 0.103394
1.000000 0.000000 0.103394
1.000000 0.000000 0.103394
0.062469 0.031219 0.083679
0.046509 0.043884 0.067596
0.181610 0.023285 0.020355
0.433289 0.000000 0.015808
0.750641 0.000000 0.033661
1.000000 0.000000 0.086761
1.000000 0.000000 0.103394
1.000000 0.000000 0.103394
1.000000 0.000000 0.103394
0.245575 0.071014 0.310181
0.227356 0.066620 0.293823
0.097626 0.104401 0.350555
0.375732 0.094604 0.026733
0.695831 0.037048 0.024139
0.979065 0.029053 0.072784
1.000000 0.023804 0.107880
1.000000 0.012329 0.107117
1.000000 0.007874 0.106842
0.579010 0.167175 0.616547
0.560028 0.158691 0.600128
0.519592 0.155304 0.606232
0.259003 0.236969 0.714996
0.622406 0.250549 0.050171
0.920013 0.227844 0.056366
1.000000 0.236450 0.126923
1.000000 0.210327 0.123779
1.000000 0.200653 0.122681
0.870392 0.467072 0.890594
0.866455 0.454529 0.886078
0.850311 0.426910 0.871368
0.804321 0.432556 0.893677
0.392181 0.417511 0.848907
0.827362 0.481293 0.141937
1.000000 0.491577 0.183136
1.000000 0.469849 0.182190
1.000000 0.460754 0.179413
0.885040 0.673126 0.919250
0.885071 0.667450 0.918823
0.885101 0.655701 0.917999
0.874268 0.642365 0.916718
0.802032 0.627289 0.912842
0.541504 0.600647 0.893463
0.950836 0.686279 0.382538
1.000000 0.677887 0.328125
1.000000 0.671967 0.321503
0.898438 0.818939 0.940247
0.896881 0.813171 0.939148
0.893982 0.803345 0.937500
0.888855 0.789825 0.935272
0.873138 0.779236 0.933685
0.829559 0.778809 0.932739
0.751221 0.792999 0.934753
0.886902 0.834808 0.853149
0.895203 0.830902 0.833771
0.909729 0.860931 0.948608
0.909729 0.860931 0.948608
0.909729 0.860931 0.948608
0.909729 0.860931 0.948608
0.908356 0.865143 0.949799
0.906433 0.880707 0.955444
0.915405 0.917419 0.968231
0.953735 0.969147 0.989319
0.948578 0.965057 0.987366
0.909729 0.860931 0.948608
0.909729 0.860931 0.948608
0.909729 0.860931 0.948608
0.909729 0.860931 0.948608
0.908630 0.864258 0.949554
0.906494 0.877472 0.954132
0.912933 0.912750 0.966919
0.950836 0.965240 0.987274
0.954651 0.969849 0.989624
0.000000 0.072083 0.082825
0.000000 0.080994 0.099030
0.134735 0.067963 0.165405
0.466064 0.005035 0.127136
0.801575 0.000000 0.098419
1.000000 0.000000 0.110443
1.000000 0.000000 0.112946
1.000000 0.000000 0.111755
1.000000 0.000000 0.111206
0.000000 0.087921 0.102020
0.000000 0.085327 0.103088
0.115509 0.073059 0.145111
0.412689 0.010712 0.103821
0.749878 0.000000 0.079498
0.999969 0.000000 0.096069
1.000000 0.000000 0.110229
1.000000 0.000000 0.109497
1.000000 0.000000 0.109131
0.244141 0.080444 0.246674
0.227112 0.076843 0.233215
0.134033 0.140015 0.164459
0.361328 0.113190 0.097656
0.686676 0.051636 0.059875
0.975250 0.042542 0.080505
1.000000 0.031097 0.111053
1.000000 0.015747 0.109467
1.000000 0.009552 0.108826
0.579620 0.162170 0.586639
0.559662 0.153992 0.570770
0.431183 0.199066 0.479553
0.234497 0.237305 0.534943
0.614960 0.248566 0.070862
0.914368 0.224915 0.059204
1.000000 0.228851 0.125946
1.000000 0.201874 0.122803
1.000000 0.192688 0.121918
0.870819 0.457214 0.885773
0.864136 0.444031 0.879242
0.841888 0.415588 0.860687
0.800995 0.423096 0.889404
0.387329 0.411957 0.847107
0.822845 0.474854 0.136353
1.000000 0.485168 0.179291
1.000000 0.463013 0.180084
1.000000 0.454376 0.177460
0.885071 0.669098 0.918945
0.885071 0.663483 0.918549
0.885101 0.651917 0.917725
0.874664 0.637665 0.916443
0.802338 0.623260 0.912567
0.536865 0.595398 0.892334
0.948883 0.681549 0.375458
1.000000 0.674072 0.323853
1.000000 0.667999 0.317047
0.897491 0.815430 0.939575
0.895935 0.809845 0.938568
0.893036 0.800232 0.936981
0.888336 0.786621 0.934784
0.872620 0.776031 0.933197
0.828369 0.775391 0.932190
0.746582 0.789276 0.933929
0.891205 0.832794 0.843689
0.900482 0.828430 0.820679
0.909729 0.860931 0.948608
0.909729 0.860931 0.948608
0.909729 0.860931 0.948608
0.909729 0.860931 0.948608
0.908386 0.864990 0.949768
0.906464 0.880188 0.955231
0.914856 0.916779 0.968018
0.950836 0.966888 0.988281
0.946167 0.963165 0.986481
0.909729 0.860931 0.948608
0.909729 0.860931 0.948608
0.909729 0.860931 0.948608
0.909729 0.860931 0.948608
0.908691 0.864136 0.949524
0.906494 0.877136 0.953949
0.912598 0.912079 0.966736
0.950317 0.964600 0.986969
0.954651 0.969849 0.989624
0.000000 0.124420 0.149109
0.000000 0.128510 0.155670
0.000000 0.160156 0.203674
0.333313 0.131348 0.342896
0.769135 0.050964 0.308655
1.000000 0.037506 0.253052
1.000000 0.030365 0.220154
1.000000 0.023773 0.205994
1.000000 0.020935 0.199799
0.000000 0.129181 0.154175
0.000000 0.126923 0.151978
0.000000 0.149689 0.186035
0.290833 0.119904 0.305939
0.725098 0.031982 0.270752
0.998474 0.014526 0.220123
1.000000 0.016327 0.189911
1.000000 0.011017 0.178436
1.000000 0.008789 0.173798
0.000000 0.187408 0.215698
0.000000 0.179382 0.207001
0.000000 0.185730 0.218842
0.256897 0.170990 0.282013
0.660309 0.100006 0.233948
0.966858 0.079468 0.185638
1.000000 0.082458 0.160706
1.000000 0.059021 0.149475
1.000000 0.050476 0.146027
0.578644 0.163269 0.493530
0.560638 0.155914 0.479370
0.446655 0.203400 0.410126
0.297150 0.284180 0.309143
0.600494 0.267242 0.225616
0.904144 0.251190 0.160156
1.000000 0.271973 0.156342
1.000000 0.244690 0.147186
1.000000 0.234558 0.144684
0.886536 0.440643 0.860107
0.877991 0.426422 0.851349
0.850952 0.397675 0.827118
0.639069 0.400299 0.666534
0.420197 0.416534 0.707581
0.821075 0.475494 0.206085
1.000000 0.487518 0.192871
1.000000 0.467834 0.189453
1.000000 0.458862 0.185059
0.896118 0.669220 0.918976
0.895721 0.663055 0.918549
0.894775 0.650909 0.917664
0.884308 0.635468 0.916351
0.811981 0.620056 0.912750
0.532043 0.588623 0.889465
0.948486 0.677429 0.369995
1.000000 0.669495 0.323181
1.000000 0.663483 0.315247
0.898254 0.810944 0.938782
0.896423 0.805389 0.937866
0.893250 0.795807 0.936279
0.888794 0.782318 0.934235
0.872986 0.771332 0.932526
0.826721 0.769958 0.931274
0.738281 0.782654 0.932465
0.900146 0.828583 0.821533
0.909149 0.824341 0.799164
0.909882 0.860992 0.948608
0.909821 0.860992 0.948608
0.909760 0.860931 0.948608
0.909729 0.860931 0.948608
0.908478 0.864746 0.949677
0.906464 0.879333 0.954865
0.914276 0.915558 0.967682
0.947113 0.964020 0.987000
0.943115 0.960754 0.985321
0.909729 0.860931 0.948608
0.909729 0.860931 0.948608
0.909729 0.860931 0.948608
0.909729 0.860931 0.948608
0.908752 0.863953 0.949463
0.906525 0.876617 0.953674
0.912109 0.910797 0.966431
0.949615 0.963715 0.986511
0.954651 0.969849 0.989624
0.000000 0.192963 0.231354
0.000000 0.192383 0.233124
0.000000 0.216034 0.264709
0.000000 0.271667 0.349670
0.594208 0.257141 0.570801
0.978333 0.282288 0.570496
1.000000 0.269867 0.530884
1.000000 0.252747 0.511963
1.000000 0.242828 0.501099
0.000000 0.189728 0.228149
0.000000 0.186371 0.224640
0.000000 0.201996 0.245239
0.000000 0.251038 0.321716
0.551971 0.229828 0.532074
0.957520 0.236450 0.530365
1.000000 0.228516 0.485352
1.000000 0.210968 0.466095
1.000000 0.202881 0.457275
0.000000 0.230530 0.270966
0.000000 0.222717 0.262268
0.000000 0.227417 0.269745
0.000000 0.259918 0.325287
0.491730 0.239410 0.483582
0.910736 0.221100 0.468903
1.000000 0.209686 0.419586
1.000000 0.181335 0.396790
1.000000 0.169769 0.386963
0.000000 0.339172 0.378357
0.000000 0.330872 0.369354
0.000000 0.320892 0.359161
0.079681 0.334961 0.381287
0.453705 0.328705 0.462830
0.858307 0.309113 0.419952
1.000000 0.317078 0.363861
1.000000 0.292297 0.337433
1.000000 0.283081 0.327972
0.886749 0.408386 0.773834
0.877319 0.395508 0.763367
0.852631 0.368744 0.737732
0.674591 0.406525 0.609161
0.508118 0.484009 0.491028
0.798370 0.485809 0.420105
1.000000 0.493561 0.346832
1.000000 0.475861 0.312988
1.000000 0.468506 0.302917
0.929901 0.672455 0.918945
0.929901 0.666382 0.918518
0.929901 0.653625 0.917572
0.923859 0.639343 0.915161
0.793518 0.615845 0.829163
0.575226 0.601929 0.843445
0.950409 0.677826 0.439240
1.000000 0.669495 0.388733
1.000000 0.663513 0.378998
0.906647 0.809814 0.938782
0.905670 0.804352 0.937866
0.903992 0.794891 0.936279
0.901703 0.781189 0.934235
0.887024 0.773285 0.932800
0.834930 0.767883 0.931152
0.732483 0.778107 0.931122
0.928406 0.825897 0.773438
0.936646 0.821442 0.751251
0.915039 0.863464 0.949310
0.914490 0.863312 0.949249
0.913910 0.863129 0.949219
0.913086 0.862793 0.949158
0.911957 0.866058 0.950012
0.908691 0.879852 0.955231
0.915314 0.915283 0.967560
0.943634 0.961243 0.985687
0.939789 0.958191 0.984070
0.913727 0.863037 0.949188
0.913391 0.862915 0.949188
0.913025 0.862732 0.949127
0.912567 0.862457 0.948975
0.911499 0.864929 0.949738
0.908264 0.876923 0.953827
0.912506 0.910065 0.966248
0.949036 0.962982 0.986176
0.954956 0.970062 0.989716
0.000000 0.259399 0.309875
0.000000 0.261932 0.313843
0.000000 0.281738 0.340393
0.000000 0.328491 0.409393
0.000000 0.395782 0.527710
0.824890 0.488403 0.802612
0.994263 0.500580 0.815094
0.993011 0.491364 0.800659
0.992432 0.485931 0.793213
0.000000 0.262665 0.312836
0.000000 0.261108 0.310760
0.000000 0.272095 0.327972
0.000000 0.313751 0.388428
0.000000 0.379059 0.500549
0.792389 0.454315 0.771210
0.991608 0.478516 0.783112
0.990448 0.467926 0.768646
0.990570 0.462769 0.761780
0.000000 0.295197 0.348114
0.000000 0.287994 0.340698
0.000000 0.288910 0.342468
0.000000 0.312897 0.381226
0.000000 0.365723 0.475220
0.742340 0.414795 0.721893
0.989410 0.456543 0.731171
0.992126 0.437561 0.714264
0.993195 0.429932 0.707520
0.000000 0.377960 0.433716
0.000000 0.370239 0.425140
0.000000 0.358002 0.413025
0.000000 0.372681 0.436279
0.000000 0.405182 0.501434
0.681091 0.432770 0.678894
0.990814 0.479950 0.682251
0.996796 0.457550 0.658997
0.997681 0.449127 0.650635
0.000000 0.515808 0.573364
0.000000 0.508759 0.565155
0.000000 0.492859 0.547516
0.000000 0.493774 0.545319
0.263153 0.510315 0.566895
0.645294 0.525055 0.655334
0.975342 0.549103 0.632721
1.000000 0.529938 0.605011
1.000000 0.522339 0.596466
0.977448 0.672089 0.911133
0.977722 0.665405 0.910034
0.978119 0.650818 0.907196
0.971588 0.635101 0.895935
0.835602 0.625092 0.790588
0.699066 0.673004 0.683777
0.927155 0.679901 0.631134
1.000000 0.667480 0.590363
1.000000 0.661072 0.580597
0.932495 0.818024 0.939911
0.931854 0.812286 0.938873
0.930939 0.802948 0.937286
0.929626 0.789642 0.935181
0.923370 0.779877 0.933960
0.879730 0.779572 0.927368
0.747070 0.784149 0.920380
0.978760 0.825623 0.716339
0.981750 0.820648 0.702057
0.930420 0.870697 0.951385
0.929901 0.870392 0.951294
0.929108 0.869934 0.951172
0.927887 0.869202 0.950958
0.926331 0.871765 0.951721
0.924561 0.887848 0.958191
0.923492 0.917084 0.968048
0.944672 0.961212 0.985443
0.939636 0.958252 0.983795
0.928802 0.869751 0.951111
0.928284 0.869446 0.951019
0.927582 0.869049 0.950897
0.926453 0.868378 0.950684
0.925018 0.870209 0.951233
0.923187 0.884094 0.956482
0.922668 0.913910 0.967041
0.952179 0.964996 0.987518
0.958618 0.973083 0.990967
0.000000 0.260803 0.311462
0.000000 0.263336 0.316071
0.000000 0.284851 0.343964
0.000000 0.332703 0.411865
0.000000 0.402405 0.528534
0.526855 0.499420 0.793457
0.983704 0.557312 0.888031
0.983704 0.557312 0.888031
0.983704 0.557312 0.888031
0.000000 0.264954 0.317261
0.000000 0.264069 0.316132
0.000000 0.279663 0.333496
0.000000 0.321442 0.397827
0.000000 0.391998 0.508087
0.239594 0.475739 0.751373
0.983704 0.557312 0.888031
0.983704 0.557312 0.888031
0.983704 0.557312 0.888031
0.000000 0.306519 0.360382
0.000000 0.302399 0.356537
0.000000 0.307007 0.363098
0.000000 0.332489 0.405182
0.000000 0.388916 0.493317
0.000000 0.456848 0.668549
0.982788 0.567841 0.889069
0.983124 0.562958 0.888641
0.983307 0.561401 0.888428
0.000000 0.397308 0.459991
0.000000 0.391785 0.453949
0.000000 0.382996 0.448669
0.000000 0.398407 0.469604
0.000000 0.432281 0.530304
0.000000 0.483398 0.644928
0.961243 0.602753 0.888000
0.982056 0.597321 0.886749
0.983154 0.594330 0.884949
0.000000 0.533051 0.603485
0.000000 0.527100 0.597900
0.000000 0.513855 0.585297
0.000000 0.512909 0.584290
0.113037 0.528564 0.610840
0.121674 0.554871 0.678253
0.839417 0.637268 0.852570
0.977631 0.647736 0.862274
0.977844 0.642700 0.857697
0.152161 0.683655 0.769440
0.136993 0.677704 0.762146
0.105408 0.666473 0.747894
0.072052 0.654358 0.729034
0.172333 0.654907 0.719147
0.442657 0.669891 0.739777
0.789856 0.705383 0.828735
0.971588 0.723419 0.823486
0.971832 0.717896 0.817139
0.972656 0.827637 0.941437
0.972534 0.821930 0.940216
0.972504 0.812561 0.938385
0.972412 0.798523 0.935638
0.971069 0.792358 0.933746
0.939423 0.794830 0.917938
0.829254 0.817596 0.851379
0.980499 0.833496 0.820404
0.981110 0.828339 0.813690
0.957886 0.888153 0.957428
0.957031 0.887634 0.957153
0.955750 0.886841 0.956787
0.953796 0.884827 0.956116
0.951599 0.887207 0.957214
0.949677 0.898376 0.962463
0.946381 0.923248 0.970184
0.953674 0.965851 0.986267
0.953186 0.964905 0.983948
0.955261 0.886353 0.956635
0.954407 0.885468 0.956329
0.953247 0.884277 0.955933
0.951355 0.882111 0.955353
0.949158 0.884247 0.956024
0.946991 0.895233 0.961548
0.945953 0.922424 0.969513
0.963165 0.972687 0.990875
0.972656 0.981110 0.994324
0.000000 0.260803 0.311462
0.000000 0.263092 0.315796
0.000000 0.284180 0.343018
0.000000 0.331451 0.410187
0.000000 0.400848 0.526093
0.489136 0.496124 0.787872
0.983704 0.557312 0.888031
0.983704 0.557312 0.888031
0.983704 0.557312 0.888031
0.000000 0.264343 0.316528
0.000000 0.263397 0.315186
0.000000 0.279175 0.332336
0.000000 0.320465 0.396118
0.000000 0.390808 0.505402
0.204956 0.473297 0.744202
0.983704 0.557312 0.888031
0.983704 0.557312 0.888031
0.983704 0.557312 0.888031
0.000000 0.304779 0.358521
0.000000 0.300598 0.355072
0.000000 0.304993 0.360321
0.000000 0.329956 0.402557
0.000000 0.386444 0.489532
0.000000 0.454071 0.660431
0.982880 0.566223 0.888916
0.983276 0.561493 0.888489
0.983398 0.560089 0.888336
0.000000 0.393921 0.456299
0.000000 0.388214 0.450256
0.000000 0.379395 0.444733
0.000000 0.394287 0.464905
0.000000 0.428009 0.524994
0.000000 0.479706 0.638580
0.936157 0.600220 0.885590
0.978973 0.601959 0.893677
0.979187 0.600403 0.893372
0.000000 0.528198 0.598938
0.000000 0.522308 0.593475
0.000000 0.509033 0.581146
0.000000 0.508301 0.579712
0.097351 0.524567 0.607513
0.095795 0.552490 0.675964
0.659943 0.625946 0.854340
0.971283 0.666382 0.907104
0.971588 0.663239 0.906677
0.049347 0.683777 0.759460
0.034485 0.678467 0.752502
0.006500 0.668488 0.739380
0.000000 0.658752 0.725861
0.115265 0.653564 0.727081
0.363617 0.666168 0.748505
0.402435 0.689575 0.833557
0.959808 0.750641 0.920258
0.960022 0.747162 0.919708
0.963562 0.830292 0.940674
0.955353 0.824219 0.939331
0.941376 0.813843 0.937012
0.903229 0.796448 0.930603
0.788879 0.782715 0.914337
0.543030 0.796539 0.879089
0.662048 0.820282 0.883636
0.958344 0.850403 0.944550
0.958130 0.846863 0.943634
0.977081 0.898254 0.961914
0.977081 0.898254 0.961914
0.977081 0.898254 0.961914
0.977081 0.898254 0.961914
0.977295 0.901001 0.962769
0.978851 0.916656 0.966919
0.980042 0.938110 0.974121
0.977417 0.976807 0.984802
0.991699 0.973267 0.979767
0.977081 0.898254 0.961914
0.977081 0.898254 0.961914
0.977081 0.898254 0.961914
0.977081 0.898254 0.961914
0.976776 0.899963 0.962463
0.977478 0.913147 0.965973
0.980347 0.940247 0.974518
0.987946 0.985046 0.995728
0.994904 0.997742 0.999237
0.000000 0.260803 0.311462
0.000000 0.263000 0.315643
0.000000 0.283844 0.342529
0.000000 0.330688 0.409180
0.000000 0.399994 0.524811
0.467651 0.494354 0.784729
0.983704 0.557312 0.888031
0.983704 0.557312 0.888031
0.983704 0.557312 0.888031
0.000000 0.264069 0.316101
0.000000 0.263031 0.314636
0.000000 0.278870 0.331848
0.000000 0.319946 0.395142
0.000000 0.390198 0.504059
0.188354 0.472107 0.740753
0.983704 0.557312 0.888031
0.983704 0.557312 0.888031
0.983704 0.557312 0.888031
0.000000 0.303802 0.357727
0.000000 0.299683 0.354309
0.000000 0.304016 0.359314
0.000000 0.328857 0.401245
0.000000 0.385406 0.487946
0.000000 0.452942 0.657074
0.982941 0.565643 0.888885
0.983307 0.561035 0.888458
0.983459 0.559601 0.888275
0.000000 0.392426 0.454681
0.000000 0.386871 0.449036
0.000000 0.377960 0.443176
0.000000 0.392792 0.463165
0.000000 0.426544 0.523010
0.000000 0.478271 0.636414
0.932129 0.598969 0.884491
0.979034 0.601440 0.893555
0.979279 0.599823 0.893280
0.000000 0.526428 0.597321
0.000000 0.520325 0.591614
0.000000 0.507355 0.579559
0.000000 0.506500 0.577820
0.093964 0.522858 0.605713
0.092529 0.550812 0.674011
0.647186 0.623199 0.851959
0.971375 0.665375 0.906952
0.971680 0.662201 0.906555
0.045013 0.682220 0.757416
0.030151 0.676910 0.750458
0.002350 0.666992 0.737427
0.000000 0.656738 0.723785
0.112091 0.651764 0.725342
0.359772 0.664276 0.746735
0.395081 0.687592 0.831512
0.959869 0.749451 0.920074
0.960083 0.746002 0.919525
0.961121 0.828491 0.940277
0.952576 0.822144 0.938843
0.938751 0.811890 0.936554
0.897003 0.794281 0.929535
0.780579 0.780731 0.912872
0.533936 0.794891 0.877228
0.658173 0.818085 0.882172
0.958252 0.849182 0.944244
0.958069 0.845642 0.943329
0.977081 0.898254 0.961914
0.977081 0.898254 0.961914
0.977081 0.898254 0.961914
0.977081 0.898254 0.961914
0.977295 0.900940 0.962738
0.978760 0.915771 0.966644
0.978058 0.936676 0.973572
0.967804 0.976166 0.990692
0.988281 0.973511 0.990723
0.977081 0.898254 0.961914
0.977081 0.898254 0.961914
0.977081 0.898254 0.961914
0.977081 0.898254 0.961914
0.977234 0.900299 0.962555
0.978577 0.914734 0.966217
0.982178 0.941589 0.974976
0.991516 0.987396 0.996918
0.999542 1.000000 1.000000
