nova/tdt-studio/app/Lut_mau/IWLTBAP/1 - LUTs by IWLTBAP (CUBE)/02 - Generic LOG/Psychedelia/Suppol - LOG.cube
# Copyright: (C) Copyright 2010-2018 by IWLTBAP SAS
# Cannot be resold, shared or otherwise redistributed
# Website: https://luts.iwltbap.com
TITLE "IWLTBAP Suppol (Generic LOG)"
LUT_3D_SIZE 5
0.003296 0.001770 0.002533
0.228455 0.000000 0.000000
0.805450 0.000000 0.039612
1.000000 0.000000 0.103394
1.000000 0.000000 0.103394
0.251495 0.072296 0.317352
0.098969 0.106018 0.357788
0.700684 0.039490 0.024231
1.000000 0.026367 0.108093
1.000000 0.009674 0.106964
0.871765 0.471436 0.892151
0.852386 0.431671 0.873779
0.394684 0.420227 0.849701
1.000000 0.494659 0.185028
1.000000 0.464142 0.180420
0.898926 0.820801 0.940613
0.894531 0.805206 0.937805
0.873413 0.781097 0.933960
0.754608 0.795715 0.935364
0.891785 0.832520 0.842224
0.909729 0.860931 0.948608
0.909729 0.860931 0.948608
0.908600 0.864349 0.949585
0.913208 0.913300 0.967072
0.954651 0.969849 0.989624
0.000000 0.072083 0.082825
0.134735 0.067963 0.165405
0.801575 0.000000 0.098419
1.000000 0.000000 0.112946
1.000000 0.000000 0.111206
0.244141 0.080444 0.246674
0.134033 0.140015 0.164459
0.686676 0.051636 0.059875
1.000000 0.031097 0.111053
1.000000 0.009552 0.108826
0.870819 0.457214 0.885773
0.841888 0.415588 0.860687
0.387329 0.411957 0.847107
1.000000 0.485168 0.179291
1.000000 0.454376 0.177460
0.897491 0.815430 0.939575
0.893036 0.800232 0.936981
0.872620 0.776031 0.933197
0.746582 0.789276 0.933929
0.900482 0.828430 0.820679
0.909729 0.860931 0.948608
0.909729 0.860931 0.948608
0.908691 0.864136 0.949524
0.912598 0.912079 0.966736
0.954651 0.969849 0.989624
0.000000 0.192963 0.231354
0.000000 0.216034 0.264709
0.594208 0.257141 0.570801
1.000000 0.269867 0.530884
1.000000 0.242828 0.501099
0.000000 0.230530 0.270966
0.000000 0.227417 0.269745
0.491730 0.239410 0.483582
1.000000 0.209686 0.419586
1.000000 0.169769 0.386963
0.886749 0.408386 0.773834
0.852631 0.368744 0.737732
0.508118 0.484009 0.491028
1.000000 0.493561 0.346832
1.000000 0.468506 0.302917
0.906647 0.809814 0.938782
0.903992 0.794891 0.936279
0.887024 0.773285 0.932800
0.732483 0.778107 0.931122
0.936646 0.821442 0.751251
0.913727 0.863037 0.949188
0.913025 0.862732 0.949127
0.911499 0.864929 0.949738
0.912506 0.910065 0.966248
0.954956 0.970062 0.989716
0.000000 0.260803 0.311462
0.000000 0.284851 0.343964
0.000000 0.402405 0.528534
0.983704 0.557312 0.888031
0.983704 0.557312 0.888031
0.000000 0.306519 0.360382
0.000000 0.307007 0.363098
0.000000 0.388916 0.493317
0.982788 0.567841 0.889069
0.983307 0.561401 0.888428
0.000000 0.533051 0.603485
0.000000 0.513855 0.585297
0.113037 0.528564 0.610840
0.839417 0.637268 0.852570
0.977844 0.642700 0.857697
0.972656 0.827637 0.941437
0.972504 0.812561 0.938385
0.971069 0.792358 0.933746
0.829254 0.817596 0.851379
0.981110 0.828339 0.813690
0.955261 0.886353 0.956635
0.953247 0.884277 0.955933
0.949158 0.884247 0.956024
0.945953 0.922424 0.969513
0.972656 0.981110 0.994324
0.000000 0.260803 0.311462
0.000000 0.283844 0.342529
0.000000 0.399994 0.524811
0.983704 0.557312 0.888031
0.983704 0.557312 0.888031
0.000000 0.303802 0.357727
0.000000 0.304016 0.359314
0.000000 0.385406 0.487946
0.982941 0.565643 0.888885
0.983459 0.559601 0.888275
0.000000 0.526428 0.597321
0.000000 0.507355 0.579559
0.093964 0.522858 0.605713
0.647186 0.623199 0.851959
0.971680 0.662201 0.906555
0.961121 0.828491 0.940277
0.938751 0.811890 0.936554
0.780579 0.780731 0.912872
0.658173 0.818085 0.882172
0.958069 0.845642 0.943329
0.977081 0.898254 0.961914
0.977081 0.898254 0.961914
0.977234 0.900299 0.962555
0.982178 0.941589 0.974976
0.999542 1.000000 1.000000
