nova/tdt-studio/app/Lut_mau/IWLTBAP/1 - LUTs by IWLTBAP (CUBE)/07 - Utility/Divers/Cinema Base Rec709 (optimized) V2.cube
# Copyright: (C) Copyright 2010-2019 by IWLTBAP SAS
# Cannot be resold, shared or otherwise redistributed
# Website: https://luts.iwltbap.com
TITLE "Cinema Base Rec.709 V2"
LUT_3D_SIZE 5
0.000000 0.000000 0.000000
0.197418 0.022736 0.002899
0.441132 0.069885 0.008331
0.673431 0.120880 0.016724
0.901001 0.164337 0.024353
0.070953 0.222198 0.005310
0.250885 0.243500 0.009674
0.482819 0.261383 0.010864
0.703003 0.288635 0.017059
0.922211 0.320801 0.022858
0.232635 0.496674 0.044891
0.360565 0.515503 0.062408
0.535950 0.521423 0.066101
0.728424 0.514923 0.029449
0.958282 0.520996 0.019775
0.447998 0.695435 0.202972
0.501282 0.705872 0.209900
0.609253 0.725800 0.197113
0.753723 0.739441 0.105957
0.977264 0.750702 0.027710
0.447296 0.865479 0.265961
0.521973 0.873108 0.261169
0.630219 0.895721 0.237427
0.775787 0.932312 0.169678
0.946899 0.938110 0.395172
0.000000 0.020905 0.138397
0.177612 0.000000 0.184631
0.418518 0.000000 0.191559
0.660614 0.003906 0.194641
0.896851 0.013855 0.182495
0.000000 0.227905 0.203735
0.232483 0.238464 0.235596
0.503540 0.235901 0.217041
0.721283 0.239960 0.201630
0.936249 0.252197 0.179352
0.040802 0.495117 0.167175
0.272919 0.522217 0.179413
0.532928 0.526520 0.210541
0.743347 0.508209 0.188599
0.973633 0.510681 0.176605
0.290497 0.683105 0.194641
0.405273 0.698944 0.208923
0.579254 0.729309 0.222900
0.748077 0.743469 0.136597
0.983856 0.748566 0.150787
0.399139 0.860504 0.327972
0.486328 0.868591 0.328308
0.609772 0.892212 0.320740
0.764496 0.930450 0.272736
0.948486 0.941010 0.499237
0.000000 0.054901 0.316254
0.055206 0.032135 0.426208
0.382599 0.000397 0.380676
0.574890 0.003265 0.403564
0.824921 0.017639 0.448364
0.000580 0.229706 0.409454
0.051788 0.248505 0.482544
0.494751 0.186493 0.497620
0.678101 0.142487 0.466156
0.886322 0.257416 0.480255
0.044373 0.494659 0.464386
0.137756 0.514771 0.486267
0.531769 0.527588 0.533173
0.737152 0.505585 0.491974
0.946167 0.507965 0.479675
0.231232 0.690857 0.477539
0.351227 0.704071 0.471710
0.558411 0.720093 0.493134
0.742188 0.734833 0.482971
0.977875 0.745026 0.460205
0.304840 0.859375 0.482910
0.420044 0.865143 0.481415
0.573395 0.882477 0.488159
0.748016 0.920532 0.484650
0.965637 0.965668 0.491119
0.000183 0.126404 0.470978
0.002350 0.150330 0.563812
0.375763 0.097534 0.630310
0.566711 0.054688 0.558777
0.741333 0.090637 0.610596
0.005524 0.280609 0.531433
0.013611 0.300812 0.598175
0.410553 0.309937 0.703949
0.644592 0.184814 0.641235
0.796967 0.293488 0.661407
0.068054 0.503967 0.631012
0.123108 0.513184 0.677460
0.430176 0.540955 0.722565
0.709015 0.513580 0.710876
0.857788 0.520935 0.703888
0.213593 0.701355 0.667633
0.224426 0.707977 0.675110
0.487183 0.724640 0.702911
0.722076 0.720184 0.722046
0.937439 0.736389 0.728180
0.283661 0.873627 0.689514
0.412262 0.878235 0.693207
0.572144 0.885345 0.703186
0.743195 0.902008 0.717255
0.948883 0.948853 0.728455
0.013428 0.248688 0.619812
0.031952 0.277252 0.679871
0.309326 0.308136 0.774689
0.616302 0.283020 0.766266
0.737305 0.250671 0.729614
0.033325 0.354462 0.658173
0.055023 0.373322 0.703888
0.315399 0.404968 0.796265
0.633545 0.392883 0.797302
0.770538 0.379456 0.763763
0.129730 0.534668 0.746124
0.145172 0.544983 0.768127
0.339813 0.567657 0.830627
0.650238 0.570984 0.831177
0.816376 0.552246 0.812225
0.208771 0.717773 0.820312
0.224518 0.722809 0.842743
0.462799 0.731232 0.879272
0.685089 0.736542 0.877258
0.865356 0.725403 0.864624
0.234436 0.904297 0.877808
0.385651 0.907135 0.882996
0.557953 0.911987 0.894867
0.739288 0.916626 0.909485
0.917480 0.917114 0.917603
