nova/tdt-studio/app/Lut_mau/IWLTBAP/1 - LUTs by IWLTBAP (CUBE)/07 - Utility/Divers/Cinema Base Rec709 (optimized) V2.cube
# Copyright: (C) Copyright 2010-2019 by IWLTBAP SAS
# Cannot be resold, shared or otherwise redistributed
# Website: https://luts.iwltbap.com
TITLE "Cinema Base Rec.709 V2"
LUT_3D_SIZE 33
0.000000 0.000000 0.000000
0.022675 0.000549 0.000122
0.043518 0.001007 0.000549
0.066406 0.001923 0.000885
0.089600 0.003937 0.001068
0.114746 0.006073 0.001617
0.140747 0.010590 0.002075
0.168701 0.015991 0.002319
0.197418 0.022736 0.002899
0.227325 0.028687 0.003479
0.257660 0.034973 0.004059
0.288605 0.040527 0.004608
0.319550 0.046051 0.005127
0.350220 0.052124 0.006073
0.380463 0.058289 0.006653
0.411102 0.063568 0.007294
0.441132 0.069885 0.008331
0.470917 0.076019 0.009338
0.500244 0.082703 0.010345
0.529694 0.088440 0.011322
0.558411 0.095703 0.012299
0.587311 0.102173 0.013214
0.616028 0.108704 0.014465
0.644836 0.114777 0.015472
0.673431 0.120880 0.016724
0.701904 0.126923 0.017761
0.730377 0.132843 0.018799
0.758820 0.138641 0.019958
0.787262 0.144348 0.020813
0.815674 0.149689 0.021973
0.844086 0.154846 0.022858
0.872467 0.159851 0.023743
0.901001 0.164337 0.024353
0.002441 0.022095 0.000977
0.020874 0.022797 0.001129
0.045227 0.026245 0.001343
0.071198 0.028931 0.001343
0.096680 0.031433 0.001556
0.122894 0.033813 0.002014
0.149506 0.037384 0.002075
0.176880 0.042084 0.002655
0.205627 0.046173 0.003235
0.234558 0.051147 0.003815
0.264404 0.055786 0.003998
0.294281 0.061035 0.004547
0.324615 0.066071 0.005280
0.355164 0.070984 0.005981
0.385223 0.076477 0.006531
0.414978 0.082092 0.007568
0.444672 0.088074 0.008179
0.474091 0.093994 0.009308
0.503418 0.100067 0.010193
0.532166 0.106781 0.011261
0.561096 0.112915 0.012238
0.589874 0.119171 0.013306
0.618408 0.125641 0.014496
0.646790 0.132050 0.015717
0.675262 0.138153 0.016663
0.703644 0.144073 0.017914
0.731995 0.150116 0.018921
0.760315 0.155914 0.019897
0.788605 0.161652 0.021027
0.816895 0.167114 0.021820
0.845154 0.172424 0.022766
0.873474 0.177460 0.023590
0.902374 0.181152 0.024536
0.008270 0.044983 0.001587
0.027466 0.046936 0.001923
0.046051 0.049133 0.002716
0.071564 0.052979 0.002289
0.099304 0.057159 0.002319
0.127197 0.060120 0.002472
0.154968 0.063293 0.002533
0.183258 0.066437 0.002716
0.211700 0.069977 0.003296
0.240509 0.074036 0.003845
0.270081 0.077820 0.004211
0.300110 0.081909 0.004761
0.329712 0.086823 0.005280
0.359711 0.091461 0.006012
0.389587 0.096405 0.006561
0.419189 0.101379 0.007477
0.448517 0.106934 0.008423
0.477539 0.112946 0.009338
0.506561 0.118774 0.010254
0.535370 0.124695 0.011444
0.563934 0.131042 0.012390
0.592407 0.137268 0.013489
0.620880 0.143372 0.014557
0.649200 0.149628 0.015717
0.677460 0.155670 0.016907
0.705688 0.161682 0.017822
0.733917 0.167572 0.019043
0.762085 0.173492 0.020020
0.790344 0.179077 0.020966
0.818695 0.184265 0.022003
0.846954 0.189392 0.022736
0.875122 0.194550 0.023621
0.903320 0.199493 0.024353
0.018036 0.069611 0.002106
0.036499 0.071655 0.002533
0.053955 0.074127 0.002899
0.074249 0.076477 0.003662
0.100739 0.080505 0.003357
0.130493 0.085327 0.003204
0.160187 0.088837 0.003143
0.189423 0.092041 0.003326
0.218536 0.095123 0.003479
0.247528 0.098419 0.003967
0.276825 0.101990 0.004333
0.306152 0.105865 0.004852
0.335846 0.109711 0.005371
0.365326 0.114197 0.005981
0.394653 0.118835 0.006866
0.424103 0.123383 0.007629
0.453033 0.128571 0.008514
0.481873 0.133911 0.009491
0.510590 0.139343 0.010498
0.539185 0.144989 0.011475
0.567322 0.151245 0.012421
0.595764 0.156952 0.013580
0.623932 0.162994 0.014648
0.652100 0.168945 0.015717
0.680328 0.174652 0.016815
0.708496 0.180267 0.017975
0.736481 0.186157 0.018890
0.764435 0.192139 0.020050
0.792725 0.197357 0.020966
0.820953 0.202332 0.021851
0.849030 0.207672 0.022827
0.877045 0.212769 0.023499
0.905487 0.217133 0.024323
0.029572 0.096313 0.003052
0.046326 0.098602 0.003235
0.062164 0.100800 0.003845
0.081604 0.103302 0.003845
0.104706 0.105865 0.004639
0.133026 0.109802 0.004333
0.164062 0.114716 0.004089
0.194672 0.118561 0.003845
0.224945 0.121765 0.004089
0.254822 0.124786 0.004364
0.284485 0.127777 0.004395
0.314026 0.130951 0.004852
0.343262 0.134460 0.005615
0.372223 0.138519 0.006195
0.401245 0.142609 0.007111
0.429871 0.147186 0.007751
0.458527 0.151978 0.008728
0.486847 0.157104 0.009735
0.515289 0.162292 0.010712
0.543518 0.167542 0.011658
0.571655 0.173035 0.012604
0.599854 0.178436 0.013519
0.627838 0.184082 0.014801
0.655731 0.189789 0.015717
0.683868 0.195099 0.016968
0.711670 0.200806 0.017975
0.739685 0.206085 0.019012
0.767822 0.211121 0.019836
0.795593 0.216766 0.020935
0.823486 0.222137 0.021790
0.851349 0.227356 0.022614
0.879974 0.231201 0.023499
0.908020 0.235992 0.024139
0.038574 0.125031 0.003937
0.054321 0.127319 0.003998
0.069794 0.129364 0.003998
0.089264 0.131866 0.004517
0.112457 0.134705 0.004791
0.138397 0.137634 0.004883
0.167786 0.141510 0.005310
0.199402 0.145782 0.005005
0.230377 0.149658 0.004700
0.260956 0.152710 0.004822
0.291107 0.155762 0.005035
0.320740 0.158539 0.005341
0.350311 0.161469 0.005737
0.379608 0.164642 0.006500
0.408142 0.168427 0.007416
0.436951 0.172180 0.007965
0.465118 0.176544 0.008911
0.493225 0.181152 0.009888
0.521118 0.186096 0.010834
0.548920 0.191223 0.011780
0.576630 0.196442 0.012695
0.604401 0.201752 0.013672
0.632263 0.206848 0.014832
0.659882 0.212250 0.015808
0.687836 0.217163 0.017029
0.715637 0.222351 0.017853
0.743530 0.227295 0.018951
0.770996 0.232788 0.019836
0.799164 0.237244 0.020935
0.826965 0.242218 0.021637
0.854858 0.247070 0.022461
0.882690 0.251831 0.023193
0.911011 0.255829 0.024017
0.048218 0.155792 0.004181
0.063568 0.157928 0.004181
0.078918 0.159943 0.004974
0.097687 0.162476 0.005249
0.120300 0.165314 0.005768
0.146057 0.168335 0.005768
0.174103 0.171387 0.006561
0.204590 0.174805 0.006561
0.236176 0.178650 0.006226
0.267029 0.182190 0.006042
0.297272 0.185120 0.006134
0.327301 0.187683 0.006195
0.356750 0.190460 0.006409
0.386017 0.193207 0.007019
0.414825 0.196320 0.007843
0.443237 0.199615 0.008301
0.471649 0.203125 0.009155
0.499542 0.207184 0.010040
0.527374 0.211426 0.010956
0.555084 0.215790 0.011963
0.582550 0.220581 0.012878
0.610016 0.225525 0.013885
0.637512 0.230438 0.014923
0.665009 0.235413 0.015900
0.692596 0.240112 0.016998
0.719849 0.245270 0.017822
0.747559 0.249969 0.018890
0.775055 0.254852 0.019775
0.802948 0.259216 0.020569
0.830627 0.263916 0.021545
0.858490 0.268311 0.022247
0.886383 0.272583 0.023071
0.914215 0.276947 0.023621
0.058807 0.188385 0.004730
0.073608 0.190399 0.005157
0.087494 0.192352 0.005157
0.106171 0.194824 0.005951
0.128540 0.197693 0.006195
0.153961 0.200714 0.006714
0.182129 0.203857 0.006958
0.211761 0.206787 0.007507
0.242706 0.209839 0.007935
0.273956 0.212921 0.007568
0.304016 0.215790 0.007843
0.333557 0.218384 0.007568
0.362854 0.220825 0.007690
0.392029 0.223236 0.008118
0.420746 0.225891 0.008514
0.449310 0.228546 0.009186
0.477448 0.231598 0.009735
0.505463 0.234894 0.010529
0.533325 0.238464 0.011322
0.561035 0.242188 0.012329
0.588501 0.246216 0.013184
0.615875 0.250519 0.014221
0.643127 0.254974 0.015076
0.670502 0.259399 0.016083
0.697784 0.263824 0.016907
0.724976 0.268494 0.017914
0.752197 0.273224 0.018768
0.779633 0.277679 0.019653
0.807190 0.281982 0.020386
0.834686 0.286407 0.021362
0.862396 0.290466 0.021973
0.890442 0.294250 0.022644
0.918304 0.298218 0.023285
0.070953 0.222198 0.005310
0.083496 0.224152 0.005524
0.097412 0.226196 0.005859
0.115112 0.228607 0.006104
0.136810 0.231354 0.006897
0.162567 0.234528 0.007690
0.190735 0.237701 0.007935
0.220398 0.240784 0.008881
0.250885 0.243500 0.009674
0.281647 0.245972 0.010223
0.312042 0.248169 0.010071
0.340973 0.250366 0.009766
0.369507 0.252502 0.009766
0.398010 0.254639 0.009644
0.426392 0.256744 0.009888
0.454712 0.258972 0.010345
0.482819 0.261383 0.010864
0.510742 0.264069 0.011475
0.538635 0.266968 0.012146
0.566376 0.270050 0.012848
0.593781 0.273560 0.013580
0.621246 0.277008 0.014343
0.648560 0.280731 0.015228
0.675751 0.284698 0.016266
0.703003 0.288635 0.017059
0.730164 0.292755 0.017853
0.757416 0.296844 0.018707
0.784973 0.300690 0.019440
0.812103 0.305023 0.020172
0.839539 0.309021 0.021088
0.867188 0.312805 0.021698
0.894623 0.316864 0.022308
0.922211 0.320801 0.022858
0.081696 0.257111 0.006287
0.093689 0.259033 0.006287
0.107208 0.260986 0.006622
0.125061 0.263458 0.007080
0.146606 0.266296 0.007751
0.172211 0.269379 0.008728
0.200195 0.272675 0.009674
0.229614 0.275726 0.010620
0.260101 0.278534 0.010986
0.290710 0.281006 0.011780
0.320740 0.282867 0.012482
0.349640 0.284210 0.012878
0.377350 0.285553 0.012817
0.404724 0.287170 0.012665
0.432220 0.288818 0.012115
0.459991 0.290405 0.012207
0.487732 0.292358 0.012451
0.515442 0.294464 0.012787
0.543213 0.296722 0.013245
0.570984 0.299194 0.013763
0.598633 0.301819 0.014343
0.626099 0.304688 0.014984
0.653412 0.307861 0.015656
0.680908 0.310974 0.016357
0.708099 0.314453 0.017059
0.735352 0.317932 0.017792
0.762665 0.321411 0.018494
0.789825 0.325134 0.019196
0.817322 0.328644 0.019897
0.844818 0.332153 0.020782
0.872223 0.335815 0.021393
0.899597 0.339600 0.021973
0.927399 0.342865 0.022247
0.096069 0.292786 0.007385
0.105682 0.294586 0.007416
0.119659 0.296478 0.008179
0.136536 0.298981 0.008545
0.157715 0.301941 0.008972
0.182648 0.305176 0.009827
0.211060 0.308441 0.010956
0.240204 0.311676 0.012329
0.270569 0.314575 0.013672
0.300751 0.316925 0.014771
0.330353 0.318726 0.016510
0.359009 0.319855 0.017212
0.386475 0.320374 0.017059
0.412933 0.321014 0.016449
0.439026 0.321869 0.015839
0.465454 0.322906 0.015411
0.492584 0.324158 0.015228
0.519897 0.325592 0.014862
0.547424 0.327271 0.014893
0.574890 0.329163 0.015137
0.602570 0.331146 0.015411
0.630188 0.333405 0.015869
0.657654 0.335938 0.016388
0.685089 0.338593 0.016937
0.712616 0.341248 0.017456
0.740051 0.344116 0.018066
0.767487 0.347107 0.018677
0.794830 0.350220 0.019287
0.822388 0.353271 0.019867
0.849731 0.356537 0.020416
0.877380 0.359619 0.020966
0.904846 0.362915 0.021362
0.932587 0.365997 0.021790
0.111389 0.328705 0.009308
0.121216 0.330383 0.009308
0.133545 0.332184 0.009644
0.149780 0.334656 0.010406
0.171509 0.337585 0.011108
0.195496 0.340973 0.012390
0.223114 0.344330 0.013611
0.252563 0.347534 0.015533
0.282288 0.350494 0.017181
0.312042 0.352875 0.018890
0.340942 0.354584 0.020660
0.368927 0.355713 0.021637
0.396088 0.356354 0.022644
0.422058 0.356171 0.022278
0.447174 0.355957 0.021088
0.472107 0.356140 0.019928
0.497864 0.356628 0.018921
0.524353 0.357483 0.018250
0.551300 0.358551 0.017609
0.578491 0.359833 0.017395
0.605988 0.361237 0.017303
0.633606 0.362885 0.017120
0.661224 0.364777 0.017426
0.688904 0.366791 0.017792
0.716370 0.369080 0.017853
0.744080 0.371307 0.018311
0.771729 0.373718 0.018799
0.799347 0.376251 0.019165
0.826996 0.378876 0.019684
0.854645 0.381561 0.020081
0.882294 0.384308 0.020416
0.909912 0.387177 0.020844
0.937561 0.390045 0.021179
0.129700 0.364136 0.011719
0.139435 0.365784 0.012238
0.150330 0.367615 0.012573
0.167419 0.369965 0.013519
0.187317 0.372894 0.014496
0.211304 0.376221 0.016296
0.237885 0.379639 0.017944
0.266449 0.382935 0.019867
0.295502 0.386017 0.022278
0.324554 0.388397 0.024200
0.352631 0.390167 0.026123
0.379669 0.391205 0.027435
0.405945 0.391785 0.028870
0.431610 0.391998 0.029175
0.455994 0.391083 0.028229
0.480011 0.390106 0.026215
0.504181 0.389771 0.024628
0.529327 0.389862 0.022888
0.555389 0.390350 0.021545
0.582062 0.390991 0.020569
0.609131 0.391846 0.019836
0.636536 0.393005 0.019287
0.664276 0.394226 0.018860
0.691895 0.395782 0.018982
0.719666 0.397430 0.018829
0.747528 0.399200 0.018921
0.775452 0.401062 0.019165
0.803162 0.403229 0.019440
0.831055 0.405365 0.019623
0.859039 0.407501 0.019928
0.886932 0.409790 0.020203
0.914734 0.412201 0.020447
0.942596 0.414673 0.020691
0.151245 0.399078 0.016602
0.158722 0.400604 0.016907
0.171600 0.402344 0.017731
0.186523 0.404663 0.018707
0.205322 0.407440 0.019684
0.228455 0.410706 0.021484
0.254791 0.414124 0.023651
0.281860 0.417511 0.026001
0.309906 0.420624 0.028503
0.337830 0.423157 0.031311
0.365112 0.424957 0.033203
0.391357 0.426117 0.035156
0.416595 0.426514 0.036438
0.441223 0.426514 0.036865
0.465302 0.426178 0.037170
0.488342 0.424835 0.034882
0.511749 0.423370 0.032043
0.535431 0.422638 0.029572
0.560089 0.422363 0.026855
0.585846 0.422394 0.024963
0.612274 0.422852 0.023468
0.639404 0.423370 0.022217
0.666779 0.424194 0.021271
0.694519 0.425201 0.020905
0.722351 0.426422 0.020355
0.750427 0.427673 0.020020
0.778381 0.429199 0.019928
0.806488 0.430786 0.019867
0.834656 0.432465 0.019806
0.862762 0.434296 0.019989
0.890930 0.436157 0.019989
0.919067 0.438141 0.020050
0.947266 0.440125 0.020142
0.175354 0.432922 0.022583
0.183197 0.434357 0.023529
0.195740 0.436035 0.024445
0.209290 0.438202 0.025452
0.227814 0.440887 0.027100
0.248077 0.444000 0.029083
0.273407 0.447449 0.031250
0.299255 0.450806 0.034180
0.326141 0.453827 0.037628
0.352814 0.456512 0.040680
0.378540 0.458496 0.042786
0.403870 0.459778 0.045197
0.428192 0.460327 0.046478
0.451569 0.460236 0.046753
0.474457 0.459656 0.046631
0.497101 0.458923 0.045441
0.519440 0.457336 0.042419
0.542419 0.455566 0.038361
0.565765 0.454529 0.034576
0.590179 0.453949 0.031158
0.615723 0.453827 0.028656
0.642181 0.453979 0.026459
0.669250 0.454346 0.024872
0.696808 0.454895 0.023590
0.724579 0.455719 0.022308
0.752808 0.456573 0.021576
0.780975 0.457672 0.020996
0.809265 0.458893 0.020782
0.837555 0.460266 0.020508
0.865967 0.461700 0.020294
0.894470 0.463165 0.020142
0.922760 0.464874 0.020050
0.951172 0.466583 0.020020
0.202454 0.465485 0.032623
0.209259 0.466705 0.032837
0.220978 0.468323 0.034424
0.233459 0.470337 0.035431
0.250427 0.472870 0.037323
0.270691 0.475861 0.039459
0.293091 0.479065 0.042358
0.317444 0.482361 0.045471
0.343079 0.485504 0.049133
0.368103 0.488251 0.051971
0.392944 0.490356 0.055084
0.417053 0.491791 0.057343
0.440399 0.492554 0.058472
0.462891 0.492615 0.058716
0.484467 0.492065 0.057831
0.505798 0.491180 0.056061
0.527710 0.490173 0.054169
0.549408 0.488495 0.049957
0.572083 0.486664 0.045044
0.595398 0.485382 0.039825
0.619751 0.484772 0.035400
0.645294 0.484558 0.032257
0.671692 0.484589 0.029541
0.698914 0.484802 0.027222
0.726532 0.485260 0.025482
0.754639 0.485840 0.023956
0.782898 0.486633 0.022919
0.811432 0.487518 0.022003
0.840027 0.488556 0.021393
0.868683 0.489624 0.020905
0.897278 0.490936 0.020508
0.926056 0.492188 0.020142
0.954834 0.493591 0.019806
0.232635 0.496674 0.044891
0.238220 0.497772 0.045776
0.247162 0.499176 0.046509
0.259277 0.501099 0.048248
0.275879 0.503479 0.050293
0.294098 0.506226 0.052704
0.315002 0.509277 0.055634
0.337158 0.512421 0.059021
0.360565 0.515503 0.062408
0.384369 0.518372 0.065887
0.407623 0.520660 0.068817
0.430664 0.522339 0.071167
0.452911 0.523346 0.072723
0.474426 0.523682 0.072937
0.495117 0.523346 0.071533
0.515411 0.522491 0.069092
0.535950 0.521423 0.066101
0.557159 0.520325 0.062469
0.578522 0.518707 0.057495
0.601044 0.516876 0.050690
0.624664 0.515564 0.044586
0.649017 0.514954 0.039551
0.674622 0.514679 0.035614
0.701141 0.514709 0.032257
0.728424 0.514923 0.029449
0.756348 0.515259 0.027252
0.784637 0.515778 0.025360
0.813232 0.516418 0.023987
0.841888 0.517242 0.022888
0.870758 0.518127 0.021912
0.899872 0.519012 0.021088
0.928894 0.520050 0.020416
0.958282 0.520996 0.019775
0.262421 0.526398 0.059723
0.267853 0.527466 0.060425
0.275970 0.528748 0.061646
0.287415 0.530457 0.063202
0.300232 0.532593 0.065125
0.317230 0.535187 0.067657
0.337463 0.538086 0.070892
0.358093 0.541077 0.074463
0.378937 0.544067 0.077942
0.400940 0.546875 0.081390
0.423370 0.549286 0.084229
0.445007 0.551178 0.086670
0.465729 0.552582 0.088135
0.486267 0.553284 0.088196
0.506226 0.553223 0.087036
0.525604 0.552673 0.084167
0.545013 0.551636 0.080048
0.564911 0.550568 0.075134
0.585724 0.549500 0.070801
0.606995 0.548004 0.063934
0.629669 0.546356 0.056335
0.653534 0.545074 0.049164
0.678101 0.544556 0.043579
0.703857 0.544373 0.038879
0.730560 0.544464 0.034760
0.758148 0.544647 0.031555
0.786163 0.545044 0.028809
0.814636 0.545532 0.026764
0.843536 0.546143 0.024902
0.872681 0.546783 0.023407
0.902069 0.547485 0.022064
0.931641 0.548187 0.020782
0.961151 0.549042 0.019989
0.292938 0.554840 0.076752
0.297943 0.555695 0.077454
0.304413 0.556824 0.078613
0.314941 0.558441 0.080139
0.327087 0.560394 0.082214
0.341797 0.562744 0.084961
0.359863 0.565460 0.088043
0.377808 0.568268 0.091156
0.398010 0.571136 0.094727
0.418488 0.573853 0.098175
0.438599 0.576447 0.100677
0.459381 0.578461 0.103149
0.479126 0.580109 0.104523
0.498566 0.581177 0.104492
0.517426 0.581604 0.103180
0.535950 0.581482 0.100159
0.554626 0.580902 0.095886
0.573517 0.579865 0.090210
0.593048 0.578888 0.083801
0.613647 0.577850 0.077911
0.635071 0.576630 0.070160
0.657928 0.575226 0.061493
0.682190 0.574158 0.053406
0.707062 0.573730 0.047089
0.733093 0.573730 0.041595
0.760101 0.573883 0.037109
0.787689 0.574249 0.033417
0.816162 0.574615 0.030121
0.845032 0.575104 0.027618
0.874359 0.575623 0.025360
0.904083 0.576111 0.023346
0.933899 0.576691 0.021759
0.963715 0.577393 0.020203
0.322784 0.581573 0.096039
0.326965 0.582367 0.096588
0.332642 0.583374 0.097809
0.341888 0.584839 0.099274
0.353485 0.586609 0.101410
0.366455 0.588745 0.103790
0.380859 0.591156 0.106354
0.398987 0.593811 0.109497
0.416290 0.596527 0.112823
0.434631 0.599335 0.115906
0.454865 0.601746 0.118408
0.473572 0.604034 0.120605
0.492218 0.605957 0.121948
0.510651 0.607391 0.122070
0.528748 0.608276 0.120575
0.546570 0.608612 0.117340
0.564423 0.608521 0.112854
0.582458 0.607971 0.106903
0.601013 0.607178 0.099670
0.620453 0.606323 0.091797
0.641205 0.605499 0.084442
0.662842 0.604553 0.075775
0.685944 0.603577 0.066223
0.710815 0.602661 0.057465
0.736115 0.602600 0.049835
0.762482 0.602783 0.043762
0.789825 0.603058 0.038788
0.817932 0.603455 0.034241
0.846741 0.603943 0.030609
0.876190 0.604401 0.027557
0.905823 0.604950 0.024963
0.935791 0.605499 0.022888
0.965942 0.606049 0.020966
0.351135 0.606812 0.116608
0.354980 0.607513 0.117432
0.358368 0.608307 0.118073
0.368683 0.609772 0.119720
0.377594 0.611298 0.121429
0.389099 0.613281 0.123657
0.403320 0.615570 0.126251
0.418121 0.618042 0.129059
0.435303 0.620636 0.131927
0.451843 0.623291 0.134583
0.469391 0.625885 0.137024
0.487610 0.628204 0.138916
0.505280 0.630310 0.139862
0.522888 0.632019 0.139862
0.540009 0.633362 0.138489
0.557037 0.634277 0.135468
0.574341 0.634552 0.130737
0.591553 0.634613 0.124847
0.609375 0.634247 0.117096
0.627899 0.633698 0.107880
0.647491 0.633179 0.098663
0.668396 0.632660 0.090179
0.690369 0.632111 0.080475
0.713928 0.631500 0.069977
0.739410 0.631042 0.059906
0.765564 0.631134 0.051636
0.792419 0.631531 0.044830
0.820129 0.632050 0.039032
0.848785 0.632599 0.034271
0.877899 0.633240 0.030487
0.907623 0.633789 0.027100
0.937622 0.634369 0.024445
0.967896 0.634949 0.022003
0.378052 0.630768 0.137909
0.381531 0.631409 0.138794
0.384613 0.632111 0.139496
0.392365 0.633331 0.140869
0.400513 0.634796 0.142395
0.411865 0.636627 0.144470
0.424408 0.638733 0.146637
0.438019 0.641052 0.148987
0.451965 0.643524 0.151581
0.468628 0.646088 0.154053
0.485199 0.648590 0.156067
0.501801 0.651031 0.157623
0.518250 0.653320 0.158356
0.534821 0.655334 0.158234
0.551636 0.656952 0.156769
0.567749 0.658325 0.153748
0.584167 0.659302 0.149109
0.600952 0.659760 0.143005
0.617950 0.660034 0.135223
0.635620 0.660004 0.125671
0.654205 0.659882 0.114716
0.674133 0.659668 0.103668
0.695374 0.659485 0.094086
0.717957 0.659363 0.083191
0.742249 0.659363 0.071350
0.768372 0.659332 0.060699
0.795319 0.659668 0.051849
0.822723 0.660339 0.044678
0.850983 0.661072 0.038696
0.879974 0.661865 0.033630
0.909515 0.662598 0.029510
0.939453 0.663300 0.026093
0.969727 0.663971 0.023315
0.402985 0.653412 0.159760
0.406128 0.654053 0.160492
0.409515 0.654755 0.161224
0.416107 0.655792 0.162292
0.423401 0.657135 0.163818
0.433411 0.658813 0.165527
0.443756 0.660706 0.167358
0.456970 0.662903 0.169525
0.470551 0.665283 0.171570
0.484680 0.667725 0.173645
0.499786 0.670258 0.175446
0.515686 0.672699 0.176697
0.531433 0.675079 0.177094
0.547150 0.677307 0.176605
0.562744 0.679230 0.175262
0.578339 0.681000 0.172180
0.594086 0.682434 0.167389
0.609772 0.683624 0.160858
0.626068 0.684448 0.152679
0.643005 0.684998 0.142578
0.660858 0.685486 0.131195
0.679932 0.685791 0.118622
0.700439 0.686066 0.106445
0.722412 0.686340 0.095428
0.745880 0.686737 0.083649
0.770966 0.687195 0.071625
0.797821 0.687683 0.060425
0.825531 0.688263 0.051086
0.853516 0.689240 0.043915
0.882263 0.690277 0.037537
0.911621 0.691223 0.032318
0.941467 0.692139 0.028229
0.971802 0.692932 0.024506
0.427551 0.675079 0.181915
0.429169 0.675537 0.182251
0.432098 0.676178 0.182953
0.437195 0.677094 0.183777
0.444733 0.678345 0.185181
0.454254 0.679901 0.186707
0.462952 0.681610 0.188293
0.474518 0.683716 0.190063
0.487366 0.685944 0.191681
0.500580 0.688324 0.193359
0.514832 0.690765 0.194550
0.528564 0.693329 0.195526
0.543304 0.695801 0.195618
0.557983 0.698212 0.194489
0.572632 0.700470 0.192291
0.587555 0.702606 0.188354
0.602295 0.704590 0.183411
0.617584 0.706207 0.176575
0.633209 0.707672 0.168304
0.649689 0.708893 0.158173
0.667114 0.709991 0.146759
0.685638 0.710938 0.134064
0.705505 0.711761 0.120544
0.726868 0.712616 0.107117
0.749908 0.713348 0.094940
0.774170 0.714325 0.082794
0.800079 0.715302 0.070496
0.827576 0.716217 0.059387
0.856232 0.717163 0.049530
0.884827 0.718445 0.041931
0.913971 0.719666 0.035583
0.943665 0.720825 0.030426
0.974487 0.721802 0.025940
0.447998 0.695435 0.202972
0.450348 0.695953 0.203522
0.452942 0.696503 0.203888
0.457123 0.697327 0.204620
0.464386 0.698547 0.205627
0.470367 0.699860 0.206726
0.480774 0.701691 0.207733
0.490570 0.703674 0.208862
0.501282 0.705872 0.209900
0.512909 0.708252 0.210754
0.525665 0.710693 0.211090
0.539429 0.713287 0.210907
0.552277 0.715912 0.210266
0.566345 0.718506 0.208618
0.580536 0.721008 0.205933
0.594727 0.723480 0.202209
0.609253 0.725800 0.197113
0.624207 0.727966 0.190552
0.639740 0.729919 0.182281
0.655884 0.731750 0.172363
0.672882 0.733429 0.161072
0.690979 0.734985 0.148376
0.710297 0.736511 0.134644
0.731171 0.737946 0.120117
0.753723 0.739441 0.105957
0.777588 0.740753 0.093262
0.802826 0.742157 0.080841
0.829559 0.743622 0.068329
0.857849 0.745087 0.056885
0.887360 0.746399 0.046997
0.916565 0.747925 0.039459
0.946136 0.749390 0.033142
0.977264 0.750702 0.027710
0.460876 0.715790 0.220337
0.463287 0.716248 0.220612
0.465729 0.716766 0.220947
0.469360 0.717529 0.221375
0.476959 0.718781 0.221954
0.482513 0.720062 0.222595
0.491821 0.721771 0.223267
0.501099 0.723663 0.223816
0.511536 0.725769 0.224365
0.522766 0.728088 0.224762
0.533752 0.730438 0.224854
0.546875 0.733032 0.224152
0.560028 0.735687 0.222900
0.573059 0.738464 0.221191
0.586884 0.741150 0.218384
0.601044 0.743835 0.214355
0.615479 0.746429 0.209167
0.630127 0.748993 0.202728
0.645477 0.751495 0.194733
0.661316 0.753876 0.185211
0.678162 0.756134 0.174011
0.695892 0.758331 0.161804
0.714966 0.760406 0.147888
0.735291 0.762573 0.133240
0.757385 0.764709 0.117920
0.781006 0.766724 0.103088
0.805847 0.768585 0.090210
0.831970 0.770447 0.077423
0.859711 0.772491 0.064880
0.888794 0.774414 0.053375
0.918915 0.776093 0.043732
0.948944 0.777771 0.036224
0.979950 0.779419 0.029968
0.469055 0.736237 0.234589
0.471802 0.736603 0.234894
0.474854 0.737091 0.235138
0.478424 0.737793 0.235352
0.486084 0.739014 0.235657
0.491516 0.740112 0.236053
0.500061 0.741730 0.236328
0.508698 0.743500 0.236603
0.518524 0.745483 0.236755
0.529480 0.747742 0.236725
0.541168 0.750183 0.236237
0.553040 0.752777 0.235413
0.566040 0.755493 0.233795
0.578735 0.758301 0.231720
0.592438 0.761108 0.228760
0.606354 0.764008 0.224640
0.620667 0.766876 0.219391
0.635437 0.769806 0.212891
0.650391 0.772644 0.205322
0.666168 0.775513 0.196075
0.682831 0.778351 0.185364
0.700500 0.781097 0.173248
0.719177 0.783752 0.159943
