nova/tdt-studio/app/Lut_mau/IWLTBAP/1 - LUTs by IWLTBAP (CUBE)/07 - Utility/Divers/Cinema Base Rec709 (optimized) V2.cube
# Copyright: (C) Copyright 2010-2019 by IWLTBAP SAS
# Cannot be resold, shared or otherwise redistributed
# Website: https://luts.iwltbap.com
TITLE "Cinema Base Rec.709 V2"
LUT_3D_SIZE 9
0.000000 0.000000 0.000000
0.089600 0.003937 0.001068
0.197418 0.022736 0.002899
0.319550 0.046051 0.005127
0.441132 0.069885 0.008331
0.558411 0.095703 0.012299
0.673431 0.120880 0.016724
0.787262 0.144348 0.020813
0.901001 0.164337 0.024353
0.029572 0.096313 0.003052
0.104706 0.105865 0.004639
0.224945 0.121765 0.004089
0.343262 0.134460 0.005615
0.458527 0.151978 0.008728
0.571655 0.173035 0.012604
0.683868 0.195099 0.016968
0.795593 0.216766 0.020935
0.908020 0.235992 0.024139
0.070953 0.222198 0.005310
0.136810 0.231354 0.006897
0.250885 0.243500 0.009674
0.369507 0.252502 0.009766
0.482819 0.261383 0.010864
0.593781 0.273560 0.013580
0.703003 0.288635 0.017059
0.812103 0.305023 0.020172
0.922211 0.320801 0.022858
0.129700 0.364136 0.011719
0.187317 0.372894 0.014496
0.295502 0.386017 0.022278
0.405945 0.391785 0.028870
0.504181 0.389771 0.024628
0.609131 0.391846 0.019836
0.719666 0.397430 0.018829
0.831055 0.405365 0.019623
0.942596 0.414673 0.020691
0.232635 0.496674 0.044891
0.275879 0.503479 0.050293
0.360565 0.515503 0.062408
0.452911 0.523346 0.072723
0.535950 0.521423 0.066101
0.624664 0.515564 0.044586
0.728424 0.514923 0.029449
0.841888 0.517242 0.022888
0.958282 0.520996 0.019775
0.351135 0.606812 0.116608
0.377594 0.611298 0.121429
0.435303 0.620636 0.131927
0.505280 0.630310 0.139862
0.574341 0.634552 0.130737
0.647491 0.633179 0.098663
0.739410 0.631042 0.059906
0.848785 0.632599 0.034271
0.967896 0.634949 0.022003
0.447998 0.695435 0.202972
0.464386 0.698547 0.205627
0.501282 0.705872 0.209900
0.552277 0.715912 0.210266
0.609253 0.725800 0.197113
0.672882 0.733429 0.161072
0.753723 0.739441 0.105957
0.857849 0.745087 0.056885
0.977264 0.750702 0.027710
0.474396 0.777222 0.255310
0.493073 0.779419 0.255554
0.528564 0.785797 0.254242
0.573914 0.795502 0.248779
0.627808 0.807892 0.233643
0.690460 0.821899 0.201752
0.767212 0.836975 0.150299
0.866241 0.852448 0.087616
0.981018 0.864838 0.040619
0.447296 0.865479 0.265961
0.479950 0.867340 0.265137
0.521973 0.873108 0.261169
0.571808 0.882507 0.253143
0.630219 0.895721 0.237427
0.697266 0.912476 0.210205
0.775787 0.932312 0.169678
0.871887 0.954559 0.115936
0.946899 0.938110 0.395172
0.000000 0.008270 0.035187
0.079346 0.000000 0.086121
0.188873 0.000092 0.087006
0.320129 0.000000 0.086517
0.441864 0.000244 0.081299
0.559509 0.003174 0.071442
0.677185 0.026978 0.069580
0.798553 0.090393 0.078827
0.911713 0.126862 0.086365
0.000000 0.100189 0.086304
0.096924 0.104218 0.097748
0.234070 0.109009 0.096375
0.359619 0.106781 0.087616
0.474609 0.106262 0.077820
0.586212 0.109772 0.067566
0.697174 0.144501 0.074493
0.807587 0.178650 0.081970
0.917511 0.209625 0.088470
0.000000 0.226318 0.060303
0.100220 0.238586 0.065979
0.247101 0.246368 0.077759
0.380005 0.247925 0.083527
0.496826 0.249481 0.073181
0.605835 0.259277 0.078827
0.713837 0.273224 0.083801
0.822296 0.289276 0.088684
0.931458 0.305939 0.093292
0.005920 0.358154 0.010162
0.095276 0.371918 0.013702
0.259247 0.392029 0.025909
0.402374 0.395966 0.039185
0.511444 0.386993 0.059479
0.617432 0.387177 0.080597
0.727051 0.392365 0.089752
0.837189 0.400391 0.094482
0.947540 0.409973 0.097595
0.127686 0.489899 0.039154
0.197235 0.499664 0.044891
0.318146 0.517090 0.059418
0.438080 0.528717 0.074585
0.533447 0.524567 0.067688
0.628571 0.514496 0.070526
0.733887 0.512573 0.085846
0.847015 0.514587 0.094635
0.962341 0.518433 0.099670
0.288422 0.602234 0.110626
0.328766 0.608215 0.116913
0.402924 0.620087 0.130005
0.489197 0.632538 0.142487
0.567413 0.638031 0.135803
0.645447 0.635254 0.101044
0.742096 0.630768 0.080627
0.852600 0.631378 0.088409
0.971558 0.633423 0.097015
0.411774 0.692444 0.201141
0.432404 0.696075 0.204437
0.478729 0.704620 0.211212
0.537994 0.716064 0.215729
0.601044 0.727112 0.207123
0.668304 0.735107 0.174133
0.751862 0.740692 0.119781
0.859497 0.745239 0.087128
0.980011 0.750122 0.088104
0.453369 0.775269 0.267639
0.476746 0.777924 0.268524
0.512878 0.784271 0.269379
0.562592 0.794556 0.267395
0.620911 0.807587 0.256226
0.685638 0.822083 0.228943
0.763885 0.837463 0.181335
0.864685 0.853058 0.121704
0.981110 0.865051 0.088318
0.433380 0.863800 0.296844
0.469421 0.866119 0.296356
0.512817 0.871918 0.294220
0.564514 0.881439 0.289001
0.624603 0.894775 0.277252
0.693054 0.911804 0.254608
0.772430 0.931885 0.218658
0.869324 0.954346 0.169403
0.946777 0.938354 0.451355
0.000000 0.020905 0.138397
0.036438 0.006989 0.217133
0.177612 0.000000 0.184631
0.294800 0.000000 0.179749
0.418518 0.000000 0.191559
0.540039 0.000916 0.194855
0.660614 0.003906 0.194641
0.783020 0.009064 0.190521
0.896851 0.013855 0.182495
0.000000 0.096527 0.192627
0.036224 0.101257 0.227722
0.220001 0.077728 0.227020
0.354034 0.057373 0.205688
0.462616 0.058289 0.198486
0.570038 0.061157 0.193298
0.679901 0.060120 0.188324
0.795593 0.065460 0.182526
0.911011 0.114532 0.183350
0.000000 0.227905 0.203735
0.044342 0.239319 0.217255
0.232483 0.238464 0.235596
0.385529 0.237030 0.226471
0.503540 0.235901 0.217041
0.612488 0.237518 0.209564
0.721283 0.239960 0.201630
0.831482 0.242798 0.191010
0.936249 0.252197 0.179352
0.005127 0.371063 0.188110
0.082214 0.383698 0.187317
0.245422 0.398041 0.199402
0.402069 0.396210 0.217285
0.514099 0.385681 0.219452
0.624084 0.383484 0.211914
0.736877 0.384003 0.200104
0.850891 0.384277 0.184174
0.961212 0.388031 0.168823
0.040802 0.495117 0.167175
0.114105 0.504303 0.165771
0.272919 0.522217 0.179413
0.421509 0.532867 0.203033
0.532928 0.526520 0.210541
0.632690 0.513062 0.207306
0.743347 0.508209 0.188599
0.859436 0.507416 0.168030
0.973633 0.510681 0.176605
0.117157 0.593414 0.144104
0.171509 0.598389 0.134155
0.325409 0.616913 0.160095
0.452728 0.634399 0.194153
0.553497 0.642731 0.200043
0.642792 0.638000 0.177795
0.746857 0.629578 0.175842
0.862762 0.627869 0.145782
0.980865 0.629395 0.172424
0.290497 0.683105 0.194641
0.327911 0.687805 0.198578
0.405273 0.698944 0.208923
0.496063 0.714630 0.222076
0.579254 0.729309 0.222900
0.657288 0.738953 0.194672
0.748077 0.743469 0.136597
0.864258 0.745300 0.120209
0.983856 0.748566 0.150787
0.390350 0.769897 0.278809
0.420990 0.772949 0.280548
0.467987 0.780029 0.284302
0.531464 0.791626 0.288055
0.601166 0.806366 0.284210
0.673340 0.822235 0.263184
0.755829 0.838470 0.218842
0.861359 0.854431 0.158295
0.981323 0.865479 0.137299
0.399139 0.860504 0.327972
0.437500 0.862701 0.328186
0.486328 0.868591 0.328308
0.542572 0.878143 0.327209
0.609772 0.892212 0.320740
0.682159 0.909698 0.303955
0.764496 0.930450 0.272736
0.863617 0.953796 0.226746
0.948486 0.941010 0.499237
0.000000 0.039032 0.229950
0.000000 0.023956 0.311188
0.137299 0.001770 0.330627
0.284271 0.000000 0.288239
0.392609 0.000000 0.286713
0.502014 0.000000 0.300446
0.620636 0.001648 0.316925
0.746246 0.006104 0.322418
0.868683 0.012512 0.323395
0.000000 0.104309 0.261292
0.000000 0.100311 0.318146
0.150696 0.087799 0.365021
0.329346 0.035706 0.334991
0.426025 0.002686 0.306244
0.529602 0.014099 0.309235
0.643402 0.031433 0.317200
0.765411 0.048096 0.319122
0.890625 0.121490 0.333557
0.000000 0.225067 0.319519
0.023071 0.227783 0.355347
0.161896 0.240265 0.387177
0.383423 0.207336 0.388824
0.509521 0.189941 0.365509
0.607635 0.192322 0.353271
0.709259 0.204865 0.343109
0.816589 0.212006 0.334839
0.917786 0.255981 0.341827
0.004639 0.368988 0.339233
0.005127 0.375275 0.346191
0.181610 0.395508 0.374115
0.393585 0.392487 0.396149
0.521179 0.380676 0.374664
0.628113 0.376038 0.360168
0.734375 0.375305 0.350037
0.843140 0.375641 0.341034
0.944153 0.385132 0.340118
0.041504 0.496887 0.344299
0.090820 0.505859 0.342834
0.252563 0.524384 0.350555
0.411591 0.533386 0.366150
0.533569 0.525818 0.372620
0.632202 0.511963 0.357147
0.741730 0.508057 0.344940
0.856415 0.507324 0.335236
0.968811 0.506287 0.327972
0.125031 0.602631 0.340668
0.169250 0.608490 0.335815
0.307617 0.622711 0.337555
0.435944 0.634094 0.350586
0.548615 0.639862 0.363556
0.642609 0.635498 0.354553
0.745605 0.628204 0.342346
0.862488 0.626648 0.327942
0.979797 0.626465 0.321960
0.231140 0.688080 0.344025
0.239716 0.689362 0.337769
0.364624 0.700836 0.337799
0.466278 0.712219 0.348358
0.563873 0.725098 0.362579
0.651245 0.735352 0.355896
0.746246 0.740509 0.330627
0.862854 0.743073 0.326660
0.982422 0.746490 0.307068
0.303253 0.768402 0.345520
0.317017 0.768890 0.335724
0.403351 0.776489 0.339233
0.489502 0.787598 0.351013
0.575470 0.802338 0.363708
0.658691 0.819366 0.359802
0.747650 0.836914 0.336121
0.857941 0.853607 0.298859
0.979584 0.864136 0.296967
0.331207 0.855255 0.363464
0.376801 0.857178 0.360748
0.437897 0.862732 0.362701
0.507935 0.872406 0.363708
0.584991 0.886841 0.364563
0.665833 0.905212 0.356201
0.752777 0.927032 0.333649
0.855194 0.951752 0.294525
0.952911 0.947876 0.521851
0.000000 0.054901 0.316254
0.000000 0.049469 0.363892
0.055206 0.032135 0.426208
0.260040 0.000397 0.417053
0.382599 0.000397 0.380676
0.475677 0.001190 0.386780
0.574890 0.003265 0.403564
0.696320 0.009094 0.429352
0.824921 0.017639 0.448364
0.000000 0.114777 0.344818
0.000000 0.115326 0.381989
0.050415 0.110077 0.454437
0.291748 0.081329 0.467773
0.407104 0.002472 0.408051
0.497925 0.002350 0.403198
0.596436 0.009705 0.413940
0.715881 0.030334 0.435455
0.852051 0.120697 0.465363
0.000580 0.229706 0.409454
0.000580 0.237244 0.427155
0.051788 0.248505 0.482544
0.317902 0.239410 0.520172
0.494751 0.186493 0.497620
0.588989 0.163391 0.477234
0.678101 0.142487 0.466156
0.775330 0.120056 0.459137
0.886322 0.257416 0.480255
0.005798 0.370026 0.438965
0.006989 0.373993 0.457367
0.171722 0.389648 0.500763
0.333557 0.398712 0.530365
0.527374 0.374359 0.531677
0.634308 0.356323 0.510803
0.728333 0.348541 0.496490
0.826904 0.354187 0.483795
0.916809 0.386688 0.484375
0.044373 0.494659 0.464386
0.046753 0.498627 0.468689
0.137756 0.514771 0.486267
0.360321 0.530182 0.514374
0.531769 0.527588 0.533173
0.633942 0.513000 0.508423
0.737152 0.505585 0.491974
0.845428 0.502258 0.480469
0.946167 0.507965 0.479675
0.131683 0.602295 0.481079
0.134308 0.604980 0.477600
0.286255 0.622131 0.484467
0.421875 0.632385 0.495178
0.546265 0.637360 0.510376
0.641022 0.633362 0.506866
0.741364 0.627167 0.484650
0.856934 0.625977 0.471863
0.972260 0.625977 0.465332
0.231232 0.690857 0.477539
0.234436 0.692291 0.472992
0.351227 0.704071 0.471710
0.454803 0.711853 0.478760
0.558411 0.720093 0.493134
0.649414 0.728485 0.498047
0.742188 0.734833 0.482971
0.858246 0.740540 0.470734
0.977875 0.745026 0.460205
0.294159 0.773254 0.477417
0.308838 0.774261 0.472626
0.390594 0.780548 0.470001
0.477112 0.787048 0.474579
0.567383 0.797089 0.485138
0.655212 0.811523 0.493164
0.744629 0.829315 0.482758
0.853516 0.847321 0.461945
0.973846 0.860199 0.462158
0.304840 0.859375 0.482910
0.361725 0.861725 0.483704
0.420044 0.865143 0.481415
0.492798 0.871582 0.483368
0.573395 0.882477 0.488159
0.657562 0.898804 0.490021
0.748016 0.920532 0.484650
0.851685 0.946045 0.468018
0.965637 0.965668 0.491119
0.000000 0.081421 0.393951
0.000000 0.083862 0.429932
0.000305 0.085175 0.508423
0.218170 0.057343 0.533447
0.375549 0.010345 0.491364
0.470795 0.012024 0.465302
0.558136 0.018433 0.481110
0.656921 0.029449 0.506775
0.774048 0.041351 0.538269
0.000000 0.139587 0.420074
0.000000 0.144379 0.448853
0.001099 0.154602 0.526123
0.232635 0.143951 0.573730
0.416443 0.087372 0.549561
0.491364 0.018616 0.487701
0.577667 0.024536 0.497406
0.674896 0.035187 0.518036
0.800842 0.129211 0.560669
0.001678 0.252258 0.466370
0.002472 0.257812 0.486603
0.006317 0.270996 0.547424
0.240295 0.278534 0.609344
0.459167 0.249207 0.613892
0.578125 0.183472 0.577881
0.651794 0.145538 0.562225
0.724884 0.078857 0.549561
0.839935 0.267334 0.588043
0.012909 0.374054 0.542084
0.015656 0.377777 0.558838
0.038727 0.390625 0.580841
0.259064 0.411713 0.622223
0.472931 0.403564 0.639557
0.621094 0.368469 0.623474
0.708130 0.349518 0.609955
0.797333 0.333130 0.603394
0.873627 0.392456 0.605713
0.050720 0.497986 0.545593
0.053528 0.500977 0.555237
0.130280 0.512726 0.585663
0.351318 0.525330 0.619476
0.485077 0.532166 0.638123
0.633667 0.517883 0.636810
0.727112 0.500641 0.624512
0.825562 0.487762 0.615784
0.908905 0.510956 0.612396
0.132385 0.604462 0.572754
0.134827 0.607025 0.575592
0.140320 0.613190 0.582458
0.340668 0.630981 0.604767
0.507019 0.636780 0.624207
0.636749 0.633636 0.637085
0.731506 0.626801 0.622253
0.839600 0.622559 0.610962
0.943878 0.625671 0.609253
0.224060 0.693481 0.589905
0.228058 0.695312 0.588196
0.317627 0.705109 0.590393
0.436798 0.712860 0.598297
0.550598 0.717773 0.610352
0.647339 0.721497 0.621826
0.734222 0.727997 0.618805
0.849518 0.737823 0.605133
0.969116 0.743317 0.600037
0.285187 0.777069 0.586365
0.301453 0.778442 0.582916
0.376801 0.784454 0.582764
0.469482 0.789581 0.588593
0.564758 0.794769 0.599548
0.653809 0.803314 0.610779
0.740570 0.818695 0.612579
0.844513 0.838074 0.602203
0.966339 0.855591 0.600189
0.306091 0.865601 0.590881
0.352417 0.866943 0.589752
0.418884 0.870178 0.591492
0.492737 0.874512 0.595001
0.573151 0.880951 0.600281
0.656891 0.892670 0.605865
0.746094 0.911682 0.609619
0.846832 0.937134 0.602570
0.959656 0.959869 0.604980
0.000183 0.126404 0.470978
0.000793 0.133881 0.499054
0.002350 0.150330 0.563812
0.113159 0.153503 0.630035
0.375763 0.097534 0.630310
0.489838 0.054260 0.581482
0.566711 0.054688 0.558777
0.651154 0.072418 0.582031
0.741333 0.090637 0.610596
0.000977 0.179535 0.492767
0.001770 0.186676 0.515656
0.004822 0.203857 0.575592
0.109100 0.216248 0.647705
0.397766 0.189240 0.669830
0.514862 0.092834 0.617462
0.584839 0.069244 0.578186
0.666656 0.083588 0.596161
0.757172 0.147644 0.627716
0.005524 0.280609 0.531433
0.006989 0.286835 0.550476
0.013611 0.300812 0.598175
0.101685 0.317566 0.667084
0.410553 0.309937 0.703949
0.567963 0.273376 0.686157
0.644592 0.184814 0.641235
0.700592 0.114502 0.626587
0.796967 0.293488 0.661407
0.022675 0.393005 0.589722
0.024933 0.397888 0.598633
0.033325 0.408722 0.627106
0.119202 0.425262 0.681152
0.415375 0.431976 0.719849
0.585938 0.413208 0.715637
0.692566 0.375366 0.692322
0.766327 0.353760 0.686798
0.826263 0.411163 0.683899
0.068054 0.503967 0.631012
0.072632 0.506653 0.642517
0.123108 0.513184 0.677460
0.302551 0.529175 0.706909
0.430176 0.540955 0.722565
0.592316 0.537048 0.724335
0.709015 0.513580 0.710876
0.790771 0.495819 0.707031
0.857788 0.520935 0.703888
0.137115 0.610260 0.644196
0.139465 0.612518 0.650146
0.145386 0.618011 0.666168
0.333557 0.630890 0.695099
0.494598 0.634766 0.713196
0.602875 0.638947 0.722931
0.716064 0.627625 0.718231
0.806915 0.616486 0.718506
0.894501 0.626556 0.721832
0.213593 0.701355 0.667633
0.217590 0.703247 0.669739
0.224426 0.707977 0.675110
0.311188 0.718292 0.687347
0.487183 0.724640 0.702911
0.620636 0.725159 0.715332
0.722076 0.720184 0.722046
0.827271 0.729675 0.725800
0.937439 0.736389 0.728180
0.264404 0.786438 0.689362
0.281433 0.787567 0.688721
0.312958 0.791046 0.687164
0.442200 0.797028 0.693085
0.550507 0.800110 0.700684
0.648621 0.802063 0.709503
0.734528 0.806854 0.718079
0.830231 0.825653 0.722992
0.956726 0.850433 0.726715
0.283661 0.873627 0.689514
0.340515 0.875366 0.690247
0.412262 0.878235 0.693207
0.487335 0.881409 0.696747
0.572144 0.885345 0.703186
0.658142 0.890717 0.710968
0.743195 0.902008 0.717255
0.839233 0.924683 0.722076
0.948883 0.948853 0.728455
0.002472 0.184723 0.545929
0.004028 0.193085 0.565948
0.010956 0.214233 0.619385
0.036255 0.244141 0.709045
0.340332 0.231140 0.746765
0.508453 0.153168 0.719452
0.602966 0.145386 0.677765
0.665985 0.150574 0.656982
0.732330 0.165985 0.674164
0.004822 0.230072 0.565582
0.007080 0.237183 0.581512
0.015381 0.255066 0.627502
0.046753 0.285431 0.718445
0.342621 0.281921 0.759155
0.527344 0.244415 0.749390
0.621216 0.172455 0.704193
0.678345 0.167664 0.670563
0.742859 0.208984 0.687073
0.014496 0.315857 0.597229
0.017151 0.321136 0.610077
0.028595 0.335114 0.649048
0.066284 0.360168 0.730103
0.342987 0.366180 0.773987
0.539154 0.345520 0.775696
0.654846 0.307251 0.747864
0.705872 0.209381 0.701508
0.774017 0.327698 0.717346
0.037415 0.416138 0.637451
0.042358 0.420563 0.649231
0.055176 0.430389 0.677002
0.090607 0.447968 0.737061
0.345123 0.461273 0.785126
0.544220 0.452179 0.793243
0.673187 0.430267 0.774994
0.750305 0.391144 0.748505
0.800079 0.433899 0.741150
0.104065 0.514984 0.712738
0.108276 0.518097 0.718109
0.118988 0.526550 0.732025
0.138123 0.539825 0.759552
0.362640 0.554108 0.792664
0.547455 0.554718 0.799408
0.681610 0.542816 0.788269
0.770020 0.516296 0.770294
0.827087 0.533936 0.764587
0.158691 0.616669 0.726379
0.162170 0.618744 0.734100
0.170929 0.623596 0.753448
0.322266 0.631927 0.781311
0.468353 0.636688 0.797943
0.560913 0.645935 0.802979
0.688995 0.641479 0.795837
0.783691 0.624512 0.785339
0.853119 0.631500 0.785797
0.205048 0.710724 0.738037
0.209595 0.712585 0.742401
0.216095 0.716980 0.753754
0.288086 0.725403 0.775513
0.475616 0.729370 0.791321
0.611237 0.728882 0.801239
0.703827 0.729004 0.805206
0.796661 0.718964 0.798096
0.881683 0.725861 0.806793
0.241852 0.798553 0.766235
0.259613 0.799988 0.767914
0.278900 0.803772 0.772247
0.301819 0.809937 0.779510
0.468536 0.816223 0.791351
0.607483 0.817047 0.800964
0.720306 0.814758 0.807831
0.810699 0.809601 0.810669
0.928192 0.834778 0.832306
0.257629 0.890625 0.795197
0.287903 0.890747 0.794647
0.378113 0.893402 0.796539
0.471191 0.895782 0.799713
0.561188 0.897949 0.802826
0.651855 0.900055 0.807190
0.740051 0.902374 0.811829
0.829712 0.910370 0.820068
0.935638 0.935394 0.834473
0.013428 0.248688 0.619812
0.017365 0.257202 0.637787
0.031952 0.277252 0.679871
0.056427 0.299805 0.739777
0.309326 0.308136 0.774689
0.498383 0.301727 0.783051
0.616302 0.283020 0.766266
0.690582 0.265167 0.743896
0.737305 0.250671 0.729614
0.018738 0.284515 0.633636
0.023956 0.291779 0.649200
0.038544 0.308899 0.687134
0.067719 0.331329 0.748291
0.310944 0.340851 0.782196
0.501404 0.334656 0.792206
0.623108 0.321411 0.777679
0.699829 0.292938 0.751099
0.750793 0.302399 0.743591
0.033325 0.354462 0.658173
0.037842 0.359375 0.669037
0.055023 0.373322 0.703888
0.092682 0.394806 0.765137
0.315399 0.404968 0.796265
0.506592 0.402069 0.808746
0.633545 0.392883 0.797302
0.717560 0.377716 0.774933
0.770538 0.379456 0.763763
0.065521 0.442566 0.692810
0.071289 0.446320 0.702087
0.089508 0.456696 0.730164
0.124146 0.472778 0.780640
0.321167 0.484558 0.812408
0.511078 0.486023 0.824921
0.642731 0.480225 0.816772
0.732910 0.469513 0.797058
0.792023 0.465485 0.786285
0.129730 0.534668 0.746124
0.134460 0.537933 0.752686
0.145172 0.544983 0.768127
0.167725 0.556427 0.804779
0.339813 0.567657 0.830627
0.518341 0.572479 0.839081
0.650238 0.570984 0.831177
0.746582 0.561829 0.817596
0.816376 0.552246 0.812225
0.192780 0.624207 0.809021
0.196655 0.625580 0.817657
0.203857 0.628448 0.834015
0.307251 0.636597 0.843201
0.400116 0.648071 0.851959
0.535248 0.654327 0.856934
0.663727 0.654602 0.849915
0.763611 0.648102 0.841583
0.840088 0.639191 0.837891
0.208771 0.717773 0.820312
0.215118 0.719238 0.826477
0.224518 0.722809 0.842743
0.268951 0.728088 0.869446
0.462799 0.731232 0.879272
0.606934 0.730286 0.877960
0.685089 0.736542 0.877258
0.782928 0.731995 0.867859
0.865356 0.725403 0.864624
0.219971 0.811249 0.844849
0.238922 0.812744 0.848083
0.258575 0.816528 0.856537
0.281311 0.823029 0.872162
0.451935 0.827942 0.887787
0.598145 0.827759 0.897461
0.717102 0.824615 0.902130
0.806610 0.821838 0.897675
0.891998 0.815460 0.892059
0.234436 0.904297 0.877808
0.312134 0.905487 0.879578
0.385651 0.907135 0.882996
0.465607 0.909515 0.888397
0.557953 0.911987 0.894867
0.647797 0.914551 0.902374
0.739288 0.916626 0.909485
0.829041 0.918488 0.916229
0.917480 0.917114 0.917603
