nova/tdt-studio/app/Lut_mau/.cube LUT/Adoras - Standard.cube
# Copyright: (C) Copyright 2010-2018 by IWLTBAP SAS
# Cannot be resold, shared or otherwise redistributed
# Website: https://luts.iwltbap.com
TITLE "IWLTBAP Adoras (Rec.709, sRGB, DCI-P3)"
LUT_3D_SIZE 5
0.000000 0.000000 0.000000
0.139832 0.015747 0.004059
0.413666 0.082520 0.000702
0.723572 0.174164 0.000763
0.981964 0.287720 0.047241
0.174377 0.177460 0.174957
0.209442 0.207672 0.207550
0.452972 0.235016 0.000610
0.755615 0.299316 0.000854
0.990265 0.367645 0.053711
0.467255 0.470978 0.468353
0.481354 0.485687 0.481628
0.536560 0.534760 0.534210
0.782501 0.544708 0.034546
0.996185 0.554749 0.089294
0.740570 0.740570 0.737885
0.747955 0.746521 0.744415
0.765259 0.766602 0.763428
0.805084 0.802887 0.800568
0.981628 0.811615 0.505646
0.915436 0.914246 0.913239
0.919861 0.918091 0.917786
0.931305 0.931335 0.931885
0.951111 0.953003 0.951141
0.979065 0.977600 0.975739
0.001587 0.008179 0.062592
0.154999 0.021332 0.104065
0.433197 0.006042 0.180420
0.699860 0.134033 0.200134
0.992035 0.237823 0.216492
0.178467 0.181580 0.180145
0.195770 0.195801 0.195770
0.433502 0.219757 0.200287
0.735657 0.267975 0.201477
0.994781 0.339447 0.224731
0.463104 0.466461 0.465546
0.475677 0.480835 0.478119
0.530670 0.528625 0.528992
0.793701 0.536926 0.233459
0.995850 0.550903 0.266388
0.736542 0.737671 0.735229
0.745270 0.744446 0.742828
0.764496 0.765808 0.763336
0.803711 0.802094 0.800171
0.992584 0.801910 0.464203
0.915985 0.914825 0.914246
0.920380 0.918762 0.918823
0.931641 0.931976 0.932800
0.951508 0.953400 0.951721
0.979401 0.978302 0.976562
0.000000 0.070648 0.207703
0.000000 0.126953 0.394989
0.403229 0.163879 0.384125
0.819092 0.000000 0.531036
0.991730 0.088501 0.446991
0.000854 0.200500 0.348602
0.016418 0.225342 0.400635
0.430298 0.289032 0.434662
0.825714 0.184387 0.549866
0.994293 0.270447 0.442749
0.470642 0.476562 0.476532
0.479950 0.486267 0.486023
0.509155 0.509338 0.509277
0.770599 0.509979 0.486542
0.995575 0.535126 0.488342
0.736938 0.738281 0.737244
0.745392 0.744873 0.744598
0.764099 0.765839 0.764587
0.803040 0.802002 0.801147
0.995178 0.803802 0.601379
0.917877 0.916718 0.917206
0.921997 0.920593 0.921631
0.933075 0.934387 0.935791
0.954498 0.955750 0.954468
0.980499 0.980591 0.979095
0.000000 0.154694 0.376129
0.000000 0.198212 0.484161
0.419281 0.301697 0.787384
0.728149 0.410309 0.757812
0.986084 0.375366 0.847839
0.000000 0.255157 0.496857
0.000000 0.285980 0.564636
0.278290 0.397949 0.815125
0.741974 0.515717 0.789337
0.988831 0.477051 0.866516
0.000000 0.503143 0.770325
0.014709 0.521515 0.796143
0.361298 0.583435 0.850006
0.792938 0.690826 0.881897
0.974976 0.679260 0.912964
0.752380 0.752045 0.755157
0.757538 0.757782 0.760498
0.767700 0.774841 0.778076
0.799622 0.799744 0.799774
0.979584 0.787964 0.772339
0.924072 0.923279 0.925568
0.927643 0.927612 0.930115
0.937775 0.941132 0.942596
0.961029 0.960480 0.959930
0.982239 0.984344 0.983307
0.000000 0.242706 0.565857
0.000031 0.280090 0.645935
0.209961 0.439758 0.920990
0.801788 0.665802 0.978271
0.926086 0.736389 0.948792
0.000000 0.315735 0.609955
0.000000 0.338623 0.650360
0.070251 0.470245 0.885376
0.770966 0.696777 0.981232
0.920319 0.763153 0.949158
0.014557 0.552032 0.882843
0.074280 0.569122 0.899231
0.288605 0.621582 0.946594
0.708710 0.764740 0.996155
0.921265 0.829865 0.955475
0.440002 0.769257 0.992096
0.468811 0.777527 0.992584
0.611847 0.807617 0.996490
0.767853 0.853119 0.995697
0.930725 0.906525 0.970612
0.934448 0.938629 0.943634
0.937531 0.942291 0.946564
0.948639 0.953339 0.956940
0.970703 0.970551 0.975372
0.984283 0.988220 0.988220
