nova/tdt-studio/app/Lut_mau/.cube LUT/Adoras - Standard.cube
# Copyright: (C) Copyright 2010-2018 by IWLTBAP SAS
# Cannot be resold, shared or otherwise redistributed
# Website: https://luts.iwltbap.com
TITLE "IWLTBAP Adoras (Rec.709, sRGB, DCI-P3)"
LUT_3D_SIZE 33
0.000000 0.000000 0.000000
0.000000 0.000000 0.000000
0.003845 0.000000 0.000000
0.016479 0.001678 0.000000
0.034851 0.003876 0.000000
0.058594 0.005585 0.001892
0.085419 0.007751 0.003876
0.112030 0.011444 0.004364
0.139832 0.015747 0.004059
0.168457 0.019043 0.002380
0.199219 0.023865 0.000671
0.234070 0.033264 0.000427
0.269989 0.043518 0.000610
0.304718 0.051392 0.000641
0.339905 0.059448 0.000641
0.376465 0.070557 0.000671
0.413666 0.082520 0.000702
0.450439 0.094391 0.000702
0.487671 0.105835 0.000702
0.526245 0.115906 0.000702
0.565216 0.125854 0.000702
0.604340 0.137482 0.000671
0.643829 0.149658 0.000641
0.683350 0.161865 0.000793
0.723572 0.174164 0.000763
0.765228 0.185944 0.000854
0.806183 0.197418 0.000916
0.842377 0.213135 0.002045
0.875519 0.231537 0.004303
0.909241 0.246490 0.009033
0.941376 0.261749 0.016510
0.964783 0.276123 0.029266
0.981964 0.287720 0.047241
0.001282 0.002197 0.002167
0.002075 0.003143 0.003479
0.005737 0.001404 0.000000
0.020447 0.005035 0.000427
0.040833 0.009613 0.001648
0.064850 0.012421 0.001984
0.090759 0.015106 0.001953
0.117401 0.019897 0.002106
0.145203 0.025146 0.002167
0.174286 0.029999 0.001434
0.204895 0.035828 0.000549
0.237732 0.044586 0.000488
0.271271 0.053864 0.000610
0.305939 0.062836 0.000610
0.341309 0.072296 0.000580
0.376678 0.081329 0.000610
0.412781 0.091034 0.000671
0.450836 0.101410 0.000671
0.489532 0.112518 0.000671
0.527313 0.123688 0.000641
0.565033 0.135162 0.000641
0.604065 0.146271 0.000641
0.643707 0.157440 0.000824
0.684296 0.169739 0.000854
0.725525 0.182129 0.000824
0.767548 0.192871 0.000885
0.808258 0.203461 0.000916
0.844086 0.219421 0.001740
0.877197 0.236694 0.004150
0.910980 0.251129 0.008484
0.942444 0.266846 0.015747
0.965515 0.280640 0.029175
0.982849 0.291901 0.047852
0.008240 0.009064 0.009552
0.011292 0.011505 0.011902
0.014465 0.014557 0.014435
0.023163 0.012665 0.004852
0.046539 0.019379 0.003906
0.070831 0.023315 0.002258
0.097046 0.027405 0.000153
0.123932 0.032959 0.000031
0.152039 0.039368 0.000275
0.181152 0.045349 0.000458
0.211395 0.051819 0.000458
0.242249 0.059479 0.000549
0.274139 0.067688 0.000610
0.308594 0.077332 0.000610
0.344147 0.087097 0.000549
0.378662 0.095154 0.000580
0.413971 0.102844 0.000641
0.452423 0.112213 0.000641
0.491516 0.122284 0.000641
0.528595 0.133911 0.000641
0.565582 0.145569 0.000641
0.604523 0.156006 0.000641
0.644440 0.166016 0.000824
0.685944 0.178467 0.000854
0.728058 0.191162 0.001038
0.769745 0.201508 0.000916
0.809845 0.211548 0.000946
0.845917 0.226257 0.001648
0.879242 0.242004 0.003937
0.912781 0.256561 0.008026
0.943573 0.272217 0.015930
0.966431 0.285217 0.030334
0.983917 0.296722 0.048065
0.024384 0.024658 0.024384
0.026428 0.027130 0.026886
0.028931 0.029938 0.029785
0.032288 0.034393 0.034271
0.040558 0.037476 0.033447
0.071991 0.038727 0.002136
0.100525 0.045502 0.000000
0.129578 0.051575 0.000000
0.158966 0.057495 0.000000
0.188049 0.063629 0.000366
0.217529 0.070038 0.000702
0.247650 0.076385 0.000610
0.279266 0.083435 0.000610
0.313782 0.091888 0.000610
0.349426 0.100952 0.000580
0.384247 0.110168 0.000610
0.419281 0.119110 0.000641
0.455841 0.127747 0.000671
0.493011 0.136200 0.000671
0.529724 0.145813 0.000702
0.567108 0.155792 0.000732
0.605896 0.165405 0.000641
0.645935 0.175873 0.000763
0.688782 0.189362 0.000732
0.732086 0.203552 0.000885
0.772522 0.213989 0.001038
0.811279 0.223663 0.001038
0.848450 0.235474 0.001434
0.881744 0.249390 0.003754
0.914612 0.264221 0.007446
0.944885 0.279358 0.016022
0.967804 0.291443 0.031830
0.985352 0.303436 0.048584
0.045410 0.047821 0.047638
0.048615 0.050659 0.050415
0.052582 0.054047 0.053589
0.057465 0.058136 0.057831
0.064545 0.064117 0.063812
0.072754 0.071594 0.071442
0.101868 0.066803 0.000610
0.133209 0.073151 0.000305
0.164551 0.079041 0.000793
0.193787 0.085114 0.000824
0.223053 0.090973 0.000854
0.253571 0.096588 0.000854
0.285675 0.102661 0.000641
0.320190 0.109924 0.000641
0.355621 0.118134 0.000610
0.390625 0.127716 0.000671
0.425720 0.137634 0.000702
0.460449 0.145721 0.000702
0.495636 0.153442 0.000702
0.532135 0.160980 0.000763
0.570190 0.169373 0.000793
0.608978 0.178741 0.000916
0.649109 0.189697 0.000732
0.692261 0.203735 0.000793
0.735657 0.218018 0.000732
0.775391 0.228638 0.000977
0.813721 0.238159 0.001099
0.851013 0.247437 0.001282
0.883728 0.259796 0.003113
0.915863 0.274292 0.007263
0.946472 0.288239 0.016876
0.969727 0.299774 0.033142
0.986816 0.312286 0.049438
0.078857 0.077911 0.077667
0.081085 0.080475 0.080170
0.083344 0.083252 0.082916
0.086456 0.087067 0.086609
0.090210 0.092194 0.091461
0.095428 0.098541 0.097717
0.102753 0.106232 0.105072
0.131256 0.097626 0.042236
0.166046 0.104218 0.003082
0.197083 0.110260 0.000977
0.228088 0.115601 0.000000
0.260834 0.121033 0.000000
0.294250 0.126556 0.000000
0.327698 0.134216 0.000305
0.361450 0.142395 0.000641
0.396210 0.148865 0.000732
0.431244 0.155457 0.000702
0.465607 0.164001 0.000702
0.500519 0.173218 0.000671
0.537292 0.181122 0.000702
0.575439 0.189362 0.000732
0.614624 0.199280 0.000885
0.654663 0.209991 0.000916
0.695892 0.222107 0.000763
0.737122 0.234161 0.000793
0.778015 0.244690 0.000885
0.817627 0.254547 0.001190
0.853088 0.262970 0.001221
0.885040 0.273010 0.002289
0.917419 0.286591 0.006744
0.949036 0.299225 0.017365
0.972168 0.310486 0.033661
0.987701 0.322876 0.050629
0.106201 0.109497 0.108337
0.108521 0.111389 0.110199
0.111267 0.113708 0.112549
0.115173 0.116882 0.115692
0.120239 0.120941 0.119934
0.126984 0.126434 0.125885
0.134552 0.133057 0.132996
0.142609 0.141052 0.141449
0.165649 0.134430 0.090668
0.197845 0.135803 0.004181
0.230713 0.141296 0.001343
0.265717 0.146912 0.000519
0.300873 0.152985 0.001007
0.334106 0.161011 0.000732
0.367279 0.168701 0.000702
0.401978 0.172455 0.000702
0.437225 0.176392 0.000702
0.472076 0.185547 0.000671
0.507507 0.196106 0.000641
0.544647 0.204468 0.000641
0.582733 0.212616 0.000824
0.621979 0.222534 0.000793
0.661652 0.232819 0.000916
0.700989 0.243011 0.000885
0.740234 0.252838 0.000732
0.781555 0.262726 0.000793
0.821838 0.272369 0.001068
0.855988 0.280609 0.001129
0.888245 0.288513 0.001434
0.921478 0.301147 0.005280
0.953308 0.312622 0.015198
0.975189 0.323730 0.032532
0.987915 0.335297 0.051453
0.143158 0.141693 0.142059
0.144684 0.143555 0.143951
0.146393 0.145447 0.145752
0.148743 0.148315 0.148376
0.151703 0.152069 0.151794
0.155579 0.156921 0.156189
0.160828 0.163300 0.161713
0.167725 0.170868 0.168518
0.176910 0.179626 0.177155
0.189880 0.172455 0.141205
0.229919 0.166077 0.036285
0.263489 0.172424 0.006165
0.299805 0.179993 0.004761
0.336914 0.186981 0.001801
0.374115 0.193420 0.000000
0.410004 0.198700 0.000000
0.445496 0.204315 0.000122
0.481323 0.213104 0.000488
0.517731 0.222656 0.000671
0.554810 0.230072 0.000885
0.592346 0.237152 0.000977
0.630707 0.245972 0.000977
0.669495 0.255402 0.001160
0.708466 0.265533 0.000946
0.747437 0.275269 0.000885
0.786804 0.282928 0.000885
0.825104 0.290436 0.000977
0.859894 0.299347 0.001007
0.893372 0.308563 0.001038
0.928192 0.317932 0.002716
0.958954 0.328156 0.012573
0.978455 0.339233 0.030945
0.988373 0.349915 0.052948
0.174377 0.177460 0.174957
0.176117 0.179047 0.176575
0.178253 0.180939 0.178436
0.181183 0.183472 0.181183
0.185120 0.186768 0.184662
0.190094 0.190765 0.189178
0.196228 0.195831 0.194702
0.202972 0.201599 0.201019
0.209442 0.207672 0.207550
0.215637 0.214844 0.214539
0.225769 0.216583 0.204071
0.261688 0.204742 0.087433
0.296906 0.207489 0.013123
0.337585 0.213684 0.006653
0.378448 0.219208 0.001221
0.416077 0.226654 0.000000
0.452972 0.235016 0.000610
0.490417 0.243378 0.000885
0.527954 0.251343 0.000946
0.565399 0.257507 0.001068
0.602997 0.263794 0.000916
0.640381 0.271454 0.001099
0.678009 0.280060 0.001129
0.716827 0.289825 0.001068
0.755615 0.299316 0.000854
0.793030 0.305481 0.000793
0.829529 0.311401 0.000946
0.865204 0.320892 0.001038
0.899963 0.330719 0.001434
0.935730 0.337311 0.000946
0.964569 0.346375 0.009247
0.981781 0.357300 0.030060
0.990265 0.367645 0.053711
0.211914 0.210510 0.210449
0.212891 0.211609 0.211548
0.213959 0.212891 0.212769
0.215546 0.214691 0.214508
0.217407 0.217224 0.216766
0.219910 0.220398 0.219635
0.222992 0.224487 0.223175
0.227295 0.229889 0.228027
0.233185 0.236389 0.233978
0.240814 0.243896 0.241180
0.251099 0.252777 0.250244
0.263123 0.262756 0.261078
0.299042 0.244141 0.141418
0.336609 0.241913 0.021484
0.375793 0.248291 0.012634
0.416016 0.256348 0.006897
0.456390 0.264648 0.002686
0.496216 0.272766 0.000488
0.535767 0.280396 0.000000
0.575195 0.286316 0.000214
0.613953 0.292389 0.000946
0.650726 0.300079 0.001129
0.687134 0.308258 0.000977
0.725098 0.315948 0.000793
0.763184 0.323547 0.000641
0.800354 0.330322 0.000580
0.836945 0.337463 0.000793
0.873138 0.346405 0.002258
0.908020 0.355286 0.003693
0.942230 0.361877 0.002502
0.970306 0.368683 0.005981
0.985138 0.378326 0.028412
0.992493 0.387512 0.053864
0.241211 0.244354 0.241638
0.242554 0.245575 0.242798
0.244141 0.247009 0.244232
0.246429 0.248901 0.246277
0.249542 0.251678 0.249084
0.253571 0.255066 0.252716
0.258514 0.259155 0.257141
0.264435 0.264191 0.262573
0.271393 0.270355 0.269348
0.278015 0.277130 0.276428
0.284027 0.284424 0.283691
0.289886 0.292664 0.291168
0.296783 0.301819 0.298981
0.335602 0.284210 0.198669
0.375824 0.279755 0.085510
0.414001 0.286316 0.019165
0.457550 0.294403 0.010071
0.499207 0.302734 0.004425
0.540527 0.310516 0.001282
0.582397 0.316803 0.000610
0.622925 0.322754 0.001068
0.660553 0.330414 0.000854
0.697205 0.338226 0.000641
0.734253 0.343994 0.000519
0.771332 0.349884 0.000427
0.808258 0.357513 0.000244
0.844635 0.365753 0.000671
0.880524 0.373505 0.002930
0.914764 0.380646 0.005402
0.947632 0.387177 0.003540
0.974762 0.392975 0.004272
0.987427 0.399933 0.024872
0.992950 0.407745 0.053284
0.281738 0.281799 0.281189
0.282562 0.282837 0.282135
0.283447 0.283997 0.283264
0.284698 0.285706 0.284882
0.286346 0.287872 0.286896
0.288300 0.290771 0.289459
0.290741 0.294159 0.292511
0.293640 0.298187 0.295929
0.297516 0.303009 0.300079
0.302856 0.308868 0.305237
0.309845 0.315491 0.311310
0.318848 0.322754 0.318756
0.330048 0.331390 0.328217
0.342743 0.341461 0.339722
0.369171 0.323456 0.259064
0.414429 0.318420 0.137848
0.456879 0.324402 0.029755
0.498230 0.333374 0.018585
0.539581 0.341644 0.008789
0.583923 0.348785 0.002930
0.628326 0.355438 0.000000
0.670532 0.362152 0.000000
0.710541 0.368591 0.000244
0.746826 0.374420 0.000275
0.781219 0.380157 0.000244
0.816223 0.387146 0.000122
0.850739 0.394257 0.000366
0.884674 0.400208 0.001862
0.917297 0.405548 0.003662
0.949677 0.410919 0.003052
0.976715 0.415955 0.005493
0.988403 0.420837 0.022247
0.991730 0.427948 0.051361
0.311340 0.317017 0.312897
0.312439 0.317993 0.313843
0.313721 0.319031 0.314850
0.315582 0.320496 0.316406
0.318237 0.322601 0.318573
0.321594 0.325165 0.321350
0.325775 0.328369 0.324860
0.330963 0.332367 0.329346
0.336945 0.336945 0.334534
0.343994 0.342712 0.341217
0.351410 0.349426 0.348724
0.358521 0.356720 0.356659
0.365051 0.364502 0.364441
0.371674 0.373138 0.372467
0.379425 0.382935 0.381042
0.400391 0.369812 0.329437
0.454071 0.362305 0.195770
0.490906 0.362976 0.060669
0.536621 0.372894 0.022888
0.582642 0.381348 0.011230
0.629791 0.388977 0.003021
0.676392 0.395142 0.000305
0.720215 0.400726 0.000214
0.756927 0.406555 0.000031
0.790344 0.412384 0.000183
0.823944 0.418274 0.000061
0.856598 0.423828 0.000092
0.888367 0.427887 0.000610
0.919250 0.431610 0.001862
0.951447 0.435608 0.003235
0.978790 0.439880 0.008026
0.989685 0.444641 0.027496
0.991791 0.449982 0.051880
0.356445 0.355042 0.354828
0.357330 0.355988 0.355835
0.358276 0.357025 0.356873
0.359528 0.358459 0.358368
0.361237 0.360352 0.360382
0.363342 0.362762 0.362762
0.365723 0.365784 0.365723
0.368500 0.369324 0.369049
0.371613 0.373474 0.372803
0.375336 0.378265 0.376984
0.380096 0.384125 0.382080
0.386078 0.390717 0.387878
0.393616 0.397919 0.394440
0.402832 0.405853 0.402222
0.413971 0.414764 0.411591
0.426941 0.425140 0.423065
0.440430 0.422852 0.402374
0.493347 0.404907 0.251831
0.532928 0.404938 0.123077
0.579376 0.414001 0.031097
0.624573 0.422028 0.016266
0.671539 0.429352 0.005371
0.717743 0.435730 0.000000
0.759583 0.440796 0.000000
0.797974 0.445221 0.000000
0.832245 0.450104 0.000000
0.863800 0.454559 0.000000
0.894165 0.457550 0.000000
0.923492 0.459991 0.001526
0.955475 0.463104 0.006134
0.982788 0.466736 0.015533
0.992645 0.471649 0.037415
0.994019 0.475952 0.059631
0.387695 0.392883 0.389862
0.388519 0.393646 0.390564
0.389435 0.394623 0.391388
0.390869 0.395935 0.392578
0.392731 0.397675 0.394226
0.395325 0.399963 0.396423
0.398529 0.402710 0.399078
0.402527 0.406067 0.402405
0.407410 0.410004 0.406494
0.413208 0.414551 0.411285
0.419983 0.419861 0.417145
0.427979 0.426300 0.424316
0.436096 0.433289 0.432190
0.443939 0.440735 0.440247
0.451141 0.448761 0.448395
0.458069 0.457550 0.456604
0.465790 0.467712 0.465485
0.474823 0.478210 0.474670
0.530518 0.451752 0.315277
0.578644 0.447113 0.186432
0.618652 0.454498 0.036285
0.664886 0.463257 0.018463
0.711578 0.470703 0.004608
0.757599 0.475250 0.000671
0.800751 0.478577 0.001068
0.836578 0.482483 0.000458
0.868378 0.485931 0.000549
0.898621 0.488129 0.000641
0.927826 0.490021 0.003265
0.960144 0.492310 0.011230
0.987213 0.495056 0.024536
0.995819 0.499512 0.048523
0.996033 0.503601 0.071686
0.433990 0.431976 0.430695
0.434906 0.432800 0.431549
0.435852 0.433624 0.432495
0.437225 0.434875 0.433899
0.439056 0.436554 0.435730
0.441284 0.438599 0.437988
0.443878 0.441284 0.440765
0.446808 0.444336 0.443970
0.449982 0.447968 0.447601
0.453430 0.452087 0.451599
0.457001 0.456787 0.455902
0.461212 0.462402 0.460876
0.466187 0.468811 0.466431
0.472198 0.475830 0.472565
0.479553 0.483398 0.479492
0.488617 0.491486 0.487396
0.499542 0.500305 0.496704
0.512390 0.510590 0.508057
0.524567 0.521301 0.519928
0.566040 0.498352 0.387268
0.618408 0.490295 0.248352
0.662842 0.495514 0.102020
0.707733 0.502411 0.030426
0.751160 0.507904 0.020538
0.792786 0.512146 0.013794
0.830688 0.515076 0.008026
0.865936 0.517334 0.004303
0.899323 0.519470 0.002228
0.931061 0.521179 0.004303
0.965118 0.522552 0.014435
0.992523 0.524017 0.030670
0.998810 0.526367 0.055969
0.996399 0.528564 0.079468
0.467255 0.470978 0.468353
0.467865 0.471649 0.468933
0.468536 0.472504 0.469635
0.469513 0.473602 0.470642
0.470886 0.475128 0.471924
0.472687 0.477051 0.473663
0.474915 0.479492 0.475861
0.477814 0.482361 0.478516
0.481354 0.485687 0.481628
0.485718 0.489594 0.485474
0.490936 0.493927 0.489838
0.497009 0.498810 0.495026
0.504639 0.504883 0.501556
0.512939 0.511505 0.508972
0.521362 0.518829 0.517120
0.529358 0.526611 0.525635
0.536560 0.534760 0.534210
0.543243 0.543427 0.542725
0.550659 0.553253 0.551819
0.559326 0.563385 0.560852
0.597137 0.542633 0.459625
0.654938 0.533325 0.311127
0.702911 0.535065 0.173737
0.743469 0.539368 0.048218
0.782501 0.544708 0.034546
0.821991 0.547607 0.025330
0.860535 0.549255 0.019135
0.897003 0.551270 0.015320
0.931610 0.552948 0.016754
0.967529 0.553864 0.027649
0.995483 0.554321 0.044556
1.000000 0.554657 0.068359
0.996185 0.554749 0.089294
0.510223 0.510040 0.507324
0.511078 0.510681 0.508057
0.511993 0.511414 0.508881
0.513306 0.512543 0.510071
0.515045 0.514038 0.511749
0.517273 0.515900 0.513824
0.519836 0.518127 0.516327
0.522888 0.520874 0.519348
0.526245 0.524109 0.522919
0.529785 0.527740 0.526794
0.533539 0.531860 0.531158
0.537354 0.536377 0.535828
0.541351 0.541473 0.540833
0.545868 0.547516 0.546509
0.550781 0.554016 0.552460
0.556610 0.560944 0.558685
0.563843 0.568420 0.565399
0.572632 0.576324 0.572784
0.583405 0.584869 0.581299
0.596100 0.594574 0.591705
0.607971 0.604279 0.602631
0.628876 0.589661 0.536346
0.687561 0.575562 0.377197
0.740845 0.576294 0.240417
0.777069 0.574799 0.065704
0.815643 0.578278 0.059448
0.853638 0.580841 0.056396
0.891052 0.583405 0.053955
0.927032 0.585449 0.055023
0.963776 0.586670 0.063293
0.992279 0.587189 0.075592
0.998260 0.586243 0.090942
0.995575 0.585114 0.103851
0.546295 0.549072 0.548004
0.546722 0.549652 0.548553
0.547272 0.550293 0.549164
0.548004 0.551208 0.549988
0.549011 0.552551 0.551147
0.550262 0.554199 0.552673
0.551880 0.556183 0.554443
0.553894 0.558563 0.556610
0.556396 0.561432 0.559113
0.559387 0.564667 0.562012
0.563049 0.568329 0.565369
0.567535 0.572540 0.569214
0.572815 0.577087 0.573517
0.579590 0.582520 0.578888
0.587585 0.588654 0.585236
0.596130 0.595184 0.592285
0.604553 0.601990 0.599945
0.612366 0.609039 0.607910
0.619080 0.616302 0.615692
0.624847 0.623840 0.623077
0.630859 0.632355 0.630615
0.637756 0.641144 0.638000
0.652374 0.635620 0.611694
0.716339 0.620178 0.451019
0.767273 0.612152 0.308960
0.811188 0.613556 0.171417
0.846985 0.612396 0.097900
0.884186 0.615601 0.097168
0.920380 0.618164 0.098145
0.957123 0.619568 0.103455
0.986084 0.619781 0.110229
0.994812 0.618622 0.118042
0.994812 0.617157 0.124542
0.583710 0.586609 0.583038
0.584503 0.587128 0.583588
0.585297 0.587830 0.584259
0.586487 0.588684 0.585175
0.588074 0.589905 0.586487
0.590118 0.591431 0.588135
0.592621 0.593323 0.590149
0.595551 0.595520 0.592621
0.598877 0.598114 0.595490
0.602570 0.601074 0.598816
0.606476 0.604401 0.602600
0.610535 0.608032 0.606720
0.614563 0.612061 0.611176
0.618530 0.616394 0.615784
0.622498 0.621460 0.620789
0.626495 0.626923 0.625916
0.630615 0.632721 0.630951
0.635345 0.638947 0.636169
0.641174 0.645477 0.641815
0.648529 0.652283 0.648132
0.657349 0.659393 0.655365
0.668121 0.667480 0.664215
0.678650 0.675720 0.673492
0.687408 0.683838 0.682190
0.739197 0.658447 0.516785
0.795624 0.654053 0.379974
0.843872 0.649109 0.246429
0.878571 0.647186 0.128387
0.913422 0.649261 0.130341
0.949493 0.650543 0.134979
0.979095 0.651031 0.141449
0.991180 0.650482 0.149048
0.994629 0.649719 0.155579
0.622070 0.621948 0.621338
0.622406 0.622406 0.621765
0.622772 0.622925 0.622284
0.623322 0.623688 0.623016
0.624115 0.624725 0.623932
0.625000 0.625946 0.625122
0.626160 0.627533 0.626526
0.627441 0.629395 0.628204
0.628998 0.631561 0.630066
0.630859 0.634064 0.632202
0.632996 0.636932 0.634583
0.635590 0.640106 0.637238
0.638702 0.643585 0.640228
0.642487 0.647461 0.643616
0.647095 0.651703 0.647552
0.653137 0.656708 0.652496
0.660095 0.661957 0.658081
0.667633 0.667603 0.664337
0.675354 0.673553 0.671051
0.682556 0.679779 0.677887
0.688873 0.686157 0.684509
0.694153 0.692657 0.690582
0.699310 0.699982 0.696747
0.704712 0.707611 0.702942
0.711395 0.715240 0.709717
0.762665 0.695496 0.591522
0.818054 0.685120 0.449554
0.870056 0.682709 0.320160
0.908447 0.679810 0.184418
0.941772 0.680634 0.165771
0.971558 0.681610 0.172272
0.987091 0.681793 0.181519
0.994293 0.681702 0.189575
0.649170 0.654388 0.650208
0.649628 0.654724 0.650543
0.650116 0.655151 0.650970
0.650879 0.655731 0.651550
0.651947 0.656555 0.652374
0.653381 0.657715 0.653564
0.655212 0.659119 0.655029
0.657471 0.660828 0.656830
0.660156 0.662781 0.658936
0.663208 0.665070 0.661438
0.666718 0.667633 0.664337
0.670532 0.670532 0.667542
0.674652 0.673737 0.671173
0.678864 0.677277 0.675079
0.683075 0.681061 0.679199
0.687317 0.685211 0.683533
0.691376 0.689880 0.688049
0.695160 0.694824 0.692474
0.698792 0.700043 0.696808
0.702576 0.705536 0.701294
0.707092 0.711304 0.706207
0.712830 0.717224 0.711731
0.719940 0.723267 0.718109
0.729187 0.730103 0.725983
0.739136 0.737335 0.734436
0.748505 0.744934 0.742828
0.778778 0.733185 0.654327
0.837555 0.720978 0.518402
0.888672 0.714752 0.390503
0.931427 0.712280 0.268341
0.963226 0.711670 0.203156
0.981812 0.712006 0.213043
0.992615 0.711884 0.221863
0.686462 0.685547 0.683807
0.686798 0.685883 0.684143
0.687134 0.686249 0.684509
0.687622 0.686768 0.685028
0.688263 0.687439 0.685699
0.689087 0.688324 0.686584
0.690063 0.689423 0.687622
0.691162 0.690704 0.688812
0.692474 0.692291 0.690308
0.694000 0.694305 0.692047
0.695618 0.696533 0.694000
0.697388 0.699066 0.696075
0.699310 0.701813 0.698334
0.701447 0.704895 0.700867
0.703949 0.708221 0.703613
0.706879 0.711823 0.706696
0.710693 0.715851 0.710388
0.715485 0.720276 0.714813
0.721344 0.724976 0.719940
0.728088 0.729889 0.725647
0.735504 0.735168 0.731873
0.743011 0.740845 0.738342
0.750122 0.746948 0.744995
0.756378 0.753357 0.751404
0.762024 0.760406 0.757935
0.766998 0.767609 0.764160
0.772217 0.774780 0.770477
0.793030 0.762543 0.714783
0.857513 0.755463 0.588776
0.910034 0.750977 0.467621
0.953857 0.749817 0.351776
0.977356 0.741699 0.245758
0.991455 0.741486 0.255219
0.707672 0.713898 0.708588
0.707947 0.714172 0.708832
0.708282 0.714508 0.709137
0.708710 0.714935 0.709564
0.709320 0.715576 0.710144
0.710144 0.716370 0.710907
0.711151 0.717316 0.711853
0.712402 0.718475 0.712982
0.713989 0.719849 0.714355
0.715851 0.721405 0.716003
0.718048 0.723236 0.717926
0.720947 0.725403 0.720367
0.724304 0.727936 0.723236
0.728180 0.730652 0.726471
0.732513 0.733673 0.730072
0.737152 0.737061 0.733978
0.742065 0.740753 0.738190
0.747314 0.745056 0.742920
0.752380 0.749786 0.747864
0.757050 0.754730 0.752777
0.761230 0.759949 0.757568
0.765015 0.765350 0.762268
0.768829 0.770905 0.767059
0.773132 0.776581 0.772125
0.778564 0.782318 0.777679
0.785828 0.788452 0.784180
0.794495 0.794800 0.791351
0.803650 0.801270 0.798798
0.816742 0.798859 0.774536
0.875488 0.788696 0.655182
0.926941 0.784485 0.539551
0.967896 0.777252 0.428162
0.995819 0.774231 0.319885
0.740570 0.740570 0.737885
0.740906 0.740845 0.738190
0.741364 0.741180 0.738556
0.741943 0.741638 0.739075
0.742737 0.742249 0.739746
0.743713 0.743042 0.740631
0.744934 0.744019 0.741699
0.746368 0.745178 0.742981
0.747955 0.746521 0.744415
0.749725 0.748138 0.746124
0.751648 0.749939 0.747986
0.753723 0.751953 0.750092
0.755859 0.754242 0.752289
0.758179 0.756897 0.754791
0.760529 0.759918 0.757568
0.762909 0.763153 0.760437
0.765259 0.766602 0.763428
0.767792 0.770355 0.766602
0.770782 0.774506 0.770264
0.774414 0.778778 0.774170
0.778870 0.783295 0.778625
0.784302 0.787872 0.783478
0.790710 0.792664 0.788849
0.797791 0.797668 0.794586
0.805084 0.802887 0.800568
0.812134 0.808441 0.806702
0.818787 0.814667 0.813141
0.824493 0.821259 0.819458
0.829651 0.828217 0.825684
0.834900 0.835266 0.831848
0.889740 0.818359 0.710724
0.939728 0.816772 0.610107
0.981628 0.811615 0.505646
0.765198 0.767975 0.764648
0.765411 0.768219 0.764862
0.765594 0.768524 0.765076
0.765869 0.768890 0.765442
0.766266 0.769501 0.765930
0.766754 0.770203 0.766541
0.767365 0.771057 0.767303
0.768127 0.772095 0.768188
0.768982 0.773346 0.769257
0.770050 0.774750 0.770508
0.771301 0.776306 0.771912
0.772827 0.778046 0.773499
0.774628 0.780029 0.775360
0.776764 0.782166 0.777435
0.779297 0.784515 0.779816
0.782379 0.787140 0.782562
0.786163 0.790070 0.785797
0.790497 0.793243 0.789398
0.795471 0.796722 0.793396
0.800964 0.800568 0.797821
0.806641 0.804688 0.802490
0.812164 0.809113 0.807343
0.817322 0.813843 0.812286
0.821960 0.818878 0.817230
0.826202 0.824219 0.822174
0.830353 0.829895 0.827209
0.834778 0.835785 0.832397
0.840271 0.842010 0.838104
0.846893 0.848206 0.844208
0.854370 0.854156 0.850555
0.861969 0.859833 0.857025
0.904816 0.845856 0.766785
0.955597 0.845703 0.668762
0.787781 0.792358 0.788208
0.788086 0.792572 0.788452
0.788452 0.792847 0.788757
0.788971 0.793182 0.789154
0.789642 0.793671 0.789703
0.790527 0.794281 0.790405
0.791626 0.795044 0.791290
0.792938 0.795929 0.792328
0.794525 0.797028 0.793579
0.796326 0.798248 0.795013
0.798401 0.799683 0.796631
0.800720 0.801270 0.798492
0.803284 0.803070 0.800568
0.806030 0.805054 0.802826
0.808960 0.807312 0.805298
0.811981 0.809753 0.807983
0.815033 0.812439 0.810822
0.818176 0.815491 0.813904
0.821320 0.818909 0.817230
0.824463 0.822754 0.820862
0.827606 0.826935 0.824646
0.830872 0.831421 0.828583
0.834473 0.836090 0.832703
