nova/tdt-studio/app/Lut_mau/.cube LUT/Adoras - Standard.cube
# Copyright: (C) Copyright 2010-2018 by IWLTBAP SAS
# Cannot be resold, shared or otherwise redistributed
# Website: https://luts.iwltbap.com
TITLE "IWLTBAP Adoras (Rec.709, sRGB, DCI-P3)"
LUT_3D_SIZE 9
0.000000 0.000000 0.000000
0.034851 0.003876 0.000000
0.139832 0.015747 0.004059
0.269989 0.043518 0.000610
0.413666 0.082520 0.000702
0.565216 0.125854 0.000702
0.723572 0.174164 0.000763
0.875519 0.231537 0.004303
0.981964 0.287720 0.047241
0.045410 0.047821 0.047638
0.064545 0.064117 0.063812
0.164551 0.079041 0.000793
0.285675 0.102661 0.000641
0.425720 0.137634 0.000702
0.570190 0.169373 0.000793
0.735657 0.218018 0.000732
0.883728 0.259796 0.003113
0.986816 0.312286 0.049438
0.174377 0.177460 0.174957
0.185120 0.186768 0.184662
0.209442 0.207672 0.207550
0.296906 0.207489 0.013123
0.452972 0.235016 0.000610
0.602997 0.263794 0.000916
0.755615 0.299316 0.000854
0.899963 0.330719 0.001434
0.990265 0.367645 0.053711
0.311340 0.317017 0.312897
0.318237 0.322601 0.318573
0.336945 0.336945 0.334534
0.365051 0.364502 0.364441
0.454071 0.362305 0.195770
0.629791 0.388977 0.003021
0.790344 0.412384 0.000183
0.919250 0.431610 0.001862
0.991791 0.449982 0.051880
0.467255 0.470978 0.468353
0.470886 0.475128 0.471924
0.481354 0.485687 0.481628
0.504639 0.504883 0.501556
0.536560 0.534760 0.534210
0.597137 0.542633 0.459625
0.782501 0.544708 0.034546
0.931610 0.552948 0.016754
0.996185 0.554749 0.089294
0.622070 0.621948 0.621338
0.624115 0.624725 0.623932
0.628998 0.631561 0.630066
0.638702 0.643585 0.640228
0.660095 0.661957 0.658081
0.688873 0.686157 0.684509
0.711395 0.715240 0.709717
0.908447 0.679810 0.184418
0.994293 0.681702 0.189575
0.740570 0.740570 0.737885
0.742737 0.742249 0.739746
0.747955 0.746521 0.744415
0.755859 0.754242 0.752289
0.765259 0.766602 0.763428
0.778870 0.783295 0.778625
0.805084 0.802887 0.800568
0.829651 0.828217 0.825684
0.981628 0.811615 0.505646
0.835327 0.839203 0.835571
0.836548 0.840607 0.836884
0.839905 0.844086 0.840149
0.846222 0.849915 0.845856
0.856384 0.857758 0.854370
0.869354 0.867950 0.865814
0.880951 0.881958 0.879700
0.896088 0.898041 0.894714
0.922089 0.917725 0.917328
0.915436 0.914246 0.913239
0.916718 0.915314 0.914520
0.919861 0.918091 0.917786
0.924896 0.923248 0.923553
0.931305 0.931335 0.931885
0.939270 0.941803 0.941376
0.951111 0.953003 0.951141
0.966858 0.964233 0.962677
0.979065 0.977600 0.975739
0.000610 0.001007 0.000824
0.037903 0.003021 0.012848
0.146973 0.006927 0.052490
0.262482 0.039459 0.075287
0.402100 0.074951 0.086670
0.549866 0.117676 0.090607
0.712433 0.162384 0.091309
0.876160 0.210632 0.092072
0.987732 0.270233 0.116333
0.049866 0.051971 0.051880
0.062714 0.062714 0.062714
0.160919 0.079102 0.075134
0.277557 0.098816 0.083282
0.413910 0.129913 0.087006
0.562195 0.161469 0.087372
0.723999 0.202148 0.088470
0.879761 0.245636 0.096344
0.990417 0.295563 0.120331
0.172546 0.175995 0.173981
0.182526 0.184692 0.182983
0.205994 0.204468 0.204742
0.304596 0.207489 0.091309
0.445129 0.227264 0.091217
0.595184 0.255920 0.088379
0.747589 0.291229 0.085114
0.891663 0.323029 0.092590
0.990753 0.353729 0.116516
0.308380 0.314667 0.311066
0.314941 0.320251 0.316589
0.333405 0.334442 0.332214
0.362213 0.361267 0.361755
0.458221 0.356903 0.163666
0.626373 0.384674 0.093567
0.782715 0.408234 0.081787
0.918823 0.427795 0.101227
0.995880 0.444427 0.133209
0.465454 0.469025 0.467010
0.468994 0.473206 0.470642
0.479156 0.483795 0.480164
0.501404 0.502472 0.499390
0.534454 0.532471 0.532318
0.608307 0.537048 0.424805
0.786011 0.540497 0.129425
0.931702 0.549622 0.119476
0.992249 0.554504 0.158691
0.621063 0.620880 0.620575
0.623169 0.623596 0.623199
0.628143 0.630524 0.629456
0.637695 0.642639 0.639709
0.658356 0.660828 0.657104
0.687866 0.685150 0.683777
0.710297 0.714233 0.709076
0.908844 0.679169 0.214081
0.992401 0.679291 0.233185
0.739014 0.739441 0.736816
0.741272 0.741089 0.738708
0.746643 0.745453 0.743500
0.755371 0.753784 0.752014
0.764984 0.766296 0.763336
0.778351 0.782867 0.778351
0.804596 0.802582 0.800385
0.829346 0.827942 0.825623
0.984344 0.809296 0.493591
0.835144 0.839111 0.835693
0.836395 0.840515 0.836945
0.839661 0.843872 0.840118
0.845795 0.849548 0.845642
0.855988 0.857452 0.854218
0.869232 0.867889 0.865875
0.880890 0.881989 0.879852
0.896118 0.898132 0.894897
0.922150 0.917877 0.917603
0.915558 0.914398 0.913544
0.916840 0.915466 0.914795
0.920013 0.918274 0.918060
0.925018 0.923462 0.923889
0.931427 0.931549 0.932159
0.939331 0.941925 0.941559
0.951202 0.953094 0.951294
0.967010 0.964386 0.962860
0.979156 0.977814 0.975952
0.001587 0.008179 0.062592
0.033966 0.021515 0.071411
0.154999 0.021332 0.104065
0.273102 0.041138 0.134705
0.433197 0.006042 0.180420
0.538177 0.078613 0.181152
0.699860 0.134033 0.200134
0.864349 0.181152 0.200897
0.992035 0.237823 0.216492
0.041779 0.057373 0.073242
0.064880 0.070953 0.091003
0.171173 0.086609 0.131165
0.286072 0.102814 0.168762
0.421814 0.106781 0.180420
0.547028 0.150177 0.192535
0.708282 0.183075 0.197723
0.867432 0.226349 0.208588
0.993866 0.273682 0.220795
0.178467 0.181580 0.180145
0.183350 0.185760 0.184723
0.195770 0.195801 0.195770
0.312592 0.203705 0.191864
0.433502 0.219757 0.200287
0.579437 0.240387 0.201508
0.735657 0.267975 0.201477
0.883911 0.303375 0.209534
0.994781 0.339447 0.224731
0.306244 0.313141 0.310242
0.311890 0.318054 0.315094
0.328583 0.331085 0.328979
0.356720 0.355438 0.356384
0.466766 0.349579 0.217651
0.626068 0.373230 0.210114
0.774567 0.392517 0.209320
0.907227 0.416046 0.217163
0.995483 0.436798 0.233612
0.463104 0.466461 0.465546
0.466217 0.470276 0.468811
0.475677 0.480835 0.478119
0.497345 0.499573 0.496918
0.530670 0.528625 0.528992
0.624634 0.521393 0.346405
0.793701 0.536926 0.233459
0.931854 0.541748 0.237976
0.995850 0.550903 0.266388
0.619263 0.618958 0.619232
0.621490 0.621796 0.622040
0.626648 0.628845 0.628510
0.635986 0.641052 0.638855
0.655426 0.658783 0.655487
0.686035 0.683411 0.682587
0.722046 0.692017 0.651337
0.912598 0.678925 0.298309
0.995636 0.679169 0.321442
0.736542 0.737671 0.735229
0.739105 0.739563 0.737396
0.745270 0.744446 0.742828
0.754608 0.753143 0.751862
0.764496 0.765808 0.763336
0.777466 0.782166 0.778015
0.803711 0.802094 0.800171
0.828888 0.827545 0.825653
0.992584 0.801910 0.464203
0.834503 0.838440 0.835419
0.835663 0.839783 0.836609
0.838806 0.843109 0.839722
0.844971 0.848877 0.845337
0.855438 0.857147 0.854156
0.869324 0.868073 0.866394
0.880890 0.882141 0.880280
0.896271 0.898346 0.895386
0.922455 0.918304 0.918335
0.915985 0.914825 0.914246
0.917267 0.915924 0.915558
0.920380 0.918762 0.918823
0.925385 0.923981 0.924683
0.931641 0.931976 0.932800
0.939514 0.942261 0.942078
0.951508 0.953400 0.951721
0.967529 0.964844 0.963501
0.979401 0.978302 0.976562
0.000000 0.033936 0.134888
0.000000 0.054749 0.185944
0.151154 0.085388 0.195099
0.274963 0.077789 0.233276
0.441956 0.014465 0.290283
0.596558 0.004944 0.316467
0.731934 0.000000 0.310974
0.858154 0.038361 0.293945
0.979797 0.195312 0.319366
0.001190 0.085785 0.188873
0.005341 0.098938 0.207397
0.129364 0.126740 0.234192
0.284363 0.130737 0.251862
0.450897 0.100677 0.302124
0.595459 0.082153 0.314331
0.727875 0.089020 0.302948
0.848297 0.165070 0.310547
0.986908 0.238617 0.325592
0.045380 0.168488 0.227814
0.116608 0.175537 0.226013
0.168213 0.193939 0.254059
0.299347 0.223907 0.288513
0.470520 0.204407 0.325836
0.590912 0.206238 0.314667
0.704559 0.241302 0.314819
0.863983 0.272064 0.318573
0.990601 0.316040 0.330048
0.314636 0.320618 0.318390
0.319458 0.324463 0.322449
0.326935 0.330322 0.329254
0.341766 0.341675 0.341736
0.462769 0.342102 0.334320
0.602936 0.357666 0.330261
0.750793 0.369232 0.326477
0.891327 0.396484 0.338104
0.991364 0.421387 0.350647
0.461884 0.465271 0.465332
0.464905 0.469147 0.468689
0.473572 0.479034 0.477295
0.492981 0.496338 0.494232
0.524750 0.522736 0.523529
0.645660 0.513184 0.365875
0.797638 0.521515 0.358398
0.916168 0.534180 0.358643
0.995911 0.546722 0.375305
0.618439 0.618439 0.619476
0.620544 0.621002 0.622040
0.625397 0.627563 0.628113
0.634247 0.639496 0.638245
0.653259 0.657410 0.654755
0.683899 0.681488 0.681274
0.757568 0.677765 0.542969
0.916443 0.671448 0.403137
0.995850 0.671326 0.414673
0.735931 0.737335 0.735474
0.738342 0.739136 0.737518
0.744385 0.743835 0.742767
0.754028 0.752716 0.752045
0.764130 0.765503 0.763641
0.776733 0.781708 0.778107
0.803040 0.801788 0.800354
0.828613 0.826721 0.824677
0.991486 0.803741 0.504272
0.833649 0.837494 0.835083
0.834869 0.838959 0.836395
0.838226 0.842621 0.839752
0.844818 0.848877 0.845825
0.855865 0.857544 0.855103
0.869720 0.868622 0.867432
0.881104 0.882660 0.881134
0.896820 0.898956 0.896362
0.923218 0.919250 0.919769
0.916748 0.915619 0.915527
0.917999 0.916687 0.916779
0.920990 0.919464 0.920013
0.925812 0.924652 0.925690
0.932007 0.932678 0.933807
0.940094 0.943115 0.943054
0.952637 0.954315 0.952820
0.968567 0.965790 0.964722
0.979858 0.979218 0.977600
0.000000 0.070648 0.207703
0.000000 0.089294 0.247742
0.000000 0.126953 0.394989
0.300964 0.161774 0.358948
0.403229 0.163879 0.384125
0.594116 0.080292 0.464294
0.819092 0.000000 0.531036
0.946167 0.000031 0.517334
0.991730 0.088501 0.446991
0.000000 0.114258 0.253906
0.000000 0.126984 0.284698
0.000000 0.169128 0.405823
0.295563 0.192413 0.390656
0.409424 0.203857 0.399506
0.600281 0.148956 0.474274
0.821869 0.013397 0.541779
0.944458 0.008392 0.503937
0.991364 0.167450 0.443237
0.000854 0.200500 0.348602
0.000000 0.206879 0.359497
0.016418 0.225342 0.400635
0.230011 0.262360 0.448212
0.430298 0.289032 0.434662
0.614868 0.246979 0.499908
0.825714 0.184387 0.549866
0.906647 0.226685 0.455109
0.994293 0.270447 0.442749
0.000000 0.315002 0.442291
0.006134 0.317169 0.443268
0.179718 0.322906 0.440399
0.272247 0.353607 0.482483
0.469330 0.396820 0.503998
0.652802 0.364960 0.541260
0.773926 0.350494 0.470551
0.875824 0.361206 0.450928
0.990967 0.402283 0.460144
0.470642 0.476562 0.476532
0.473602 0.479706 0.479248
0.479950 0.486267 0.486023
0.490601 0.495697 0.496094
0.509155 0.509338 0.509277
0.641846 0.505524 0.497681
0.770599 0.509979 0.486542
0.892426 0.514954 0.480133
0.995575 0.535126 0.488342
0.618530 0.618866 0.620667
0.620483 0.621338 0.623077
0.625183 0.627838 0.629120
0.633789 0.639374 0.638855
0.651489 0.656281 0.654205
0.680634 0.678589 0.678864
0.784302 0.667419 0.528015
0.916077 0.667725 0.528198
0.991913 0.675323 0.531158
0.736938 0.738281 0.737244
0.739441 0.740173 0.739380
0.745392 0.744873 0.744598
0.754364 0.753296 0.753296
0.764099 0.765839 0.764587
0.776886 0.782135 0.779144
0.803040 0.802002 0.801147
0.866577 0.804993 0.719574
0.995178 0.803802 0.601379
0.834656 0.838959 0.837006
0.835876 0.840363 0.838257
0.839203 0.843842 0.841522
0.845795 0.849854 0.847412
0.856995 0.858551 0.856781
0.870697 0.869751 0.869171
0.881683 0.883789 0.882690
0.898132 0.900085 0.898010
0.924591 0.920990 0.922150
0.917877 0.916718 0.917206
0.919067 0.917786 0.918427
0.921997 0.920593 0.921631
0.926849 0.926056 0.927582
0.933075 0.934387 0.935791
0.941498 0.944885 0.944916
0.954498 0.955750 0.954468
0.970123 0.967316 0.966522
0.980499 0.980591 0.979095
0.000000 0.111542 0.286591
0.000000 0.128204 0.325775
0.000000 0.167023 0.436646
0.216675 0.202362 0.609619
0.465912 0.240509 0.553436
0.561676 0.254028 0.570007
0.740509 0.198578 0.642578
0.934143 0.119202 0.708160
0.997162 0.057465 0.725769
0.000000 0.144135 0.307129
0.000000 0.155884 0.338348
0.000000 0.194214 0.464874
0.082275 0.236633 0.625214
0.479065 0.270935 0.579742
0.572723 0.293884 0.583679
0.744232 0.243408 0.655182
0.937073 0.180878 0.713776
0.996277 0.088745 0.736755
0.000000 0.231476 0.447144
0.000000 0.239777 0.467834
0.000000 0.263702 0.529724
0.000000 0.306824 0.643188
0.461792 0.339569 0.644501
0.590912 0.373566 0.618256
0.745941 0.332703 0.672821
0.935608 0.293091 0.730713
0.996277 0.268616 0.748535
0.000000 0.343414 0.571228
0.000000 0.347229 0.575195
0.000000 0.363983 0.599976
0.082703 0.392212 0.650665
0.365723 0.439697 0.702850
0.623566 0.484192 0.671906
0.753418 0.458130 0.712311
0.934631 0.422424 0.754120
0.993408 0.405823 0.646362
0.000000 0.489532 0.693176
0.000000 0.492096 0.698151
0.001831 0.496399 0.699341
0.292450 0.510742 0.702393
0.431061 0.549927 0.737000
0.665497 0.603058 0.751984
0.768127 0.572662 0.732666
0.918610 0.517853 0.634430
0.991364 0.527588 0.609009
0.626343 0.630768 0.633575
0.627899 0.632874 0.635284
0.631500 0.637939 0.639709
0.638123 0.646362 0.648041
0.650513 0.657227 0.658508
0.671204 0.671082 0.671173
0.776428 0.655884 0.648102
0.885315 0.655945 0.640289
0.991302 0.659790 0.636414
0.739777 0.740570 0.740509
0.742096 0.742340 0.742493
0.747650 0.746948 0.747528
0.755890 0.755127 0.755768
0.765015 0.767487 0.766693
0.777618 0.783051 0.780640
0.802765 0.801910 0.801605
0.897125 0.795715 0.691071
0.995239 0.803925 0.695038
0.836517 0.841278 0.839783
0.837830 0.842651 0.841064
0.841431 0.846161 0.844421
0.848389 0.852142 0.850433
0.859436 0.860535 0.859558
0.872253 0.871613 0.871704
0.882935 0.885834 0.884979
0.900421 0.901886 0.900421
0.955139 0.914642 0.860657
0.920563 0.919403 0.920746
0.921753 0.920563 0.922058
0.924530 0.923553 0.925385
0.928955 0.929077 0.931122
0.934906 0.937195 0.938751
0.943756 0.947357 0.947388
0.957245 0.957764 0.956787
0.972290 0.969482 0.969055
0.981293 0.982330 0.981018
0.000000 0.154694 0.376129
0.000000 0.167145 0.402008
0.000000 0.198212 0.484161
0.001129 0.268066 0.757141
0.419281 0.301697 0.787384
0.633209 0.365845 0.759308
0.728149 0.410309 0.757812
0.865784 0.382416 0.804749
0.986084 0.375366 0.847839
0.000000 0.178223 0.372040
0.000000 0.191895 0.415680
0.000000 0.223083 0.526062
0.003448 0.286163 0.707581
0.384552 0.334564 0.796661
0.642700 0.398987 0.769531
0.732147 0.444214 0.769897
0.865173 0.419220 0.814117
0.989288 0.401581 0.852814
0.000000 0.255157 0.496857
0.000000 0.264709 0.519196
0.000000 0.285980 0.564636
0.000641 0.337830 0.709656
0.278290 0.397949 0.815125
0.657715 0.467590 0.802307
0.741974 0.515717 0.789337
0.861511 0.500092 0.826904
0.988831 0.477051 0.866516
0.000000 0.379608 0.680939
0.000000 0.388702 0.697662
0.000000 0.408356 0.733185
0.000000 0.434967 0.784271
0.154999 0.479919 0.833923
0.630310 0.555756 0.844055
0.760468 0.605225 0.826477
0.861725 0.600372 0.846954
0.988800 0.570648 0.885620
0.000000 0.503143 0.770325
0.000000 0.513428 0.794922
0.014709 0.521515 0.796143
0.223663 0.548126 0.814728
0.361298 0.583435 0.850006
0.578796 0.651978 0.885376
0.792938 0.690826 0.881897
0.868103 0.707275 0.880798
0.974976 0.679260 0.912964
0.255005 0.650696 0.871674
0.246857 0.652039 0.875031
0.214020 0.654419 0.882782
0.342743 0.668396 0.888000
0.512573 0.698975 0.896698
0.629395 0.736450 0.917511
0.824097 0.784851 0.935730
0.883942 0.779358 0.899597
0.997894 0.687622 0.808350
0.752380 0.752045 0.755157
0.753967 0.753693 0.756744
0.757538 0.757782 0.760498
0.761871 0.764709 0.767822
0.767700 0.774841 0.778076
0.778442 0.786316 0.788544
0.799622 0.799744 0.799774
0.885468 0.784149 0.780304
0.979584 0.787964 0.772339
0.839966 0.844971 0.843903
0.841400 0.846283 0.845184
0.845215 0.849640 0.848511
0.852417 0.855347 0.854492
0.863220 0.863525 0.863525
0.874664 0.874542 0.875244
0.884796 0.888550 0.887848
0.903320 0.904022 0.903259
0.980408 0.910278 0.833008
0.924072 0.923279 0.925568
0.925110 0.924500 0.926849
0.927643 0.927612 0.930115
0.931763 0.933228 0.935577
0.937775 0.941132 0.942596
0.947266 0.950623 0.950500
0.961029 0.960480 0.959930
0.974823 0.972443 0.972198
0.982239 0.984344 0.983307
0.000000 0.196320 0.463104
0.000000 0.207794 0.499146
0.000000 0.235992 0.561615
0.003815 0.292419 0.719299
0.228119 0.391754 0.920776
0.630737 0.473389 0.915558
0.785431 0.568848 0.900818
0.858398 0.629913 0.900116
0.952850 0.627197 0.927185
0.000000 0.217529 0.464966
0.000000 0.228363 0.500732
0.000000 0.258972 0.598114
0.002197 0.313507 0.708679
0.207581 0.423676 0.922363
0.612823 0.498474 0.916199
0.789795 0.589752 0.905090
0.862213 0.645142 0.907043
0.951843 0.650543 0.932526
0.000000 0.285645 0.557617
0.000000 0.293274 0.572327
0.000000 0.311920 0.609650
0.000000 0.363007 0.746277
0.076996 0.453430 0.887604
0.576782 0.548828 0.927277
0.803406 0.636505 0.926239
0.867493 0.689362 0.917358
0.950958 0.701416 0.941071
0.000000 0.400421 0.715149
0.000000 0.408417 0.729980
0.000000 0.423889 0.754822
0.000000 0.450073 0.801300
0.087219 0.510529 0.893005
0.532227 0.613800 0.946991
0.813324 0.693939 0.946320
0.883209 0.745575 0.938843
0.951996 0.755005 0.952972
0.000000 0.532806 0.857910
0.000000 0.539398 0.867401
0.020844 0.554565 0.885132
0.117767 0.578003 0.907837
0.231049 0.606140 0.931946
0.477203 0.662964 0.958771
0.785828 0.754791 0.971924
0.893829 0.798798 0.957916
0.946411 0.796875 0.955566
0.100952 0.646332 0.900299
0.139526 0.651917 0.909515
0.225647 0.666260 0.934357
0.375305 0.687469 0.942413
0.508606 0.718719 0.959320
0.589417 0.750305 0.976837
0.754395 0.807678 0.991913
0.899353 0.840424 0.968567
0.938934 0.855103 0.961212
0.561371 0.787964 0.982941
0.559784 0.788574 0.984283
0.555511 0.789917 0.988586
0.546112 0.791687 0.994812
0.581573 0.800659 0.992889
0.686005 0.828430 0.991486
0.777985 0.853638 0.994751
0.902344 0.887207 0.976471
0.944855 0.896698 0.961639
0.850586 0.854462 0.856262
0.852112 0.855652 0.857452
0.856049 0.858612 0.860870
0.862366 0.863953 0.868073
0.870117 0.871857 0.878387
0.877594 0.882477 0.889221
0.887024 0.894165 0.897675
0.906067 0.906036 0.906128
0.972565 0.898865 0.894958
0.928314 0.928741 0.931702
0.929230 0.929962 0.932953
0.931519 0.933105 0.935944
0.935455 0.938446 0.940704
0.941895 0.945862 0.946930
0.952209 0.954498 0.954254
0.965851 0.964111 0.964081
0.977417 0.976074 0.975830
0.983246 0.986389 0.985840
0.000000 0.242706 0.565857
0.000000 0.252960 0.587067
0.000031 0.280090 0.645935
0.001892 0.329163 0.733978
0.209961 0.439758 0.920990
0.570740 0.580811 0.990051
0.801788 0.665802 0.978271
0.880615 0.714172 0.954956
0.926086 0.736389 0.948792
0.000000 0.260529 0.552795
0.000000 0.271667 0.586487
0.000427 0.298218 0.662170
0.000641 0.348450 0.754395
0.155243 0.446198 0.904327
0.555450 0.593994 0.988281
0.794830 0.675690 0.976379
0.880341 0.724304 0.954041
0.924469 0.747986 0.948639
0.000000 0.315735 0.609955
0.000000 0.321686 0.619629
0.000000 0.338623 0.650360
0.000000 0.387329 0.770477
0.070251 0.470245 0.885376
0.523041 0.622742 0.991516
0.770966 0.696777 0.981232
0.881256 0.744110 0.957092
0.920319 0.763153 0.949158
0.000000 0.423157 0.749847
0.000000 0.429443 0.761505
0.000000 0.443146 0.783112
0.000000 0.468567 0.818085
0.076355 0.522461 0.893280
0.492950 0.655426 0.994415
0.742188 0.727051 0.989777
0.880432 0.770508 0.965149
0.919922 0.792755 0.950562
0.014557 0.552032 0.882843
0.028900 0.557098 0.887726
0.074280 0.569122 0.899231
0.183411 0.591797 0.920685
0.288605 0.621582 0.946594
0.448517 0.678711 0.992462
0.708710 0.764740 0.996155
0.879608 0.803925 0.968781
0.921265 0.829865 0.955475
0.294373 0.670929 0.957397
0.339478 0.680176 0.970947
0.397949 0.697205 0.986359
0.429871 0.710083 0.993286
0.464264 0.726807 0.997528
0.518372 0.745697 0.996216
0.668060 0.786163 0.994843
0.863770 0.843323 0.980530
0.921417 0.864838 0.964447
0.440002 0.769257 0.992096
0.449646 0.771881 0.993164
0.468811 0.777527 0.992584
0.492523 0.784637 0.992126
0.611847 0.807617 0.996490
0.704376 0.834442 0.991791
0.767853 0.853119 0.995697
0.863464 0.889038 0.986053
0.930725 0.906525 0.970612
0.775482 0.879211 0.995300
0.776031 0.880035 0.995209
0.779053 0.881989 0.994781
0.785980 0.885376 0.993744
0.794678 0.890289 0.992584
0.818420 0.900482 0.992310
0.867218 0.918945 0.991699
0.907257 0.936218 0.987854
0.958191 0.953674 0.984467
0.934448 0.938629 0.943634
0.935303 0.939667 0.944489
0.937531 0.942291 0.946564
0.941772 0.946838 0.950348
0.948639 0.953339 0.956940
0.959381 0.961121 0.965515
0.970703 0.970551 0.975372
0.978851 0.980682 0.983002
0.984283 0.988220 0.988220
