nova/tdt-studio/app/Lut_mau/.cube LUT/C-9730-STD.cube
# Copyright: (C) Copyright 2010-2019 by IWLTBAP SAS
# Cannot be resold, shared or otherwise redistributed
# Website: https://luts.iwltbap.com
TITLE "IWLTBAP 9730 (Rec.709, sRGB, DCI-P3)"
LUT_3D_SIZE 33
0.002808 0.004242 0.000000
0.011905 0.009313 0.000000
0.024285 0.010384 0.000000
0.038944 0.011740 0.000000
0.054904 0.015564 0.000000
0.070849 0.017830 0.000000
0.087570 0.020035 0.000000
0.106752 0.021992 0.000000
0.128192 0.022228 0.000000
0.150754 0.018543 0.000000
0.171785 0.017508 0.000000
0.192773 0.019120 0.000000
0.216298 0.021225 0.000000
0.244568 0.022968 0.000000
0.278481 0.024536 0.000000
0.315440 0.028556 0.000000
0.352137 0.036705 0.000000
0.386829 0.047984 0.000000
0.418526 0.059879 0.000000
0.448073 0.070907 0.000000
0.478364 0.080762 0.000000
0.509834 0.088927 0.000000
0.537931 0.097296 0.000000
0.557563 0.105768 0.000000
0.569299 0.112522 0.000000
0.580875 0.121281 0.000000
0.593127 0.130757 0.000000
0.605793 0.141414 0.000000
0.619163 0.155631 0.000000
0.637863 0.173229 0.000000
0.657093 0.190460 0.000000
0.676510 0.207435 0.000000
0.696899 0.224945 0.000000
0.003194 0.014134 0.000000
0.004500 0.016470 0.000000
0.020480 0.018842 0.000000
0.036404 0.019674 0.000000
0.052427 0.022046 0.000000
0.068608 0.025348 0.000000
0.085416 0.027934 0.000000
0.104243 0.030593 0.000000
0.125117 0.032914 0.000000
0.146968 0.033552 0.000000
0.167289 0.032159 0.000000
0.186880 0.030513 0.000000
0.210343 0.028279 0.000000
0.240463 0.025407 0.000000
0.274263 0.027338 0.000000
0.310102 0.034447 0.000000
0.346535 0.043911 0.000000
0.381522 0.055248 0.000000
0.414767 0.067227 0.000000
0.445730 0.078498 0.000000
0.475723 0.088959 0.000005
0.507049 0.098311 0.000008
0.536498 0.107102 0.000000
0.559675 0.117038 0.000000
0.575685 0.127377 0.000000
0.588150 0.136732 0.000000
0.600733 0.148256 0.000000
0.613223 0.160213 0.000000
0.624605 0.171724 0.000000
0.636480 0.183608 0.000000
0.655674 0.198605 0.000000
0.675772 0.214664 0.000000
0.696161 0.232410 0.000000
0.002898 0.025056 0.000000
0.003158 0.027364 0.000000
0.019026 0.029391 0.000000
0.036919 0.030150 0.000000
0.052927 0.031058 0.000000
0.068894 0.033322 0.000000
0.084913 0.036352 0.000000
0.103175 0.039341 0.000000
0.123421 0.042274 0.000000
0.144419 0.044709 0.000000
0.162569 0.046853 0.000000
0.181025 0.046326 0.000000
0.201237 0.044701 0.000000
0.228391 0.041874 0.000000
0.263272 0.041788 0.000000
0.300870 0.046097 0.000000
0.337983 0.053555 0.000000
0.373540 0.063659 0.000000
0.407593 0.075222 0.000000
0.441521 0.087214 0.000118
0.475065 0.098661 0.000698
0.506819 0.108651 0.001027
0.536117 0.118066 0.000249
0.560082 0.128967 0.000000
0.578277 0.142737 0.000000
0.593410 0.155798 0.000000
0.606087 0.166712 0.000002
0.618589 0.178894 0.000000
0.629906 0.189718 0.000000
0.640970 0.200688 0.000000
0.653221 0.210743 0.000000
0.672953 0.224638 0.000000
0.693542 0.241434 0.000000
0.002118 0.036667 0.000000
0.001889 0.038075 0.000000
0.013717 0.040894 0.000000
0.036997 0.041577 0.000000
0.054464 0.041701 0.000000
0.070312 0.043422 0.000000
0.086653 0.045245 0.000000
0.104416 0.048154 0.000000
0.123532 0.051429 0.000000
0.143236 0.054477 0.000000
0.159852 0.058286 0.000000
0.175432 0.061688 0.000000
0.193252 0.062730 0.000000
0.214484 0.063090 0.000000
0.244642 0.064158 0.000000
0.283126 0.066057 0.000000
0.322775 0.070346 0.000000
0.360016 0.077746 0.000000
0.395389 0.087661 0.000000
0.431775 0.099451 0.000378
0.469551 0.111224 0.001984
0.504265 0.121928 0.003379
0.534209 0.132462 0.001896
0.558674 0.144174 0.000138
0.578153 0.159292 0.000380
0.594896 0.174232 0.001219
0.609786 0.187591 0.001144
0.622348 0.198284 0.000112
0.634046 0.208385 0.000000
0.645525 0.218752 0.000000
0.657062 0.227753 0.000000
0.670656 0.237768 0.000000
0.690918 0.252716 0.000000
0.001594 0.049120 0.000000
0.001419 0.049228 0.000000
0.008366 0.051885 0.000000
0.027848 0.053276 0.000000
0.054056 0.052531 0.000000
0.071316 0.054969 0.000000
0.088169 0.056705 0.000000
0.106704 0.058416 0.000000
0.125749 0.061004 0.000000
0.143538 0.064270 0.000000
0.158727 0.068544 0.000000
0.172547 0.074018 0.000000
0.186925 0.079452 0.000000
0.203861 0.083650 0.000000
0.226440 0.087217 0.000000
0.259036 0.089952 0.000000
0.298884 0.093071 0.000000
0.338757 0.098960 0.000000
0.376234 0.107399 0.000000
0.415152 0.117435 0.000680
0.456583 0.128181 0.003159
0.494619 0.138418 0.006026
0.526790 0.149662 0.005777
0.552756 0.163272 0.003441
0.574669 0.178548 0.003371
0.592982 0.193326 0.004338
0.609395 0.207077 0.004595
0.624286 0.218847 0.003082
0.636891 0.228109 0.001043
0.649070 0.237319 0.000063
0.662245 0.245270 0.000000
0.675725 0.254523 0.000000
0.691774 0.267336 0.000000
0.001558 0.064824 0.000000
0.001432 0.065163 0.000000
0.001975 0.066923 0.000000
0.017081 0.067121 0.000000
0.047152 0.063977 0.000000
0.069433 0.066764 0.000000
0.085850 0.072324 0.000000
0.103968 0.076231 0.000000
0.123813 0.078224 0.000000
0.143062 0.078047 0.000000
0.159059 0.080148 0.000000
0.172819 0.085826 0.000000
0.186169 0.093443 0.000000
0.200729 0.101088 0.000000
0.218882 0.107375 0.000000
0.242844 0.113276 0.000000
0.274938 0.118900 0.000000
0.312871 0.124674 0.000000
0.351562 0.131765 0.000000
0.391634 0.139141 0.000859
0.433910 0.146583 0.003883
0.474160 0.155512 0.007898
0.510182 0.166509 0.009592
0.540712 0.179862 0.008131
0.565544 0.193986 0.006499
0.586174 0.209135 0.007279
0.603992 0.223977 0.008469
0.620526 0.237733 0.007972
0.636112 0.248897 0.004867
0.649861 0.256307 0.002153
0.668750 0.262938 0.000040
0.689064 0.272614 0.000006
0.709441 0.289708 0.000183
0.000553 0.082162 0.000000
0.000279 0.082834 0.000000
0.000172 0.085396 0.000000
0.003226 0.088761 0.000000
0.027230 0.087245 0.000000
0.064776 0.081277 0.000000
0.083811 0.084852 0.000000
0.100488 0.092605 0.000000
0.120328 0.098501 0.000000
0.141829 0.100923 0.000000
0.161228 0.100527 0.000000
0.175641 0.102166 0.000000
0.188111 0.107688 0.000000
0.201339 0.115572 0.000000
0.217107 0.123854 0.000000
0.237388 0.131682 0.000000
0.262411 0.139399 0.000000
0.293344 0.146851 0.000000
0.329595 0.154070 0.000108
0.368786 0.160916 0.001609
0.410326 0.167151 0.005100
0.451473 0.174439 0.009094
0.489494 0.184047 0.012427
0.523390 0.196040 0.012914
0.552055 0.209024 0.011117
0.574840 0.223650 0.010403
0.594208 0.238489 0.011449
0.611551 0.252533 0.012161
0.629399 0.264408 0.010062
0.653555 0.273671 0.003897
0.679582 0.282653 0.000116
0.705885 0.293785 0.000150
0.729619 0.313806 0.004797
0.000070 0.101265 0.000000
0.000002 0.102163 0.000000
0.000000 0.105024 0.000000
0.000095 0.109729 0.000000
0.006813 0.113769 0.000000
0.049145 0.106177 0.000000
0.082363 0.101230 0.000000
0.102350 0.106465 0.000000
0.120782 0.115455 0.000000
0.141748 0.122378 0.000000
0.162782 0.125082 0.000000
0.180960 0.124875 0.000000
0.194679 0.126264 0.000000
0.207466 0.131439 0.000000
0.222706 0.139518 0.000000
0.242026 0.148574 0.000000
0.264340 0.157171 0.000000
0.289065 0.165221 0.000043
0.318669 0.172846 0.000710
0.352915 0.179579 0.002794
0.389797 0.185600 0.006179
0.428942 0.192272 0.010095
0.467152 0.201037 0.014004
0.502350 0.211943 0.016743
0.534512 0.224011 0.016321
0.562641 0.237312 0.014305
0.585313 0.251331 0.013943
0.605065 0.264990 0.014659
0.624958 0.277164 0.013569
0.653681 0.289100 0.006777
0.685099 0.300839 0.001579
0.715977 0.314387 0.001677
0.741125 0.335265 0.010896
0.000000 0.121542 0.002766
0.000000 0.122611 0.000408
0.000000 0.125724 0.000021
0.000000 0.130762 0.000000
0.000606 0.136610 0.000000
0.026136 0.134544 0.000000
0.069896 0.126757 0.000000
0.104386 0.124184 0.000000
0.126858 0.130555 0.000000
0.145628 0.138978 0.000000
0.165518 0.145646 0.000000
0.185918 0.148668 0.000000
0.203924 0.149314 0.000000
0.218757 0.151364 0.000000
0.234584 0.157194 0.000000
0.254007 0.165655 0.000000
0.275735 0.174440 0.000126
0.298173 0.182371 0.000915
0.322646 0.189340 0.002560
0.350112 0.195609 0.004701
0.380344 0.201484 0.007417
0.414494 0.207829 0.011001
0.450234 0.216181 0.015235
0.485170 0.227004 0.019138
0.518947 0.238700 0.020572
0.550919 0.250723 0.018322
0.578746 0.263499 0.016738
0.602603 0.276760 0.016535
0.625913 0.289708 0.015355
0.655736 0.303550 0.008929
0.687742 0.318040 0.004334
0.718701 0.334008 0.005634
0.743573 0.354055 0.016908
0.000000 0.141265 0.009567
0.000000 0.142621 0.003946
0.000000 0.146311 0.000235
0.000000 0.151916 0.000000
0.000012 0.158721 0.000000
0.006843 0.161553 0.000000
0.046839 0.155558 0.000000
0.092350 0.148735 0.000000
0.129379 0.148556 0.000000
0.151975 0.154884 0.000000
0.171186 0.162075 0.000000
0.192427 0.167723 0.000000
0.213789 0.171193 0.000000
0.232555 0.173896 0.000000
0.250501 0.177983 0.000023
0.269580 0.184046 0.000340
0.290284 0.191244 0.001427
0.312376 0.198341 0.003217
0.335863 0.204712 0.005174
0.361006 0.210677 0.007449
0.388491 0.216599 0.010252
0.419576 0.222895 0.013437
0.452482 0.230961 0.017476
0.485740 0.241500 0.021509
0.519292 0.252819 0.023017
0.550973 0.263742 0.020564
0.579619 0.275686 0.018652
0.605015 0.289156 0.018119
0.630511 0.304463 0.016657
0.660269 0.318886 0.010469
0.691241 0.334699 0.007092
0.720653 0.352388 0.010345
0.744617 0.373134 0.024072
0.000000 0.159901 0.017464
0.000000 0.161789 0.008200
0.000000 0.166689 0.000512
0.000000 0.172886 0.000002
0.000000 0.179921 0.000000
0.001433 0.184199 0.000000
0.028213 0.182676 0.000000
0.071299 0.176552 0.000000
0.115468 0.171816 0.000000
0.152622 0.172694 0.000000
0.176789 0.178578 0.000000
0.199069 0.184718 0.000000
0.223739 0.189667 0.000000
0.247611 0.193630 0.000277
0.267755 0.197354 0.001119
0.286288 0.202148 0.002469
0.306266 0.208114 0.004209
0.328149 0.214383 0.006145
0.351570 0.220315 0.008080
0.376207 0.226065 0.010593
0.403006 0.232139 0.013755
0.432868 0.238666 0.016818
0.463752 0.246488 0.020434
0.494355 0.256290 0.023913
0.525310 0.266808 0.024537
0.555831 0.277379 0.022033
0.584186 0.289881 0.020414
0.610062 0.304270 0.020098
0.635990 0.320163 0.018055
0.664885 0.334592 0.012055
0.695115 0.351165 0.010105
0.723627 0.370028 0.015389
0.747078 0.391794 0.031772
0.000000 0.178816 0.027946
0.000000 0.180896 0.017228
0.000000 0.186650 0.005088
0.000000 0.194668 0.000403
0.000102 0.202350 0.000000
0.009162 0.206359 0.000000
0.033422 0.206659 0.000000
0.064590 0.203915 0.000000
0.101491 0.198982 0.000000
0.145006 0.195726 0.000000
0.178874 0.197309 0.000000
0.203905 0.203270 0.000000
0.230660 0.208670 0.000422
0.259875 0.212568 0.001995
0.284479 0.216467 0.004026
0.304294 0.220713 0.005809
0.323888 0.225483 0.007469
0.345166 0.230868 0.009294
0.367911 0.236477 0.011434
0.392247 0.242311 0.014083
0.418822 0.248496 0.017315
0.447265 0.254980 0.020577
0.476323 0.262545 0.023666
0.504844 0.271768 0.026161
0.533756 0.282185 0.025913
0.562670 0.293712 0.023811
0.590007 0.306961 0.022622
0.615748 0.322263 0.022481
0.641676 0.337492 0.019662
0.671089 0.350105 0.013167
0.699869 0.367855 0.013340
0.727916 0.388368 0.020569
0.751414 0.411359 0.038688
0.000000 0.199426 0.040977
0.000000 0.201838 0.031098
0.000000 0.207696 0.016061
0.000000 0.216805 0.003141
0.000704 0.226399 0.000238
0.019845 0.229904 0.000000
0.048241 0.229201 0.000000
0.073615 0.228370 0.000000
0.101094 0.226534 0.000000
0.139183 0.223473 0.000000
0.176952 0.221336 0.000000
0.207791 0.223838 0.000466
0.235962 0.229498 0.002344
0.267911 0.233430 0.005086
0.298007 0.236490 0.007553
0.322039 0.240272 0.009414
0.342764 0.244241 0.011024
0.363470 0.248439 0.012763
0.385383 0.253373 0.015095
0.409274 0.259267 0.017983
0.435526 0.265803 0.021090
0.462484 0.272651 0.024469
0.489664 0.280281 0.027347
0.516643 0.289287 0.028595
0.544545 0.299804 0.027400
0.571598 0.312131 0.025792
0.597347 0.326061 0.025102
0.622151 0.341448 0.024880
0.648150 0.356016 0.021251
0.678291 0.367836 0.014621
0.706869 0.385693 0.015842
0.734055 0.408090 0.026470
0.758150 0.432785 0.046059
0.000000 0.222715 0.055422
0.000000 0.225802 0.047422
0.000000 0.231367 0.032228
0.000925 0.240298 0.012803
0.006435 0.250874 0.001692
0.027636 0.254372 0.000059
0.057186 0.251712 0.000000
0.083067 0.249773 0.000000
0.109534 0.250507 0.000000
0.141663 0.251450 0.000040
0.177065 0.249555 0.000674
0.211331 0.248490 0.002582
0.242781 0.251429 0.005643
0.275079 0.255902 0.008760
0.307774 0.258340 0.011162
0.337029 0.260526 0.012989
0.361314 0.264044 0.014812
0.382650 0.267917 0.016856
0.404157 0.272119 0.019328
0.427778 0.277471 0.022247
0.453127 0.284242 0.025307
0.478460 0.291919 0.028503
0.503917 0.300577 0.031080
0.530071 0.310286 0.031380
0.557121 0.320623 0.029200
0.582164 0.332729 0.028056
0.605889 0.346235 0.027783
0.629581 0.360678 0.027001
0.656308 0.374470 0.022227
0.686623 0.388157 0.016503
0.715530 0.406993 0.018907
0.741839 0.429947 0.032042
0.767294 0.455141 0.055788
0.000907 0.248137 0.072631
0.001628 0.251188 0.065349
0.003422 0.255546 0.053801
0.007266 0.263305 0.033039
0.015496 0.273821 0.011078
0.032980 0.280368 0.001863
0.060986 0.276750 0.000128
0.087416 0.271421 0.000000
0.114851 0.270029 0.000000
0.144529 0.272529 0.000419
0.178523 0.273831 0.002604
0.214281 0.273515 0.005949
0.249113 0.274478 0.009411
0.282686 0.278426 0.012522
0.315359 0.282158 0.015028
0.347807 0.283650 0.016912
0.377364 0.285487 0.018941
0.402009 0.289055 0.021515
0.424643 0.293438 0.024146
0.447621 0.298721 0.026966
0.470874 0.305424 0.030079
0.494606 0.313392 0.032654
0.518906 0.322406 0.034124
0.544252 0.332260 0.033398
0.569882 0.342569 0.031017
0.593485 0.354550 0.030531
0.615926 0.367299 0.030292
0.639048 0.380646 0.028343
0.666264 0.394298 0.021844
0.697183 0.411563 0.017697
0.726677 0.432149 0.022948
0.752327 0.453963 0.039083
0.775086 0.473816 0.066995
0.007626 0.273505 0.091313
0.008768 0.275287 0.084470
0.011856 0.278833 0.076093
0.016775 0.285014 0.060598
0.023969 0.294937 0.035152
0.037241 0.305498 0.013042
0.060659 0.307370 0.003345
0.088857 0.299567 0.000996
0.118183 0.291906 0.000754
0.147320 0.289303 0.001773
0.179436 0.291078 0.004890
0.219271 0.293545 0.009210
0.258578 0.295878 0.013188
0.293248 0.299851 0.016337
0.323967 0.305450 0.018956
0.355343 0.309060 0.021066
0.388493 0.310093 0.023230
0.418618 0.312000 0.026141
0.444168 0.316280 0.029181
0.466900 0.321979 0.032020
0.488504 0.328708 0.034823
0.510998 0.336501 0.036564
0.534603 0.344937 0.036562
0.558971 0.354106 0.034888
0.582825 0.364420 0.033056
0.605161 0.376619 0.032452
0.627404 0.389868 0.030873
0.651180 0.403158 0.026887
0.679612 0.417243 0.019066
0.710721 0.437003 0.019597
0.738262 0.456491 0.028867
0.761906 0.476282 0.049549
0.779388 0.490306 0.081353
0.019134 0.299918 0.111410
0.020439 0.300819 0.105290
0.023097 0.303420 0.097548
0.026916 0.308108 0.087146
0.032588 0.316228 0.067943
0.041827 0.327441 0.039606
0.057549 0.337541 0.015270
0.087974 0.334403 0.006005
0.124106 0.322066 0.004236
0.156048 0.311081 0.005058
0.185253 0.307796 0.007703
0.225227 0.309905 0.012015
0.270392 0.313857 0.016581
0.308059 0.319188 0.020069
0.337177 0.326364 0.022741
0.364672 0.332744 0.025094
0.395340 0.335832 0.027467
0.428010 0.336919 0.030443
0.457871 0.339356 0.033799
0.482670 0.344585 0.036798
0.505012 0.351627 0.038963
0.527530 0.359758 0.039644
0.550767 0.368377 0.038407
0.574295 0.377482 0.035918
0.596479 0.387999 0.034452
0.617514 0.400346 0.033040
0.640128 0.414094 0.029560
0.665503 0.428056 0.024077
0.695848 0.442142 0.017006
0.724815 0.461388 0.022726
0.749539 0.479280 0.036780
0.768423 0.494997 0.063440
0.781188 0.506468 0.101561
0.030710 0.329597 0.134662
0.032618 0.330779 0.128896
0.035176 0.332478 0.121325
0.038540 0.335573 0.111433
0.042780 0.340931 0.097746
0.048484 0.349480 0.073296
0.057435 0.362989 0.037229
0.084683 0.368855 0.015873
0.129116 0.359214 0.009887
0.169676 0.342154 0.010021
0.199733 0.331223 0.012099
0.235300 0.328763 0.015561
0.280664 0.331421 0.019810
0.323165 0.336968 0.023511
0.354804 0.345081 0.026393
0.379326 0.353129 0.029007
0.403662 0.358936 0.031607
0.431794 0.362047 0.034442
0.462713 0.363489 0.037606
0.492029 0.366600 0.040597
0.517965 0.373172 0.042182
0.542338 0.381999 0.041527
0.566180 0.391910 0.039117
0.589125 0.402482 0.035825
0.609974 0.414002 0.034099
0.630506 0.426675 0.031886
0.653963 0.439914 0.027268
0.681040 0.453869 0.021549
0.712265 0.467254 0.019073
0.737468 0.484218 0.028406
0.759198 0.500722 0.047130
0.773988 0.512379 0.079796
0.781532 0.520305 0.128229
0.040177 0.360960 0.159665
0.042354 0.362559 0.154274
0.045140 0.364740 0.147327
0.048825 0.367341 0.137065
0.052988 0.371284 0.122452
0.057509 0.378684 0.097641
0.064130 0.391219 0.056171
0.084170 0.401956 0.025025
0.127924 0.400008 0.013599
0.180403 0.381034 0.014332
0.218007 0.363123 0.017312
0.253428 0.354628 0.020483
0.295360 0.353552 0.023940
0.338993 0.356978 0.027228
0.373402 0.363788 0.030103
0.396593 0.371807 0.032910
0.415915 0.379082 0.035530
0.437123 0.385121 0.037873
0.463135 0.389246 0.040216
0.494200 0.391763 0.042742
0.525599 0.395866 0.043908
0.553231 0.403994 0.041848
0.578180 0.414803 0.038215
0.600804 0.427154 0.034596
0.621330 0.440162 0.032404
0.643123 0.453463 0.029412
0.668470 0.465836 0.024937
0.697111 0.478412 0.020698
0.725941 0.491854 0.023931
0.748158 0.507414 0.037425
0.765743 0.521328 0.061476
0.778134 0.530228 0.099858
0.781214 0.531091 0.160824
0.048053 0.392401 0.184821
0.050288 0.393885 0.179604
0.053527 0.396507 0.173203
0.058104 0.400173 0.162341
0.063873 0.405319 0.143508
0.071373 0.416371 0.104024
0.079571 0.425766 0.058330
0.093327 0.434974 0.026885
0.125856 0.438035 0.014203
0.182227 0.423419 0.015497
0.229598 0.402479 0.020024
0.270626 0.388040 0.024291
0.313739 0.382099 0.027972
0.356482 0.381798 0.030870
0.389532 0.385183 0.033382
0.411892 0.391198 0.035901
0.429645 0.398855 0.037984
0.447559 0.407015 0.039451
0.468183 0.414957 0.040867
0.494541 0.420862 0.042735
0.527186 0.424239 0.043367
0.559247 0.429468 0.040515
0.586077 0.439002 0.036184
0.608863 0.451659 0.032843
0.630407 0.465758 0.030600
0.655296 0.479286 0.026789
0.682430 0.491545 0.024130
0.711260 0.503119 0.023870
0.735981 0.517177 0.031481
0.756482 0.532051 0.049267
0.769784 0.542133 0.082689
0.779234 0.547385 0.127411
0.782058 0.542554 0.192003
0.059239 0.422661 0.209170
0.061262 0.423755 0.204071
0.064742 0.426169 0.197537
0.070146 0.430121 0.186345
0.077868 0.436625 0.164882
0.089922 0.451387 0.113558
0.102313 0.459627 0.055961
0.113160 0.465556 0.023930
0.134022 0.469849 0.013920
0.180493 0.464467 0.014431
0.230631 0.445895 0.019191
0.277278 0.427878 0.024543
0.323405 0.416957 0.029041
0.367488 0.412207 0.032183
0.400549 0.411521 0.034671
0.423640 0.414148 0.036782
0.442985 0.420389 0.038225
0.461026 0.429406 0.039084
0.479452 0.439382 0.040115
0.500326 0.449033 0.041408
0.527469 0.456261 0.041333
0.560591 0.460650 0.038635
0.591473 0.467283 0.034327
0.616542 0.478662 0.031155
0.640364 0.492684 0.029304
0.667733 0.505737 0.026190
0.695005 0.518560 0.026173
0.721779 0.530842 0.031005
0.744187 0.544346 0.043867
0.761464 0.556557 0.069104
0.771216 0.560451 0.112697
0.778632 0.561875 0.161881
0.785429 0.557664 0.215569
0.076418 0.448954 0.230904
0.077625 0.449913 0.226542
0.080280 0.452105 0.219922
0.085532 0.455293 0.209962
0.094371 0.461120 0.191362
0.107648 0.475236 0.147862
0.124009 0.487146 0.077312
0.137865 0.494953 0.030761
0.152203 0.500897 0.016355
0.184540 0.502461 0.014684
0.228219 0.489031 0.018059
0.274191 0.471210 0.022771
0.320738 0.457729 0.027132
0.366210 0.449237 0.030453
0.403966 0.444340 0.033321
0.431993 0.442839 0.035740
0.454396 0.445572 0.037426
0.474372 0.452742 0.038495
0.492759 0.462926 0.039456
0.511726 0.474184 0.040227
0.534301 0.485082 0.039587
0.562367 0.493610 0.037020
0.594942 0.500130 0.033080
0.624908 0.509326 0.029771
0.652466 0.521555 0.028582
0.680348 0.533645 0.028987
0.706917 0.546058 0.032765
0.730678 0.558867 0.043153
0.750584 0.571309 0.062231
0.762352 0.577771 0.100204
0.771334 0.576989 0.147700
0.778135 0.573785 0.199764
0.790225 0.573283 0.237038
0.098071 0.471246 0.250259
0.099378 0.472122 0.246711
0.102187 0.473904 0.239906
0.106854 0.476720 0.230143
0.114922 0.481244 0.214676
0.126492 0.493807 0.182201
0.141001 0.509313 0.124328
0.157236 0.522557 0.066322
0.172538 0.533029 0.034708
0.194465 0.538896 0.021626
0.227528 0.531833 0.019257
0.266994 0.515253 0.021525
0.310179 0.500184 0.024727
0.355074 0.489272 0.027775
0.398297 0.481158 0.030746
0.435442 0.476585 0.033516
0.464149 0.476295 0.035766
0.486962 0.480184 0.037455
0.506868 0.487779 0.038651
0.525819 0.498425 0.039032
0.546968 0.510812 0.037858
0.571769 0.523057 0.035122
0.600847 0.534018 0.031902
0.633662 0.543097 0.029562
0.664822 0.552424 0.030215
0.692927 0.562529 0.034875
0.717591 0.573682 0.045027
0.737811 0.585353 0.062960
0.753827 0.595981 0.090845
0.761750 0.594004 0.140159
0.770400 0.591364 0.186733
0.779047 0.585693 0.235392
0.794920 0.588681 0.260484
0.122396 0.490463 0.268014
0.123999 0.491356 0.265079
0.126850 0.492926 0.259325
0.131010 0.495239 0.249766
0.136933 0.499390 0.235745
0.144715 0.511267 0.208546
0.154708 0.528507 0.170925
0.167908 0.544598 0.132580
0.184984 0.561020 0.090290
0.205864 0.574205 0.051548
0.232914 0.572760 0.031778
0.263954 0.559179 0.025481
0.301012 0.542520 0.024858
0.344073 0.530027 0.026389
0.389569 0.520564 0.028448
0.432674 0.513581 0.031003
0.469654 0.511111 0.033789
0.498530 0.512926 0.036053
0.521424 0.517391 0.037272
0.542476 0.524959 0.037089
0.563983 0.536319 0.035526
0.588006 0.549312 0.033259
0.614924 0.562908 0.031760
0.644642 0.575062 0.032698
0.675499 0.583372 0.037270
0.703174 0.591881 0.047042
0.725667 0.600981 0.064590
0.742283 0.608619 0.093469
0.752724 0.613079 0.135043
0.759530 0.605360 0.187796
0.769413 0.601676 0.229828
0.782169 0.601371 0.262777
0.797602 0.605251 0.288222
0.143460 0.509041 0.285396
0.144765 0.510072 0.282297
0.146801 0.511925 0.278868
0.149688 0.514518 0.271746
0.153288 0.518645 0.259619
0.156947 0.529926 0.237002
0.163607 0.542973 0.216300
0.173760 0.555603 0.202620
0.189796 0.572472 0.179044
0.215351 0.602138 0.118847
0.245371 0.609714 0.072132
0.273964 0.599540 0.047247
0.305738 0.584685 0.035161
0.346211 0.572103 0.030263
0.388341 0.561866 0.028892
0.429680 0.552946 0.030111
0.470702 0.547802 0.032819
0.507454 0.547735 0.035382
0.536564 0.550774 0.036545
0.560851 0.555494 0.035541
0.585036 0.562997 0.033793
0.608638 0.573799 0.033723
0.632637 0.586590 0.036456
0.657360 0.600092 0.042877
0.683185 0.612246 0.052420
0.708778 0.621574 0.068619
0.728903 0.627564 0.095348
0.742145 0.629149 0.135391
0.749542 0.621875 0.188639
0.758862 0.617384 0.230200
0.769769 0.615999 0.266206
0.783495 0.619291 0.293026
0.798415 0.625269 0.316393
0.157953 0.529061 0.302534
0.158633 0.530253 0.299284
0.159879 0.532560 0.295322
0.161694 0.536138 0.290508
0.164127 0.540749 0.281626
0.166969 0.549971 0.265303
0.172123 0.557274 0.261987
0.180914 0.566252 0.258302
0.195613 0.579819 0.249778
0.221861 0.610842 0.199583
0.255770 0.636570 0.140430
0.290243 0.639417 0.094648
0.322228 0.627759 0.065065
0.358266 0.612511 0.048836
0.397876 0.599645 0.041058
0.438818 0.590756 0.038012
0.479631 0.585275 0.038077
0.518064 0.583331 0.039417
0.551427 0.583631 0.039782
0.579399 0.584965 0.038776
0.604830 0.589260 0.038603
0.627739 0.598003 0.041247
0.648581 0.610614 0.047085
0.668905 0.626103 0.057442
0.689946 0.641945 0.073413
0.708525 0.652042 0.101180
0.725393 0.652027 0.138338
0.737601 0.647036 0.184118
0.748018 0.638558 0.230386
0.759701 0.635717 0.263601
0.771837 0.635391 0.295213
0.786401 0.639924 0.317768
0.802122 0.647222 0.335373
0.168549 0.549777 0.318342
0.168740 0.551286 0.315589
0.169364 0.554769 0.311262
0.170399 0.558941 0.306764
0.172158 0.563974 0.302826
0.175892 0.569169 0.299287
0.182146 0.573657 0.301532
0.191242 0.579882 0.304382
0.205875 0.591588 0.297131
0.231491 0.618641 0.257956
0.264585 0.650350 0.200569
0.301730 0.667434 0.150552
0.339869 0.667950 0.111123
0.377433 0.657105 0.084667
0.416754 0.642982 0.069436
0.457400 0.630841 0.059448
0.497183 0.623603 0.054398
0.534303 0.620689 0.053286
0.567453 0.618477 0.052071
0.596641 0.616665 0.050206
0.622056 0.618419 0.050580
0.644232 0.625724 0.055343
0.663319 0.637414 0.064081
