nova/tdt-studio/app/Lut_mau/.cube LUT/C-9730-STD.cube
# Copyright: (C) Copyright 2010-2019 by IWLTBAP SAS
# Cannot be resold, shared or otherwise redistributed
# Website: https://luts.iwltbap.com
TITLE "IWLTBAP 9730 (Rec.709, sRGB, DCI-P3)"
LUT_3D_SIZE 9
0.002808 0.004242 0.000000
0.054904 0.015564 0.000000
0.128192 0.022228 0.000000
0.216298 0.021225 0.000000
0.352137 0.036705 0.000000
0.478364 0.080762 0.000000
0.569299 0.112522 0.000000
0.619163 0.155631 0.000000
0.696899 0.224945 0.000000
0.001594 0.049120 0.000000
0.054056 0.052531 0.000000
0.125749 0.061004 0.000000
0.186925 0.079452 0.000000
0.298884 0.093071 0.000000
0.456583 0.128181 0.003159
0.574669 0.178548 0.003371
0.636891 0.228109 0.001043
0.691774 0.267336 0.000000
0.000000 0.121542 0.002766
0.000606 0.136610 0.000000
0.126858 0.130555 0.000000
0.203924 0.149314 0.000000
0.275735 0.174440 0.000126
0.380344 0.201484 0.007417
0.518947 0.238700 0.020572
0.625913 0.289708 0.015355
0.743573 0.354055 0.016908
0.000000 0.199426 0.040977
0.000704 0.226399 0.000238
0.101094 0.226534 0.000000
0.235962 0.229498 0.002344
0.342764 0.244241 0.011024
0.435526 0.265803 0.021090
0.544545 0.299804 0.027400
0.648150 0.356016 0.021251
0.758150 0.432785 0.046059
0.019134 0.299918 0.111410
0.032588 0.316228 0.067943
0.124106 0.322066 0.004236
0.270392 0.313857 0.016581
0.395340 0.335832 0.027467
0.505012 0.351627 0.038963
0.596479 0.387999 0.034452
0.695848 0.442142 0.017006
0.781188 0.506468 0.101561
0.059239 0.422661 0.209170
0.077868 0.436625 0.164882
0.134022 0.469849 0.013920
0.323405 0.416957 0.029041
0.442985 0.420389 0.038225
0.527469 0.456261 0.041333
0.640364 0.492684 0.029304
0.744187 0.544346 0.043867
0.785429 0.557664 0.215569
0.143460 0.509041 0.285396
0.153288 0.518645 0.259619
0.189796 0.572472 0.179044
0.305738 0.584685 0.035161
0.470702 0.547802 0.032819
0.585036 0.562997 0.033793
0.683185 0.612246 0.052420
0.749542 0.621875 0.188639
0.798415 0.625269 0.316393
0.181938 0.597613 0.344462
0.195734 0.601467 0.359053
0.233710 0.622243 0.365851
0.364758 0.702115 0.226360
0.532984 0.705705 0.149100
0.641556 0.696159 0.130397
0.697874 0.704939 0.199280
0.744761 0.700573 0.324594
0.823562 0.715298 0.372317
0.261993 0.673218 0.466858
0.276490 0.674906 0.474040
0.302491 0.686549 0.492079
0.406108 0.721152 0.464628
0.584779 0.760015 0.378238
0.667088 0.758190 0.364889
0.712062 0.761291 0.368606
0.760693 0.782884 0.386290
0.829803 0.810883 0.448914
0.005059 0.015770 0.002979
0.057404 0.014780 0.003706
0.141988 0.019990 0.000000
0.227421 0.025698 0.000702
0.377157 0.045255 0.002150
0.512188 0.070418 0.000001
0.591461 0.102694 0.000000
0.621196 0.133663 0.000000
0.694498 0.233800 0.003370
0.006116 0.073859 0.012421
0.012610 0.078999 0.048058
0.146336 0.065566 0.000419
0.220906 0.057310 0.000000
0.359069 0.043049 0.000006
0.489109 0.090470 0.000252
0.593492 0.145780 0.000000
0.657874 0.200998 0.000000
0.692205 0.267936 0.022677
0.000000 0.137501 0.054431
0.000000 0.151155 0.039844
0.108508 0.147713 0.016812
0.246910 0.131684 0.000000
0.345461 0.151797 0.000972
0.459656 0.175519 0.010444
0.585475 0.230006 0.011099
0.687008 0.284060 0.005747
0.753163 0.358455 0.105178
0.000000 0.213194 0.092298
0.000000 0.229032 0.070601
0.042619 0.279630 0.025724
0.237838 0.250106 0.005113
0.386753 0.265025 0.016883
0.506440 0.288194 0.027846
0.617031 0.322079 0.022333
0.722035 0.377396 0.038503
0.753558 0.440430 0.225180
0.010083 0.308048 0.163756
0.032061 0.333166 0.136773
0.094857 0.395218 0.042171
0.229573 0.396364 0.021009
0.421066 0.380911 0.035413
0.569527 0.402315 0.038672
0.671346 0.441238 0.026060
0.744041 0.477953 0.080870
0.749096 0.489159 0.269737
0.059498 0.426973 0.235352
0.065575 0.433477 0.222708
0.094199 0.461257 0.177831
0.232893 0.506142 0.028816
0.439786 0.499780 0.032959
0.590557 0.531999 0.032842
0.697675 0.544063 0.044802
0.734454 0.548093 0.170623
0.763363 0.541174 0.307844
0.146903 0.514265 0.302784
0.151994 0.519477 0.298157
0.166464 0.534709 0.304018
0.256363 0.606760 0.185363
0.486882 0.606211 0.048341
0.636990 0.611518 0.047095
0.690629 0.645392 0.124290
0.732303 0.600709 0.287297
0.788183 0.621163 0.360613
0.185972 0.600451 0.358064
0.202156 0.603261 0.378553
0.231080 0.621182 0.415298
0.301767 0.649475 0.424330
0.484581 0.703300 0.296284
0.633336 0.697898 0.236265
0.687557 0.694303 0.282135
0.737592 0.694260 0.365947
0.819477 0.710465 0.408332
0.267420 0.678360 0.480283
0.286922 0.685355 0.496184
0.315473 0.701947 0.524352
0.400632 0.733783 0.519949
0.557667 0.771745 0.460128
0.666885 0.765756 0.415399
0.717502 0.764236 0.399029
0.759422 0.785575 0.411011
0.831398 0.811776 0.485534
0.000366 0.049857 0.097572
0.053641 0.048490 0.100706
0.103591 0.051127 0.097081
0.200158 0.038586 0.062366
0.311790 0.039709 0.045258
0.522287 0.080183 0.023949
0.609381 0.085889 0.000000
0.630043 0.137759 0.003334
0.684270 0.255666 0.113468
0.000856 0.134542 0.093299
0.000032 0.118811 0.138777
0.086558 0.088489 0.150570
0.232769 0.104762 0.086119
0.386037 0.059655 0.034854
0.535967 0.093955 0.021106
0.621124 0.156751 0.012632
0.674457 0.234606 0.040002
0.687435 0.288199 0.142615
0.000000 0.178821 0.126004
0.000000 0.186814 0.156366
0.018952 0.204302 0.191709
0.250557 0.183609 0.117148
0.398575 0.196100 0.101238
0.514651 0.185060 0.110955
0.597526 0.250477 0.147026
0.671891 0.317358 0.175050
0.724685 0.373552 0.260109
0.000000 0.230627 0.187590
0.000000 0.246864 0.183229
0.001052 0.268557 0.195012
0.202527 0.258102 0.165810
0.432671 0.293421 0.116014
0.540275 0.332127 0.163730
0.623923 0.360538 0.187385
0.704096 0.407992 0.258109
0.756919 0.451211 0.334150
0.010644 0.316154 0.249160
0.026988 0.353622 0.223441
0.049619 0.399987 0.226318
0.160861 0.405865 0.229065
0.434497 0.429490 0.059126
0.582148 0.463533 0.113374
0.671926 0.477243 0.200478
0.721388 0.484702 0.302681
0.775779 0.505127 0.362418
0.073633 0.447371 0.294984
0.087206 0.464297 0.278190
0.114334 0.486363 0.275437
0.213224 0.522292 0.272374
0.407328 0.581086 0.143447
0.613866 0.603510 0.106807
0.689234 0.561051 0.261920
0.736074 0.555007 0.346244
0.790689 0.568132 0.388081
0.158896 0.531714 0.333885
0.162517 0.538031 0.327085
0.172178 0.551094 0.336094
0.210836 0.576159 0.397869
0.394623 0.639905 0.251718
0.621163 0.670297 0.232147
0.693930 0.652618 0.322942
0.750500 0.627276 0.383882
0.804092 0.648087 0.418194
0.201472 0.616234 0.389925
0.216904 0.619735 0.410399
0.244497 0.636167 0.449470
0.293463 0.654619 0.492744
0.435652 0.680613 0.437879
0.648713 0.698541 0.368226
0.708906 0.715610 0.365090
0.753046 0.717326 0.413378
0.822955 0.725455 0.461320
0.286111 0.693391 0.509477
0.305946 0.701516 0.526327
0.335904 0.717150 0.554893
0.408208 0.748012 0.576761
0.539849 0.781445 0.555882
0.653018 0.786500 0.489159
0.725975 0.776392 0.440080
0.769000 0.796548 0.450612
0.836147 0.822484 0.533036
0.009441 0.084124 0.220134
0.047300 0.084390 0.207766
0.117935 0.089193 0.187437
0.185857 0.087751 0.164246
0.258809 0.083564 0.144746
0.407582 0.105317 0.130169
0.537425 0.162275 0.144502
0.617818 0.212570 0.179890
0.674551 0.288165 0.276043
0.000000 0.204571 0.182455
0.017701 0.130524 0.232822
0.073790 0.085944 0.271239
0.125874 0.091640 0.260035
0.273348 0.115120 0.154596
0.421972 0.143688 0.133232
0.597035 0.205626 0.173474
0.657401 0.271178 0.236767
0.683118 0.318359 0.296879
0.000000 0.231462 0.209912
0.000000 0.237775 0.221158
0.039777 0.192491 0.313224
0.190701 0.196249 0.307052
0.375641 0.250295 0.248988
0.518896 0.226083 0.210233
0.612235 0.277972 0.269188
0.684592 0.350659 0.326378
0.742728 0.408703 0.370262
0.001090 0.277427 0.265107
0.003471 0.288851 0.268353
0.008539 0.290545 0.305102
0.103160 0.301534 0.340869
0.383681 0.312644 0.310140
0.537631 0.365149 0.335576
0.634741 0.372664 0.358254
0.702271 0.430338 0.405304
0.763945 0.465919 0.422955
0.051750 0.364143 0.326823
0.056004 0.384555 0.321131
0.069027 0.415134 0.336068
0.134563 0.424425 0.370504
0.349576 0.410684 0.363466
0.567169 0.470845 0.361409
0.658872 0.495978 0.399319
0.724787 0.501452 0.428370
0.798225 0.521748 0.449004
0.097338 0.474355 0.370806
0.107947 0.489019 0.358081
0.140890 0.516327 0.348861
0.190384 0.549889 0.412491
0.324265 0.540550 0.421535
0.604869 0.577075 0.346690
0.691896 0.586131 0.400540
0.751646 0.592769 0.438745
0.819160 0.610742 0.475289
0.172980 0.555400 0.404625
0.181030 0.568009 0.379432
0.200422 0.590044 0.397569
0.252382 0.617736 0.470165
0.407524 0.634643 0.459203
0.602695 0.658855 0.431635
0.708287 0.682007 0.420849
0.771309 0.677011 0.461910
0.838692 0.695162 0.515287
0.227283 0.638942 0.452454
0.244223 0.648316 0.461565
0.272646 0.664961 0.493394
0.314349 0.682185 0.535165
0.435812 0.702457 0.547983
0.605006 0.730695 0.484477
0.716783 0.751971 0.461038
0.776705 0.769426 0.489867
0.856900 0.765751 0.560207
0.318251 0.718912 0.552345
0.334706 0.726066 0.568577
0.367225 0.741693 0.597003
0.426141 0.775308 0.627047
0.543041 0.803424 0.619933
0.642926 0.810077 0.592448
0.739943 0.808581 0.540019
0.796160 0.834457 0.532915
0.855525 0.849499 0.600933
0.039529 0.075251 0.373854
0.078267 0.081309 0.339978
0.122815 0.086314 0.331020
0.181775 0.091460 0.317246
0.273327 0.099330 0.281244
0.416374 0.146957 0.260660
0.534068 0.228426 0.272558
0.618214 0.291074 0.356996
0.695044 0.344660 0.429988
0.004045 0.251328 0.284180
0.047253 0.106058 0.400550
0.108218 0.079620 0.396960
0.161152 0.084143 0.386117
0.241320 0.109329 0.360600
0.420342 0.190508 0.286352
0.543120 0.260418 0.300494
0.626485 0.311199 0.370341
0.707746 0.368481 0.408504
0.010210 0.293849 0.303065
0.005363 0.281149 0.320293
0.067217 0.177101 0.440765
0.202965 0.142795 0.467537
0.321401 0.192367 0.426495
0.493727 0.269979 0.340420
0.571129 0.308918 0.358381
0.691756 0.377427 0.415032
0.766418 0.426099 0.447961
0.054077 0.355055 0.349512
0.058268 0.363462 0.355111
0.053440 0.347792 0.403645
0.145331 0.313907 0.451881
0.376330 0.339185 0.454243
0.538258 0.412263 0.443426
0.647380 0.401162 0.442547
0.725711 0.440980 0.469097
0.798925 0.485058 0.489034
0.086029 0.442842 0.394806
0.089211 0.453177 0.396456
0.097571 0.467498 0.425540
0.170163 0.477913 0.475841
0.321460 0.475237 0.506661
0.561213 0.493447 0.470074
0.672485 0.522345 0.494190
0.743085 0.509044 0.513916
0.814045 0.553830 0.549455
0.132903 0.522968 0.441866
0.139981 0.529093 0.443235
0.159402 0.547353 0.456340
0.217578 0.584492 0.492111
0.331952 0.580913 0.524907
0.572618 0.572668 0.514828
0.697383 0.609062 0.519640
0.755209 0.635971 0.551142
0.833494 0.653283 0.591430
0.187782 0.585137 0.493961
0.198608 0.596817 0.487415
0.226727 0.622483 0.495102
0.296538 0.654900 0.532944
0.413630 0.676556 0.580570
0.587680 0.676937 0.558637
0.711397 0.704287 0.518028
0.777110 0.723710 0.566835
0.858873 0.738789 0.618016
0.256877 0.666274 0.559871
0.279518 0.679948 0.549696
0.315662 0.701734 0.557818
0.367328 0.724596 0.601024
0.497427 0.759765 0.625654
0.640895 0.772297 0.604494
0.716300 0.787320 0.595658
0.783358 0.815093 0.595418
0.873360 0.814644 0.651785
0.351901 0.747899 0.628717
0.374650 0.758923 0.626173
0.406547 0.777796 0.654014
0.450984 0.811832 0.685858
0.536055 0.841103 0.688832
0.650042 0.847289 0.685807
0.724628 0.852767 0.651364
0.809713 0.863902 0.646139
0.882560 0.881871 0.684323
0.052066 0.082551 0.518904
0.103163 0.082356 0.483206
0.157548 0.083535 0.441851
0.223075 0.086960 0.451784
0.356108 0.107128 0.438656
0.496980 0.182427 0.411042
0.601889 0.268693 0.422711
0.670776 0.334697 0.473659
0.729948 0.381710 0.532525
0.017861 0.252825 0.443730
0.059951 0.120667 0.539792
0.130578 0.091178 0.530561
0.222072 0.096059 0.485467
0.319186 0.134277 0.471138
0.483450 0.210470 0.429561
0.589326 0.302014 0.441848
0.666916 0.368398 0.490637
0.728398 0.409208 0.537800
0.061190 0.359104 0.421097
0.028047 0.305045 0.458713
0.105221 0.227162 0.553369
0.264615 0.197842 0.572766
0.393591 0.239777 0.547858
0.530482 0.299973 0.491430
0.613639 0.363146 0.486767
0.676636 0.407917 0.515641
0.740028 0.441016 0.534705
0.088366 0.435780 0.448141
0.088633 0.435606 0.462896
0.097663 0.417684 0.514324
0.216803 0.356474 0.547803
0.404276 0.348070 0.609542
0.583868 0.396968 0.542427
0.655121 0.432929 0.524853
0.702382 0.457470 0.531897
0.804320 0.507571 0.554703
0.114442 0.505443 0.487600
0.119749 0.513254 0.491608
0.137722 0.530520 0.517660
0.223196 0.537720 0.559747
0.391286 0.511209 0.601560
0.613358 0.521643 0.566943
0.692029 0.564452 0.584010
0.757284 0.539667 0.577668
0.853211 0.582637 0.616704
0.164966 0.563248 0.534235
0.173369 0.570948 0.538521
0.201382 0.596762 0.555845
0.279487 0.622566 0.576928
0.393857 0.637831 0.621475
0.593575 0.640451 0.625950
0.707875 0.650224 0.608919
0.774005 0.679874 0.640453
0.864650 0.674212 0.674535
0.221507 0.630301 0.593596
0.238806 0.643323 0.590413
0.274582 0.665165 0.599711
0.342857 0.688729 0.618885
0.438376 0.724766 0.667358
0.602351 0.727148 0.662382
0.713933 0.726051 0.661845
0.787854 0.756290 0.676978
0.856714 0.783335 0.717888
0.307483 0.708758 0.650729
0.328927 0.716925 0.646196
0.363266 0.733881 0.653848
0.408604 0.764731 0.682190
0.510450 0.803922 0.716272
0.639130 0.820668 0.718114
0.718046 0.816427 0.711759
0.789377 0.841269 0.689761
0.876585 0.855258 0.734847
0.392137 0.783155 0.714955
0.411389 0.792524 0.717569
0.439804 0.816334 0.733171
0.486073 0.846596 0.757335
0.557800 0.870236 0.776840
0.665010 0.883208 0.770391
0.749600 0.883787 0.757846
0.814999 0.892013 0.756780
0.897280 0.911822 0.765962
0.068341 0.111163 0.669059
0.127407 0.107101 0.643802
0.211329 0.104714 0.583097
0.315144 0.127481 0.568994
0.476731 0.189859 0.575747
0.610833 0.262200 0.556364
0.676928 0.330875 0.561251
0.724562 0.377162 0.577900
0.775780 0.407529 0.613067
0.030190 0.290268 0.579578
0.106203 0.202849 0.662503
0.196532 0.157088 0.673599
0.319864 0.181249 0.612272
0.463709 0.234238 0.609637
0.607795 0.300208 0.572249
0.675884 0.360518 0.569510
0.723309 0.403245 0.582436
0.775560 0.439013 0.628297
0.088329 0.423407 0.559326
0.079812 0.365346 0.589916
0.179014 0.303445 0.645043
0.329852 0.279086 0.684695
0.493254 0.311503 0.662655
0.614110 0.348504 0.600936
0.671760 0.396926 0.579764
0.720529 0.435843 0.593563
0.776462 0.475718 0.643555
0.110512 0.504766 0.568174
0.116701 0.499888 0.587149
0.184414 0.483944 0.618612
0.319769 0.414015 0.672015
0.491069 0.378183 0.734502
0.650448 0.413328 0.653786
0.697732 0.452067 0.624468
0.738141 0.485596 0.627508
0.793165 0.530882 0.661145
0.150162 0.561432 0.601152
0.166148 0.572646 0.604026
0.215813 0.587820 0.621207
0.311804 0.587757 0.642252
0.464414 0.539958 0.708657
0.651560 0.516532 0.709601
0.720714 0.551523 0.669321
0.763406 0.579845 0.672650
0.822985 0.619121 0.680740
0.212594 0.622463 0.639004
0.229511 0.632992 0.640690
0.274430 0.650336 0.648491
0.352060 0.669575 0.662194
0.455699 0.688100 0.711142
0.626141 0.681205 0.720816
0.734430 0.677772 0.710356
0.789790 0.720029 0.731719
0.876671 0.710794 0.735587
0.287605 0.687555 0.687368
0.310611 0.695162 0.681856
0.348573 0.710657 0.688588
0.402086 0.738534 0.714616
0.482670 0.774038 0.759747
0.608654 0.791036 0.774956
0.706215 0.788388 0.788196
0.794802 0.797502 0.763236
0.875981 0.824925 0.798371
0.369863 0.756324 0.740398
0.387941 0.764326 0.737587
0.413961 0.782642 0.750961
0.448377 0.813155 0.781872
0.515179 0.847598 0.814041
0.604845 0.868915 0.834087
0.694351 0.867217 0.839412
0.793447 0.868528 0.823997
0.894361 0.878765 0.836911
0.436517 0.827850 0.810158
0.450362 0.837893 0.815578
0.478205 0.856225 0.829000
0.520019 0.876808 0.848216
0.573865 0.894554 0.871670
0.648892 0.908532 0.885339
0.728978 0.918930 0.884469
0.812704 0.919906 0.877776
0.910715 0.934686 0.862241
0.164846 0.239183 0.788407
0.240823 0.193913 0.776140
0.365205 0.206344 0.746367
0.489806 0.251431 0.751930
0.602451 0.308032 0.728180
0.680071 0.345197 0.688607
0.723128 0.366335 0.680395
0.771070 0.400582 0.687145
0.828320 0.441490 0.733413
0.127960 0.378974 0.715341
0.219806 0.311876 0.754113
0.339072 0.269671 0.775240
0.469229 0.290030 0.785218
0.594878 0.334124 0.735227
0.685350 0.357568 0.703881
0.732009 0.381803 0.702069
0.781572 0.421539 0.720558
0.839672 0.479617 0.752570
0.157603 0.490326 0.711455
0.213340 0.438469 0.736652
0.313305 0.380322 0.762943
0.435066 0.350195 0.807216
0.578954 0.366592 0.770715
0.678722 0.379444 0.734824
0.735786 0.403245 0.724157
0.786302 0.456155 0.732708
0.847481 0.513545 0.765184
0.186263 0.582313 0.681388
0.229129 0.572715 0.690434
0.312823 0.539834 0.720938
0.418545 0.453127 0.830956
0.558913 0.421758 0.866764
0.684726 0.413917 0.807615
0.745066 0.443721 0.760019
0.792471 0.504128 0.747025
0.850735 0.565573 0.776116
0.241565 0.634156 0.701907
0.269779 0.639552 0.699626
0.328496 0.642789 0.707706
0.409080 0.639294 0.743740
0.538445 0.581521 0.850814
0.675087 0.525813 0.876556
0.766985 0.568028 0.794504
0.811021 0.619178 0.771051
0.862542 0.661034 0.799471
0.306319 0.687339 0.732828
0.327845 0.691788 0.731322
0.366524 0.708067 0.738941
0.419061 0.729362 0.768830
0.511758 0.749375 0.807821
0.643014 0.727507 0.816218
0.752877 0.701635 0.827030
0.829273 0.725477 0.816425
0.886444 0.752681 0.843462
0.369577 0.748156 0.777679
0.387358 0.756904 0.777059
0.410823 0.773786 0.791303
0.449814 0.801622 0.817662
0.521621 0.833068 0.848557
0.609555 0.848836 0.874324
0.712202 0.835609 0.878636
0.817676 0.824762 0.878843
0.898713 0.855675 0.888589
0.425869 0.817515 0.837497
0.437238 0.825089 0.841359
0.460942 0.843011 0.854113
0.501834 0.866490 0.876631
0.565341 0.887721 0.897483
0.632306 0.903212 0.915478
0.710817 0.911630 0.925836
0.798579 0.908667 0.936984
0.907919 0.914865 0.919119
0.502768 0.881029 0.901897
0.519737 0.887065 0.902642
0.550626 0.897681 0.910235
0.593784 0.908915 0.920592
0.640932 0.921684 0.933444
0.693735 0.933354 0.944857
0.750823 0.942329 0.958307
0.832829 0.943969 0.956140
0.920962 0.956758 0.960013
0.273895 0.322693 0.860321
0.387995 0.268622 0.853673
0.516516 0.277848 0.859868
0.580881 0.310205 0.860361
0.648442 0.349191 0.814403
0.706874 0.372832 0.782407
0.760355 0.394028 0.781682
0.815336 0.422164 0.806574
0.877380 0.464020 0.846161
0.265237 0.429349 0.855062
0.336482 0.382187 0.835662
0.468853 0.323640 0.873304
0.572092 0.333897 0.876552
0.646678 0.370056 0.819122
0.710840 0.390552 0.810335
0.772734 0.409173 0.826963
0.830224 0.442234 0.846032
0.888395 0.501840 0.860693
0.270411 0.545443 0.801698
0.332237 0.492826 0.832335
0.418430 0.431997 0.880959
0.546011 0.404588 0.890091
0.634031 0.400686 0.866055
0.711052 0.410414 0.844086
0.786584 0.426656 0.858516
0.846897 0.472767 0.868642
0.895680 0.572743 0.864143
0.290528 0.644217 0.748547
0.331277 0.627404 0.759620
0.406229 0.585467 0.816952
0.504624 0.515828 0.918077
0.624204 0.473994 0.939638
0.707970 0.457797 0.914242
0.791123 0.473813 0.886250
0.855360 0.528367 0.872060
0.900583 0.640530 0.858328
0.334006 0.687562 0.768317
0.356440 0.693926 0.768677
0.402056 0.699608 0.788278
0.482091 0.681558 0.845295
0.600711 0.653883 0.900698
0.710077 0.590850 0.933257
0.801318 0.601038 0.884832
0.860136 0.641710 0.859900
0.907625 0.706398 0.863594
0.379236 0.743235 0.806566
0.394460 0.750518 0.810615
0.420057 0.765710 0.826512
0.470297 0.786289 0.854724
0.564749 0.800041 0.884980
0.672094 0.778646 0.894858
0.790492 0.745913 0.887332
0.874524 0.757588 0.883529
0.922476 0.783605 0.903338
0.428492 0.809272 0.855294
0.438325 0.815053 0.861717
0.462216 0.830121 0.875332
0.506339 0.855197 0.894155
0.574831 0.878309 0.913744
0.645931 0.890521 0.928837
0.744399 0.867408 0.927966
0.866948 0.839749 0.925953
0.934332 0.846985 0.942863
0.489984 0.871595 0.906621
0.504084 0.876955 0.908749
0.536640 0.889060 0.914495
0.581972 0.901671 0.926375
0.633352 0.915234 0.937905
0.687554 0.926999 0.947692
0.748708 0.932926 0.959287
0.843272 0.926555 0.960530
0.929994 0.928465 0.973374
0.598175 0.915558 0.941589
0.613346 0.918227 0.943079
0.636902 0.923998 0.947160
0.667001 0.931743 0.953603
0.705676 0.940071 0.960013
0.749014 0.948063 0.966956
0.797903 0.954877 0.977016
0.871112 0.958412 0.980080
0.928711 0.968781 0.995026
