nova/tdt-studio/app/Lut_mau/.cube LUT/C-9730-STD.cube
# Copyright: (C) Copyright 2010-2019 by IWLTBAP SAS
# Cannot be resold, shared or otherwise redistributed
# Website: https://luts.iwltbap.com
TITLE "IWLTBAP 9730 (Rec.709, sRGB, DCI-P3)"
LUT_3D_SIZE 5
0.002808 0.004242 0.000000
0.128192 0.022228 0.000000
0.352137 0.036705 0.000000
0.569299 0.112522 0.000000
0.696899 0.224945 0.000000
0.000000 0.121542 0.002766
0.126858 0.130555 0.000000
0.275735 0.174440 0.000126
0.518947 0.238700 0.020572
0.743573 0.354055 0.016908
0.019134 0.299918 0.111410
0.124106 0.322066 0.004236
0.395340 0.335832 0.027467
0.596479 0.387999 0.034452
0.781188 0.506468 0.101561
0.143460 0.509041 0.285396
0.189796 0.572472 0.179044
0.470702 0.547802 0.032819
0.683185 0.612246 0.052420
0.798415 0.625269 0.316393
0.261993 0.673218 0.466858
0.302491 0.686549 0.492079
0.584779 0.760015 0.378238
0.712062 0.761291 0.368606
0.829803 0.810883 0.448914
0.000366 0.049857 0.097572
0.103591 0.051127 0.097081
0.311790 0.039709 0.045258
0.609381 0.085889 0.000000
0.684270 0.255666 0.113468
0.000000 0.178821 0.126004
0.018952 0.204302 0.191709
0.398575 0.196100 0.101238
0.597526 0.250477 0.147026
0.724685 0.373552 0.260109
0.010644 0.316154 0.249160
0.049619 0.399987 0.226318
0.434497 0.429490 0.059126
0.671926 0.477243 0.200478
0.775779 0.505127 0.362418
0.158896 0.531714 0.333885
0.172178 0.551094 0.336094
0.394623 0.639905 0.251718
0.693930 0.652618 0.322942
0.804092 0.648087 0.418194
0.286111 0.693391 0.509477
0.335904 0.717150 0.554893
0.539849 0.781445 0.555882
0.725975 0.776392 0.440080
0.836147 0.822484 0.533036
0.039529 0.075251 0.373854
0.122815 0.086314 0.331020
0.273327 0.099330 0.281244
0.534068 0.228426 0.272558
0.695044 0.344660 0.429988
0.010210 0.293849 0.303065
0.067217 0.177101 0.440765
0.321401 0.192367 0.426495
0.571129 0.308918 0.358381
0.766418 0.426099 0.447961
0.086029 0.442842 0.394806
0.097571 0.467498 0.425540
0.321460 0.475237 0.506661
0.672485 0.522345 0.494190
0.814045 0.553830 0.549455
0.187782 0.585137 0.493961
0.226727 0.622483 0.495102
0.413630 0.676556 0.580570
0.711397 0.704287 0.518028
0.858873 0.738789 0.618016
0.351901 0.747899 0.628717
0.406547 0.777796 0.654014
0.536055 0.841103 0.688832
0.724628 0.852767 0.651364
0.882560 0.881871 0.684323
0.068341 0.111163 0.669059
0.211329 0.104714 0.583097
0.476731 0.189859 0.575747
0.676928 0.330875 0.561251
0.775780 0.407529 0.613067
0.088329 0.423407 0.559326
0.179014 0.303445 0.645043
0.493254 0.311503 0.662655
0.671760 0.396926 0.579764
0.776462 0.475718 0.643555
0.150162 0.561432 0.601152
0.215813 0.587820 0.621207
0.464414 0.539958 0.708657
0.720714 0.551523 0.669321
0.822985 0.619121 0.680740
0.287605 0.687555 0.687368
0.348573 0.710657 0.688588
0.482670 0.774038 0.759747
0.706215 0.788388 0.788196
0.875981 0.824925 0.798371
0.436517 0.827850 0.810158
0.478205 0.856225 0.829000
0.573865 0.894554 0.871670
0.728978 0.918930 0.884469
0.910715 0.934686 0.862241
0.273895 0.322693 0.860321
0.516516 0.277848 0.859868
0.648442 0.349191 0.814403
0.760355 0.394028 0.781682
0.877380 0.464020 0.846161
0.270411 0.545443 0.801698
0.418430 0.431997 0.880959
0.634031 0.400686 0.866055
0.786584 0.426656 0.858516
0.895680 0.572743 0.864143
0.334006 0.687562 0.768317
0.402056 0.699608 0.788278
0.600711 0.653883 0.900698
0.801318 0.601038 0.884832
0.907625 0.706398 0.863594
0.428492 0.809272 0.855294
0.462216 0.830121 0.875332
0.574831 0.878309 0.913744
0.744399 0.867408 0.927966
0.934332 0.846985 0.942863
0.598175 0.915558 0.941589
0.636902 0.923998 0.947160
0.705676 0.940071 0.960013
0.797903 0.954877 0.977016
0.928711 0.968781 0.995026
