nova/tdt-studio/app/Lut_mau/.cube LUT/Gyrenam - Standard.cube
# Copyright: (C) Copyright 2010-2018 by IWLTBAP SAS
# Cannot be resold, shared or otherwise redistributed
# Website: https://luts.iwltbap.com
TITLE "IWLTBAP Gyrenam (Rec.709, sRGB, DCI-P3)"
LUT_3D_SIZE 33
0.000000 0.000000 0.000000
0.000000 0.000000 0.001556
0.002350 0.000000 0.003937
0.017334 0.000000 0.006287
0.047150 0.000000 0.008667
0.084930 0.000000 0.009460
0.130859 0.001556 0.009460
0.168060 0.002350 0.012604
0.203857 0.005524 0.019714
0.234009 0.009460 0.024445
0.266663 0.011810 0.026794
0.299377 0.016541 0.032501
0.333893 0.018921 0.034088
0.363159 0.021271 0.036285
0.396454 0.022858 0.037079
0.423706 0.024445 0.039398
0.449402 0.026794 0.042572
0.481445 0.032501 0.044952
0.509216 0.035492 0.047943
0.537354 0.036285 0.050842
0.562836 0.038635 0.054291
0.585480 0.040222 0.056946
0.611023 0.042572 0.059509
0.632568 0.044159 0.062592
0.653168 0.044159 0.065582
0.675171 0.044159 0.069580
0.700043 0.050842 0.070679
0.721985 0.056305 0.071808
0.744537 0.055634 0.072327
0.771179 0.052917 0.076569
0.794891 0.052246 0.081085
0.822937 0.052917 0.081085
0.849091 0.055634 0.082550
0.003143 0.001556 0.000793
0.003143 0.003143 0.000793
0.007080 0.006287 0.001587
0.040192 0.011047 0.002380
0.090881 0.007874 0.000793
0.147827 0.007080 0.001587
0.179810 0.008667 0.004730
0.208710 0.011047 0.007904
0.233490 0.012604 0.011047
0.260956 0.014984 0.016571
0.286530 0.018127 0.022095
0.314941 0.021271 0.026031
0.346039 0.022858 0.032501
0.374359 0.025238 0.032501
0.404785 0.026794 0.035492
0.430664 0.027740 0.038635
0.456177 0.032501 0.041809
0.486877 0.036255 0.044159
0.514374 0.038635 0.047180
0.543213 0.039398 0.050110
0.565887 0.040985 0.053619
0.588287 0.043365 0.056305
0.614075 0.045685 0.059509
0.634705 0.046448 0.062012
0.655426 0.045685 0.065582
0.679443 0.047150 0.068451
0.702087 0.053589 0.070160
0.723602 0.058228 0.071259
0.747314 0.057587 0.072327
0.772888 0.054291 0.076569
0.796692 0.054291 0.080109
0.825073 0.055603 0.080109
0.851166 0.058228 0.082062
0.040192 0.007874 0.000793
0.045685 0.011047 0.001556
0.024445 0.018127 0.003937
0.050079 0.023651 0.003937
0.076538 0.036255 0.005524
0.146118 0.040985 0.003937
0.202850 0.036255 0.003143
0.242371 0.025238 0.003174
0.267548 0.025238 0.006317
0.285828 0.024445 0.011047
0.307281 0.025238 0.018158
0.335052 0.026794 0.023651
0.360168 0.029327 0.026825
0.385406 0.034027 0.030914
0.414520 0.034027 0.034088
0.438599 0.036255 0.037842
0.467865 0.037842 0.041016
0.493256 0.040192 0.043365
0.519440 0.041779 0.045715
0.546967 0.042572 0.049408
0.569122 0.044159 0.052917
0.591461 0.046448 0.055634
0.616730 0.048676 0.058868
0.637085 0.048676 0.062012
0.657776 0.048676 0.065002
0.683136 0.051514 0.067902
0.704315 0.056915 0.069580
0.725555 0.060120 0.070679
0.750977 0.060120 0.072327
0.774689 0.056305 0.076569
0.798523 0.056274 0.079620
0.827423 0.058228 0.079620
0.853455 0.060760 0.081604
0.102478 0.019714 0.001556
0.113861 0.025238 0.001556
0.117523 0.030914 0.002350
0.069000 0.046448 0.007874
0.117523 0.049377 0.005524
0.108826 0.060760 0.009460
0.173431 0.066162 0.007874
0.227966 0.066742 0.004730
0.275879 0.059509 0.004730
0.309937 0.047943 0.005524
0.338348 0.044159 0.011047
0.357544 0.044159 0.018158
0.378174 0.043365 0.023651
0.404236 0.044159 0.029327
0.427002 0.043365 0.034088
0.449554 0.043365 0.037079
0.477661 0.045685 0.040222
0.502319 0.047150 0.042572
0.524994 0.047943 0.044952
0.551575 0.047943 0.047943
0.573853 0.049377 0.052246
0.595703 0.052216 0.054932
0.620392 0.053589 0.058228
0.640442 0.052917 0.060760
0.661133 0.053589 0.063812
0.686279 0.056915 0.066742
0.707428 0.061371 0.069031
0.728210 0.063782 0.070679
0.754608 0.062592 0.072876
0.777313 0.060120 0.076050
0.801178 0.058868 0.078094
0.830750 0.062592 0.078583
0.856720 0.064392 0.081085
0.170990 0.045685 0.001587
0.173401 0.048676 0.002350
0.175537 0.051514 0.002350
0.179810 0.055603 0.003143
0.115356 0.069000 0.011047
0.172668 0.067871 0.006287
0.151520 0.080109 0.011047
0.195282 0.086304 0.011047
0.241882 0.088654 0.010254
0.289032 0.087280 0.007874
0.334351 0.080597 0.011047
0.371613 0.064392 0.011841
0.403595 0.058228 0.013428
0.422028 0.058868 0.021301
0.441742 0.057587 0.027802
0.466919 0.056915 0.035492
0.489380 0.057587 0.038635
0.510315 0.057587 0.041016
0.532288 0.056915 0.043365
0.557800 0.056274 0.046448
0.579468 0.056915 0.050110
0.600708 0.059509 0.053619
0.624847 0.061371 0.056946
0.645599 0.060760 0.059509
0.665955 0.060760 0.062592
0.690765 0.064392 0.065582
0.711517 0.067871 0.067902
0.732269 0.069000 0.070160
0.758118 0.067322 0.072327
0.780945 0.065582 0.075012
0.805328 0.064972 0.076569
0.835083 0.067871 0.077606
0.861206 0.070648 0.081085
0.218811 0.061371 0.002350
0.219696 0.063782 0.002350
0.221436 0.066742 0.002380
0.221436 0.069580 0.003143
0.212860 0.075500 0.005524
0.158539 0.088196 0.014191
0.219910 0.082550 0.006317
0.202850 0.095490 0.012604
0.215759 0.106964 0.014984
0.263458 0.110077 0.013397
0.302917 0.110840 0.011810
0.346771 0.108917 0.012604
0.385956 0.103729 0.014984
0.426208 0.084930 0.016541
0.455688 0.076538 0.016571
0.481873 0.074982 0.022888
0.501312 0.073944 0.029327
0.521759 0.073395 0.037079
0.545624 0.072327 0.040222
0.566650 0.070648 0.044159
0.586792 0.069580 0.047943
0.610291 0.070129 0.051544
0.631561 0.071228 0.054932
0.651703 0.071777 0.057587
0.671967 0.070648 0.061371
0.696442 0.074463 0.064423
0.716461 0.077057 0.066742
0.737366 0.076538 0.069031
0.762299 0.074982 0.071259
0.785492 0.073395 0.073425
0.810516 0.073395 0.075012
0.840820 0.076019 0.077087
0.866638 0.077057 0.080109
0.258148 0.076019 0.003143
0.258453 0.077576 0.003937
0.258759 0.079102 0.003937
0.259552 0.081573 0.003937
0.259857 0.084473 0.004730
0.237305 0.092651 0.007874
0.201416 0.108154 0.016541
0.265137 0.096344 0.007080
0.243011 0.112762 0.012634
0.237976 0.124207 0.018921
0.279510 0.127930 0.018127
0.321594 0.130219 0.017334
0.361969 0.129578 0.016541
0.402283 0.126587 0.016541
0.437683 0.121094 0.016571
0.475677 0.109314 0.017365
0.506134 0.093536 0.019714
0.530945 0.089111 0.022888
0.554504 0.090881 0.029327
0.574982 0.090454 0.037842
0.595551 0.088196 0.043365
0.619354 0.086304 0.048676
0.638885 0.086304 0.052917
0.658844 0.084930 0.056305
0.682770 0.084930 0.059509
0.702850 0.086304 0.062592
0.722504 0.087738 0.065582
0.743500 0.087280 0.067902
0.768585 0.085419 0.070160
0.791260 0.083984 0.071808
0.817383 0.083984 0.073425
0.847229 0.086304 0.076569
0.873657 0.087280 0.079102
0.289581 0.088654 0.005524
0.290131 0.089996 0.005524
0.290253 0.091339 0.005524
0.290802 0.093079 0.005524
0.291626 0.097198 0.006287
0.291626 0.102509 0.006287
0.267578 0.113495 0.011047
0.234375 0.125244 0.019714
0.292023 0.114258 0.008667
0.282745 0.126587 0.014191
0.278900 0.139038 0.019714
0.300446 0.145844 0.022064
0.343170 0.148987 0.022064
0.379883 0.148987 0.021271
0.417725 0.147858 0.020508
0.448120 0.144104 0.020508
0.486145 0.139038 0.017365
0.518646 0.128571 0.016571
0.553253 0.116089 0.019714
0.579987 0.107361 0.021301
0.602173 0.109711 0.026031
0.625977 0.110077 0.039398
0.646210 0.108521 0.048676
0.665131 0.106171 0.052917
0.689362 0.105774 0.056946
0.709351 0.105774 0.059509
0.730194 0.105774 0.062592
0.755280 0.105377 0.065582
0.776611 0.103729 0.068451
0.798645 0.099701 0.070679
0.827209 0.098907 0.071808
0.855042 0.102509 0.075012
0.881561 0.103729 0.077606
0.323242 0.104156 0.007874
0.324951 0.105774 0.007874
0.324707 0.106567 0.007874
0.325195 0.108154 0.007874
0.326202 0.110474 0.007874
0.327148 0.113129 0.008667
0.327759 0.116455 0.008667
0.292450 0.130859 0.015778
0.271759 0.142029 0.022064
0.321533 0.131531 0.012604
0.323486 0.140839 0.015778
0.316528 0.153442 0.020508
0.329010 0.169220 0.025238
0.363678 0.172211 0.026794
0.401184 0.172943 0.026794
0.432220 0.172211 0.026001
0.467407 0.169739 0.024445
0.497620 0.162659 0.020508
0.528015 0.156433 0.017365
0.563080 0.146729 0.018158
0.594757 0.134399 0.018158
0.626343 0.125580 0.019714
0.650208 0.123871 0.023651
0.671722 0.125916 0.040222
0.695648 0.122498 0.049408
0.716309 0.120392 0.052917
0.737762 0.121094 0.057587
0.763306 0.123199 0.062592
0.784393 0.120392 0.066162
0.807098 0.117920 0.069031
0.836761 0.117188 0.071259
0.863953 0.117554 0.073944
0.891724 0.117554 0.076050
0.355835 0.115356 0.009460
0.356689 0.116455 0.009460
0.356781 0.117554 0.010254
0.356903 0.118622 0.010254
0.357422 0.120758 0.010254
0.359039 0.123535 0.010254
0.359650 0.126251 0.011047
0.361237 0.130219 0.011810
0.325958 0.148438 0.018127
0.307037 0.160400 0.025238
0.353424 0.148712 0.015778
0.362427 0.154541 0.017334
0.358612 0.173706 0.022858
0.363373 0.187775 0.027740
0.387848 0.192230 0.035461
0.420197 0.194214 0.037048
0.449097 0.193115 0.036255
0.484039 0.192230 0.034027
0.511505 0.188232 0.027740
0.543915 0.183929 0.022064
0.573151 0.177368 0.019714
0.606079 0.169495 0.022064
0.640259 0.150116 0.021301
0.667969 0.144684 0.020508
0.701050 0.136261 0.023651
0.723724 0.140533 0.039398
0.747437 0.139954 0.048676
0.773499 0.140533 0.054932
0.795288 0.139343 0.060760
0.818542 0.138428 0.066162
0.847473 0.135651 0.070160
0.874695 0.135315 0.073425
0.906311 0.135651 0.075012
0.386597 0.127258 0.011810
0.387177 0.128265 0.011810
0.387573 0.128906 0.012604
0.387848 0.130219 0.012604
0.388855 0.131836 0.012604
0.391113 0.134064 0.012604
0.394958 0.136871 0.013397
0.396088 0.139648 0.013397
0.398438 0.143524 0.013397
0.357117 0.171478 0.022858
0.348175 0.184174 0.029327
0.383667 0.169220 0.018921
0.402100 0.172211 0.018921
0.398438 0.189362 0.025238
0.403503 0.204681 0.032501
0.418243 0.214417 0.038635
0.444702 0.213257 0.040192
0.476044 0.213654 0.041779
0.502960 0.214020 0.040985
0.527344 0.211273 0.038635
0.557373 0.207733 0.034027
0.586700 0.202240 0.026001
0.620117 0.196320 0.024445
0.649933 0.186676 0.025238
0.685852 0.173950 0.026001
0.717987 0.166260 0.026825
0.755463 0.153992 0.026825
0.781219 0.155884 0.037842
0.806244 0.157776 0.047180
0.834900 0.158295 0.055634
0.860291 0.156708 0.064423
0.887207 0.155090 0.070679
0.917694 0.155090 0.074463
0.419922 0.139343 0.014191
0.420624 0.140228 0.014191
0.421265 0.141144 0.014191
0.421417 0.142029 0.014191
0.421875 0.143524 0.014984
0.422638 0.145264 0.014984
0.424225 0.148132 0.014984
0.425354 0.151245 0.015778
0.426117 0.154816 0.015778
0.424377 0.162659 0.016541
0.388855 0.191376 0.027740
0.383667 0.204681 0.035461
0.415405 0.189362 0.023651
0.434387 0.186218 0.021271
0.433655 0.204071 0.026825
0.437988 0.220673 0.036285
0.446075 0.239655 0.041779
0.473328 0.240356 0.045685
0.496552 0.241028 0.047943
0.521027 0.240356 0.047150
0.547485 0.237915 0.045685
0.573273 0.234924 0.044159
0.600830 0.227081 0.040985
0.632355 0.221985 0.035461
0.661438 0.215179 0.029327
0.696991 0.205719 0.029327
0.732880 0.193329 0.030914
0.771667 0.184845 0.034088
0.806976 0.178314 0.035492
0.843719 0.174683 0.035492
0.871918 0.179016 0.046448
0.901917 0.180420 0.058868
0.929535 0.179504 0.069580
0.446960 0.151245 0.015778
0.447540 0.152344 0.015778
0.448090 0.153168 0.015778
0.448334 0.154266 0.015778
0.448578 0.155640 0.015778
0.449158 0.157501 0.015778
0.450439 0.159882 0.016541
0.452454 0.165710 0.016541
0.453247 0.170227 0.016571
0.454742 0.173950 0.016571
0.447449 0.185547 0.019714
0.424377 0.211853 0.035461
0.421875 0.224915 0.040192
0.447144 0.206512 0.026794
0.472534 0.200165 0.022888
0.471069 0.219147 0.030914
0.475433 0.241028 0.039398
0.482330 0.257202 0.044159
0.499115 0.264679 0.049377
0.520630 0.264374 0.052216
0.545441 0.263123 0.053589
0.566833 0.260956 0.053589
0.591278 0.259094 0.053589
0.619537 0.255280 0.050812
0.646912 0.250916 0.047943
0.676453 0.246277 0.042572
0.711151 0.239838 0.037842
0.749329 0.226562 0.034088
0.789886 0.214996 0.032501
0.835388 0.205505 0.035492
0.876343 0.201202 0.037842
0.920288 0.188934 0.037079
0.938721 0.194000 0.042572
0.479248 0.168274 0.016571
0.479675 0.169220 0.016571
0.480316 0.170227 0.016571
0.480774 0.171234 0.016571
0.481140 0.172455 0.016571
0.481567 0.174194 0.017334
0.482605 0.176392 0.017334
0.484314 0.179016 0.017365
0.486267 0.182556 0.018127
0.487366 0.186005 0.018921
0.489441 0.190033 0.018921
0.478638 0.205322 0.024445
0.455627 0.236542 0.040192
0.454681 0.248779 0.044159
0.480896 0.226746 0.034027
0.504517 0.212860 0.023651
0.502533 0.239319 0.035492
0.507660 0.258453 0.041809
0.515198 0.275879 0.046448
0.526123 0.289703 0.051544
0.549255 0.288208 0.056915
0.567749 0.287659 0.060120
0.587433 0.286255 0.061371
0.612549 0.284149 0.061371
0.637207 0.280762 0.059509
0.663177 0.277191 0.058868
0.695221 0.272797 0.055603
0.727600 0.268158 0.050812
0.769562 0.262054 0.044922
0.808533 0.253357 0.037842
0.858307 0.243073 0.029327
0.912323 0.227264 0.030914
0.933990 0.219910 0.037842
0.505646 0.180176 0.017365
0.505920 0.180878 0.017365
0.506531 0.181854 0.017365
0.507080 0.183014 0.018127
0.507324 0.184174 0.018127
0.507721 0.185760 0.018127
0.508575 0.187775 0.018921
0.510040 0.190491 0.018921
0.511993 0.193756 0.019714
0.513489 0.196991 0.020508
0.514862 0.200592 0.020508
0.517334 0.204681 0.021271
0.504730 0.226013 0.029327
0.490051 0.258606 0.044922
0.491425 0.271454 0.047943
0.510712 0.252228 0.039398
0.534485 0.226898 0.026794
0.535889 0.255768 0.038635
0.543396 0.276184 0.044952
0.549622 0.295929 0.049408
0.557068 0.317749 0.052917
0.572296 0.320831 0.060150
0.590607 0.319366 0.065582
0.613098 0.317627 0.069000
0.632904 0.315521 0.069580
0.655914 0.311462 0.067871
0.684418 0.307373 0.067322
0.713776 0.304108 0.064972
0.752991 0.299347 0.061371
0.791718 0.292694 0.056274
0.836670 0.286804 0.048676
0.882019 0.279755 0.038635
0.931335 0.266663 0.032501
0.531891 0.193329 0.018158
0.532349 0.194214 0.018158
0.532867 0.194855 0.018158
0.533752 0.195892 0.018158
0.534241 0.197205 0.018921
0.535034 0.198700 0.018921
0.536560 0.200592 0.019714
0.538391 0.203064 0.020508
0.541473 0.205719 0.020508
0.543640 0.209137 0.021271
0.544617 0.212250 0.022064
0.546265 0.215942 0.022858
0.548981 0.220490 0.023651
0.531891 0.252228 0.037842
0.521423 0.282043 0.049377
0.523560 0.295868 0.051514
0.544861 0.274261 0.044159
0.565338 0.252869 0.035461
0.568604 0.271912 0.041809
0.572174 0.294098 0.047180
0.578064 0.319275 0.052246
0.585754 0.337891 0.055634
0.597412 0.348175 0.061371
0.618164 0.347534 0.069580
0.635895 0.345703 0.073944
0.655060 0.344360 0.076019
0.676819 0.340790 0.076019
0.704865 0.336517 0.074982
0.734955 0.334106 0.073395
0.775482 0.329987 0.072327
0.814606 0.327026 0.067871
0.862610 0.322815 0.060760
0.915558 0.318390 0.054291
0.562958 0.207123 0.019714
0.563385 0.207733 0.019714
0.563812 0.208344 0.019714
0.564545 0.209320 0.020508
0.564972 0.210510 0.020508
0.565338 0.211670 0.020508
0.565979 0.213440 0.021271
0.566956 0.215393 0.022064
0.568420 0.217865 0.022064
0.570404 0.220856 0.022858
0.572174 0.224182 0.023651
0.573425 0.227844 0.024445
0.575592 0.236176 0.026001
0.578644 0.241547 0.027740
0.563080 0.275879 0.044159
0.554199 0.311859 0.053589
0.556366 0.323517 0.055603
0.572479 0.300690 0.047943
0.591675 0.273682 0.040985
0.597687 0.288635 0.044159
0.601166 0.317780 0.050110
0.610291 0.339081 0.054932
0.618622 0.358093 0.058868
0.626709 0.379883 0.063202
0.642395 0.380188 0.072327
0.659729 0.379181 0.079102
0.682800 0.379181 0.082062
0.703400 0.377045 0.083984
0.727905 0.373383 0.083496
0.763062 0.369965 0.082062
0.798859 0.363800 0.081085
0.845032 0.359650 0.078552
0.895020 0.356140 0.073395
0.590485 0.220703 0.022064
0.590820 0.221252 0.022064
0.591156 0.221802 0.022858
0.591858 0.222717 0.022858
0.592438 0.223816 0.022858
0.592773 0.225098 0.023651
0.593323 0.226562 0.024445
0.594086 0.229248 0.024445
0.595093 0.234253 0.025238
0.596619 0.237762 0.026001
0.598694 0.241394 0.026794
0.600037 0.244934 0.027740
0.601379 0.248779 0.029327
0.603455 0.253204 0.030914
0.605164 0.261902 0.035461
0.589233 0.303711 0.049377
0.582153 0.337677 0.057587
0.585236 0.348175 0.058868
0.600372 0.326904 0.052917
0.622467 0.303986 0.044922
0.630463 0.312866 0.046448
0.633453 0.338623 0.053619
0.639557 0.360291 0.057587
0.646729 0.384460 0.062592
0.654877 0.403137 0.066742
0.667480 0.410278 0.074463
0.688751 0.409637 0.082550
0.707733 0.409729 0.088654
0.728973 0.409454 0.091553
0.758911 0.406891 0.091553
0.790131 0.403290 0.089996
0.832764 0.400696 0.089539
0.879333 0.398071 0.088654
0.620392 0.238129 0.024445
0.620819 0.238800 0.024445
0.621216 0.239319 0.024445
0.621887 0.240356 0.025238
0.622620 0.241577 0.025238
0.623016 0.242767 0.026001
0.623505 0.244263 0.026001
0.624298 0.246277 0.026794
0.625214 0.248444 0.026794
0.626709 0.251068 0.027740
0.628540 0.254333 0.029327
0.630981 0.258453 0.032501
0.632050 0.262054 0.034027
0.633636 0.266357 0.035461
0.636261 0.271301 0.036255
0.633057 0.287354 0.040985
0.619598 0.331421 0.054932
0.614563 0.365265 0.061981
0.618225 0.376648 0.063202
0.632324 0.352448 0.056274
0.649475 0.331055 0.050110
0.661163 0.332611 0.049408
0.663483 0.358521 0.055634
0.669250 0.386536 0.060760
0.678101 0.406921 0.065002
0.688049 0.425262 0.069580
0.697906 0.442627 0.075012
0.715057 0.442871 0.085907
0.735535 0.444611 0.096863
0.762665 0.445892 0.100861
0.790131 0.445984 0.101257
0.825989 0.443115 0.102081
0.868591 0.440948 0.100830
0.647888 0.252869 0.026794
0.648315 0.253357 0.026794
0.648712 0.253998 0.026794
0.649231 0.254822 0.026794
0.650085 0.256104 0.027740
0.650665 0.257202 0.027740
0.651154 0.258789 0.029327
0.651825 0.260681 0.029327
0.652618 0.263000 0.030914
0.653778 0.265747 0.032501
0.655365 0.268921 0.034027
0.657227 0.272644 0.035461
0.659027 0.276611 0.036255
0.660217 0.280365 0.037048
0.662384 0.285278 0.038635
0.665497 0.291077 0.039398
0.659027 0.319000 0.046448
0.646729 0.358276 0.059509
0.642395 0.394928 0.067871
0.646729 0.403503 0.068451
0.660828 0.383850 0.060760
0.683685 0.355743 0.053619
0.697998 0.349518 0.051544
0.700226 0.384277 0.058228
0.704773 0.408569 0.063812
0.711365 0.430847 0.068451
0.719116 0.451904 0.072876
0.727692 0.469299 0.076569
0.744751 0.473785 0.087738
0.771667 0.477142 0.101288
0.796417 0.480072 0.105774
0.828857 0.481293 0.108154
0.864563 0.481140 0.109314
0.677185 0.268494 0.030914
0.677795 0.268921 0.030914
0.678528 0.269531 0.030914
0.679443 0.270294 0.030914
0.680847 0.271637 0.032501
0.681885 0.272797 0.032501
0.682587 0.274292 0.032501
0.683197 0.276031 0.034027
0.683990 0.278198 0.035461
0.684998 0.280640 0.035492
0.686462 0.283325 0.036255
0.688568 0.286957 0.037048
0.691162 0.291229 0.038635
0.692902 0.296722 0.039398
0.694672 0.303589 0.040192
0.697327 0.308685 0.041779
0.700867 0.315155 0.042572
0.690643 0.345703 0.051514
0.676758 0.391479 0.064392
0.670898 0.423096 0.071808
0.676941 0.433289 0.072327
0.694702 0.411011 0.065002
0.714874 0.390137 0.059509
0.734711 0.377075 0.054932
0.735138 0.409210 0.061371
0.739105 0.437164 0.066162
0.746216 0.458710 0.070160
0.758118 0.478271 0.074463
0.766815 0.496338 0.078583
0.780884 0.509399 0.086823
0.805817 0.513428 0.102936
0.836945 0.516449 0.109314
0.868591 0.519531 0.113892
0.709076 0.284027 0.034088
0.709351 0.284454 0.034088
0.709778 0.285004 0.034088
0.710236 0.285706 0.035461
0.711090 0.286957 0.035492
0.712006 0.288361 0.035492
0.712585 0.289856 0.036255
0.713440 0.291779 0.037048
0.714569 0.294098 0.037079
0.715912 0.299408 0.037842
0.717560 0.303589 0.038635
0.719757 0.306976 0.039398
0.722321 0.311096 0.040192
0.725403 0.315918 0.041779
0.727295 0.320831 0.042572
0.729889 0.326569 0.044159
0.733368 0.332977 0.045685
0.737885 0.340363 0.047150
0.721039 0.382874 0.058228
0.709381 0.419678 0.069580
0.704193 0.453278 0.077087
0.709534 0.459259 0.076569
0.727051 0.443298 0.069580
0.753723 0.422150 0.063202
0.783051 0.402100 0.058228
0.781311 0.440094 0.064423
0.783844 0.465942 0.069031
0.789612 0.486298 0.072876
0.797363 0.508087 0.077087
0.806061 0.524933 0.081085
0.814911 0.539917 0.084961
0.845581 0.543793 0.103333
0.875366 0.548676 0.113525
0.743988 0.305542 0.037079
0.744476 0.306061 0.037079
0.744904 0.306580 0.037079
0.746216 0.307526 0.037842
0.747986 0.308685 0.037842
0.750427 0.310211 0.037842
0.751770 0.311615 0.038635
0.753387 0.313477 0.039398
0.754547 0.315643 0.040192
0.756104 0.318390 0.040222
0.757812 0.321808 0.040985
0.760040 0.325836 0.042572
0.762726 0.330353 0.043365
0.765961 0.335541 0.044159
0.768921 0.340912 0.045685
0.771179 0.346191 0.046448
0.774628 0.352448 0.047943
0.778748 0.359589 0.049408
0.783844 0.371429 0.050842
0.759186 0.417206 0.063782
0.742096 0.454437 0.073944
0.735870 0.481964 0.081604
0.742523 0.488220 0.080597
0.766571 0.474762 0.072327
0.794403 0.460052 0.066742
0.837402 0.428284 0.061371
0.833618 0.466248 0.066162
0.834900 0.492981 0.071259
0.840027 0.517273 0.075531
0.846436 0.535187 0.079102
0.854187 0.551514 0.082062
0.862976 0.570740 0.084473
0.883606 0.578461 0.102539
0.786804 0.325592 0.041016
0.787231 0.326202 0.041016
0.787720 0.326935 0.041016
0.788269 0.327759 0.041779
0.789246 0.329163 0.041809
0.790344 0.330597 0.041809
0.791351 0.332489 0.042572
0.792358 0.334473 0.042572
0.793549 0.336761 0.043365
0.795105 0.339539 0.044159
0.796936 0.342743 0.044922
0.799164 0.346283 0.045685
0.802032 0.350311 0.046448
0.805450 0.355072 0.047180
0.809418 0.360199 0.047943
0.812500 0.369263 0.049408
0.815582 0.374725 0.050110
0.824036 0.380981 0.051544
0.829529 0.388794 0.052246
0.832886 0.400513 0.054291
0.799164 0.455536 0.068451
0.783173 0.487091 0.078583
0.775360 0.516052 0.084961
0.783051 0.521240 0.083038
0.807465 0.509979 0.076569
0.844330 0.492859 0.070679
0.892029 0.470764 0.065002
0.894592 0.500916 0.068451
0.889221 0.526337 0.073425
0.893066 0.546509 0.077087
0.899963 0.566589 0.080597
0.906311 0.582886 0.084015
0.914429 0.597076 0.086823
0.836029 0.347656 0.044159
0.836395 0.348328 0.044159
0.836945 0.348877 0.044159
0.837646 0.349762 0.044159
0.838593 0.350861 0.044159
0.839783 0.352356 0.044952
0.841125 0.354095 0.044952
0.842285 0.356049 0.045715
0.843719 0.358398 0.045715
0.845642 0.361115 0.046448
0.847900 0.367401 0.047180
0.850464 0.371643 0.047943
0.853821 0.375549 0.047943
0.857666 0.380096 0.049408
0.862244 0.385254 0.050110
0.867249 0.391113 0.050842
0.870789 0.396667 0.051544
0.875092 0.402954 0.052246
0.880493 0.410034 0.052917
0.886993 0.418457 0.054291
0.882080 0.443451 0.057587
0.847656 0.490479 0.073395
0.829102 0.522369 0.082550
0.812836 0.544983 0.089111
0.825409 0.549683 0.087280
0.856567 0.541473 0.079620
0.898926 0.531250 0.073944
0.930603 0.509766 0.069580
0.932190 0.526215 0.104553
0.935883 0.551819 0.075012
0.940613 0.575287 0.079102
0.945221 0.592194 0.083038
0.949890 0.608215 0.086823
0.888733 0.375244 0.046448
0.889221 0.375763 0.046448
0.889832 0.376465 0.046448
0.890930 0.377258 0.046448
0.893372 0.378479 0.046448
0.896179 0.380096 0.047180
0.898865 0.382080 0.047180
0.900208 0.383881 0.047943
0.901794 0.386230 0.047943
0.903748 0.388885 0.048676
0.906097 0.391968 0.049408
0.908783 0.395508 0.050110
0.912048 0.399597 0.050110
0.916077 0.404053 0.050842
0.920593 0.409302 0.051544
0.925659 0.414978 0.052917
0.929047 0.420654 0.053619
0.928894 0.426758 0.054932
0.928833 0.437256 0.055634
0.928711 0.444519 0.057587
0.928650 0.452545 0.058868
0.929413 0.481384 0.062592
0.900391 0.529938 0.078094
0.873169 0.554565 0.086334
0.858887 0.579254 0.092468
0.869873 0.583405 0.088196
0.907928 0.576477 0.082062
0.937988 0.560913 0.076569
0.934387 0.560913 0.227173
0.935547 0.577332 0.262665
0.940491 0.595764 0.261902
0.945862 0.613373 0.270416
0.951874 0.628662 0.274567
0.929779 0.398254 0.049408
0.929779 0.398743 0.049408
0.929779 0.399200 0.049408
0.929718 0.399872 0.049408
0.929718 0.400909 0.050110
0.929657 0.402191 0.050110
0.929596 0.403778 0.050110
0.929779 0.409393 0.069580
0.929321 0.414978 0.083496
0.929413 0.409668 0.051544
0.929230 0.414093 0.060120
0.928711 0.424927 0.092468
0.928497 0.435913 0.106171
0.927368 0.446472 0.126251
0.927795 0.445648 0.114624
0.927307 0.456787 0.134705
0.928558 0.470215 0.162231
0.928558 0.480133 0.176880
0.928497 0.482635 0.170502
0.928406 0.497375 0.192017
0.929321 0.511353 0.211670
0.929260 0.518372 0.214996
0.930023 0.540649 0.199951
