nova/tdt-studio/app/Lut_mau/.cube LUT/Gyrenam - Standard.cube
# Copyright: (C) Copyright 2010-2018 by IWLTBAP SAS
# Cannot be resold, shared or otherwise redistributed
# Website: https://luts.iwltbap.com
TITLE "IWLTBAP Gyrenam (Rec.709, sRGB, DCI-P3)"
LUT_3D_SIZE 5
0.000000 0.000000 0.000000
0.203857 0.005524 0.019714
0.449402 0.026794 0.042572
0.653168 0.044159 0.065582
0.849091 0.055634 0.082550
0.323242 0.104156 0.007874
0.271759 0.142029 0.022064
0.467407 0.169739 0.024445
0.695648 0.122498 0.049408
0.891724 0.117554 0.076050
0.562958 0.207123 0.019714
0.568420 0.217865 0.022064
0.556366 0.323517 0.055603
0.642395 0.380188 0.072327
0.895020 0.356140 0.073395
0.836029 0.347656 0.044159
0.843719 0.358398 0.045715
0.870789 0.396667 0.051544
0.825409 0.549683 0.087280
0.949890 0.608215 0.086823
0.973846 0.711823 0.583221
0.976166 0.721069 0.598724
0.983124 0.748962 0.635956
0.992645 0.809692 0.709991
0.996002 0.917511 0.824219
0.000000 0.026794 0.054291
0.163757 0.008667 0.253998
0.498016 0.016541 0.169983
0.696838 0.030914 0.127930
0.872467 0.038635 0.131531
0.079590 0.149841 0.151245
0.191803 0.226898 0.240509
0.454834 0.232849 0.193542
0.652588 0.260040 0.211853
0.854492 0.267578 0.226990
0.577301 0.204895 0.018127
0.519379 0.300995 0.190704
0.528076 0.357422 0.204895
0.633453 0.387115 0.178314
0.917572 0.379578 0.182098
0.848022 0.346527 0.042572
0.791931 0.421692 0.212067
0.814728 0.456940 0.229736
0.800659 0.568176 0.247620
0.942688 0.623962 0.210327
0.974518 0.714233 0.587341
0.977905 0.726929 0.608795
0.984222 0.754883 0.644470
0.993011 0.815247 0.721741
0.995667 0.921631 0.831512
0.000000 0.112762 0.139038
0.006287 0.155365 0.198700
0.481140 0.052917 0.480103
0.715454 0.063782 0.437805
0.916443 0.041779 0.373688
0.003937 0.196533 0.225342
0.039398 0.242065 0.268158
0.486267 0.254333 0.479279
0.716125 0.247620 0.413666
0.921539 0.223267 0.343140
0.304993 0.335968 0.303070
0.358490 0.376343 0.339417
0.502869 0.484894 0.463562
0.658234 0.466400 0.409027
0.884216 0.506256 0.439667
0.840393 0.369263 0.047943
0.806061 0.429321 0.212677
0.731964 0.543854 0.436890
0.762299 0.609222 0.451172
0.921478 0.653870 0.400513
0.977631 0.725189 0.610474
0.980408 0.735992 0.624878
0.988495 0.779785 0.679138
0.993866 0.839661 0.750427
0.995575 0.938049 0.864960
0.003143 0.172211 0.201019
0.008667 0.196991 0.235474
0.056915 0.332611 0.415283
0.708191 0.096405 0.667419
0.932007 0.117188 0.653748
0.009460 0.239655 0.267578
0.024445 0.268158 0.299744
0.078094 0.364227 0.423737
0.710236 0.279480 0.665894
0.938660 0.293793 0.638123
0.026001 0.405609 0.402771
0.101471 0.426117 0.426941
0.343628 0.492279 0.509064
0.720612 0.521423 0.667267
0.959778 0.514313 0.608673
0.549377 0.552460 0.492645
0.569122 0.570465 0.508087
0.633850 0.615814 0.561188
0.730896 0.696930 0.662018
0.953400 0.716797 0.650635
0.981354 0.740967 0.617737
0.983978 0.753326 0.636627
0.991180 0.798279 0.700256
0.995056 0.873779 0.802124
0.996429 0.964142 0.919037
0.011047 0.238129 0.268921
0.012634 0.256744 0.292023
0.031677 0.333191 0.383484
0.351379 0.617950 0.788300
0.971252 0.158051 0.891693
0.014984 0.294830 0.324768
0.027588 0.319977 0.349640
0.063782 0.382080 0.422882
0.358490 0.595520 0.711304
0.976715 0.343719 0.900055
0.044922 0.446716 0.449707
0.095245 0.461670 0.464539
0.266357 0.509399 0.516113
0.424469 0.607269 0.655334
0.984100 0.558533 0.912903
0.125580 0.630493 0.602356
0.227966 0.642181 0.612061
0.440094 0.670532 0.652588
0.630585 0.726898 0.728271
0.989227 0.750183 0.930389
0.816345 0.781738 0.669250
0.831299 0.791809 0.679474
0.870148 0.826538 0.720428
0.940796 0.902130 0.804108
0.999176 1.000000 1.000000
