nova/tdt-studio/app/Lut_mau/.cube LUT/Gyrenam - Standard.cube
# Copyright: (C) Copyright 2010-2018 by IWLTBAP SAS
# Cannot be resold, shared or otherwise redistributed
# Website: https://luts.iwltbap.com
TITLE "IWLTBAP Gyrenam (Rec.709, sRGB, DCI-P3)"
LUT_3D_SIZE 9
0.000000 0.000000 0.000000
0.047150 0.000000 0.008667
0.203857 0.005524 0.019714
0.333893 0.018921 0.034088
0.449402 0.026794 0.042572
0.562836 0.038635 0.054291
0.653168 0.044159 0.065582
0.744537 0.055634 0.072327
0.849091 0.055634 0.082550
0.170990 0.045685 0.001587
0.115356 0.069000 0.011047
0.241882 0.088654 0.010254
0.403595 0.058228 0.013428
0.489380 0.057587 0.038635
0.579468 0.056915 0.050110
0.665955 0.060760 0.062592
0.758118 0.067322 0.072327
0.861206 0.070648 0.081085
0.323242 0.104156 0.007874
0.326202 0.110474 0.007874
0.271759 0.142029 0.022064
0.329010 0.169220 0.025238
0.467407 0.169739 0.024445
0.594757 0.134399 0.018158
0.695648 0.122498 0.049408
0.784393 0.120392 0.066162
0.891724 0.117554 0.076050
0.446960 0.151245 0.015778
0.448578 0.155640 0.015778
0.453247 0.170227 0.016571
0.421875 0.224915 0.040192
0.475433 0.241028 0.039398
0.545441 0.263123 0.053589
0.646912 0.250916 0.047943
0.789886 0.214996 0.032501
0.938721 0.194000 0.042572
0.562958 0.207123 0.019714
0.564972 0.210510 0.020508
0.568420 0.217865 0.022064
0.575592 0.236176 0.026001
0.556366 0.323517 0.055603
0.601166 0.317780 0.050110
0.642395 0.380188 0.072327
0.727905 0.373383 0.083496
0.895020 0.356140 0.073395
0.677185 0.268494 0.030914
0.680847 0.271637 0.032501
0.683990 0.278198 0.035461
0.691162 0.291229 0.038635
0.700867 0.315155 0.042572
0.676941 0.433289 0.072327
0.735138 0.409210 0.061371
0.766815 0.496338 0.078583
0.868591 0.519531 0.113892
0.836029 0.347656 0.044159
0.838593 0.350861 0.044159
0.843719 0.358398 0.045715
0.853821 0.375549 0.047943
0.870789 0.396667 0.051544
0.882080 0.443451 0.057587
0.825409 0.549683 0.087280
0.932190 0.526215 0.104553
0.949890 0.608215 0.086823
0.933655 0.522247 0.290436
0.933960 0.526123 0.295563
0.934906 0.536102 0.309937
0.935303 0.546143 0.319122
0.937592 0.572021 0.352875
0.944916 0.601501 0.391663
0.951294 0.643799 0.413605
0.972870 0.683044 0.320953
0.978607 0.728485 0.580322
0.973846 0.711823 0.583221
0.974518 0.714508 0.586487
0.976166 0.721069 0.598724
0.979065 0.731415 0.612457
0.983124 0.748962 0.635956
0.987915 0.777313 0.670166
0.992645 0.809692 0.709991
0.995056 0.857178 0.759552
0.996002 0.917511 0.824219
0.000000 0.003937 0.012604
0.015778 0.027740 0.125580
0.189148 0.000000 0.112762
0.345367 0.009460 0.066742
0.468994 0.020508 0.060120
0.574036 0.026031 0.066742
0.664215 0.034088 0.073395
0.758270 0.046448 0.080597
0.855713 0.047180 0.092468
0.015778 0.073395 0.082062
0.044922 0.113129 0.131531
0.200165 0.104553 0.109711
0.331177 0.108154 0.100006
0.450470 0.118622 0.100830
0.560089 0.126923 0.104553
0.656281 0.129578 0.110840
0.752502 0.130219 0.116089
0.856293 0.116455 0.114990
0.333069 0.104156 0.007874
0.263275 0.144684 0.102936
0.263275 0.172211 0.106171
0.343842 0.181854 0.080597
0.473236 0.182312 0.080109
0.589722 0.178314 0.088196
0.682312 0.183472 0.110474
0.776215 0.181152 0.119690
0.886169 0.170227 0.119324
0.452118 0.150391 0.015778
0.418884 0.193329 0.093323
0.425110 0.203430 0.099579
0.413605 0.245270 0.108521
0.464050 0.255920 0.088654
0.544861 0.268768 0.092468
0.649841 0.260345 0.089539
0.794769 0.241028 0.082550
0.937103 0.250092 0.118622
0.566162 0.206329 0.018921
0.546661 0.242584 0.096863
0.552826 0.248108 0.092468
0.560638 0.260956 0.098724
0.546021 0.332825 0.121796
0.589844 0.329742 0.103333
0.636932 0.381775 0.116821
0.730011 0.376038 0.117920
0.902710 0.365509 0.113892
0.682129 0.267883 0.029327
0.662842 0.295868 0.102936
0.667114 0.305389 0.103333
0.673645 0.318024 0.107758
0.688049 0.336639 0.111237
0.664429 0.439331 0.139343
0.723602 0.418091 0.116821
0.760345 0.502594 0.129242
0.867645 0.520416 0.144409
0.839417 0.347198 0.043365
0.827240 0.374207 0.111603
0.830750 0.384460 0.119324
0.847290 0.390808 0.102081
0.858734 0.415131 0.117554
0.869019 0.452942 0.135651
0.814606 0.554688 0.160919
0.931946 0.533173 0.131531
0.953094 0.613495 0.135010
0.933716 0.522186 0.291138
0.934387 0.528870 0.301483
0.935303 0.538757 0.315277
0.935486 0.550323 0.329132
0.938477 0.574799 0.358429
0.945801 0.604187 0.396545
0.951294 0.643890 0.415741
0.973663 0.685425 0.330078
0.979187 0.730804 0.583405
0.973969 0.712250 0.583832
0.974762 0.715454 0.587769
0.976715 0.722992 0.601959
0.979340 0.732422 0.613800
0.983307 0.750153 0.637390
0.988312 0.779053 0.672852
0.992767 0.811707 0.712921
0.995056 0.858002 0.760925
0.995941 0.918304 0.825256
0.000000 0.026794 0.054291
0.000000 0.075500 0.112000
0.163757 0.008667 0.253998
0.357635 0.008667 0.232086
0.498016 0.016541 0.169983
0.607971 0.025238 0.132172
0.696838 0.030914 0.127930
0.778870 0.037079 0.129242
0.872467 0.038635 0.131531
0.000000 0.104156 0.127594
0.001556 0.123535 0.149841
0.160675 0.118988 0.247131
0.349060 0.108154 0.216614
0.489105 0.102081 0.164093
0.594757 0.105774 0.142334
0.687653 0.104950 0.137177
0.773834 0.101410 0.139343
0.873901 0.080597 0.135651
0.079590 0.149841 0.151245
0.112762 0.174438 0.177368
0.191803 0.226898 0.240509
0.338837 0.216919 0.196991
0.454834 0.232849 0.193542
0.562103 0.250580 0.204071
0.652588 0.260040 0.211853
0.743927 0.264832 0.221130
0.854492 0.267578 0.226990
0.444275 0.158295 0.015778
0.422913 0.195679 0.092468
0.381836 0.252869 0.192017
0.397675 0.281616 0.198700
0.457977 0.283752 0.166168
0.554443 0.286407 0.167969
0.667755 0.286804 0.179504
0.781616 0.310455 0.203644
0.906616 0.326416 0.228821
0.577301 0.204895 0.018127
0.555206 0.242065 0.096863
0.519379 0.300995 0.190704
0.528137 0.313843 0.195496
0.528076 0.357422 0.204895
0.574524 0.361053 0.179016
0.633453 0.387115 0.178314
0.737885 0.385529 0.183258
0.917572 0.379578 0.182098
0.689423 0.266357 0.027740
0.671539 0.291901 0.095093
0.637817 0.352234 0.199738
0.646606 0.363800 0.201202
0.657104 0.383667 0.208344
0.651459 0.454926 0.226990
0.703949 0.444519 0.196320
0.753540 0.511993 0.200165
0.871094 0.525543 0.202240
0.848022 0.346527 0.042572
0.839355 0.370087 0.101257
0.791931 0.421692 0.212067
0.804016 0.435333 0.211670
0.814728 0.456940 0.229736
0.841125 0.481415 0.235291
0.800659 0.568176 0.247620
0.915131 0.556976 0.220764
0.942688 0.623962 0.210327
0.934113 0.524139 0.296906
0.934845 0.530579 0.306824
0.935730 0.545837 0.331055
0.936218 0.556549 0.341736
0.942322 0.586365 0.382172
0.948181 0.611938 0.415100
0.953491 0.650940 0.444611
0.975189 0.690460 0.352661
0.980347 0.734863 0.586945
0.974518 0.714233 0.587341
0.975372 0.717621 0.595062
0.977905 0.726929 0.608795
0.980865 0.737823 0.623138
0.984222 0.754883 0.644470
0.988922 0.782288 0.677490
0.993011 0.815247 0.721741
0.995148 0.861877 0.767883
0.995667 0.921631 0.831512
0.000000 0.076019 0.105774
0.000000 0.101410 0.130554
0.017334 0.169220 0.231903
0.338837 0.027740 0.375732
0.505371 0.039398 0.359741
0.621246 0.037842 0.307098
0.711182 0.037842 0.269806
0.801910 0.037079 0.240021
0.901154 0.037079 0.227173
0.000000 0.121094 0.146423
0.001556 0.134705 0.165894
0.014984 0.179932 0.230103
0.337891 0.125244 0.371948
0.504242 0.127258 0.341339
0.619904 0.117920 0.292542
0.709351 0.112366 0.255768
0.801361 0.106567 0.233704
0.902283 0.075500 0.222656
0.001556 0.181610 0.202026
0.007080 0.195892 0.218506
0.069000 0.240356 0.265289
0.303955 0.256561 0.363251
0.501190 0.243591 0.323517
0.609924 0.238464 0.284515
0.695374 0.242401 0.262665
0.784149 0.236542 0.254150
0.886383 0.225281 0.247284
0.177490 0.237244 0.225891
0.200775 0.250763 0.239136
0.260651 0.286407 0.273834
0.362518 0.368011 0.360809
0.473297 0.341583 0.302277
0.564301 0.353973 0.303986
0.650848 0.369781 0.312714
0.744324 0.381958 0.324005
0.861664 0.394928 0.333405
0.553955 0.222717 0.023651
0.542175 0.253021 0.099152
0.522308 0.304993 0.190704
0.502899 0.370178 0.299866
0.513367 0.404419 0.313080
0.563141 0.404419 0.269379
0.640930 0.404236 0.270111
0.767853 0.404327 0.280243
0.928101 0.428284 0.303833
0.688263 0.272949 0.030914
0.673218 0.301971 0.104950
0.646881 0.355286 0.206116
0.615601 0.416046 0.308655
0.627411 0.432556 0.315521
0.636169 0.482025 0.326202
0.686035 0.483002 0.292267
0.753601 0.519196 0.288086
0.886841 0.528015 0.293091
0.867126 0.345520 0.041016
0.851318 0.373993 0.113129
0.806549 0.420197 0.210724
0.759033 0.482910 0.327759
0.775604 0.501648 0.332367
0.795715 0.524200 0.345398
0.784180 0.586426 0.352417
0.873108 0.584351 0.320465
0.919281 0.641022 0.301727
0.935760 0.532898 0.318268
0.935822 0.536957 0.324005
0.936646 0.551453 0.351532
0.942596 0.580383 0.384735
0.947235 0.600098 0.409882
0.953094 0.626526 0.446045
0.960022 0.662537 0.491180
0.977448 0.701050 0.386536
0.982941 0.744354 0.601562
0.975800 0.718872 0.599243
0.976959 0.723022 0.605377
0.978790 0.729767 0.613892
0.982605 0.746674 0.636749
0.985809 0.765350 0.660065
0.990204 0.789917 0.688232
0.993317 0.823395 0.733215
0.995270 0.869568 0.784912
0.995514 0.928864 0.848877
0.000000 0.112762 0.139038
0.000000 0.123535 0.152069
0.006287 0.155365 0.198700
0.090881 0.330719 0.461060
0.481140 0.052917 0.480103
0.615753 0.061371 0.476135
0.715454 0.063782 0.437805
0.808441 0.054291 0.403381
0.916443 0.041779 0.373688
0.000793 0.140839 0.172211
0.003143 0.151520 0.183258
0.009460 0.180878 0.221558
0.095245 0.314484 0.409515
0.482910 0.138428 0.479645
0.614716 0.145264 0.462860
0.715912 0.142029 0.425964
0.812073 0.128906 0.390411
0.919891 0.114990 0.361450
0.003937 0.196533 0.225342
0.007080 0.206512 0.234955
0.039398 0.242065 0.268158
0.114624 0.309937 0.361237
0.486267 0.254333 0.479279
0.618866 0.255615 0.448975
0.716125 0.247620 0.413666
0.811646 0.233154 0.376740
0.921539 0.223267 0.343140
0.007080 0.274261 0.288666
0.016541 0.286133 0.301605
0.082062 0.319733 0.330963
0.227966 0.376129 0.396179
0.445831 0.396637 0.477997
0.616852 0.385437 0.433594
0.707642 0.374207 0.398804
0.799164 0.377045 0.382965
0.911987 0.369141 0.371216
0.304993 0.335968 0.303070
0.319641 0.345490 0.312378
0.358490 0.376343 0.339417
0.416382 0.416748 0.387878
0.502869 0.484894 0.463562
0.578308 0.460358 0.414551
0.658234 0.466400 0.409027
0.758209 0.483521 0.422516
0.884216 0.506256 0.439667
0.652740 0.309814 0.044159
0.644501 0.325348 0.107758
0.633240 0.370819 0.202637
0.618652 0.420288 0.308929
0.604614 0.488098 0.421204
0.621704 0.521973 0.430542
0.670288 0.528931 0.388763
0.763580 0.534088 0.390015
0.932983 0.541809 0.397980
0.840393 0.369263 0.047943
0.838379 0.385834 0.103333
0.806061 0.429321 0.212677
0.773132 0.488068 0.337799
0.731964 0.543854 0.436890
0.754669 0.563538 0.447296
0.762299 0.609222 0.451172
0.837311 0.615753 0.420868
0.921478 0.653870 0.400513
0.935883 0.540192 0.329407
0.936462 0.544617 0.339539
0.940674 0.562927 0.376038
0.946472 0.587280 0.404755
0.949371 0.628235 0.474518
0.958771 0.648132 0.483704
0.966492 0.678101 0.517975
0.969330 0.722961 0.484528
0.986206 0.755768 0.610565
0.977631 0.725189 0.610474
0.978424 0.728058 0.614288
0.980408 0.735992 0.624878
0.983856 0.753052 0.647156
0.988495 0.779785 0.679138
0.991913 0.804077 0.707214
0.993866 0.839661 0.750427
0.995392 0.881195 0.804596
0.995575 0.938049 0.864960
0.000793 0.140564 0.172699
0.001556 0.148438 0.181610
0.006287 0.175415 0.211456
0.022858 0.225464 0.285675
0.230865 0.171021 0.617981
0.601227 0.076569 0.573517
0.711700 0.084961 0.574432
0.817200 0.089111 0.558105
0.925964 0.079102 0.523041
0.002350 0.165222 0.194855
0.003937 0.174927 0.203430
0.009460 0.195068 0.233154
0.024445 0.249603 0.304626
0.235199 0.382599 0.634155
0.601440 0.158051 0.574860
0.710327 0.165710 0.569519
0.821594 0.169739 0.548584
0.930420 0.148712 0.511353
0.006287 0.215759 0.245789
0.008667 0.223633 0.254150
0.023651 0.252869 0.279694
0.057587 0.292450 0.335846
0.264221 0.447205 0.553436
0.601898 0.265137 0.573517
0.712311 0.269958 0.562653
0.824738 0.265442 0.533386
0.933044 0.251892 0.496063
0.008667 0.288879 0.310455
0.014984 0.301971 0.319977
0.061981 0.327271 0.344910
0.172699 0.368927 0.388947
0.284576 0.436981 0.479553
0.592072 0.393677 0.567444
0.720123 0.390594 0.547882
0.829132 0.381470 0.510864
0.937714 0.368835 0.477448
0.019714 0.394165 0.379791
0.048676 0.400513 0.386810
0.123871 0.418976 0.412567
0.247620 0.451782 0.454590
0.386688 0.502380 0.516876
0.589722 0.518646 0.573944
0.724457 0.511230 0.536163
0.826569 0.504425 0.508850
0.941956 0.504333 0.496552
0.425446 0.447632 0.395416
0.433502 0.452789 0.401093
0.456024 0.469299 0.422363
0.497620 0.496094 0.450012
0.555054 0.537537 0.498077
0.627777 0.594604 0.559509
0.686676 0.573761 0.519409
0.780396 0.583923 0.523041
0.916718 0.607208 0.541321
0.781891 0.421173 0.060760
0.777924 0.427185 0.112366
0.765137 0.457672 0.208130
0.753815 0.503143 0.327972
0.736420 0.549622 0.438293
0.720673 0.609680 0.542023
0.738159 0.646637 0.553925
0.805359 0.655090 0.512207
0.941650 0.674042 0.523468
0.934814 0.549103 0.309052
0.935120 0.552246 0.315521
0.937042 0.568909 0.345825
0.946350 0.595917 0.402649
0.957855 0.636963 0.485809
0.910339 0.685944 0.577148
0.942352 0.713501 0.594574
0.936096 0.746643 0.583984
0.990204 0.776550 0.625244
0.979462 0.732452 0.615814
0.980225 0.735168 0.620148
0.982086 0.744110 0.634003
0.985504 0.761505 0.663025
0.989777 0.788452 0.692383
0.993042 0.819946 0.733215
0.994446 0.854004 0.770660
0.995453 0.898254 0.825745
0.995667 0.950653 0.887238
0.003143 0.172211 0.201019
0.003937 0.178802 0.208740
0.008667 0.196991 0.235474
0.019714 0.240173 0.289459
0.056915 0.332611 0.415283
0.563599 0.111633 0.670502
0.708191 0.096405 0.667419
0.812683 0.105377 0.670227
0.932007 0.117188 0.653748
0.005524 0.191803 0.224762
0.007080 0.198700 0.232269
0.011047 0.216156 0.252533
0.019714 0.258606 0.305511
0.060760 0.341125 0.417633
0.560974 0.182556 0.667084
0.707245 0.178070 0.666534
0.813019 0.185303 0.667816
0.934509 0.196777 0.648743
0.009460 0.239655 0.267578
0.011810 0.245941 0.274567
0.024445 0.268158 0.299744
0.046448 0.304382 0.339752
0.078094 0.364227 0.423737
0.521484 0.304657 0.664001
0.710236 0.279480 0.665894
0.815826 0.287659 0.664062
0.938660 0.293793 0.638123
0.013397 0.314484 0.333313
0.018127 0.321442 0.340454
0.054291 0.340912 0.362183
0.133759 0.376129 0.392334
0.188232 0.415955 0.452271
0.432953 0.554871 0.673828
0.716278 0.398163 0.666290
0.826080 0.405518 0.655212
0.947632 0.406158 0.625458
0.026001 0.405609 0.402771
0.043365 0.411285 0.412231
0.101471 0.426117 0.426941
0.205322 0.457642 0.458221
0.343628 0.492279 0.509064
0.444519 0.550507 0.584045
0.720612 0.521423 0.667267
0.839050 0.520691 0.638641
0.959778 0.514313 0.608673
0.052216 0.504578 0.470581
0.078552 0.510101 0.477600
0.158295 0.523712 0.490753
0.286133 0.544037 0.522858
0.432129 0.571899 0.576080
0.525330 0.614899 0.626434
0.722229 0.628052 0.664398
0.849304 0.625275 0.632568
0.969574 0.623322 0.623535
0.549377 0.552460 0.492645
0.554810 0.556244 0.496857
0.569122 0.570465 0.508087
0.595612 0.591766 0.534882
0.633850 0.615814 0.561188
0.675110 0.652252 0.601013
0.730896 0.696930 0.662018
0.812378 0.694092 0.641144
0.953400 0.716797 0.650635
0.936279 0.559265 0.171997
0.936035 0.565979 0.190033
0.937225 0.579315 0.245300
0.942017 0.605286 0.340912
0.939514 0.649445 0.471985
0.918396 0.693787 0.579590
0.877686 0.748474 0.676819
0.902893 0.781494 0.682831
0.985199 0.800720 0.648224
0.981354 0.740967 0.617737
0.982391 0.744659 0.624054
0.983978 0.753326 0.636627
0.987274 0.774017 0.665527
0.991180 0.798279 0.700256
0.993561 0.835236 0.749878
0.995056 0.873779 0.802124
0.995392 0.919037 0.856476
0.996429 0.964142 0.919037
0.007111 0.202057 0.235840
0.007904 0.208344 0.242584
0.011047 0.223663 0.260986
0.018127 0.260986 0.304657
0.038025 0.317780 0.375763
0.157501 0.456177 0.563232
0.686035 0.172211 0.757263
0.824646 0.120758 0.760437
0.934387 0.127258 0.762970
0.008667 0.220703 0.254181
0.010254 0.226898 0.261108
0.013397 0.243439 0.275726
0.019714 0.277466 0.319366
0.040192 0.332123 0.388000
0.169769 0.459076 0.557648
0.685394 0.223267 0.756836
0.828949 0.200989 0.760315
0.935364 0.207123 0.763062
0.011047 0.264526 0.295563
0.012604 0.271454 0.302399
0.026001 0.289307 0.320831
0.044159 0.320557 0.355835
0.066162 0.368439 0.416626
0.198700 0.468231 0.549286
0.687042 0.317383 0.757202
0.831726 0.304901 0.762451
0.940735 0.311737 0.760681
0.016541 0.336761 0.358673
0.021271 0.342957 0.364227
0.052216 0.358826 0.379272
0.118256 0.388947 0.406586
0.151520 0.420624 0.451141
0.230316 0.485413 0.543121
0.691620 0.420837 0.761810
0.836578 0.416382 0.764648
0.945648 0.425964 0.755890
0.033264 0.423187 0.427399
0.052216 0.428955 0.432465
0.100250 0.445251 0.445038
0.168060 0.464447 0.466919
0.299377 0.496948 0.509613
0.367706 0.536682 0.566742
0.574860 0.598907 0.753143
0.846069 0.531525 0.768982
0.957458 0.540649 0.748077
0.067322 0.515656 0.500519
0.084473 0.520142 0.504150
0.153168 0.532104 0.513641
0.238159 0.551453 0.538208
0.389587 0.576111 0.575104
0.503571 0.610565 0.624664
0.583679 0.663971 0.693237
0.854309 0.639740 0.768372
0.972076 0.643158 0.741669
0.096527 0.617676 0.567017
0.126587 0.621155 0.570465
0.219727 0.628113 0.577911
0.331879 0.645996 0.602081
0.482178 0.660980 0.642609
0.573730 0.687286 0.684021
0.653656 0.725159 0.729736
0.862732 0.736786 0.766296
0.987122 0.741272 0.751038
0.671387 0.663116 0.584534
0.675171 0.665588 0.587067
0.688263 0.672760 0.598663
0.706207 0.686890 0.614075
0.732086 0.709045 0.632904
0.767914 0.736084 0.667786
0.808624 0.775848 0.708618
0.864136 0.823059 0.776215
0.988708 0.848694 0.793854
0.984711 0.748352 0.596252
0.985474 0.752167 0.604187
0.987030 0.759705 0.618134
0.989441 0.781677 0.648529
0.992645 0.806885 0.694580
0.994232 0.843781 0.750061
0.995331 0.886902 0.815857
0.995667 0.941010 0.891083
0.997345 0.983795 0.953064
0.011047 0.238129 0.268921
0.011841 0.242584 0.273834
0.012634 0.256744 0.292023
0.019714 0.287231 0.327271
0.031677 0.333191 0.383484
0.058228 0.397430 0.462006
0.351379 0.617950 0.788300
0.814423 0.239319 0.882355
0.971252 0.158051 0.891693
0.011841 0.253845 0.287415
0.012604 0.260193 0.293518
0.014191 0.274414 0.307770
0.022064 0.306030 0.340912
0.033264 0.346436 0.394836
0.060760 0.409393 0.476624
0.352539 0.606842 0.756317
0.815399 0.286133 0.883881
0.974640 0.243591 0.895050
0.014984 0.294830 0.324768
0.015778 0.304749 0.330841
0.027588 0.319977 0.349640
0.044922 0.342590 0.373383
0.063782 0.382080 0.422882
0.083496 0.441620 0.499298
0.358490 0.595520 0.711304
0.817749 0.371338 0.883575
0.976715 0.343719 0.900055
0.018921 0.361725 0.381104
0.021271 0.370087 0.385834
0.054932 0.383179 0.398254
0.113495 0.405334 0.424377
0.136871 0.436737 0.458618
0.174377 0.481384 0.524139
0.375732 0.595062 0.679474
0.826355 0.471375 0.890717
0.978851 0.456543 0.906311
0.044922 0.446716 0.449707
0.054932 0.450836 0.453949
0.095245 0.461670 0.464539
0.158051 0.478363 0.485657
0.266357 0.509399 0.516113
0.321289 0.540558 0.564240
0.424469 0.607269 0.655334
0.831299 0.571167 0.900787
0.984100 0.558533 0.912903
0.079102 0.530914 0.520416
0.089111 0.534607 0.523651
0.152893 0.544098 0.535187
0.230499 0.562561 0.553040
0.352112 0.586029 0.581970
0.480072 0.613037 0.625854
0.531525 0.656677 0.679474
0.730591 0.683136 0.891174
0.987335 0.655762 0.919037
0.125580 0.630493 0.602356
0.152618 0.636017 0.604279
0.227966 0.642181 0.612061
0.317047 0.654083 0.625946
0.440094 0.670532 0.652588
0.545441 0.693634 0.687134
0.630585 0.726898 0.728271
0.723602 0.794312 0.828918
0.989227 0.750183 0.930389
0.161194 0.738129 0.670837
0.186218 0.741302 0.672821
0.296204 0.747620 0.680511
0.397766 0.759369 0.693726
0.493500 0.778931 0.713104
0.590546 0.799622 0.746643
0.677429 0.825012 0.780762
0.776733 0.858704 0.827789
0.993378 0.865479 0.950958
0.816345 0.781738 0.669250
0.822571 0.784546 0.672089
0.831299 0.791809 0.679474
0.846497 0.804901 0.693542
0.870148 0.826538 0.720428
0.904266 0.859924 0.753540
0.940796 0.902130 0.804108
0.981720 0.949738 0.885590
0.999176 1.000000 1.000000
