nova/tdt-studio/app/Lut_mau/.cube LUT/My Religion.cube
LUT_3D_SIZE 6
0.032400 0.034300 0.034500
0.073668 0.045501 0.034248
0.194879 0.076229 0.039130
0.334534 0.107980 0.043472
0.471185 0.145869 0.049256
0.614158 0.214024 0.054682
0.033154 0.086765 0.057502
0.191210 0.143916 0.042885
0.376547 0.184663 0.032670
0.531825 0.235463 0.037342
0.684444 0.315598 0.043188
0.777775 0.372615 0.053985
0.037057 0.216958 0.095545
0.223500 0.363098 0.050975
0.534459 0.411136 0.108176
0.703533 0.437455 0.068521
0.800129 0.456664 0.069298
0.830471 0.440177 0.079085
0.042689 0.332199 0.150923
0.215573 0.467350 0.179166
0.642029 0.604195 0.223293
0.777755 0.626903 0.347747
0.867310 0.607936 0.245408
0.906871 0.634899 0.303596
0.063849 0.450954 0.291920
0.388992 0.619163 0.432482
0.751901 0.739653 0.525332
0.850416 0.777138 0.612744
0.890495 0.787495 0.646596
0.917654 0.791176 0.652660
0.136581 0.570161 0.446393
0.548875 0.724480 0.591319
0.767877 0.801248 0.669391
0.858631 0.832441 0.718586
0.903874 0.848761 0.747355
0.923956 0.853994 0.761852
0.032600 0.032837 0.035228
0.063451 0.039486 0.040660
0.163362 0.052679 0.045828
0.288544 0.055440 0.045809
0.414140 0.064635 0.049873
0.524397 0.093383 0.055737
0.030783 0.069695 0.071220
0.122537 0.112913 0.075862
0.328483 0.147229 0.049200
0.472469 0.175294 0.051578
0.615168 0.233879 0.057024
0.691184 0.265982 0.066951
0.034138 0.194035 0.157207
0.141452 0.322984 0.118208
0.492750 0.406238 0.184810
0.678535 0.409564 0.102373
0.764918 0.402158 0.076149
0.809667 0.410458 0.103187
0.042487 0.341077 0.216949
0.144272 0.457962 0.257006
0.611941 0.616951 0.305851
0.777588 0.648189 0.428829
0.872548 0.624356 0.300719
0.910231 0.658834 0.383262
0.064273 0.467732 0.356997
0.339584 0.622428 0.479906
0.728743 0.749248 0.577066
0.851243 0.787822 0.641135
0.894349 0.799923 0.675545
0.921868 0.802024 0.679714
0.173248 0.607212 0.509024
0.537997 0.733018 0.612795
0.765004 0.807918 0.684775
0.860651 0.839532 0.729766
0.908364 0.853957 0.753179
0.927145 0.859249 0.766374
0.029600 0.032207 0.053758
0.052036 0.036989 0.058934
0.121019 0.046195 0.072759
0.266721 0.053186 0.075801
0.396219 0.054114 0.063837
0.487961 0.058117 0.062772
0.030732 0.051312 0.100338
0.049093 0.057988 0.132470
0.238709 0.078948 0.133359
0.378041 0.073985 0.096333
0.482435 0.076238 0.076167
0.549639 0.089018 0.079978
0.035338 0.140515 0.214480
0.050767 0.244609 0.273520
0.411208 0.388451 0.332009
0.618532 0.367864 0.246475
0.683993 0.305617 0.129346
0.771610 0.373035 0.173072
0.043993 0.350742 0.354549
0.087858 0.447215 0.356667
0.525293 0.618928 0.465492
0.769070 0.668515 0.527547
0.871052 0.646200 0.404109
0.905377 0.689657 0.513701
0.092857 0.522274 0.473725
0.221991 0.605152 0.516026
0.700145 0.756170 0.635470
0.847982 0.799061 0.680802
0.897858 0.813952 0.713900
0.922438 0.815252 0.720057
0.273475 0.671009 0.590629
0.530230 0.746976 0.651883
0.763763 0.815161 0.706858
0.862976 0.844775 0.744745
0.913110 0.857256 0.764012
0.926175 0.860309 0.772617
0.029900 0.033156 0.077159
0.041587 0.035265 0.087499
0.086748 0.040729 0.109738
0.250314 0.048126 0.139091
0.402577 0.050560 0.138201
0.496092 0.054535 0.122805
0.031061 0.042835 0.135321
0.035331 0.041464 0.170053
0.154425 0.050397 0.213141
0.394943 0.056929 0.221166
0.488135 0.061707 0.178644
0.550309 0.075106 0.155785
0.037485 0.096905 0.243723
0.040380 0.136052 0.311810
0.149080 0.247474 0.379492
0.568117 0.285306 0.414805
0.607167 0.183165 0.253375
0.736519 0.337248 0.326739
0.046206 0.298292 0.418183
0.066741 0.408957 0.498386
0.330565 0.573718 0.553023
0.739899 0.675249 0.614633
0.847867 0.660317 0.550851
0.889071 0.717770 0.648960
0.093400 0.539048 0.561768
0.345516 0.671489 0.625635
0.646011 0.751895 0.686383
0.842201 0.810397 0.725833
0.900037 0.826949 0.753443
0.917736 0.829566 0.763180
0.309211 0.700548 0.645899
0.520773 0.759535 0.693749
0.751969 0.814744 0.740122
0.863082 0.847050 0.765154
0.914140 0.860048 0.786555
0.921813 0.862196 0.792588
0.030577 0.033319 0.113172
0.036560 0.034443 0.138155
0.068043 0.037185 0.171604
0.235856 0.042034 0.217600
0.424836 0.049119 0.239530
0.513890 0.054287 0.232050
0.033198 0.038028 0.185534
0.034941 0.039114 0.220004
0.070830 0.042150 0.256382
0.374555 0.051086 0.328681
0.525551 0.062717 0.334339
0.577063 0.079829 0.297021
0.038920 0.076674 0.283356
0.040935 0.081609 0.318693
0.043991 0.085183 0.336124
0.331028 0.116331 0.409304
0.653296 0.231720 0.461049
0.772108 0.414541 0.540691
0.047073 0.255519 0.439998
0.050242 0.311144 0.497062
0.072022 0.363901 0.528015
0.588571 0.597113 0.646888
0.830854 0.682389 0.697339
0.883372 0.742302 0.744300
0.064222 0.482153 0.592917
0.140872 0.598666 0.644047
0.550056 0.743679 0.722081
0.824784 0.820638 0.772794
0.898356 0.842671 0.804394
0.911444 0.848986 0.817619
0.147476 0.637588 0.655693
0.386568 0.733923 0.710151
0.723394 0.816945 0.777181
0.858999 0.850734 0.798830
0.912372 0.865795 0.828320
0.914438 0.867429 0.834087
0.033414 0.034622 0.193297
0.036031 0.035868 0.214616
0.047600 0.038123 0.241025
0.178498 0.041002 0.295949
0.434220 0.048422 0.336658
0.539177 0.054887 0.351692
0.036610 0.038378 0.247479
0.037942 0.040380 0.272767
0.041041 0.041000 0.287686
0.200885 0.046912 0.358638
0.531079 0.063187 0.429018
0.622549 0.105718 0.446853
0.041551 0.059046 0.318339
0.042779 0.064977 0.340758
0.043642 0.066763 0.351886
0.113075 0.074704 0.381154
0.676688 0.310969 0.580612
0.806717 0.526316 0.674932
0.047514 0.219304 0.458338
0.048364 0.240465 0.483251
0.064578 0.272816 0.508619
0.407698 0.459283 0.617923
0.829281 0.727414 0.780009
0.879879 0.769197 0.807487
0.058349 0.434659 0.602010
0.071704 0.503070 0.642414
0.372504 0.687190 0.724107
0.781410 0.816613 0.819790
0.897453 0.857117 0.854259
0.908207 0.864574 0.859133
0.080182 0.557133 0.670153
0.142066 0.637840 0.698466
0.678202 0.810453 0.804260
0.853902 0.856564 0.846565
0.909600 0.869900 0.861700
0.909600 0.869900 0.861700
