nova/tdt-studio/app/Lut_mau/.cube LUT/My Religion.cube
LUT_3D_SIZE 16
0.032400 0.034300 0.034500
0.035918 0.035554 0.034365
0.049665 0.039252 0.033784
0.073668 0.045501 0.034248
0.107309 0.053372 0.036329
0.149517 0.064889 0.037820
0.194879 0.076229 0.039130
0.241062 0.086321 0.040431
0.287448 0.096531 0.041846
0.334534 0.107980 0.043472
0.381990 0.120874 0.045205
0.427421 0.132995 0.047095
0.471185 0.145869 0.049256
0.517404 0.164448 0.052059
0.565074 0.187325 0.054125
0.614158 0.214024 0.054682
0.033849 0.037558 0.036651
0.038252 0.039264 0.036861
0.059992 0.042984 0.034783
0.097439 0.055766 0.035159
0.140824 0.069048 0.036481
0.186738 0.080956 0.038127
0.234776 0.093997 0.039564
0.284818 0.107596 0.041165
0.334688 0.121299 0.042903
0.382851 0.133847 0.045080
0.428406 0.146160 0.047232
0.478893 0.165108 0.048355
0.529395 0.187102 0.049359
0.580459 0.212583 0.050103
0.630259 0.240344 0.050601
0.677251 0.269459 0.051272
0.034848 0.052574 0.043837
0.041225 0.059051 0.045149
0.090183 0.074630 0.040168
0.145710 0.087749 0.036183
0.203758 0.104533 0.035049
0.252633 0.116794 0.036966
0.299815 0.128083 0.038834
0.351406 0.143450 0.040181
0.404199 0.160784 0.041137
0.454961 0.178242 0.042115
0.503568 0.194867 0.044009
0.552861 0.215565 0.045222
0.605354 0.244409 0.046238
0.655645 0.275885 0.047481
0.698433 0.302933 0.049012
0.732899 0.323385 0.050362
0.033154 0.086765 0.057502
0.041441 0.098630 0.060565
0.095226 0.124236 0.053348
0.191210 0.143916 0.042885
0.265394 0.158062 0.032980
0.324454 0.173226 0.031662
0.376547 0.184663 0.032670
0.426303 0.197614 0.033695
0.477975 0.214564 0.035319
0.531825 0.235463 0.037342
0.583983 0.258965 0.039197
0.635966 0.285341 0.040814
0.684444 0.315598 0.043188
0.726548 0.344421 0.046972
0.757589 0.363945 0.050969
0.777775 0.372615 0.053985
0.032545 0.128997 0.075988
0.039939 0.146390 0.072402
0.092847 0.181385 0.069985
0.197553 0.219276 0.054528
0.305612 0.228168 0.046653
0.388414 0.243934 0.034525
0.444913 0.255656 0.030789
0.502935 0.268651 0.027940
0.555436 0.284526 0.029511
0.606353 0.304659 0.032987
0.656776 0.328712 0.036251
0.702975 0.354870 0.040536
0.746684 0.383119 0.044569
0.778139 0.402297 0.050883
0.797315 0.409780 0.056382
0.804986 0.405232 0.060144
0.034052 0.172854 0.087793
0.042504 0.197131 0.077962
0.096849 0.242740 0.074147
0.214121 0.299976 0.050413
0.335945 0.322509 0.054150
0.423802 0.320132 0.064556
0.501486 0.334349 0.051151
0.559125 0.346075 0.044426
0.615933 0.360214 0.041020
0.666333 0.376344 0.041814
0.709678 0.392685 0.045258
0.747721 0.409610 0.048768
0.779538 0.425667 0.054825
0.801878 0.433243 0.059709
0.813475 0.430882 0.063627
0.816075 0.420033 0.067003
0.037057 0.216958 0.095545
0.049841 0.247503 0.083923
0.104384 0.296497 0.080011
0.223500 0.363098 0.050975
0.365009 0.400208 0.054088
0.454272 0.409111 0.086706
0.534459 0.411136 0.108176
0.602550 0.420719 0.088606
0.656010 0.429714 0.076674
0.703533 0.437455 0.068521
0.742503 0.444351 0.066036
0.773829 0.450731 0.066433
0.800129 0.456664 0.069298
0.814445 0.453054 0.070733
0.823710 0.445541 0.072913
0.830471 0.440177 0.079085
0.038916 0.257669 0.106870
0.050986 0.289398 0.098507
0.104406 0.339364 0.094531
0.223063 0.407673 0.068444
0.378747 0.454431 0.061457
0.488138 0.479140 0.093417
0.561434 0.488865 0.148656
0.628497 0.490665 0.168904
0.687079 0.496812 0.147839
0.731065 0.497047 0.126455
0.767780 0.494651 0.108273
0.795689 0.490821 0.095698
0.817152 0.486980 0.090364
0.832696 0.481804 0.089478
0.843366 0.478108 0.093535
0.858617 0.487439 0.109356
0.040632 0.296051 0.125024
0.048994 0.325443 0.121564
0.096603 0.373595 0.125955
0.217572 0.436262 0.116433
0.377530 0.494175 0.090727
0.517512 0.531217 0.111994
0.599907 0.552857 0.175399
0.653725 0.561353 0.240295
0.704967 0.559587 0.249475
0.754064 0.561465 0.224446
0.792538 0.555210 0.192909
0.822632 0.546231 0.162334
0.842618 0.537915 0.140564
0.857949 0.535245 0.137604
0.872771 0.540411 0.147525
0.887741 0.556548 0.179400
0.042689 0.332199 0.150923
0.050917 0.360943 0.157710
0.090823 0.406607 0.170433
0.215573 0.467350 0.179166
0.380608 0.532535 0.149114
0.541407 0.573978 0.167196
0.642029 0.604195 0.223293
0.694825 0.621165 0.298643
0.734024 0.629074 0.352263
0.777755 0.626903 0.347747
0.817300 0.625247 0.316559
0.845927 0.615123 0.277936
0.867310 0.607936 0.245408
0.882642 0.609428 0.244250
0.895301 0.618565 0.264229
0.906871 0.634899 0.303596
0.045961 0.367557 0.186070
0.059543 0.400506 0.206697
0.109872 0.448824 0.236248
0.226815 0.504997 0.254440
0.399403 0.573942 0.238221
0.573150 0.619323 0.258968
0.687607 0.652835 0.313705
0.750445 0.675954 0.379225
0.782740 0.690401 0.441407
0.808055 0.694474 0.469006
0.836441 0.690146 0.452406
0.860687 0.686586 0.425357
0.880483 0.679318 0.392359
0.894991 0.680549 0.386844
0.904818 0.689382 0.412040
0.913332 0.702043 0.449621
0.051878 0.406756 0.234928
0.078244 0.448451 0.271863
0.158756 0.503169 0.316107
0.292634 0.559244 0.346276
0.457842 0.619684 0.361585
0.623915 0.670451 0.379807
0.732215 0.701872 0.424935
0.790757 0.722250 0.474416
0.818885 0.734963 0.514943
0.835598 0.744821 0.555143
0.853799 0.746248 0.565304
0.870812 0.744211 0.555905
0.885678 0.742633 0.540718
0.898426 0.741380 0.531730
0.907667 0.745629 0.542474
0.915198 0.753662 0.569737
0.063849 0.450954 0.291920
0.111687 0.500800 0.336283
0.230480 0.561208 0.389100
0.388992 0.619163 0.432482
0.543616 0.673784 0.459592
0.667089 0.713779 0.487222
0.751901 0.739653 0.525332
0.801616 0.755160 0.552416
0.830529 0.767216 0.582597
0.850416 0.777138 0.612744
0.865636 0.784816 0.639465
0.878346 0.786976 0.647712
0.890495 0.787495 0.646596
0.901248 0.787301 0.639931
0.910210 0.788834 0.644640
0.917654 0.791176 0.652660
0.089128 0.495819 0.347962
0.163479 0.548812 0.392925
0.299274 0.610047 0.449842
0.459850 0.663607 0.500619
0.591058 0.707395 0.540624
0.686227 0.743405 0.563621
0.754232 0.764080 0.590791
0.800282 0.779099 0.614863
0.831716 0.790448 0.637319
0.853476 0.799800 0.660500
0.870583 0.807828 0.681984
0.883586 0.813617 0.698487
0.895204 0.816769 0.706754
0.905430 0.818354 0.709770
0.914229 0.818247 0.706447
0.920493 0.819142 0.709461
0.111014 0.534125 0.398511
0.202167 0.588223 0.442284
0.351340 0.646977 0.498226
0.502139 0.694892 0.550273
0.616656 0.731347 0.592667
0.694624 0.763677 0.613101
0.756210 0.783402 0.637540
0.800345 0.797937 0.658938
0.831734 0.808729 0.677339
0.854954 0.817456 0.694717
0.872299 0.824714 0.710619
0.887223 0.830901 0.723793
0.899703 0.835644 0.733754
0.910421 0.838875 0.740682
0.918735 0.840472 0.743925
0.922812 0.841090 0.744864
0.136581 0.570161 0.446393
0.241869 0.624585 0.488800
0.410830 0.682849 0.544017
0.548875 0.724480 0.591319
0.648418 0.755269 0.629285
0.714596 0.783502 0.646885
0.767877 0.801248 0.669391
0.806650 0.814602 0.688298
0.836728 0.824668 0.704368
0.858631 0.832441 0.718586
0.875889 0.838883 0.729894
0.890817 0.844542 0.739817
0.903874 0.848761 0.747355
0.914016 0.851401 0.753607
0.921443 0.853309 0.759354
0.923956 0.853994 0.761852
0.032400 0.034300 0.034500
0.036314 0.035668 0.034345
0.050777 0.039460 0.033975
0.074711 0.045308 0.034775
0.108381 0.052190 0.036750
0.148676 0.061996 0.038334
0.192884 0.071983 0.039550
0.237822 0.079506 0.040770
0.281743 0.085482 0.041963
0.326221 0.092813 0.043563
0.372067 0.101950 0.045330
0.416439 0.110543 0.047457
0.460475 0.121774 0.049762
0.504762 0.137034 0.052116
0.548681 0.157628 0.054923
0.592899 0.184993 0.058486
0.033883 0.037785 0.036985
0.038123 0.039547 0.037663
0.059970 0.043366 0.035502
0.097995 0.055852 0.035480
0.140995 0.068638 0.037055
0.185140 0.079393 0.038908
0.230883 0.089222 0.041038
0.280333 0.101183 0.042782
0.328894 0.112690 0.044398
0.375408 0.122660 0.046180
0.419869 0.132654 0.048136
0.467032 0.148249 0.050481
0.516989 0.171111 0.053222
0.569214 0.197022 0.053932
0.617561 0.222836 0.054432
0.658995 0.246012 0.055136
0.034580 0.052789 0.044771
0.040344 0.059700 0.046232
0.085879 0.073077 0.042646
0.141617 0.085232 0.037513
0.198654 0.101015 0.036590
0.248350 0.113301 0.038369
0.296242 0.123822 0.040645
0.344309 0.135537 0.042486
0.394457 0.150658 0.043675
0.443236 0.166117 0.044901
0.491049 0.181484 0.047053
0.539622 0.200294 0.048596
0.593428 0.229489 0.049396
0.645357 0.262127 0.050478
0.688364 0.288997 0.051808
0.721810 0.307816 0.052725
0.032641 0.084993 0.062145
0.039204 0.097485 0.065086
0.083792 0.118500 0.060547
0.179080 0.138920 0.047359
0.253457 0.153610 0.040257
0.316871 0.166565 0.035580
0.366429 0.175562 0.036220
0.414107 0.185734 0.037212
0.465246 0.201511 0.038652
0.519200 0.221876 0.040633
0.571903 0.244985 0.042616
0.623786 0.270335 0.044386
0.672490 0.299599 0.046273
0.715205 0.328481 0.049570
0.746094 0.347256 0.052943
0.763124 0.351714 0.055788
0.032103 0.124892 0.083797
0.038214 0.143776 0.080375
0.080442 0.172787 0.076796
0.177315 0.210471 0.063789
0.290569 0.224085 0.057468
0.373794 0.235983 0.041920
0.434239 0.247326 0.036924
0.491923 0.258339 0.032976
0.543167 0.272123 0.033830
0.593080 0.290184 0.036407
0.643412 0.312826 0.039882
0.692261 0.340580 0.043714
0.737136 0.369184 0.047447
0.768218 0.387405 0.053195
0.785191 0.391721 0.058319
0.790441 0.383996 0.062217
0.033364 0.167816 0.102109
0.040052 0.193347 0.088238
0.085317 0.234774 0.079609
0.191431 0.291581 0.059386
0.317295 0.316650 0.066695
0.408139 0.316611 0.076094
0.490383 0.329284 0.059743
0.549074 0.338400 0.050730
0.606471 0.350130 0.045358
0.656989 0.363755 0.044099
0.701555 0.380190 0.046660
0.740491 0.396963 0.049116
0.772871 0.413209 0.055219
0.794119 0.420418 0.061111
0.802551 0.414367 0.065916
0.804827 0.403123 0.070246
0.035876 0.211993 0.112259
0.042876 0.242036 0.095678
0.085474 0.288082 0.087187
0.196442 0.354159 0.065561
0.349963 0.396930 0.061391
0.445809 0.409109 0.091406
0.522733 0.409058 0.122524
0.593795 0.417816 0.101079
0.648771 0.424692 0.085840
0.697851 0.431043 0.074208
0.738418 0.438570 0.070435
0.770162 0.444258 0.069714
0.795273 0.447238 0.070078
0.809051 0.441509 0.071126
0.815833 0.432582 0.075655
0.824277 0.430257 0.084286
0.038170 0.254552 0.124589
0.046401 0.285237 0.111240
0.085686 0.331375 0.103167
0.195106 0.395049 0.092810
0.362342 0.452750 0.068178
0.480841 0.480317 0.096898
0.554678 0.490044 0.159643
0.621249 0.492248 0.188767
0.681937 0.497211 0.162911
0.727922 0.497972 0.141932
0.765981 0.494658 0.120605
0.794601 0.489437 0.104248
0.816260 0.483418 0.094756
0.831121 0.477005 0.093336
0.842302 0.474151 0.098578
0.857952 0.485223 0.116914
0.040199 0.295077 0.142520
0.046865 0.324078 0.135627
0.082513 0.366937 0.137517
0.188823 0.426105 0.136988
0.356761 0.493768 0.103849
0.505649 0.532674 0.124069
0.592909 0.554797 0.188644
0.650487 0.564513 0.254540
0.701241 0.564578 0.273230
0.751542 0.565494 0.246055
0.793041 0.558648 0.209450
0.823721 0.548343 0.173495
0.844096 0.539752 0.150174
0.859564 0.537561 0.148015
0.874688 0.544538 0.162137
0.889722 0.562095 0.197595
0.042534 0.334437 0.166246
0.049419 0.361991 0.173237
0.082798 0.404804 0.185846
0.189232 0.462895 0.200008
0.353404 0.532599 0.171876
0.529141 0.577555 0.188700
0.636441 0.608462 0.241692
0.693545 0.625285 0.312337
0.736523 0.634885 0.368340
0.777942 0.634171 0.371256
0.818411 0.631488 0.336740
0.847696 0.620934 0.295222
0.869475 0.612414 0.258430
0.884892 0.614769 0.257896
0.897467 0.625657 0.282467
0.908479 0.642298 0.325016
0.045779 0.370898 0.202112
0.057629 0.402318 0.223698
0.100222 0.449038 0.253195
0.208417 0.505979 0.278988
0.383216 0.570733 0.283416
0.560945 0.624017 0.286225
0.686847 0.659844 0.338868
0.752588 0.681934 0.395804
0.785565 0.695926 0.454751
0.810528 0.700300 0.483765
0.838077 0.697198 0.469992
0.862233 0.693124 0.441580
0.881997 0.685972 0.409043
0.896498 0.686838 0.403110
0.906196 0.696211 0.429957
0.914471 0.708750 0.468894
0.052141 0.411626 0.252682
0.077504 0.451601 0.288581
0.149247 0.505161 0.331986
0.280809 0.562734 0.371223
0.453326 0.620019 0.400720
0.617409 0.675754 0.407142
0.729524 0.707672 0.447816
0.791337 0.727326 0.490033
0.820543 0.739689 0.525846
0.837192 0.749086 0.564874
0.855320 0.751181 0.576889
0.872209 0.749850 0.569132
0.887080 0.747995 0.553272
0.899656 0.746872 0.545338
0.908891 0.750864 0.555734
0.916458 0.758540 0.582452
0.063441 0.455054 0.309431
0.109098 0.502907 0.351013
0.217328 0.562186 0.400672
0.377861 0.621961 0.452151
0.536901 0.672443 0.489200
0.658354 0.717285 0.507273
0.745728 0.743033 0.541121
0.798480 0.758692 0.565020
0.830303 0.770880 0.592698
0.851316 0.780722 0.620858
0.866710 0.788226 0.646777
0.879602 0.790826 0.655868
0.891880 0.791420 0.654968
0.902654 0.791143 0.648458
0.911764 0.792120 0.651607
0.919051 0.794474 0.659876
0.082235 0.495771 0.362608
0.143680 0.546103 0.403558
0.278385 0.608614 0.456512
0.444190 0.664039 0.510541
0.581974 0.706914 0.553883
0.677324 0.744745 0.575224
0.747967 0.766203 0.601564
0.796887 0.781945 0.625101
0.830031 0.793215 0.645819
0.853455 0.802682 0.667311
0.871183 0.810640 0.687661
0.884685 0.816308 0.703009
0.896645 0.819531 0.711084
0.907070 0.821112 0.713395
0.915856 0.820699 0.709544
0.921648 0.821561 0.712617
0.104708 0.534692 0.413422
0.183682 0.585289 0.452516
0.329623 0.644948 0.503757
0.486764 0.694694 0.555834
0.608838 0.732402 0.598914
0.689748 0.764891 0.620970
0.752607 0.785173 0.644773
0.798225 0.800159 0.665392
0.830903 0.811218 0.683644
0.854563 0.819885 0.700088
0.872744 0.827045 0.714731
0.888138 0.833207 0.727066
0.901169 0.837953 0.736334
0.911772 0.841079 0.742942
0.920075 0.842960 0.747175
0.923956 0.843346 0.747592
0.137612 0.576210 0.462921
0.236039 0.626493 0.500335
0.400447 0.683982 0.550558
0.544266 0.726667 0.596770
0.644429 0.757096 0.633657
0.712972 0.784791 0.653598
0.766870 0.803221 0.673894
0.806310 0.816720 0.692502
0.836771 0.826880 0.708159
0.859258 0.834646 0.721781
0.876881 0.840962 0.732587
0.892104 0.846348 0.741647
0.905370 0.850290 0.748669
0.915479 0.852919 0.754897
0.922587 0.854906 0.760576
0.924938 0.855546 0.762809
0.032585 0.033627 0.034400
0.035337 0.034619 0.034981
0.049238 0.037921 0.035261
0.071498 0.042233 0.036166
0.104611 0.047436 0.038027
0.141567 0.054544 0.039803
0.182148 0.061804 0.041100
0.224980 0.066838 0.041995
0.267221 0.069358 0.042708
0.307846 0.071007 0.043774
0.351203 0.075663 0.045324
0.394517 0.081500 0.047419
0.438869 0.091187 0.049798
0.482119 0.103604 0.052057
0.522588 0.118640 0.054206
0.561300 0.138494 0.056915
0.033277 0.037053 0.037810
0.035346 0.038698 0.039063
0.054293 0.042348 0.037815
0.089719 0.051933 0.037559
0.131045 0.063080 0.039496
0.173458 0.071240 0.040844
0.217152 0.076613 0.041838
0.264079 0.083486 0.043096
0.312324 0.092370 0.044613
0.358046 0.100073 0.046233
0.402538 0.107935 0.048163
0.448301 0.119125 0.050459
0.496236 0.138192 0.053342
0.542996 0.161806 0.056708
0.583729 0.183287 0.059773
0.617577 0.200348 0.062347
0.033510 0.050624 0.046347
0.036298 0.057249 0.048535
0.071183 0.066851 0.047866
0.125698 0.076705 0.041168
0.182594 0.091282 0.039164
0.233738 0.104140 0.040541
0.281205 0.113450 0.043318
0.327438 0.121493 0.046102
0.375757 0.133358 0.047580
0.423604 0.146698 0.049097
0.470895 0.160314 0.051544
0.519246 0.177473 0.053514
0.570300 0.202271 0.054786
0.620684 0.232226 0.056333
0.661169 0.256018 0.057908
0.689170 0.269078 0.059096
0.031715 0.078543 0.067893
0.034911 0.091723 0.071966
0.064983 0.106440 0.070226
0.154575 0.127653 0.058057
0.231537 0.141151 0.047138
0.298677 0.154161 0.041581
0.351670 0.163785 0.041648
0.400365 0.172230 0.041983
0.448784 0.184504 0.043116
0.500310 0.202094 0.045065
0.550893 0.222378 0.047271
0.601496 0.245521 0.049290
0.649349 0.272278 0.050960
0.692305 0.300391 0.054262
0.723146 0.318380 0.057328
0.739479 0.321713 0.059865
0.031464 0.115184 0.093478
0.034907 0.136264 0.093481
0.061350 0.159841 0.087811
0.145426 0.196356 0.076613
0.266659 0.215357 0.074934
0.354066 0.227011 0.059414
0.421763 0.237498 0.048067
0.476284 0.243956 0.041386
0.526488 0.254546 0.039941
0.575769 0.270537 0.041567
0.625759 0.291980 0.044883
0.672918 0.316760 0.048640
0.714267 0.340247 0.051900
0.744894 0.357097 0.056955
0.762102 0.361238 0.061540
0.768128 0.354036 0.065142
0.032695 0.157963 0.117193
0.037827 0.186283 0.104417
0.069011 0.223066 0.093054
0.158451 0.273680 0.084346
0.290745 0.307522 0.085319
0.389482 0.312367 0.101210
0.474187 0.321905 0.079339
0.535960 0.327848 0.063826
0.595087 0.337310 0.053950
0.645378 0.347872 0.049300
0.686646 0.360181 0.050413
0.723148 0.373873 0.052997
0.757076 0.391666 0.059125
0.777826 0.397747 0.064539
0.786645 0.392250 0.069780
0.789665 0.381608 0.074765
0.034766 0.203886 0.133805
0.039564 0.234894 0.115076
0.071795 0.279074 0.100823
0.170976 0.339385 0.091697
0.320615 0.391338 0.077836
0.435559 0.408542 0.106323
0.507888 0.405471 0.144705
0.581148 0.413644 0.123809
0.638249 0.417532 0.102211
0.689113 0.421694 0.085798
0.729644 0.425068 0.075316
0.761769 0.430196 0.073371
0.784833 0.429236 0.070621
0.799902 0.426802 0.075004
0.807209 0.419245 0.080529
0.816860 0.419469 0.091457
0.037422 0.250731 0.145676
0.042525 0.280388 0.130631
0.067883 0.323771 0.120049
0.164014 0.382132 0.118701
0.323888 0.447465 0.089624
0.470031 0.480535 0.108879
0.545856 0.490903 0.176713
0.611551 0.492806 0.215412
0.673735 0.497305 0.188927
0.721728 0.495955 0.162821
0.762091 0.491735 0.135558
0.793727 0.487066 0.114812
0.813925 0.478016 0.100632
0.828420 0.470526 0.098160
0.839703 0.469267 0.106098
0.856303 0.483686 0.128941
0.039876 0.294955 0.163325
0.045015 0.323261 0.156912
0.068991 0.361946 0.156326
0.152892 0.418854 0.157307
0.311095 0.488874 0.132122
0.490307 0.533622 0.141722
0.584669 0.557696 0.208404
0.646006 0.568444 0.276252
0.696654 0.569428 0.303849
0.749095 0.569647 0.271979
0.792501 0.562577 0.231920
0.824668 0.551124 0.189454
0.844868 0.540957 0.161873
0.860762 0.539211 0.160053
0.876134 0.548490 0.179346
0.891339 0.568131 0.219801
0.042308 0.336528 0.187242
0.048238 0.363885 0.194510
0.075892 0.404526 0.208668
0.163090 0.458201 0.223796
0.320675 0.522176 0.224327
0.510853 0.581075 0.218082
0.627665 0.613065 0.269010
0.693056 0.631305 0.336756
0.737849 0.640669 0.388401
0.777983 0.641158 0.397696
0.818449 0.637554 0.361395
0.848810 0.626268 0.314618
0.871143 0.617625 0.276217
0.887086 0.620270 0.274822
0.899437 0.632838 0.303478
0.909652 0.650095 0.350513
0.045640 0.375539 0.222717
0.055438 0.405233 0.243325
0.093676 0.451428 0.275552
0.194261 0.508439 0.305912
0.364656 0.568557 0.327991
0.546877 0.629649 0.321856
0.684365 0.667212 0.368474
0.752814 0.688002 0.417159
0.787596 0.701312 0.470203
0.812215 0.706546 0.502157
0.839255 0.704128 0.490572
0.863466 0.699502 0.460337
0.883063 0.693038 0.429115
0.897481 0.693651 0.422679
0.907239 0.703707 0.451585
0.915276 0.715936 0.491067
0.052302 0.417408 0.274479
0.074979 0.454564 0.307082
0.140497 0.507618 0.351280
0.270582 0.566973 0.393330
0.445302 0.625744 0.430060
0.608590 0.680862 0.437536
0.726486 0.714043 0.474444
0.791336 0.732466 0.506159
0.820741 0.744147 0.538651
0.838265 0.753650 0.577135
0.856503 0.756630 0.590909
0.873410 0.755586 0.583852
0.888315 0.753478 0.567302
0.900613 0.753017 0.561781
0.909953 0.756898 0.572352
0.917611 0.764041 0.598141
0.063588 0.460483 0.330975
0.102059 0.502750 0.366169
0.203492 0.562468 0.414994
0.362845 0.623367 0.466081
0.524067 0.674485 0.511066
0.648456 0.720733 0.529968
0.737353 0.746126 0.558265
0.793747 0.762635 0.581155
0.829466 0.774671 0.604296
0.851488 0.784211 0.630091
0.867312 0.791676 0.655506
0.880541 0.794428 0.664339
0.893098 0.795488 0.664322
0.903957 0.795069 0.658266
0.913205 0.795626 0.660036
0.920373 0.798099 0.669121
0.079192 0.499664 0.382566
0.127963 0.543831 0.416767
0.252893 0.605728 0.466134
0.423510 0.663337 0.518952
0.569633 0.708109 0.565728
0.667177 0.746283 0.588502
0.740221 0.768452 0.614892
0.791646 0.784453 0.636613
0.827873 0.796147 0.655371
0.853031 0.805473 0.674582
0.871519 0.813306 0.693317
0.885598 0.818963 0.707874
0.897992 0.822399 0.716035
0.908705 0.823922 0.718030
0.917246 0.823474 0.714496
0.922785 0.824120 0.716988
0.105558 0.541765 0.434270
0.169552 0.584230 0.465572
0.307199 0.642719 0.512504
0.470957 0.694785 0.562512
0.600016 0.733787 0.606329
0.685317 0.765024 0.633238
0.749082 0.787169 0.653037
0.796141 0.802551 0.672952
0.830162 0.813825 0.690059
0.854452 0.822404 0.705468
0.873293 0.829535 0.719105
0.889221 0.835696 0.730576
0.902632 0.840311 0.739136
0.913155 0.843624 0.745760
0.921408 0.845459 0.750009
0.925070 0.845882 0.750371
0.148154 0.589096 0.484499
0.236848 0.632154 0.515135
0.397553 0.687179 0.560474
0.538329 0.728886 0.603419
0.640881 0.759274 0.639141
0.711798 0.786129 0.660916
0.765917 0.805428 0.678999
0.806292 0.819081 0.696979
0.837117 0.829267 0.712253
0.860120 0.837032 0.725394
0.877947 0.843286 0.735659
0.893242 0.848153 0.743791
0.906906 0.852123 0.750693
0.916663 0.854838 0.756851
0.923862 0.856732 0.762443
0.926026 0.857329 0.764421
0.032600 0.032837 0.035228
0.035665 0.033647 0.035892
0.044714 0.035957 0.037595
0.063451 0.039486 0.040660
0.092153 0.044024 0.042736
0.126143 0.048796 0.044777
0.163362 0.052679 0.045828
0.204152 0.054651 0.045975
0.246452 0.055303 0.045858
0.288544 0.055440 0.045809
0.329057 0.055421 0.046291
0.371370 0.058953 0.047847
0.414140 0.064635 0.049873
0.454203 0.071845 0.051873
0.490845 0.081548 0.053785
0.524397 0.093383 0.055737
0.032636 0.036068 0.039789
0.034261 0.036570 0.042137
0.048524 0.040000 0.043807
0.077164 0.044431 0.044155
0.115270 0.051048 0.044591
0.155319 0.056299 0.044886
0.196942 0.058934 0.045246
0.242190 0.062326 0.045473
0.287712 0.066940 0.046011
0.332141 0.071718 0.047192
0.376338 0.077000 0.048750
0.420047 0.083203 0.050625
0.463415 0.093940 0.052839
0.504239 0.109393 0.055277
0.540943 0.125481 0.057597
0.571009 0.137603 0.059592
0.032113 0.045340 0.049988
0.034016 0.051014 0.056916
0.051516 0.055929 0.055930
0.102334 0.065734 0.049828
0.159265 0.078436 0.046415
0.210119 0.089883 0.047034
0.256954 0.096509 0.048192
0.302062 0.099576 0.048371
0.347373 0.104035 0.049245
0.394918 0.114094 0.050274
0.441935 0.125048 0.052274
0.488311 0.139078 0.054790
0.532627 0.157127 0.057661
0.572816 0.179151 0.061597
0.605553 0.196898 0.065171
0.628288 0.204493 0.067224
0.030783 0.069695 0.071220
0.032675 0.083083 0.083480
0.045614 0.093481 0.079916
0.122537 0.112913 0.075862
0.201861 0.124484 0.058643
0.273279 0.137785 0.049925
0.328483 0.147229 0.049200
0.376749 0.153717 0.049179
0.423784 0.161799 0.050245
0.472469 0.175294 0.051578
0.520736 0.191803 0.053514
0.569517 0.211613 0.055395
0.615168 0.233879 0.057024
0.652669 0.254502 0.060250
0.678057 0.265774 0.063575
0.691184 0.265982 0.066951
0.031053 0.103837 0.100242
0.033217 0.125902 0.111427
0.045223 0.146276 0.104485
0.112287 0.175855 0.103786
0.234077 0.202332 0.099903
0.325666 0.212250 0.080069
0.401066 0.222652 0.062871
0.457094 0.227974 0.054425
0.507398 0.235503 0.050057
0.554201 0.247029 0.049415
0.600849 0.263460 0.050980
0.643087 0.281337 0.053756
0.682267 0.301495 0.056866
0.710555 0.315184 0.061667
0.725821 0.316971 0.066202
0.731432 0.309655 0.070219
0.032389 0.146175 0.131572
0.034749 0.174790 0.129680
0.053535 0.208743 0.115120
0.124459 0.251159 0.112095
0.250964 0.293621 0.110211
0.366642 0.306698 0.135907
0.457018 0.314451 0.109661
0.523799 0.318750 0.088770
0.582370 0.322536 0.068285
0.628335 0.327872 0.059557
0.666312 0.334998 0.057516
0.701555 0.346532 0.060317
0.730824 0.357037 0.064268
0.748222 0.358952 0.069191
0.756763 0.353666 0.074858
0.765754 0.350479 0.080590
0.034138 0.194035 0.157207
0.037109 0.226147 0.142540
0.061732 0.269120 0.122760
0.141452 0.322984 0.118208
0.275388 0.380180 0.107831
0.415227 0.403891 0.136624
0.492750 0.406238 0.184810
0.568090 0.410363 0.158897
0.626862 0.408921 0.126233
0.678535 0.409564 0.102373
0.718292 0.408762 0.086743
0.746579 0.406662 0.078485
0.764918 0.402158 0.076149
0.784071 0.404405 0.081001
0.795095 0.402542 0.088753
0.809667 0.410458 0.103187
0.036660 0.245289 0.173848
0.039580 0.275040 0.159240
0.056199 0.315815 0.144357
0.134049 0.373095 0.140418
0.275876 0.440014 0.123596
0.441029 0.478806 0.143486
0.537374 0.494675 0.206407
0.600299 0.494186 0.254305
