nova/tdt-studio/app/Lut_mau/.cube LUT/Smoke Good.cube
LUT_3D_SIZE 16
0.043200 0.058100 0.066800
0.050172 0.065177 0.069853
0.089928 0.076293 0.073199
0.139553 0.091763 0.075153
0.195837 0.105013 0.073943
0.258393 0.115599 0.071700
0.319643 0.130287 0.073918
0.385894 0.144805 0.085751
0.458794 0.155001 0.103284
0.533575 0.165309 0.122622
0.604127 0.177088 0.140752
0.671470 0.190503 0.156503
0.739169 0.206852 0.167733
0.803919 0.224188 0.176517
0.859834 0.240719 0.181975
0.859834 0.240719 0.181975
0.043200 0.077562 0.067308
0.049330 0.077932 0.071351
0.091739 0.084067 0.071165
0.140221 0.096811 0.074241
0.198237 0.106557 0.073682
0.261945 0.115838 0.071841
0.322290 0.129279 0.075480
0.388653 0.142646 0.088236
0.460919 0.154740 0.104285
0.535098 0.166358 0.122274
0.605718 0.178981 0.139066
0.674004 0.193835 0.152813
0.741293 0.209937 0.164487
0.806293 0.227272 0.173494
0.861815 0.244006 0.179164
0.861606 0.243669 0.179417
0.043200 0.111667 0.067500
0.046686 0.118722 0.068056
0.086326 0.114243 0.069820
0.152369 0.110331 0.065286
0.210719 0.125079 0.063615
0.272962 0.137870 0.062858
0.338948 0.148961 0.067049
0.404897 0.160333 0.081207
0.476555 0.170043 0.098266
0.548888 0.180496 0.115490
0.618127 0.193522 0.130073
0.684868 0.207461 0.143175
0.750873 0.223085 0.154580
0.814378 0.240131 0.163684
0.870141 0.257238 0.169740
0.869654 0.256347 0.170284
0.043200 0.150857 0.064641
0.044089 0.163420 0.057179
0.086541 0.161673 0.064144
0.150839 0.148660 0.070168
0.227103 0.141446 0.055606
0.299576 0.155642 0.048055
0.363295 0.172687 0.057530
0.431190 0.187058 0.070836
0.500748 0.199757 0.085330
0.572313 0.212365 0.100421
0.642018 0.227773 0.112766
0.709092 0.242121 0.125029
0.773421 0.256750 0.136184
0.833360 0.272185 0.145282
0.886684 0.287817 0.152050
0.885790 0.286021 0.153046
0.043200 0.192115 0.062670
0.043200 0.203064 0.054371
0.080570 0.210779 0.052402
0.154254 0.198013 0.080491
0.230964 0.186350 0.062656
0.312221 0.176228 0.044800
0.395563 0.189636 0.055562
0.472636 0.204179 0.072530
0.544095 0.220343 0.085329
0.610814 0.238562 0.094805
0.675833 0.258549 0.102359
0.739415 0.281066 0.107645
0.801809 0.305463 0.111281
0.859807 0.327507 0.114984
0.905750 0.342685 0.119577
0.905243 0.340177 0.121212
0.043200 0.229603 0.062200
0.043200 0.238334 0.054190
0.074630 0.254591 0.043200
0.155745 0.246954 0.066731
0.243039 0.242133 0.068185
0.319199 0.223551 0.061248
0.408275 0.213563 0.043726
0.500672 0.225752 0.065670
0.585193 0.244481 0.081703
0.653503 0.264209 0.090669
0.713876 0.285073 0.096087
0.773664 0.308369 0.099526
0.833002 0.336124 0.099474
0.888636 0.367363 0.095333
0.920431 0.387021 0.091396
0.919663 0.385720 0.092150
0.043200 0.268328 0.060387
0.043200 0.271918 0.055370
0.073886 0.288187 0.043200
0.157958 0.300341 0.046584
0.246806 0.290011 0.070227
0.339217 0.301129 0.049565
0.423452 0.275170 0.046191
0.519415 0.263691 0.044972
0.605072 0.272778 0.066283
0.679212 0.291066 0.079211
0.746145 0.313164 0.086227
0.802468 0.337089 0.087814
0.858391 0.366507 0.085023
0.912959 0.398898 0.078871
0.940407 0.415994 0.074824
0.937026 0.410586 0.078133
0.043200 0.304313 0.063790
0.043200 0.306410 0.059749
0.079337 0.324730 0.043200
0.168521 0.342279 0.043238
0.258645 0.339232 0.067642
0.357187 0.354468 0.047071
0.445610 0.367542 0.044304
0.538215 0.334061 0.043853
0.621959 0.323675 0.043837
0.695538 0.327497 0.054604
0.761731 0.343595 0.066873
0.823925 0.367512 0.070802
0.890265 0.402901 0.066292
0.949653 0.446332 0.050550
0.951917 0.444955 0.052781
0.951267 0.439434 0.057832
0.043200 0.338144 0.069358
0.043630 0.345293 0.058793
0.094801 0.363263 0.043200
0.182786 0.381363 0.043201
0.274333 0.384200 0.062185
0.363188 0.397186 0.059975
0.465011 0.421263 0.043944
0.551047 0.440526 0.044725
0.635864 0.401922 0.044622
0.708221 0.390546 0.043200
0.780384 0.388653 0.043776
0.855703 0.410882 0.047259
0.931907 0.451356 0.043528
0.952900 0.479042 0.043200
0.952900 0.474802 0.043200
0.952900 0.469683 0.043200
0.043200 0.386327 0.056070
0.044061 0.392460 0.044772
0.110030 0.403062 0.043200
0.195810 0.419947 0.044697
0.286552 0.424712 0.061379
0.369177 0.435182 0.066345
0.469489 0.468810 0.043939
0.555945 0.493336 0.044199
0.638381 0.527149 0.044388
0.727032 0.484513 0.047845
0.807803 0.466995 0.043200
0.883932 0.465933 0.043200
0.951476 0.498627 0.043200
0.952900 0.506202 0.043200
0.952900 0.502440 0.043200
0.952900 0.498182 0.043200
0.044634 0.434009 0.057659
0.047249 0.436266 0.050129
0.109262 0.447875 0.047220
0.200500 0.458310 0.054773
0.293081 0.463811 0.069953
0.374542 0.472805 0.075336
0.461996 0.505482 0.049295
0.562817 0.549539 0.044200
0.641949 0.583551 0.044300
0.723633 0.621980 0.044471
0.819519 0.576769 0.048731
0.903074 0.545052 0.043971
0.952900 0.552495 0.043200
0.952900 0.545491 0.043200
0.952900 0.539512 0.043200
0.952900 0.532353 0.043200
0.067916 0.461300 0.077294
0.070624 0.461523 0.073673
0.122314 0.472801 0.069973
0.207397 0.487647 0.072573
0.294545 0.499078 0.084707
0.375012 0.516918 0.091053
0.460330 0.549071 0.067565
0.553216 0.594237 0.044243
0.647776 0.642864 0.044300
0.724824 0.683941 0.044478
0.803600 0.727643 0.044600
0.910986 0.662355 0.049201
0.948023 0.620691 0.048077
0.948944 0.608367 0.047156
0.950088 0.599722 0.046012
0.951455 0.589397 0.044645
0.096522 0.487001 0.098714
0.100761 0.484039 0.099627
0.132240 0.506241 0.090627
0.179353 0.557983 0.065905
0.256290 0.595852 0.050196
0.343254 0.615159 0.043490
0.437661 0.662203 0.043200
0.538940 0.705995 0.043946
0.631490 0.737100 0.044480
0.716563 0.763666 0.044543
0.797780 0.790728 0.044600
0.883783 0.819183 0.044700
0.951109 0.736317 0.044991
0.950077 0.720782 0.046047
0.948819 0.708112 0.047337
0.947321 0.693018 0.048873
0.050172 0.614034 0.043434
0.045389 0.629081 0.043200
0.050145 0.661710 0.043200
0.079274 0.701498 0.043200
0.179778 0.742039 0.043200
0.280480 0.780123 0.043200
0.394834 0.809282 0.043200
0.514254 0.830901 0.043200
0.617935 0.844841 0.043200
0.706280 0.852979 0.044700
0.789665 0.863146 0.044700
0.868890 0.878432 0.044700
0.951089 0.880202 0.044900
0.951200 0.855736 0.044900
0.951200 0.839303 0.044900
0.951200 0.819088 0.044900
0.043400 0.763400 0.043200
0.043400 0.763400 0.043200
0.043400 0.763400 0.043200
0.043401 0.767671 0.043200
0.070169 0.782830 0.043200
0.214898 0.803575 0.043200
0.342053 0.818421 0.043200
0.472951 0.830367 0.043200
0.590378 0.842130 0.043200
0.686244 0.850845 0.044700
0.775054 0.861355 0.044700
0.859512 0.875417 0.044700
0.951101 0.906788 0.044900
0.951200 0.877675 0.044900
0.951200 0.877675 0.044900
0.951200 0.877675 0.044900
0.043400 0.763400 0.043200
0.043400 0.763400 0.043200
0.043400 0.763400 0.043200
0.043400 0.763400 0.043200
0.043403 0.770681 0.043200
0.129127 0.790590 0.043200
0.276744 0.812868 0.043200
0.417316 0.825236 0.043200
0.551309 0.838127 0.043200
0.659794 0.847836 0.044700
0.754534 0.858749 0.044700
0.845539 0.871721 0.044700
0.944773 0.912615 0.044900
0.951200 0.877675 0.044900
0.951200 0.877675 0.044900
0.951200 0.877675 0.044900
0.043200 0.067309 0.079012
0.056130 0.071043 0.085067
0.101075 0.074759 0.084668
0.147712 0.081641 0.084018
0.198738 0.091783 0.078889
0.259137 0.111748 0.074475
0.319773 0.124811 0.077835
0.386016 0.137407 0.091339
0.458833 0.149210 0.108294
0.533035 0.160921 0.127637
0.602508 0.173647 0.145553
0.670141 0.188257 0.159568
0.738081 0.204984 0.170288
0.802773 0.222024 0.178870
0.858761 0.238582 0.184027
0.858865 0.238782 0.183819
0.043200 0.078867 0.084183
0.049726 0.079915 0.086629
0.090559 0.089030 0.088369
0.140869 0.099903 0.088430
0.199281 0.112333 0.084411
0.263391 0.123497 0.075941
0.328461 0.134990 0.074537
0.391119 0.147253 0.085818
0.463187 0.156979 0.103313
0.536892 0.166893 0.122549
0.606510 0.178484 0.140192
0.674030 0.192631 0.154614
0.741377 0.209038 0.165840
0.806174 0.226309 0.174627
0.862124 0.243095 0.180229
0.861855 0.242821 0.180420
0.043205 0.113925 0.080972
0.048590 0.116361 0.084705
0.084828 0.115078 0.087241
0.148557 0.116423 0.083529
0.207492 0.129061 0.081217
0.273932 0.137140 0.072576
0.342525 0.146836 0.071112
0.405945 0.158671 0.082670
0.477204 0.168679 0.099474
0.549012 0.178914 0.116776
0.617949 0.191992 0.131290
0.684633 0.206149 0.144280
0.750256 0.221796 0.155699
0.813917 0.238972 0.164546
0.869626 0.256024 0.170788
0.869138 0.255217 0.171266
0.043200 0.151208 0.072250
0.043306 0.162752 0.074387
0.079500 0.163216 0.078915
0.151027 0.151170 0.083455
0.229705 0.145246 0.064299
0.297480 0.158662 0.054656
0.363540 0.174529 0.056998
0.429292 0.188556 0.068963
0.499983 0.199703 0.085142
0.571981 0.211513 0.100891
0.641228 0.226023 0.113639
0.707654 0.239841 0.126129
0.771752 0.254480 0.137274
0.831994 0.270018 0.146442
0.885894 0.286172 0.152970
0.885093 0.284527 0.153883
0.043200 0.190217 0.067077
0.043200 0.201001 0.067662
0.071552 0.212047 0.061531
0.151261 0.201638 0.087434
0.234993 0.189147 0.068339
0.321348 0.178574 0.045543
0.395449 0.191533 0.053835
0.469872 0.205780 0.070278
0.541855 0.221608 0.083559
0.607950 0.239484 0.093185
0.672852 0.259022 0.101055
0.737271 0.280909 0.107008
0.799785 0.304126 0.111512
0.858050 0.325425 0.115855
0.905524 0.341028 0.120650
0.905055 0.338623 0.122226
0.043200 0.229642 0.065718
0.043200 0.236495 0.062717
0.065679 0.257398 0.045722
0.151905 0.250169 0.069486
0.242271 0.243670 0.074092
0.327053 0.226679 0.062339
0.419590 0.215816 0.045321
0.510584 0.228122 0.067440
0.586344 0.245770 0.081110
0.651518 0.264864 0.089527
0.711824 0.285441 0.095123
0.771814 0.308595 0.098735
0.831100 0.336093 0.098849
0.886982 0.366972 0.095027
0.919945 0.386776 0.091421
0.919109 0.384871 0.092623
0.043200 0.268674 0.064329
0.043200 0.271288 0.060408
0.067264 0.290448 0.043492
0.153876 0.302949 0.047259
0.245259 0.291177 0.074037
0.338352 0.301713 0.051267
0.431849 0.279063 0.046313
0.528884 0.265703 0.046396
0.612478 0.274659 0.067568
0.683840 0.292528 0.079805
0.745592 0.313428 0.085827
0.801036 0.336963 0.087423
0.857223 0.366125 0.084901
0.912964 0.398779 0.078967
0.939227 0.414106 0.075979
0.935646 0.408379 0.079484
0.043200 0.304576 0.067782
0.043200 0.306206 0.062800
0.074570 0.325734 0.043200
0.164587 0.344151 0.043479
0.256776 0.340381 0.069966
0.355866 0.354892 0.048779
0.444520 0.367579 0.044668
0.543476 0.336798 0.043857
0.626536 0.324955 0.043892
0.698559 0.328399 0.055019
0.763309 0.344000 0.067169
0.823806 0.367258 0.070988
0.894529 0.404865 0.066320
0.952045 0.447991 0.049991
0.951700 0.443108 0.054470
0.951012 0.437266 0.059816
0.043200 0.338908 0.071647
0.043430 0.344687 0.060934
0.091028 0.363677 0.043200
0.178733 0.382622 0.043464
0.272112 0.384937 0.063749
0.361580 0.397068 0.062424
0.464173 0.421264 0.043940
0.549720 0.439724 0.044758
0.636841 0.402507 0.044704
0.708180 0.390170 0.043200
0.783557 0.388354 0.043906
0.859221 0.411317 0.047805
0.935967 0.453260 0.043367
0.952900 0.477708 0.043200
0.952900 0.473163 0.043200
0.952900 0.467751 0.043200
0.043200 0.387769 0.057010
0.043435 0.392483 0.045638
0.107066 0.403076 0.043200
0.192101 0.420361 0.045012
0.284253 0.424972 0.062487
0.367655 0.434769 0.068399
0.468110 0.468235 0.043936
0.555154 0.492690 0.044197
0.639196 0.527787 0.044365
0.728619 0.483579 0.047658
0.809777 0.465481 0.043200
0.886483 0.465955 0.043200
0.951746 0.499559 0.043200
0.952900 0.505075 0.043200
0.952900 0.501112 0.043200
0.952900 0.496649 0.043200
0.045193 0.434807 0.058473
0.047252 0.436361 0.051057
0.106709 0.447345 0.047479
0.197410 0.458109 0.054850
0.290899 0.463522 0.070273
0.373117 0.472320 0.075831
0.459015 0.505157 0.049896
0.561046 0.549596 0.044200
0.641727 0.583752 0.044300
0.723940 0.621753 0.044473
0.820725 0.574928 0.048786
0.904764 0.542679 0.043804
0.952900 0.550853 0.043200
0.952900 0.543798 0.043200
0.952900 0.537418 0.043200
0.952900 0.529858 0.043200
0.068504 0.461567 0.078073
0.070519 0.461517 0.074240
0.120613 0.472261 0.070048
0.205176 0.487277 0.072248
0.288536 0.499475 0.084892
0.370655 0.517290 0.091748
0.456335 0.548533 0.069782
0.550225 0.593750 0.044241
0.645865 0.642392 0.044300
0.724285 0.683605 0.044476
0.803572 0.726863 0.044600
0.911561 0.659851 0.049502
0.948253 0.618288 0.047847
0.949250 0.606056 0.046850
0.950470 0.596839 0.045630
0.951713 0.586497 0.044387
0.097369 0.486113 0.099735
0.101075 0.482777 0.100495
0.122315 0.512955 0.087458
0.168132 0.564040 0.062272
0.246332 0.601605 0.046309
0.335945 0.617687 0.043564
0.431369 0.662779 0.043200
0.534456 0.706666 0.043846
0.628637 0.737212 0.044473
0.714737 0.763131 0.044544
0.797032 0.790007 0.044600
0.883486 0.817779 0.044700
0.950961 0.733765 0.045141
0.949760 0.717590 0.046372
0.948420 0.704094 0.047746
0.946920 0.688208 0.049280
0.047841 0.618196 0.043315
0.044999 0.641845 0.043200
0.046690 0.672161 0.043200
0.063710 0.708714 0.043200
0.164289 0.746820 0.043200
0.269811 0.783387 0.043200
0.386218 0.810218 0.043200
0.507727 0.830498 0.043200
0.613782 0.844408 0.043200
0.703380 0.852651 0.044700
0.787762 0.862869 0.044700
0.867934 0.877957 0.044700
0.951082 0.879474 0.044900
0.951200 0.852283 0.044900
0.951200 0.834180 0.044900
0.951200 0.812872 0.044900
0.043400 0.763400 0.043200
0.043400 0.763400 0.043200
0.043400 0.763400 0.043200
0.043400 0.766193 0.043200
0.058466 0.780703 0.043200
0.202020 0.801321 0.043200
0.331097 0.817542 0.043200
0.464027 0.829537 0.043200
0.584375 0.841513 0.043200
0.682255 0.850385 0.044700
0.772193 0.860992 0.044700
0.857824 0.874706 0.044700
0.950655 0.907823 0.044900
0.951200 0.877675 0.044900
0.951200 0.877675 0.044900
0.951200 0.877675 0.044900
0.043400 0.763400 0.043200
0.043400 0.763400 0.043200
0.043400 0.763400 0.043200
0.043400 0.763400 0.043200
0.043402 0.769158 0.043200
0.107863 0.788117 0.043200
0.263896 0.811677 0.043200
0.406167 0.824219 0.043200
0.543198 0.837303 0.043200
0.654619 0.847389 0.044587
0.750583 0.858248 0.044700
0.842908 0.871158 0.044700
0.943593 0.913576 0.044900
0.951200 0.877675 0.044900
0.951200 0.877675 0.044900
0.951200 0.877675 0.044900
0.043200 0.084171 0.100323
0.051773 0.084832 0.101743
0.114928 0.089538 0.112332
0.164907 0.097011 0.109931
0.223520 0.101739 0.107234
0.283722 0.102400 0.097853
0.341413 0.112301 0.098434
0.397984 0.126581 0.106752
0.465761 0.140683 0.122267
0.536067 0.155591 0.139020
0.603786 0.170706 0.153340
0.669649 0.185771 0.165965
0.735507 0.201378 0.176915
0.799393 0.217393 0.185407
0.854574 0.232466 0.191132
0.854715 0.232649 0.190906
0.043266 0.087858 0.102125
0.050142 0.093214 0.107305
0.102581 0.096847 0.117139
0.157533 0.103524 0.113136
0.216393 0.105515 0.105128
0.278813 0.107649 0.093006
0.339399 0.117240 0.092226
0.398642 0.131599 0.101735
0.468008 0.144899 0.117482
0.537538 0.157892 0.135182
0.604809 0.171941 0.150567
0.671456 0.187400 0.162917
0.737719 0.203323 0.173788
0.801801 0.219770 0.182217
0.857850 0.235787 0.187529
0.857839 0.235839 0.187443
0.043300 0.110674 0.116403
0.046326 0.114439 0.117464
0.085094 0.116797 0.122229
0.143183 0.129148 0.121569
0.207995 0.137116 0.112401
0.278649 0.143871 0.095190
0.350253 0.149867 0.084136
0.413686 0.157427 0.086398
0.481350 0.164996 0.103971
0.550905 0.173566 0.122584
0.618254 0.185884 0.137485
0.684110 0.200600 0.149824
0.749484 0.216562 0.160639
0.813055 0.234091 0.169108
0.869432 0.251610 0.174607
0.869124 0.251113 0.174900
0.043340 0.162286 0.125762
0.043200 0.159833 0.112171
0.075558 0.164152 0.116960
0.144440 0.158421 0.115255
0.220908 0.157948 0.104564
0.290056 0.168109 0.089285
0.362200 0.177312 0.077622
0.432597 0.185327 0.073875
0.499871 0.194070 0.089066
0.570278 0.204104 0.105548
0.637253 0.217016 0.118795
0.701871 0.230536 0.130969
0.765566 0.245216 0.141964
0.826812 0.261712 0.150765
0.882623 0.278915 0.157147
0.882026 0.277636 0.157872
0.043200 0.199543 0.105072
0.043200 0.196321 0.095085
0.057191 0.217449 0.095382
0.138605 0.212514 0.104423
0.232072 0.195344 0.095547
0.317026 0.185517 0.067624
0.392205 0.197699 0.055248
0.462543 0.211936 0.063474
0.532086 0.227126 0.076054
0.599062 0.243162 0.087461
0.662633 0.260629 0.096455
0.726729 0.277950 0.105575
0.789407 0.296037 0.113692
0.848933 0.314248 0.120711
0.902723 0.330916 0.126899
0.902143 0.328716 0.128272
0.043200 0.234057 0.086503
0.043200 0.232543 0.080175
0.045895 0.260318 0.072334
0.133391 0.262379 0.078393
0.237760 0.249722 0.095935
0.324394 0.232605 0.082323
0.418762 0.220783 0.045357
0.505109 0.233590 0.060759
0.579161 0.250662 0.074792
0.643764 0.269070 0.083673
0.703559 0.289027 0.089534
0.762499 0.311460 0.093277
0.820206 0.337596 0.093860
0.876076 0.366199 0.091655
0.917042 0.388053 0.089304
0.916046 0.383480 0.092635
0.043200 0.267709 0.075306
0.043200 0.269192 0.075544
0.043919 0.295487 0.060579
0.133297 0.313532 0.054153
0.239352 0.298926 0.088717
0.337377 0.307164 0.065520
0.430845 0.285211 0.053087
0.530391 0.270885 0.043936
0.617939 0.280149 0.064987
0.683613 0.297907 0.075402
0.740436 0.317715 0.080535
0.795900 0.341108 0.082245
0.851727 0.370158 0.079419
0.914525 0.405820 0.073461
0.935988 0.415021 0.074010
0.933557 0.407059 0.079862
0.043200 0.302086 0.080700
0.043200 0.304533 0.081437
0.051078 0.331192 0.057603
0.143914 0.356213 0.046141
0.249493 0.347790 0.080590
0.352231 0.359224 0.063190
0.443489 0.372424 0.048589
0.545467 0.344366 0.044201
0.631013 0.331593 0.043494
0.705416 0.334678 0.053031
0.770088 0.350824 0.063814
0.829153 0.374344 0.066900
0.896781 0.408863 0.063532
0.951955 0.447451 0.050680
0.951470 0.441153 0.056259
0.950275 0.435001 0.061640
0.043200 0.333392 0.093454
0.043200 0.337031 0.089512
0.060957 0.374064 0.046268
0.159400 0.392032 0.045970
0.262620 0.391050 0.073794
0.356594 0.399714 0.081112
0.464432 0.426038 0.043937
0.547853 0.443358 0.044654
0.641751 0.411715 0.045222
0.717723 0.397001 0.043200
0.795004 0.394021 0.043623
0.867183 0.414688 0.047478
0.939620 0.454931 0.043200
0.952900 0.476266 0.043200
0.952900 0.471430 0.043200
0.952900 0.465725 0.043200
0.043200 0.370046 0.094341
0.043200 0.381260 0.082273
0.080793 0.412978 0.043585
0.173789 0.425767 0.048640
0.272951 0.428982 0.071949
0.362227 0.436960 0.086968
0.466040 0.471757 0.045497
0.556939 0.497454 0.044198
0.640312 0.530564 0.044343
0.732409 0.485125 0.047620
0.811524 0.463743 0.043200
0.888830 0.465765 0.043200
0.952049 0.500361 0.043200
0.952900 0.503868 0.043200
0.952900 0.499745 0.043200
0.952900 0.495045 0.043200
0.043377 0.424635 0.091283
0.044645 0.431988 0.080179
0.090597 0.446859 0.055907
0.180941 0.459657 0.059000
0.278703 0.464740 0.077567
0.366762 0.475472 0.088929
0.455783 0.506653 0.060395
0.559386 0.550441 0.044200
0.641252 0.583709 0.044300
0.724026 0.621197 0.044473
0.821723 0.572876 0.048812
0.906256 0.540088 0.043652
0.952900 0.549101 0.043200
0.952900 0.541985 0.043200
0.952900 0.535207 0.043200
0.952900 0.527380 0.043200
0.063178 0.462248 0.099147
0.067133 0.462661 0.093918
0.109867 0.471273 0.078053
0.189463 0.488578 0.075357
0.276432 0.499823 0.087680
0.364805 0.517467 0.094486
0.452032 0.547679 0.072224
0.546993 0.593030 0.044265
0.643741 0.641645 0.044300
0.723559 0.683013 0.044474
0.803376 0.725857 0.044600
0.911916 0.657178 0.049821
0.948505 0.615785 0.047595
0.949577 0.603583 0.046523
0.950872 0.593799 0.045228
0.951885 0.583738 0.044215
0.093653 0.490418 0.114965
0.095458 0.492856 0.110026
0.109278 0.522683 0.085630
0.157187 0.568656 0.060820
0.237245 0.602893 0.045362
0.328369 0.619449 0.043624
0.424788 0.662921 0.043200
0.529718 0.706966 0.043745
0.625577 0.737004 0.044464
0.712732 0.762316 0.044543
0.796173 0.789089 0.044600
0.883052 0.816218 0.044700
0.950701 0.730999 0.045404
0.949421 0.714177 0.046719
0.948000 0.699862 0.048177
0.946573 0.683220 0.049627
0.044272 0.630137 0.043200
0.044308 0.657196 0.043200
0.044481 0.682039 0.043200
0.053282 0.715041 0.043200
0.146616 0.751245 0.043200
0.258727 0.786527 0.043200
0.377265 0.811114 0.043200
0.500949 0.830092 0.043200
0.609424 0.843951 0.043200
0.700310 0.852299 0.044700
0.785711 0.862577 0.044700
0.866861 0.877420 0.044700
0.951073 0.878777 0.044900
0.951200 0.847977 0.044900
0.951200 0.828789 0.044900
0.951200 0.806397 0.044900
0.043400 0.763400 0.043200
0.043400 0.763400 0.043200
0.043400 0.763400 0.043200
0.043400 0.765272 0.043200
0.046502 0.778529 0.043200
0.187944 0.799014 0.043200
0.319852 0.816639 0.043200
0.454841 0.828683 0.043200
0.578173 0.840875 0.043200
0.678120 0.849916 0.044700
0.769200 0.860612 0.044700
0.856031 0.873964 0.044700
0.949882 0.908453 0.044900
0.951200 0.877675 0.044900
0.951200 0.877675 0.044900
0.951200 0.877675 0.044900
0.043400 0.763400 0.043200
0.043400 0.763400 0.043200
0.043400 0.763400 0.043200
0.043400 0.763400 0.043200
0.043401 0.767606 0.043200
0.086176 0.785595 0.043200
0.250773 0.810127 0.043200
0.394759 0.823179 0.043200
0.534879 0.836459 0.043200
0.649126 0.847121 0.044301
0.746502 0.857729 0.044700
0.840175 0.870574 0.044700
0.942356 0.914584 0.044900
0.951200 0.877675 0.044900
0.951200 0.877675 0.044900
0.951200 0.877675 0.044900
0.043209 0.104496 0.126627
0.052630 0.103780 0.125980
0.098200 0.109595 0.140064
0.186423 0.115152 0.141092
0.240946 0.119191 0.133463
0.309233 0.124530 0.127773
0.376775 0.130042 0.121835
0.445244 0.137918 0.118761
0.498303 0.150695 0.123945
0.563298 0.163625 0.139497
0.625100 0.177296 0.152434
0.685259 0.190928 0.164312
0.745723 0.204992 0.175212
0.805250 0.219726 0.184419
0.857730 0.233626 0.190802
0.857481 0.233472 0.190930
0.043276 0.107126 0.128157
0.050716 0.112219 0.133489
0.090140 0.115415 0.141799
0.180196 0.120858 0.145771
0.237126 0.124968 0.137292
0.307770 0.127070 0.128645
0.376547 0.131515 0.121320
0.445944 0.139229 0.118298
0.499494 0.151619 0.123216
0.563321 0.164258 0.138406
0.624276 0.177508 0.151487
0.684228 0.190861 0.163714
0.744806 0.204871 0.174834
0.804590 0.219573 0.184141
0.857842 0.233663 0.190765
0.857538 0.233467 0.190934
0.043300 0.116626 0.134196
0.045596 0.123454 0.140410
0.080840 0.132865 0.150433
0.163507 0.137066 0.158283
0.229660 0.140160 0.146937
0.303228 0.132952 0.126879
0.377218 0.137241 0.119388
0.449052 0.144496 0.117013
0.505326 0.155489 0.121213
0.565065 0.166902 0.135254
0.624609 0.179186 0.148489
0.684393 0.192486 0.160671
0.745366 0.206683 0.171936
0.806996 0.222538 0.180635
0.862560 0.238381 0.186505
0.861993 0.237760 0.186947
0.043307 0.152373 0.154703
0.043404 0.157771 0.157879
0.067824 0.163309 0.164695
0.134952 0.167105 0.171234
0.211287 0.179953 0.164567
0.290483 0.182039 0.144291
0.369463 0.180848 0.126986
0.448327 0.178031 0.115513
0.513168 0.176093 0.108685
0.571722 0.183589 0.121456
0.634068 0.196433 0.133939
0.696648 0.211932 0.144198
0.760815 0.230134 0.152537
0.823368 0.248915 0.159724
0.880534 0.267789 0.165105
0.880121 0.267170 0.165377
0.043399 0.209902 0.172347
0.043399 0.215765 0.167498
0.043746 0.217688 0.152203
0.113938 0.222820 0.154371
0.223658 0.209063 0.148463
0.304795 0.205786 0.133222
0.380120 0.216322 0.123355
0.457428 0.223053 0.112274
0.532445 0.226721 0.098679
0.594148 0.233047 0.095408
0.651920 0.242953 0.105371
0.713897 0.255967 0.116841
0.778039 0.274461 0.125161
0.840411 0.295065 0.131450
0.898513 0.314851 0.136867
0.897810 0.312890 0.137989
0.043200 0.260538 0.161059
0.043200 0.253464 0.144203
0.043200 0.248274 0.127078
0.086130 0.277287 0.117637
0.219074 0.266232 0.130962
0.318086 0.245964 0.125200
0.412853 0.233470 0.088841
0.495317 0.245631 0.067868
0.565165 0.260606 0.067847
0.627306 0.276887 0.072980
0.683114 0.293244 0.079159
0.740498 0.311263 0.085541
0.801680 0.333546 0.090323
0.862279 0.359136 0.092174
0.915194 0.382587 0.092856
0.914387 0.376153 0.097822
0.043200 0.289021 0.143141
0.043200 0.282959 0.128145
0.043200 0.280324 0.111138
0.079051 0.324109 0.088038
0.217395 0.317653 0.110189
0.332954 0.319027 0.105694
0.424138 0.297595 0.098665
0.522819 0.279812 0.047221
0.605329 0.288580 0.052424
0.670121 0.306050 0.063250
0.727962 0.325268 0.069480
0.783188 0.347281 0.072313
0.837954 0.375049 0.069790
0.906931 0.412021 0.064771
0.929208 0.419554 0.067169
0.927508 0.410247 0.074844
0.043200 0.313229 0.130267
0.043200 0.307784 0.115454
0.043200 0.315428 0.108215
0.093577 0.365075 0.071232
0.227908 0.364225 0.098054
0.339131 0.366183 0.111403
0.440206 0.381864 0.074922
0.537831 0.355494 0.049502
