nova/tdt-studio/app/Lut_mau/.cube LUT/Smoke Good.cube
LUT_3D_SIZE 6
0.043200 0.058100 0.066800
0.139553 0.091763 0.075153
0.319643 0.130287 0.073918
0.533575 0.165309 0.122622
0.739169 0.206852 0.167733
0.859834 0.240719 0.181975
0.043200 0.150857 0.064641
0.150839 0.148660 0.070168
0.363295 0.172687 0.057530
0.572313 0.212365 0.100421
0.773421 0.256750 0.136184
0.885790 0.286021 0.153046
0.043200 0.268328 0.060387
0.157958 0.300341 0.046584
0.423452 0.275170 0.046191
0.679212 0.291066 0.079211
0.858391 0.366507 0.085023
0.937026 0.410586 0.078133
0.043200 0.386327 0.056070
0.195810 0.419947 0.044697
0.469489 0.468810 0.043939
0.727032 0.484513 0.047845
0.951476 0.498627 0.043200
0.952900 0.498182 0.043200
0.096522 0.487001 0.098714
0.179353 0.557983 0.065905
0.437661 0.662203 0.043200
0.716563 0.763666 0.044543
0.951109 0.736317 0.044991
0.947321 0.693018 0.048873
0.043400 0.763400 0.043200
0.043400 0.763400 0.043200
0.276744 0.812868 0.043200
0.659794 0.847836 0.044700
0.944773 0.912615 0.044900
0.951200 0.877675 0.044900
0.043209 0.104496 0.126627
0.186423 0.115152 0.141092
0.376775 0.130042 0.121835
0.563298 0.163625 0.139497
0.745723 0.204992 0.175212
0.857481 0.233472 0.190930
0.043307 0.152373 0.154703
0.134952 0.167105 0.171234
0.369463 0.180848 0.126986
0.571722 0.183589 0.121456
0.760815 0.230134 0.152537
0.880121 0.267170 0.165377
0.043200 0.289021 0.143141
0.079051 0.324109 0.088038
0.424138 0.297595 0.098665
0.670121 0.306050 0.063250
0.837954 0.375049 0.069790
0.927508 0.410247 0.074844
0.043200 0.352127 0.129807
0.138549 0.432757 0.064528
0.456427 0.475777 0.081883
0.735328 0.492354 0.047700
0.952387 0.501032 0.043200
0.952900 0.493332 0.043200
0.056509 0.484989 0.154261
0.135014 0.576652 0.066009
0.417460 0.662038 0.043200
0.710453 0.761073 0.044542
0.950403 0.727959 0.045706
0.946196 0.677797 0.050004
0.043400 0.764613 0.043200
0.043400 0.763400 0.043200
0.237166 0.807642 0.043200
0.643310 0.846838 0.043998
0.940976 0.915707 0.044900
0.951200 0.877675 0.044900
0.043500 0.179167 0.220329
0.132767 0.179629 0.232932
0.458111 0.203211 0.215735
0.660841 0.212915 0.200132
0.820023 0.247252 0.210094
0.910441 0.270197 0.210345
0.043500 0.191260 0.226529
0.085358 0.223731 0.269105
0.442602 0.230639 0.247949
0.654600 0.230481 0.221505
0.818841 0.254715 0.219399
0.911062 0.278005 0.214853
0.043632 0.302308 0.302713
0.043700 0.340472 0.332265
0.352439 0.364762 0.356164
0.626389 0.366506 0.324170
0.831888 0.359893 0.257005
0.934939 0.363222 0.188554
0.043504 0.514595 0.400211
0.043200 0.462458 0.322653
0.353577 0.506023 0.245025
0.717421 0.522846 0.152704
0.951699 0.530415 0.043200
0.952900 0.506007 0.043200
0.043200 0.530867 0.343538
0.043200 0.526139 0.255630
0.338704 0.693971 0.081689
0.699707 0.764183 0.044533
0.949721 0.720165 0.046400
0.944928 0.659580 0.051272
0.043385 0.775515 0.048817
0.043400 0.781276 0.043212
0.184783 0.799307 0.043200
0.624122 0.845683 0.043200
0.931343 0.913704 0.044900
0.951200 0.877675 0.044900
0.043700 0.258550 0.317965
0.108448 0.251876 0.308539
0.396668 0.284823 0.309444
0.720692 0.282888 0.230458
0.843216 0.307216 0.253890
0.897573 0.352677 0.325044
0.043700 0.267950 0.327454
0.050994 0.287874 0.356748
0.376449 0.289828 0.356043
0.707609 0.298511 0.265873
0.836818 0.320800 0.290166
0.893419 0.369611 0.355912
0.043772 0.324367 0.376652
0.043890 0.363503 0.421499
0.258118 0.391595 0.480487
0.664281 0.394391 0.415909
0.850489 0.400711 0.407099
0.896201 0.393070 0.375364
0.044021 0.470252 0.489588
0.044087 0.499955 0.506816
0.096630 0.567367 0.569087
0.657825 0.586447 0.539752
0.920054 0.595665 0.457680
0.941572 0.554817 0.361610
0.044477 0.727720 0.655571
0.044391 0.741191 0.612085
0.043200 0.684736 0.421677
0.637528 0.766976 0.322774
0.946644 0.713523 0.155494
0.944355 0.648770 0.051764
0.043200 0.846752 0.496141
0.043200 0.826299 0.404437
0.043200 0.806194 0.203626
0.558069 0.866729 0.043202
0.911538 0.907609 0.044900
0.951200 0.878342 0.044900
0.043900 0.338196 0.418291
0.070352 0.333455 0.400984
0.327459 0.345554 0.404142
0.649892 0.377441 0.389682
0.852778 0.410238 0.465120
0.886838 0.445732 0.511408
0.043900 0.348185 0.437924
0.043935 0.360153 0.459045
0.254508 0.349141 0.437061
0.629611 0.390057 0.437188
0.850647 0.417694 0.498256
0.888717 0.452618 0.530101
0.044000 0.392758 0.484470
0.044083 0.418286 0.520440
0.164559 0.435192 0.578677
0.611224 0.419803 0.593270
0.887130 0.462552 0.600454
0.894891 0.478140 0.575322
0.044200 0.484756 0.586223
0.044299 0.519894 0.623110
0.044621 0.553232 0.670867
0.556105 0.570114 0.719745
0.902662 0.597633 0.680973
0.900898 0.574721 0.641663
0.044502 0.672625 0.743158
0.044547 0.691955 0.752303
0.044558 0.745214 0.767837
0.332834 0.813693 0.750471
0.941582 0.781316 0.619017
0.952898 0.739926 0.539411
0.044600 0.795004 0.812467
0.044600 0.818324 0.799720
0.044700 0.878671 0.783118
0.077832 0.925070 0.446910
0.887841 0.917458 0.415491
0.951517 0.902250 0.281799
0.044099 0.405752 0.507597
0.045384 0.401361 0.482409
0.269360 0.400254 0.453904
0.630932 0.437939 0.529939
0.850709 0.461322 0.616413
0.926231 0.504147 0.703896
0.044100 0.416287 0.538214
0.044036 0.425078 0.554842
0.216756 0.414102 0.515487
0.619253 0.422520 0.602281
0.854538 0.456915 0.654495
0.931490 0.506959 0.725711
0.044199 0.447730 0.573537
0.044269 0.467962 0.606080
0.085480 0.486896 0.665504
0.488619 0.436965 0.689607
0.923487 0.478278 0.761022
0.940405 0.518426 0.767636
0.044399 0.536078 0.675611
0.044402 0.566094 0.709898
0.044500 0.583924 0.738215
0.459001 0.587857 0.810478
0.944863 0.575861 0.847567
0.948948 0.576352 0.832215
0.044600 0.666811 0.796835
0.044600 0.672619 0.801410
0.044648 0.706971 0.830619
0.281088 0.718470 0.844612
0.906287 0.778194 0.879949
0.945955 0.740568 0.864622
0.044700 0.743176 0.851932
0.044700 0.743176 0.851932
0.044700 0.760458 0.862131
0.044700 0.816800 0.885184
0.769762 0.952243 0.807185
0.952107 0.934028 0.710741
