nova/tdt-studio/app/Lut_mau/.cube LUT/Suppol - Standard.cube
# Copyright: (C) Copyright 2010-2018 by IWLTBAP SAS
# Cannot be resold, shared or otherwise redistributed
# Website: https://luts.iwltbap.com
TITLE "IWLTBAP Suppol (Rec.709, sRGB, DCI-P3)"
LUT_3D_SIZE 9
0.003296 0.001770 0.002533
0.069244 0.000183 0.000946
0.169281 0.000000 0.000000
0.302734 0.000000 0.000153
0.459808 0.000000 0.010437
0.638367 0.000000 0.025452
0.813263 0.000000 0.040497
0.959930 0.000000 0.067383
1.000000 0.000000 0.103394
0.103180 0.034210 0.152618
0.066864 0.059814 0.194977
0.169739 0.066772 0.045013
0.314392 0.053619 0.015320
0.480438 0.033020 0.013794
0.660736 0.018005 0.023376
0.829895 0.015778 0.037537
0.968231 0.025543 0.068268
1.000000 0.046997 0.109619
0.278870 0.078705 0.344025
0.253815 0.095093 0.406281
0.129669 0.134949 0.466522
0.294647 0.166595 0.135529
0.500000 0.156281 0.034515
0.682098 0.141998 0.023376
0.841644 0.143524 0.034546
0.971680 0.163849 0.070404
1.000000 0.204376 0.123047
0.535278 0.147675 0.578735
0.533813 0.159882 0.616211
0.511719 0.194733 0.725800
0.289459 0.267883 0.760284
0.429718 0.314819 0.295593
0.688873 0.321899 0.069550
0.844452 0.334595 0.053528
0.968689 0.355225 0.089966
1.000000 0.391022 0.156036
0.791473 0.330414 0.809296
0.793365 0.347198 0.829773
0.786102 0.386200 0.877136
0.684082 0.409058 0.892334
0.388184 0.413177 0.847626
0.543396 0.476196 0.518005
0.824493 0.506653 0.177856
0.951233 0.527313 0.156799
1.000000 0.552246 0.223907
0.885895 0.549927 0.910675
0.877716 0.552795 0.910919
0.851227 0.556854 0.910431
0.796478 0.558563 0.908173
0.689911 0.554993 0.903015
0.499542 0.552704 0.884644
0.621979 0.614624 0.718475
0.906158 0.662933 0.387207
1.000000 0.682098 0.332855
0.885071 0.669586 0.918976
0.880371 0.671661 0.918945
0.864410 0.675110 0.918701
0.837524 0.677704 0.918060
0.793976 0.680511 0.916687
0.726044 0.683777 0.914520
0.637726 0.694366 0.912720
0.723358 0.742401 0.858337
0.970764 0.789612 0.616058
0.886780 0.764587 0.931732
0.884460 0.765564 0.931824
0.878387 0.767822 0.932068
0.863953 0.771912 0.932465
0.847443 0.782135 0.933319
0.828766 0.791748 0.934814
0.808228 0.809998 0.937897
0.798798 0.835632 0.943542
0.843536 0.870300 0.945038
0.909729 0.860931 0.948608
0.909454 0.862183 0.948944
0.908264 0.865387 0.949860
0.906952 0.871063 0.951538
0.906433 0.881287 0.955658
0.908234 0.896332 0.962311
0.915009 0.917053 0.968109
0.931030 0.942261 0.976349
0.954651 0.969849 0.989624
0.000000 0.021545 0.024750
0.043579 0.024902 0.054047
0.157806 0.009857 0.053009
0.289734 0.000000 0.041595
0.455109 0.000000 0.043854
0.639801 0.000000 0.047119
0.816803 0.000000 0.054565
0.963837 0.000000 0.075378
1.000000 0.000000 0.108673
0.098938 0.048035 0.126831
0.076538 0.083405 0.109314
0.167572 0.080322 0.081421
0.308105 0.072571 0.062775
0.476807 0.051636 0.055023
0.660492 0.030609 0.050934
0.830750 0.028137 0.056061
0.969666 0.044861 0.079803
1.000000 0.072571 0.114807
0.295502 0.078308 0.322021
0.214813 0.139771 0.269043
0.171661 0.171356 0.279266
0.311676 0.179169 0.137482
0.499542 0.168182 0.081421
0.681549 0.160126 0.060944
0.841400 0.163635 0.060944
0.972046 0.187744 0.085785
1.000000 0.229980 0.128540
0.546722 0.149353 0.562622
0.453552 0.209076 0.499390
0.400970 0.237701 0.534790
0.271515 0.272705 0.578979
0.457214 0.319702 0.274200
0.691101 0.334473 0.115417
0.845062 0.345276 0.090729
0.969299 0.369873 0.111938
1.000000 0.402466 0.166168
0.798431 0.329010 0.799408
0.727203 0.347870 0.751770
0.701447 0.373688 0.774414
0.646362 0.402283 0.841553
0.404083 0.416016 0.828247
0.562805 0.479126 0.494446
0.827820 0.512756 0.207581
0.952759 0.533020 0.184906
1.000000 0.557770 0.232361
0.893219 0.551208 0.910583
0.879517 0.553314 0.906006
0.855164 0.558289 0.906738
0.805298 0.562286 0.908112
0.696106 0.557373 0.903534
0.503052 0.554352 0.882812
0.638611 0.620300 0.706573
0.910278 0.665497 0.396545
1.000000 0.685547 0.347870
0.888397 0.672272 0.919159
0.884674 0.674683 0.919220
0.871735 0.676910 0.919067
0.842163 0.679504 0.918365
0.801025 0.682159 0.916931
0.730499 0.685059 0.914764
0.639252 0.696136 0.912567
0.732971 0.743988 0.853271
0.974396 0.790833 0.612000
0.888824 0.765442 0.931854
0.886902 0.766510 0.932007
0.881073 0.768890 0.932220
0.866394 0.773315 0.932709
0.851379 0.783051 0.933472
0.830414 0.792542 0.935059
0.809509 0.810638 0.938019
0.800171 0.836212 0.943695
0.848663 0.871094 0.944275
0.911072 0.861450 0.948792
0.910583 0.862823 0.949127
0.909637 0.865936 0.950073
0.908264 0.871582 0.951782
0.907471 0.882446 0.955963
0.909088 0.896973 0.962494
0.916473 0.917603 0.968231
0.931641 0.942780 0.976501
0.955139 0.970276 0.989777
0.000000 0.051636 0.058533
0.000000 0.074249 0.090363
0.101898 0.055573 0.130524
0.282990 0.024231 0.123932
0.453461 0.000946 0.110962
0.642639 0.000000 0.104065
0.823975 0.000000 0.099243
0.968964 0.000000 0.107666
1.000000 0.000000 0.120972
0.000000 0.102722 0.124817
0.000000 0.114258 0.134979
0.125122 0.108307 0.153107
0.299347 0.094727 0.143677
0.472198 0.073822 0.125092
0.658417 0.050629 0.115417
0.830811 0.046997 0.110626
0.970978 0.065857 0.115112
1.000000 0.105377 0.131622
0.289734 0.090271 0.284027
0.216156 0.151611 0.240295
0.188751 0.188568 0.215332
0.318939 0.191254 0.181732
0.496033 0.186768 0.156525
0.674347 0.179993 0.140198
0.838837 0.185516 0.125946
0.971741 0.212952 0.128265
1.000000 0.258514 0.150604
0.572296 0.143036 0.533844
0.472534 0.214417 0.463715
0.372925 0.273865 0.407196
0.330139 0.310944 0.414215
0.496674 0.334106 0.267883
0.690735 0.343964 0.193390
0.841827 0.359131 0.168488
0.968048 0.385681 0.166412
1.000000 0.418304 0.186768
0.808929 0.323700 0.783478
0.726532 0.348511 0.716980
0.616913 0.381653 0.644531
0.553833 0.406616 0.672577
0.431702 0.427521 0.703339
0.611298 0.491119 0.449066
0.830414 0.520233 0.265381
0.952637 0.539795 0.241913
1.000000 0.565582 0.260315
0.907349 0.553833 0.910065
0.888245 0.555237 0.900269
0.832123 0.550995 0.860229
0.789856 0.559601 0.871918
0.707977 0.563141 0.889435
0.518219 0.559113 0.875153
0.671082 0.628601 0.674133
0.918365 0.670197 0.414825
1.000000 0.688934 0.377747
0.899445 0.676300 0.919495
0.894989 0.677856 0.919586
0.883911 0.680817 0.919586
0.857635 0.683929 0.919098
0.811005 0.686127 0.917816
0.737640 0.687988 0.915405
0.642944 0.700592 0.911865
0.752960 0.750244 0.837036
0.981201 0.792419 0.603821
0.895844 0.767334 0.932159
0.892853 0.768494 0.932373
0.887177 0.771179 0.932709
0.876617 0.778015 0.933258
0.856812 0.785248 0.934021
0.834686 0.794434 0.935486
0.812378 0.812225 0.938385
0.802002 0.837646 0.944031
0.856689 0.873016 0.941711
0.913147 0.862823 0.949158
0.913025 0.864136 0.949493
0.912567 0.867401 0.950439
0.911133 0.873016 0.952118
0.910065 0.885071 0.956818
0.911194 0.898163 0.962891
0.920013 0.918671 0.968597
0.933167 0.943939 0.976929
0.956390 0.971313 0.990204
0.000000 0.080322 0.094391
0.000000 0.095795 0.117279
0.000000 0.123322 0.164978
0.198517 0.091003 0.228241
0.454163 0.042206 0.230133
0.639191 0.015778 0.207581
0.815491 0.000000 0.199310
0.962555 0.000000 0.186768
1.000000 0.011383 0.179169
0.000000 0.124207 0.144714
0.000000 0.134399 0.161499
0.000000 0.157959 0.201080
0.218048 0.138702 0.245117
0.465240 0.107666 0.242554
0.646301 0.084930 0.225311
0.822662 0.076721 0.212036
0.964813 0.096527 0.203033
1.000000 0.138458 0.196960
0.007202 0.189209 0.242554
0.023621 0.207031 0.242859
0.083221 0.228424 0.256531
0.261139 0.223511 0.282745
0.484344 0.211670 0.269897
0.664490 0.207031 0.255127
0.829498 0.210754 0.238831
0.964386 0.236877 0.227356
1.000000 0.282593 0.218964
0.564728 0.157257 0.482269
0.481659 0.221008 0.437592
0.380310 0.287567 0.384064
0.354980 0.335388 0.356781
0.509186 0.348755 0.327728
0.683807 0.361115 0.303619
0.833466 0.371857 0.285248
0.958374 0.396179 0.267303
1.000000 0.427338 0.261230
0.826782 0.315918 0.748413
0.755585 0.347626 0.697083
0.640961 0.390350 0.613159
0.543579 0.439209 0.560242
0.503052 0.471863 0.565887
0.662842 0.504639 0.436707
0.828156 0.526001 0.359741
0.948395 0.546753 0.341064
1.000000 0.569916 0.330048
0.929932 0.555054 0.906799
0.908844 0.557709 0.891388
0.837952 0.552399 0.834991
0.740875 0.556152 0.770233
0.678558 0.572266 0.791107
0.564880 0.579224 0.812592
0.724762 0.638153 0.623901
0.923859 0.674957 0.465088
1.000000 0.690491 0.439789
0.911133 0.680817 0.919861
0.908844 0.682495 0.920013
0.902130 0.686218 0.919891
0.876587 0.689758 0.914551
0.830841 0.692902 0.914551
0.755768 0.693787 0.915588
0.653412 0.705750 0.909088
0.785431 0.758270 0.810394
0.992676 0.794159 0.611603
0.904083 0.770630 0.932770
0.902771 0.771912 0.932983
0.899445 0.776978 0.933380
0.887848 0.783356 0.934113
0.868439 0.789368 0.934967
0.842834 0.797974 0.936371
0.820099 0.814972 0.939056
0.805420 0.840302 0.944366
0.874237 0.876312 0.934601
0.920563 0.865173 0.949768
0.920319 0.866516 0.950165
0.919952 0.869659 0.951141
0.919037 0.875458 0.952881
0.916168 0.888000 0.958221
0.916534 0.900299 0.963593
0.923950 0.920715 0.969269
0.935730 0.945953 0.977722
0.958679 0.973145 0.990997
0.000000 0.108643 0.131134
0.000000 0.122742 0.147827
0.000000 0.146088 0.182373
0.000000 0.180420 0.246246
0.332458 0.131104 0.342163
0.633270 0.075500 0.358612
0.796295 0.064087 0.335815
0.945160 0.062073 0.323914
1.000000 0.081879 0.307678
0.000000 0.147125 0.173920
0.000000 0.157013 0.186768
0.000000 0.179810 0.221771
0.000000 0.211121 0.283020
0.343781 0.179382 0.355713
0.636841 0.141052 0.372375
0.800323 0.138977 0.350494
0.945618 0.154816 0.341064
1.000000 0.190033 0.326172
0.000000 0.217468 0.247314
0.000000 0.230499 0.263031
0.005646 0.246704 0.288666
0.064911 0.277283 0.332611
0.375946 0.260773 0.388000
0.646759 0.246246 0.394836
0.806183 0.256531 0.377350
0.945679 0.277832 0.363037
1.000000 0.313080 0.351776
0.177948 0.295227 0.400635
0.152985 0.316284 0.391296
0.149261 0.344360 0.389252
0.230682 0.372559 0.406647
0.434448 0.375336 0.437408
0.663940 0.384216 0.434662
0.812744 0.395996 0.417297
0.942047 0.416840 0.404907
1.000000 0.443481 0.388275
0.814056 0.318146 0.699280
0.758606 0.352753 0.658875
0.659729 0.398682 0.596069
0.553070 0.453339 0.542297
0.528717 0.503662 0.509827
0.674194 0.521942 0.497986
0.813690 0.535553 0.476471
0.933899 0.553619 0.462341
1.000000 0.573273 0.445831
0.955536 0.551392 0.893341
0.932678 0.556641 0.879059
0.865356 0.556213 0.823090
0.766327 0.568634 0.745117
0.683807 0.597046 0.702087
0.645081 0.621094 0.707275
0.782074 0.656464 0.607697
0.922150 0.678314 0.547699
1.000000 0.691010 0.530426
0.932739 0.686157 0.919922
0.930939 0.688141 0.920166
0.925293 0.692413 0.919922
0.898682 0.698761 0.909149
0.833771 0.703186 0.877441
0.771637 0.708679 0.885376
0.686859 0.716644 0.889557
0.830872 0.766937 0.769318
0.997253 0.795624 0.647491
0.915924 0.778198 0.933594
0.913666 0.780548 0.933777
0.910706 0.783539 0.934265
0.905090 0.788574 0.935120
0.889191 0.795471 0.936218
0.861420 0.807037 0.937561
0.831207 0.819366 0.940125
0.811859 0.844421 0.944244
0.901978 0.882568 0.913879
0.926849 0.868622 0.950775
0.926727 0.869934 0.951141
0.926727 0.873138 0.952087
0.926727 0.879333 0.954803
0.926392 0.891479 0.960358
0.925690 0.903503 0.964508
0.929016 0.923920 0.970398
0.942352 0.948944 0.978851
0.963898 0.976105 0.992188
0.000000 0.140808 0.172546
0.000000 0.153107 0.183838
0.000000 0.173981 0.212952
0.000000 0.207581 0.263763
0.000000 0.243195 0.350403
0.481506 0.189240 0.469757
0.788208 0.160583 0.503693
0.915802 0.186127 0.491180
1.000000 0.218536 0.474396
0.000000 0.175323 0.207397
0.000000 0.184052 0.221405
0.000000 0.205322 0.246857
0.000000 0.236176 0.296265
0.000000 0.270477 0.377869
0.488983 0.234833 0.480072
0.787048 0.223145 0.513580
0.912048 0.255280 0.499969
1.000000 0.292572 0.491241
0.000000 0.240479 0.278961
0.000000 0.250427 0.291901
0.000000 0.269623 0.318878
0.000000 0.296906 0.358826
0.039886 0.329010 0.422150
0.505066 0.311951 0.506775
0.789368 0.315918 0.531830
0.911743 0.345032 0.519836
1.000000 0.381653 0.509125
0.000000 0.340210 0.379364
0.000000 0.348755 0.388763
0.000000 0.368103 0.411285
0.138885 0.391602 0.438782
0.213257 0.418488 0.487366
0.543396 0.418945 0.549438
0.791351 0.432587 0.559845
0.911774 0.456696 0.547577
1.000000 0.481689 0.537964
0.421783 0.417694 0.577850
0.383484 0.434296 0.565979
0.325470 0.466614 0.554169
0.318939 0.497345 0.546906
0.409454 0.526886 0.562286
0.598480 0.536285 0.594391
0.791809 0.555176 0.596405
0.911285 0.575165 0.587280
1.000000 0.590454 0.580048
0.963898 0.545532 0.869476
0.940216 0.554199 0.851837
0.879242 0.560059 0.801605
0.786438 0.578094 0.738220
0.694061 0.610474 0.688538
0.683167 0.656219 0.665039
0.793976 0.670502 0.656647
0.907745 0.686005 0.644531
1.000000 0.698822 0.636017
0.956879 0.690643 0.918976
0.955872 0.692841 0.919250
0.951874 0.701080 0.918640
0.927704 0.707184 0.906158
0.861298 0.712189 0.860229
0.789062 0.729431 0.824829
0.757019 0.746704 0.829742
0.875214 0.781982 0.757507
0.996277 0.798279 0.711090
0.933167 0.785126 0.934387
0.932281 0.786438 0.934692
0.930237 0.789581 0.935211
0.925873 0.795044 0.936249
0.913330 0.805267 0.937347
0.888000 0.815582 0.935760
0.851593 0.829498 0.939270
0.828766 0.850891 0.941101
0.937073 0.889587 0.885132
0.934967 0.873322 0.952087
0.935089 0.874664 0.952515
0.934906 0.877838 0.954132
0.934937 0.887451 0.957611
0.935181 0.896057 0.961945
0.935669 0.909912 0.965851
0.936798 0.928131 0.971832
0.949432 0.952911 0.980560
0.971375 0.980133 0.993927
0.000000 0.179382 0.213165
0.000000 0.186554 0.226868
0.000000 0.206848 0.250793
0.000000 0.236877 0.295105
0.000000 0.275879 0.355621
0.000000 0.313080 0.464569
0.628754 0.284454 0.606995
0.906311 0.302826 0.644196
1.000000 0.365173 0.640259
0.000000 0.207581 0.244659
0.000000 0.215332 0.258972
0.000000 0.234680 0.284424
0.000000 0.263306 0.324890
0.000000 0.298157 0.383453
0.000000 0.336517 0.481537
0.630829 0.321533 0.614868
0.903259 0.350494 0.651154
1.000000 0.412994 0.648621
0.000000 0.267151 0.313812
0.000000 0.278717 0.323914
0.000000 0.294830 0.348846
0.000000 0.320679 0.385742
0.000000 0.351776 0.440033
0.029388 0.385895 0.521301
0.639069 0.388885 0.633026
0.900177 0.422455 0.666840
0.996033 0.472260 0.662231
0.000000 0.360413 0.407959
0.000000 0.368103 0.416992
0.000000 0.386810 0.439209
0.069733 0.408875 0.467957
0.119781 0.433441 0.509277
0.186096 0.462524 0.573761
0.650909 0.476562 0.658264
0.896576 0.511414 0.684692
0.991180 0.548065 0.680542
0.000000 0.472046 0.524750
0.000000 0.478363 0.530548
0.000000 0.494385 0.543884
0.159088 0.510315 0.562286
0.308105 0.534546 0.590729
0.380432 0.558105 0.637390
0.678558 0.577179 0.695496
0.890198 0.608002 0.710571
0.985809 0.631073 0.705444
0.650665 0.565094 0.752747
0.626617 0.571686 0.741394
0.572479 0.582123 0.721588
0.497284 0.608978 0.701111
0.486237 0.634827 0.688782
0.567017 0.661957 0.704285
0.722870 0.679230 0.735229
0.887115 0.703339 0.743164
0.984711 0.717438 0.738892
0.976471 0.694244 0.914825
0.975250 0.698456 0.914673
0.971069 0.704956 0.913177
0.947876 0.712219 0.899109
0.882294 0.720520 0.857117
0.803375 0.740631 0.816254
0.787994 0.769623 0.799042
0.884491 0.791534 0.793854
0.983429 0.808960 0.788330
0.953156 0.791656 0.935181
0.952667 0.793091 0.935455
0.951660 0.796387 0.936127
0.949585 0.804230 0.937317
0.944733 0.814362 0.938538
0.923828 0.825775 0.934479
0.880524 0.842438 0.920837
0.862213 0.866760 0.922546
0.972015 0.895203 0.876587
0.949768 0.880249 0.954865
0.949738 0.883057 0.955658
0.949829 0.887787 0.957611
0.950104 0.893433 0.960907
0.950470 0.901855 0.963562
0.951385 0.917542 0.967621
0.952942 0.937256 0.973602
0.957764 0.958954 0.984253
0.978271 0.986481 0.996155
0.000000 0.217133 0.261536
0.000000 0.227325 0.269928
0.000000 0.241943 0.293762
0.000000 0.269196 0.331116
0.000000 0.307312 0.386139
0.000000 0.345398 0.458923
0.000000 0.385406 0.581451
0.757935 0.412445 0.733124
0.990448 0.468140 0.768951
0.000000 0.242859 0.290527
0.000000 0.252625 0.299774
0.000000 0.267456 0.322601
0.000000 0.293365 0.358612
0.000000 0.327606 0.411835
0.000000 0.366852 0.477844
0.000000 0.400848 0.594086
0.756714 0.441437 0.738800
0.983978 0.501099 0.774597
0.000000 0.297272 0.351044
0.000000 0.308167 0.359650
0.000000 0.323456 0.383057
0.000000 0.347198 0.416260
0.000000 0.376648 0.464874
0.000000 0.412537 0.526001
0.050507 0.442474 0.621796
0.756226 0.490448 0.753387
0.979401 0.548187 0.787262
0.000000 0.384369 0.440033
0.000000 0.390564 0.447662
0.000000 0.404968 0.468597
0.002472 0.427673 0.497925
0.048828 0.452179 0.535828
0.068298 0.478699 0.588013
0.164856 0.504425 0.662109
0.756927 0.554932 0.768860
0.975098 0.607697 0.800018
0.000000 0.489166 0.546783
0.000000 0.494995 0.554718
0.000000 0.505524 0.567871
0.088043 0.524048 0.589203
0.225555 0.546753 0.616364
0.271210 0.568695 0.654633
0.327759 0.586548 0.710907
0.763672 0.632324 0.793701
0.972015 0.677643 0.819366
0.062042 0.598450 0.671448
0.067352 0.602295 0.672943
0.098206 0.610107 0.676331
0.178925 0.625092 0.683746
0.315460 0.639954 0.701508
0.456757 0.662109 0.727203
0.519012 0.682404 0.765717
0.784851 0.712646 0.822327
0.971313 0.747986 0.838928
0.814423 0.693848 0.873260
0.803253 0.696747 0.869293
0.767883 0.703552 0.858215
0.711212 0.711792 0.844635
0.636963 0.733398 0.825470
0.617645 0.754395 0.814789
0.685516 0.776733 0.825684
0.824585 0.794983 0.855621
0.973938 0.821869 0.867584
0.972443 0.798767 0.935699
0.972198 0.800385 0.935974
0.971558 0.807037 0.936646
0.969971 0.813354 0.937683
0.962250 0.821869 0.938477
0.944611 0.837006 0.934906
0.895111 0.853729 0.917419
0.883331 0.878296 0.911224
0.979248 0.901642 0.908112
0.963776 0.890747 0.958771
0.964325 0.892090 0.959625
0.964874 0.895172 0.961182
0.965790 0.900757 0.962952
0.968231 0.912537 0.965790
0.970276 0.924835 0.970154
0.972748 0.943939 0.976074
0.975830 0.967316 0.988312
0.988983 0.995239 0.998260
0.000000 0.260803 0.311462
0.000000 0.266449 0.320099
0.000000 0.283020 0.341370
0.000000 0.307922 0.375336
0.000000 0.339783 0.421417
0.000000 0.376526 0.481934
0.000000 0.418671 0.561829
0.000000 0.458832 0.701691
0.983704 0.557312 0.888031
0.000000 0.284027 0.336548
0.000000 0.290405 0.346985
0.000000 0.306671 0.364105
0.000000 0.326691 0.399994
0.000000 0.361023 0.444855
0.000000 0.395721 0.503967
0.000000 0.434174 0.581268
0.000000 0.472839 0.709930
0.981262 0.580719 0.890747
0.000000 0.334259 0.390808
0.000000 0.340332 0.402466
0.000000 0.355896 0.420074
0.000000 0.376343 0.450409
0.000000 0.403320 0.494507
0.000000 0.437836 0.549438
0.000000 0.471313 0.615997
0.019836 0.503601 0.730164
0.977386 0.612915 0.896912
0.000000 0.410950 0.474854
0.000000 0.416473 0.481537
0.000000 0.429352 0.501068
0.000000 0.451355 0.529541
0.000000 0.474335 0.564301
0.000000 0.500031 0.612061
0.000000 0.527130 0.669342
0.106049 0.554749 0.759827
0.971893 0.660004 0.906281
0.000000 0.505890 0.578217
0.000000 0.510315 0.583801
0.000000 0.523285 0.595703
0.021393 0.536987 0.617035
0.158844 0.557892 0.642242
0.190704 0.578796 0.677826
0.194336 0.600555 0.726318
0.241394 0.624023 0.795837
0.964325 0.714355 0.914459
0.000000 0.612732 0.682007
0.000000 0.615662 0.686005
0.000000 0.625549 0.698151
0.097443 0.633606 0.707886
0.233521 0.649323 0.726044
0.361847 0.665344 0.747742
0.400970 0.684753 0.786377
0.430328 0.705719 0.839294
0.958313 0.772430 0.926880
0.233154 0.706329 0.801788
0.227020 0.709869 0.801666
0.222168 0.717438 0.801483
0.241730 0.731812 0.803955
0.316254 0.742981 0.814575
0.450562 0.759033 0.826782
0.579285 0.777283 0.849518
0.629242 0.795044 0.885651
0.957672 0.838531 0.941528
0.929321 0.804901 0.934998
0.924683 0.806854 0.934753
0.909058 0.809753 0.934082
0.878876 0.813843 0.932648
0.824127 0.822052 0.928345
0.747162 0.843842 0.921326
0.729279 0.867157 0.920990
0.790619 0.890350 0.936432
0.969635 0.912781 0.965240
0.977081 0.898254 0.961914
0.977203 0.899689 0.962341
0.977478 0.902740 0.963318
0.978180 0.910461 0.965302
0.979431 0.920471 0.968384
0.981262 0.934387 0.972717
0.983612 0.950562 0.978638
0.987335 0.973267 0.990692
0.999542 1.000000 1.000000
