nova/tdt-studio/app/Lut_mau/.cube LUT/Suppol - Standard.cube
# Copyright: (C) Copyright 2010-2018 by IWLTBAP SAS
# Cannot be resold, shared or otherwise redistributed
# Website: https://luts.iwltbap.com
TITLE "IWLTBAP Suppol (Rec.709, sRGB, DCI-P3)"
LUT_3D_SIZE 33
0.003296 0.001770 0.002533
0.016663 0.000183 0.002533
0.028687 0.000977 0.002533
0.048248 0.000977 0.001740
0.069244 0.000183 0.000946
0.091675 0.000000 0.000946
0.115845 0.000000 0.000183
0.141724 0.000000 0.000000
0.169281 0.000000 0.000000
0.198303 0.000000 0.000000
0.232452 0.000000 0.000000
0.264893 0.000000 0.000000
0.302734 0.000000 0.000153
0.338043 0.000000 0.002533
0.378723 0.000000 0.005676
0.420563 0.000000 0.008026
0.459808 0.000000 0.010437
0.503052 0.000000 0.013794
0.547607 0.000000 0.019745
0.592834 0.000000 0.022644
0.638367 0.000000 0.025452
0.683807 0.000000 0.028839
0.728302 0.000000 0.031403
0.770905 0.000000 0.035736
0.813263 0.000000 0.040497
0.855164 0.000000 0.049347
0.892120 0.000000 0.055054
0.928741 0.000000 0.060944
0.959930 0.000000 0.067383
0.993042 0.000000 0.077881
1.000000 0.000000 0.085419
1.000000 0.000000 0.092957
1.000000 0.000000 0.103394
0.026581 0.011383 0.041595
0.027985 0.016571 0.048248
0.035370 0.018738 0.047119
0.048248 0.018738 0.035126
0.067810 0.018005 0.023346
0.092072 0.016571 0.011200
0.117462 0.014435 0.006470
0.143677 0.011383 0.003296
0.171173 0.007263 0.000153
0.200714 0.004120 0.000000
0.234955 0.000946 0.000000
0.267548 0.000000 0.000946
0.305542 0.000000 0.002533
0.341644 0.000000 0.004883
0.382416 0.000000 0.006470
0.424408 0.000000 0.008820
0.467438 0.000000 0.010437
0.507568 0.000000 0.013794
0.552246 0.000000 0.019745
0.597412 0.000000 0.022644
0.642792 0.000000 0.025452
0.688080 0.000000 0.028168
0.732880 0.000000 0.031403
0.777252 0.000000 0.035126
0.817047 0.000000 0.040497
0.857758 0.000000 0.048798
0.896393 0.000000 0.055054
0.930267 0.000000 0.060944
0.961395 0.000000 0.067383
0.993835 0.000000 0.078583
1.000000 0.000000 0.085785
1.000000 0.000000 0.093658
1.000000 0.000000 0.104736
0.050507 0.021545 0.080200
0.045959 0.026215 0.089569
0.044769 0.030609 0.092926
0.049957 0.033020 0.084229
0.066376 0.033020 0.062775
0.088867 0.031219 0.038116
0.116821 0.030609 0.022644
0.144775 0.028748 0.009613
0.173035 0.026215 0.003326
0.204803 0.023560 0.002533
0.237244 0.020844 0.003296
0.270142 0.017303 0.004089
0.308502 0.012909 0.004883
0.348236 0.006470 0.006470
0.386078 0.003326 0.008026
0.428406 0.000000 0.009613
0.471710 0.000000 0.011200
0.514282 0.000000 0.015320
0.556946 0.000000 0.019745
0.602081 0.000000 0.021942
0.647430 0.000000 0.024780
0.692413 0.000000 0.027496
0.736908 0.000000 0.030762
0.780945 0.000000 0.034546
0.823425 0.000000 0.039337
0.860413 0.000000 0.048798
0.899323 0.000000 0.054565
0.931824 0.000000 0.060944
0.963715 0.000000 0.067810
0.994598 0.000000 0.079010
1.000000 0.000000 0.086578
1.000000 0.000000 0.094391
1.000000 0.000000 0.106323
0.074310 0.028748 0.116364
0.065887 0.033600 0.129120
0.054321 0.041107 0.142853
0.051605 0.047516 0.142853
0.063416 0.051636 0.125092
0.084015 0.052643 0.092194
0.111450 0.050110 0.056580
0.142853 0.048553 0.030762
0.173553 0.046478 0.015320
0.207886 0.044312 0.009613
0.239502 0.039948 0.008026
0.274811 0.034210 0.008026
0.311554 0.031219 0.008026
0.351868 0.027496 0.008820
0.391144 0.023560 0.009613
0.432343 0.019440 0.010406
0.476135 0.015778 0.012207
0.520630 0.008270 0.015381
0.565613 0.004120 0.018372
0.609894 0.000946 0.021942
0.653046 0.000000 0.024078
0.696808 0.000000 0.026825
0.741119 0.000000 0.029480
0.784576 0.000000 0.033905
0.826691 0.000000 0.038696
0.863129 0.000000 0.048279
0.901489 0.000153 0.054565
0.933441 0.001740 0.060944
0.965973 0.004120 0.067810
0.995392 0.006470 0.079407
1.000000 0.011383 0.087341
1.000000 0.017303 0.095459
1.000000 0.020844 0.107666
0.103180 0.034210 0.152618
0.095154 0.043213 0.170074
0.084869 0.047516 0.185089
0.071594 0.053619 0.199310
0.066864 0.059814 0.194977
0.075195 0.068481 0.168701
0.101135 0.072998 0.120056
0.133911 0.070251 0.077881
0.169739 0.066772 0.045013
0.207611 0.062531 0.027496
0.241028 0.059814 0.020477
0.278992 0.057007 0.016846
0.314392 0.053619 0.015320
0.355225 0.050110 0.013794
0.397186 0.045929 0.012207
0.437592 0.039948 0.013794
0.480438 0.033020 0.013794
0.525238 0.028748 0.016846
0.570374 0.024902 0.018372
0.615631 0.021545 0.021210
0.660736 0.018005 0.023376
0.704559 0.015778 0.025452
0.745453 0.012909 0.028839
0.788391 0.012909 0.032684
0.829895 0.015778 0.037537
0.865784 0.017303 0.047729
0.903595 0.020142 0.054077
0.935028 0.022217 0.060944
0.968231 0.025543 0.068268
0.996155 0.029388 0.079803
1.000000 0.033600 0.088470
1.000000 0.041107 0.096893
1.000000 0.046997 0.109619
0.140015 0.045410 0.196564
0.134186 0.050110 0.208313
0.122009 0.054596 0.228210
0.108185 0.059357 0.245911
0.090088 0.070251 0.260162
0.077850 0.078705 0.249146
0.090088 0.088074 0.208710
0.117462 0.093903 0.168243
0.155060 0.089539 0.109314
0.197479 0.086609 0.061890
0.239838 0.084167 0.038116
0.280487 0.081482 0.028137
0.317017 0.078308 0.024048
0.358276 0.075073 0.021912
0.400665 0.070862 0.020477
0.444214 0.062531 0.018372
0.487396 0.058411 0.018372
0.529877 0.053619 0.018372
0.575165 0.049591 0.019745
0.620483 0.045929 0.021210
0.665405 0.041107 0.022644
0.709686 0.036591 0.024780
0.753479 0.034790 0.027496
0.792023 0.034790 0.032043
0.833069 0.035431 0.036957
0.870209 0.039948 0.046173
0.905579 0.044312 0.053558
0.936584 0.047516 0.060486
0.969543 0.051636 0.068268
0.996826 0.056519 0.080627
1.000000 0.062073 0.089600
1.000000 0.072144 0.099243
1.000000 0.078308 0.111938
0.178925 0.054596 0.239990
0.173035 0.058868 0.252869
0.167084 0.062531 0.268463
0.155060 0.070251 0.291351
0.134186 0.075897 0.315308
0.108185 0.083801 0.326416
0.091278 0.096863 0.316650
0.097076 0.106049 0.274719
0.133606 0.112122 0.213318
0.178925 0.112732 0.142090
0.231567 0.110870 0.082642
0.278107 0.108643 0.054565
0.318451 0.105713 0.036926
0.360718 0.102386 0.030121
0.403961 0.098633 0.026123
0.447998 0.094727 0.023346
0.492889 0.087341 0.021912
0.535400 0.082642 0.021210
0.579895 0.078308 0.020477
0.625214 0.074646 0.021210
0.670044 0.071289 0.021942
0.714142 0.066772 0.023376
0.757538 0.065002 0.026825
0.799286 0.065002 0.030762
0.836212 0.066772 0.035736
0.874908 0.071289 0.045013
0.907471 0.074249 0.053040
0.938568 0.077942 0.060486
0.970459 0.083038 0.068695
0.997467 0.091736 0.081451
1.000000 0.099670 0.091095
1.000000 0.106689 0.104065
1.000000 0.114868 0.114807
0.224091 0.065857 0.290649
0.220093 0.072144 0.298950
0.215759 0.075073 0.315186
0.208130 0.078308 0.332825
0.189606 0.082642 0.359558
0.162384 0.091736 0.386993
0.127838 0.101715 0.403778
0.104645 0.112732 0.388062
0.112823 0.127991 0.340576
0.153473 0.138184 0.258209
0.208130 0.139252 0.178314
0.262878 0.137634 0.107666
0.313873 0.135223 0.067352
0.361176 0.132202 0.049347
0.406433 0.129120 0.035736
0.451416 0.125641 0.030762
0.496735 0.122162 0.026825
0.542450 0.115479 0.024750
0.588104 0.110870 0.022644
0.631622 0.107330 0.021942
0.674347 0.104401 0.021942
0.718475 0.102722 0.023376
0.761505 0.101715 0.025452
0.803070 0.102051 0.029480
0.839050 0.103394 0.035126
0.877167 0.106049 0.043915
0.909088 0.109283 0.052521
0.940826 0.114258 0.060486
0.971252 0.123322 0.069580
0.997864 0.130249 0.083038
1.000000 0.137634 0.093292
1.000000 0.149597 0.108002
1.000000 0.157959 0.118530
0.278870 0.078705 0.344025
0.273285 0.082275 0.351257
0.269073 0.084930 0.361938
0.264282 0.088806 0.381256
0.253815 0.095093 0.406281
0.232086 0.100006 0.436707
0.195374 0.107330 0.467377
0.158325 0.121521 0.481445
0.129669 0.134949 0.466522
0.135376 0.153107 0.407837
0.172089 0.163849 0.321503
0.234589 0.167969 0.226837
0.294647 0.166595 0.135529
0.354767 0.164764 0.086548
0.406036 0.161987 0.058533
0.453644 0.159180 0.043854
0.500000 0.156281 0.034515
0.546021 0.153351 0.029449
0.591949 0.150604 0.026123
0.637360 0.146637 0.024078
0.682098 0.141998 0.023376
0.723053 0.140564 0.023376
0.765045 0.140015 0.025452
0.806152 0.140564 0.029480
0.841644 0.143524 0.034546
0.878937 0.149109 0.042755
0.910400 0.152863 0.052002
0.942596 0.157745 0.060944
0.971680 0.163849 0.070404
0.997986 0.173553 0.085022
1.000000 0.183014 0.096191
1.000000 0.191650 0.111603
1.000000 0.204376 0.123047
0.334930 0.092468 0.399780
0.332611 0.096863 0.406219
0.330750 0.098969 0.415619
0.327881 0.101715 0.433167
0.318451 0.104736 0.452423
0.306335 0.108643 0.480286
0.281219 0.115479 0.518036
0.241211 0.127686 0.551300
0.196228 0.140778 0.566345
0.164612 0.161072 0.549530
0.162140 0.181519 0.481598
0.195374 0.195526 0.384644
0.260651 0.203613 0.276947
0.330505 0.202454 0.169617
0.396790 0.201294 0.109314
0.451843 0.198273 0.070007
0.501495 0.193512 0.052490
0.548767 0.190643 0.038696
0.594940 0.188568 0.032654
0.640594 0.186951 0.028809
0.685699 0.185944 0.026825
0.729492 0.185303 0.026123
0.767883 0.185516 0.027496
0.808655 0.186554 0.030121
0.843964 0.188568 0.035126
0.880219 0.191650 0.042755
0.911163 0.199066 0.052521
0.943451 0.204926 0.061890
0.971710 0.211304 0.073669
0.997742 0.218719 0.087738
1.000000 0.230835 0.101318
1.000000 0.239655 0.116058
1.000000 0.250122 0.128571
0.399567 0.105713 0.457672
0.397797 0.108948 0.463867
0.396667 0.111176 0.472443
0.394440 0.113647 0.486572
0.388336 0.119141 0.504517
0.381897 0.124207 0.529846
0.366119 0.129395 0.561340
0.339020 0.137390 0.598022
0.300751 0.153351 0.637878
0.250519 0.171356 0.654022
0.208740 0.193146 0.634308
0.191132 0.213318 0.559296
0.218811 0.229980 0.447510
0.286896 0.236877 0.328064
0.363434 0.236877 0.205688
0.435089 0.236877 0.133331
0.497589 0.235352 0.088074
0.549042 0.233704 0.061401
0.596924 0.232513 0.048248
0.643219 0.232025 0.036926
0.688171 0.231842 0.033295
0.731873 0.232178 0.031403
0.771454 0.233032 0.031403
0.810272 0.234680 0.033295
0.845917 0.236877 0.036926
0.880768 0.240143 0.046112
0.911346 0.244476 0.054565
0.943085 0.252625 0.064209
0.971252 0.260162 0.078979
0.997040 0.267578 0.091095
1.000000 0.279541 0.108002
1.000000 0.288116 0.121552
1.000000 0.296906 0.139130
0.467957 0.124817 0.518005
0.466400 0.127991 0.523041
0.465729 0.130249 0.530823
0.464874 0.132477 0.541809
0.462372 0.135498 0.559723
0.457703 0.139496 0.582275
0.451416 0.148651 0.609924
0.435425 0.156281 0.643585
0.409760 0.167511 0.682678
0.370514 0.187164 0.722321
0.312073 0.209839 0.737701
0.253815 0.231689 0.707306
0.219910 0.246857 0.623169
0.243256 0.263031 0.504456
0.313751 0.272400 0.379364
0.399475 0.275574 0.246246
0.476379 0.278564 0.165710
0.542511 0.278564 0.110291
0.595917 0.277832 0.076172
0.644196 0.277832 0.057068
0.689606 0.278839 0.048248
0.733154 0.279968 0.041595
0.773163 0.281372 0.038116
0.810577 0.283295 0.038696
0.845978 0.285950 0.043854
0.880524 0.289459 0.050934
0.910828 0.293884 0.058533
0.941620 0.300446 0.068237
0.970276 0.309448 0.083435
0.995850 0.316528 0.096161
1.000000 0.324280 0.113831
1.000000 0.336304 0.128265
1.000000 0.344604 0.146790
0.535278 0.147675 0.578735
0.533264 0.151611 0.583282
0.533356 0.153839 0.590149
0.533813 0.156281 0.599670
0.533813 0.159882 0.616211
0.532806 0.164307 0.636383
0.530457 0.171783 0.656891
0.525177 0.182159 0.686462
0.511719 0.194733 0.725800
0.489899 0.212219 0.765350
0.442780 0.233704 0.798035
0.368073 0.253235 0.800995
0.289459 0.267883 0.760284
0.245605 0.284302 0.673218
0.266418 0.296387 0.556641
0.339142 0.310699 0.431641
0.429718 0.314819 0.295593
0.515076 0.318634 0.201477
0.584015 0.320190 0.137482
0.640961 0.320923 0.093658
0.688873 0.321899 0.069550
0.732788 0.323212 0.058533
0.772247 0.325104 0.053528
0.810028 0.329742 0.051971
0.844452 0.334595 0.053528
0.879578 0.338257 0.058044
0.909729 0.342712 0.065125
0.938751 0.348083 0.078552
0.968689 0.355225 0.089966
0.994171 0.364624 0.106995
1.000000 0.371857 0.121246
1.000000 0.382507 0.140472
1.000000 0.391022 0.156036
0.605499 0.178955 0.639435
0.604065 0.181946 0.643524
0.604767 0.184479 0.649719
0.606354 0.187592 0.658203
0.607819 0.191437 0.673279
0.608673 0.200684 0.688965
0.608185 0.207581 0.709412
0.605255 0.216583 0.735260
0.600494 0.232025 0.765869
0.590057 0.246246 0.800385
0.556366 0.265686 0.832703
0.496521 0.283447 0.850800
0.405151 0.294159 0.836914
0.315460 0.307159 0.792145
0.268921 0.317413 0.711365
0.288910 0.333771 0.606201
0.363220 0.346649 0.481750
0.458496 0.354553 0.349182
0.550781 0.364014 0.241760
0.623413 0.366943 0.169159
0.682648 0.368317 0.117889
0.729767 0.369781 0.088470
0.768402 0.371948 0.072815
0.808228 0.374817 0.066467
0.841888 0.379883 0.066010
0.877625 0.386017 0.069122
0.907562 0.390564 0.078979
0.935791 0.395599 0.087708
0.964325 0.401215 0.099915
0.991547 0.410950 0.116058
1.000000 0.417938 0.132172
1.000000 0.424866 0.150604
1.000000 0.432587 0.170776
0.673004 0.217651 0.699219
0.672516 0.221741 0.702911
0.673096 0.227539 0.708496
0.674133 0.230988 0.715973
0.675934 0.235687 0.729797
0.677887 0.241760 0.742279
0.679413 0.252014 0.761658
0.679474 0.263031 0.784088
0.676300 0.278564 0.808014
0.669098 0.291748 0.833282
0.647430 0.308563 0.858276
0.600555 0.319122 0.874695
0.523956 0.327362 0.874084
0.427307 0.335632 0.854523
0.338043 0.341370 0.815704
0.292297 0.350403 0.745972
0.312622 0.367493 0.650940
0.389557 0.386505 0.534729
0.491180 0.396759 0.403687
0.584930 0.405884 0.289459
0.660614 0.413177 0.205139
0.716522 0.415649 0.147064
0.763214 0.417847 0.112579
0.804413 0.420654 0.093292
0.838501 0.424133 0.087708
0.874176 0.428131 0.088470
0.904419 0.433624 0.093292
0.932739 0.441254 0.104065
0.959503 0.446564 0.115417
0.985565 0.452179 0.128265
1.000000 0.461578 0.146790
1.000000 0.468689 0.167084
1.000000 0.475250 0.183838
0.737152 0.268768 0.756470
0.736816 0.273010 0.759766
0.737488 0.278992 0.764709
0.738525 0.282867 0.771179
0.739532 0.287994 0.782990
0.740631 0.294678 0.794464
0.741241 0.306763 0.811066
0.741119 0.316650 0.826599
0.739014 0.329498 0.846954
0.732605 0.342499 0.863495
0.713165 0.352234 0.879791
0.675568 0.363251 0.886383
0.618042 0.367493 0.886383
0.536987 0.369659 0.880432
0.446136 0.371429 0.863068
0.361633 0.375336 0.831696
0.320709 0.387695 0.775085
0.340576 0.401306 0.693115
0.420471 0.421997 0.584808
0.518951 0.438446 0.459961
0.614685 0.448792 0.341370
0.690277 0.454834 0.247040
0.748993 0.461761 0.181946
0.794464 0.464996 0.142365
0.833374 0.468201 0.120361
0.865967 0.472107 0.114471
0.900146 0.476410 0.116058
0.928619 0.481079 0.122162
0.955566 0.489410 0.133881
0.981384 0.495148 0.148071
1.000000 0.500854 0.166626
1.000000 0.506744 0.182373
1.000000 0.515442 0.202637
0.791473 0.330414 0.809296
0.791077 0.334930 0.813324
0.791565 0.338135 0.817474
0.792328 0.342163 0.822876
0.793365 0.347198 0.829773
0.793915 0.354553 0.841370
0.792999 0.365265 0.852173
0.790649 0.373688 0.862976
0.786102 0.386200 0.877136
0.777161 0.394073 0.885681
0.757416 0.400177 0.891205
0.727325 0.404785 0.893158
0.684082 0.409058 0.892334
0.622803 0.410156 0.889557
0.548309 0.409424 0.884247
0.465424 0.409241 0.873566
0.388184 0.413177 0.847626
0.353485 0.420837 0.799286
0.373932 0.437775 0.728485
0.445892 0.458160 0.632538
0.543396 0.476196 0.518005
0.639252 0.491333 0.392944
0.716675 0.499054 0.298065
0.778381 0.503357 0.226837
0.824493 0.506653 0.177856
0.859741 0.510437 0.152863
0.891754 0.517975 0.146545
0.923859 0.522430 0.148834
0.951233 0.527313 0.156799
0.977386 0.532410 0.171906
1.000000 0.538086 0.185516
1.000000 0.546875 0.204376
1.000000 0.552246 0.223907
0.836914 0.394836 0.854218
0.836456 0.397247 0.856171
0.836395 0.399994 0.859192
0.836273 0.403412 0.863312
0.835663 0.411499 0.871643
0.834320 0.416748 0.877045
0.831635 0.422546 0.882812
0.827087 0.428467 0.888336
0.815826 0.436737 0.893005
0.804596 0.442627 0.898071
0.784851 0.445984 0.900574
0.759827 0.447998 0.900085
0.727203 0.448853 0.897522
0.684753 0.448669 0.893951
0.626953 0.447662 0.891418
0.559570 0.446228 0.887451
0.484039 0.445435 0.879089
0.419434 0.447083 0.857666
0.383057 0.453979 0.821411
0.400269 0.471893 0.761566
0.468048 0.494720 0.677246
0.565155 0.514465 0.572968
0.661285 0.528351 0.449646
0.739838 0.537903 0.353302
0.802429 0.546692 0.273926
0.846649 0.550232 0.224091
0.883728 0.553955 0.195831
0.914764 0.558167 0.184479
0.946198 0.564728 0.187378
0.972626 0.571442 0.200104
0.998016 0.576355 0.212036
1.000000 0.581207 0.229462
1.000000 0.586121 0.243835
0.866425 0.454376 0.886017
0.865479 0.457184 0.887024
0.864532 0.460968 0.888611
0.863251 0.464111 0.890594
0.861206 0.467102 0.892792
0.858002 0.470428 0.896179
0.853363 0.473999 0.900696
0.842865 0.477509 0.903137
0.833984 0.480530 0.904327
0.821320 0.483673 0.904785
0.804199 0.487030 0.904449
0.782776 0.488983 0.903717
0.757538 0.489594 0.902588
0.724457 0.488678 0.900391
0.685638 0.486603 0.896912
0.635498 0.483063 0.893311
0.572388 0.480774 0.890015
0.504089 0.479706 0.883881
0.445892 0.481171 0.870972
0.411224 0.491516 0.839905
0.425354 0.505524 0.791016
0.489960 0.528168 0.716705
0.583282 0.550446 0.625031
0.679535 0.566620 0.508057
0.760254 0.578094 0.411743
0.824127 0.584412 0.329712
0.867889 0.588867 0.271912
0.905945 0.596161 0.240479
0.935883 0.600189 0.231171
0.965424 0.604614 0.233521
0.992859 0.609283 0.242371
1.000000 0.613922 0.258057
1.000000 0.621338 0.270630
0.882690 0.506378 0.904755
0.881409 0.507324 0.905121
0.879913 0.508453 0.905640
0.877777 0.509766 0.906219
0.874817 0.513184 0.906891
0.866974 0.516846 0.907471
0.861450 0.519257 0.907928
0.854553 0.521088 0.908112
0.842010 0.522644 0.908020
0.831573 0.523895 0.907684
0.815338 0.524750 0.907043
0.800873 0.525085 0.906281
0.779846 0.525177 0.905243
0.755310 0.524597 0.903992
0.722992 0.523712 0.902679
0.687164 0.522308 0.900269
0.640778 0.520477 0.896423
0.585480 0.518555 0.892578
0.524902 0.517334 0.887970
0.472046 0.518829 0.878357
0.443878 0.524811 0.854828
0.451447 0.540222 0.816956
0.508667 0.561035 0.757019
0.601746 0.583221 0.675262
0.694977 0.601318 0.567291
0.779266 0.613190 0.472351
0.839905 0.624237 0.388947
0.887543 0.628601 0.327942
0.926361 0.632324 0.293091
0.956055 0.636200 0.280365
0.982941 0.641602 0.282471
1.000000 0.648651 0.290131
1.000000 0.652954 0.300171
0.885895 0.549927 0.910675
0.884674 0.550446 0.910736
0.883057 0.551056 0.910797
0.880707 0.551849 0.910828
0.877716 0.552795 0.910919
0.873077 0.553833 0.910980
0.864868 0.554932 0.910919
0.858704 0.555969 0.910706
0.851227 0.556854 0.910431
0.838379 0.557648 0.910034
0.828003 0.558167 0.909546
0.812073 0.558563 0.908936
0.796478 0.558563 0.908173
0.777893 0.558289 0.907227
0.754425 0.557648 0.906067
0.724030 0.556488 0.904663
0.689911 0.554993 0.903015
0.647156 0.553375 0.900513
0.598541 0.551849 0.896118
0.546661 0.551208 0.891602
0.499542 0.552704 0.884644
0.472382 0.559357 0.870605
0.479889 0.576050 0.837891
0.533569 0.596741 0.789703
0.621979 0.614624 0.718475
0.712158 0.633942 0.625916
0.793365 0.650482 0.533112
0.857910 0.658264 0.450226
0.906158 0.662933 0.387207
0.945282 0.666473 0.348755
0.974823 0.673492 0.329712
1.000000 0.678009 0.328186
1.000000 0.682098 0.332855
0.885803 0.583618 0.913208
0.884705 0.583923 0.913208
0.883301 0.584351 0.913208
0.881134 0.584839 0.913147
0.878510 0.585449 0.913147
0.875092 0.586121 0.913086
0.867096 0.586853 0.912964
0.861664 0.587585 0.912842
0.855377 0.588409 0.912598
0.844696 0.589600 0.912354
0.835175 0.590576 0.911896
0.825073 0.591125 0.911438
0.809723 0.591614 0.910797
0.792877 0.591614 0.910126
0.776886 0.591003 0.909210
0.754608 0.589844 0.908203
0.727814 0.588226 0.906982
0.694366 0.587036 0.905487
0.659302 0.585815 0.903839
0.615723 0.584778 0.901794
0.570068 0.584595 0.896362
0.528961 0.586426 0.890381
0.504150 0.597473 0.880798
0.514587 0.609100 0.857300
0.565094 0.628937 0.819794
0.643402 0.650085 0.761780
0.731476 0.666016 0.681549
0.809753 0.682251 0.592621
0.874481 0.690460 0.514313
0.923004 0.696381 0.447601
0.958649 0.702698 0.405579
0.992615 0.706207 0.382080
1.000000 0.709991 0.373688
0.885315 0.613831 0.915192
0.884460 0.614105 0.915192
0.883240 0.614380 0.915192
0.881470 0.614777 0.915192
0.879089 0.615204 0.915131
0.876160 0.615784 0.915131
0.870514 0.616943 0.915039
0.864136 0.618225 0.914886
0.858795 0.619507 0.914764
0.852448 0.620544 0.914520
0.841095 0.621521 0.914185
0.832581 0.622314 0.913818
0.822357 0.623047 0.913361
0.808044 0.623566 0.912811
0.791565 0.623688 0.912140
0.776947 0.623566 0.911377
0.755951 0.623169 0.910431
0.731964 0.622253 0.909363
0.703339 0.621216 0.908142
0.669708 0.620178 0.906799
0.635498 0.619690 0.905304
0.596313 0.620850 0.903351
0.563171 0.625214 0.898804
0.543457 0.632050 0.890259
0.551239 0.646179 0.876373
0.595825 0.661316 0.846558
0.667694 0.681396 0.797852
0.749725 0.699432 0.732452
0.825989 0.712463 0.649384
0.885834 0.720856 0.576324
0.934875 0.729980 0.507629
0.975464 0.733643 0.460938
1.000000 0.736938 0.421570
0.885132 0.644348 0.917175
0.884338 0.644897 0.917175
0.883331 0.645325 0.917114
0.881805 0.645935 0.917145
0.879730 0.646729 0.917145
0.877197 0.647339 0.917084
0.873749 0.647888 0.917053
0.866425 0.648438 0.916962
0.861816 0.648956 0.916870
0.856445 0.649597 0.916687
0.849396 0.650146 0.916504
0.838989 0.650635 0.916168
0.830872 0.651184 0.915863
0.819794 0.651611 0.915405
0.807404 0.652039 0.914917
0.791748 0.652405 0.914368
0.778198 0.652679 0.913666
0.758820 0.652832 0.912903
0.737061 0.652954 0.912018
0.712921 0.653259 0.911072
0.686310 0.653564 0.910126
0.656647 0.654327 0.909088
0.624939 0.655762 0.907898
0.597687 0.660004 0.906647
0.582611 0.666718 0.902832
0.593536 0.680267 0.889343
0.632477 0.693298 0.869720
0.694641 0.712067 0.830200
0.767700 0.730316 0.774902
0.837769 0.741577 0.703827
0.900940 0.754120 0.632538
0.950867 0.759613 0.563721
0.995117 0.763580 0.501862
0.885071 0.669586 0.918976
0.884308 0.669891 0.918976
0.883392 0.670380 0.918976
0.882141 0.670929 0.918945
0.880371 0.671661 0.918945
0.878204 0.672455 0.918945
0.875549 0.673492 0.918884
0.869843 0.674438 0.918854
0.864410 0.675110 0.918701
0.859802 0.675720 0.918610
0.854431 0.676361 0.918488
0.845734 0.677063 0.918274
0.837524 0.677704 0.918060
0.829803 0.678375 0.917786
0.818878 0.679016 0.917419
0.807739 0.679810 0.917084
0.793976 0.680511 0.916687
0.781128 0.681244 0.916168
0.763611 0.682007 0.915649
0.744537 0.682800 0.915131
0.726044 0.683777 0.914520
0.705170 0.684998 0.913879
0.682343 0.686676 0.913330
0.658722 0.689606 0.913055
0.637726 0.694366 0.912720
0.626129 0.704376 0.910614
0.638214 0.713287 0.904572
0.669556 0.728455 0.886993
0.723358 0.742401 0.858337
0.789154 0.759491 0.816376
0.854218 0.770081 0.754364
0.913208 0.782928 0.683838
0.970764 0.789612 0.616058
0.884979 0.693207 0.920776
0.884369 0.693390 0.920776
0.883575 0.693634 0.920776
0.882538 0.693909 0.920776
0.880981 0.694244 0.920776
0.879089 0.695160 0.920776
0.876770 0.695953 0.920746
0.873199 0.697174 0.920746
0.866669 0.698334 0.920715
0.862732 0.699738 0.920563
0.858246 0.701080 0.920532
0.853088 0.702332 0.920441
0.843536 0.703125 0.920258
0.836884 0.703949 0.920135
0.829773 0.704865 0.919891
0.820465 0.705902 0.919678
0.809601 0.706970 0.919464
0.800201 0.708160 0.919220
0.785919 0.709381 0.918945
0.772491 0.710754 0.918671
0.758209 0.712219 0.918396
0.741089 0.714020 0.918152
0.724945 0.716187 0.918030
0.709198 0.718781 0.917938
0.690643 0.724121 0.918396
0.675995 0.731812 0.918732
0.670959 0.738098 0.918060
0.682465 0.747803 0.914520
0.709442 0.760834 0.905396
0.755432 0.773193 0.883392
0.811951 0.788666 0.850037
0.871124 0.798859 0.797546
0.932861 0.813141 0.740387
0.885162 0.717499 0.924011
0.884613 0.717651 0.924011
0.883942 0.717834 0.924011
0.882996 0.718079 0.924011
0.881683 0.718414 0.924072
0.880066 0.718842 0.924072
0.878021 0.719269 0.924072
0.875610 0.719849 0.924072
0.870941 0.720459 0.924072
0.865509 0.721222 0.923950
0.861786 0.722351 0.923828
0.857452 0.724121 0.923706
0.852600 0.725952 0.923645
0.843536 0.728088 0.923584
0.837433 0.729858 0.923462
0.831177 0.731110 0.923218
0.824493 0.732483 0.923157
0.813324 0.734009 0.923035
0.805420 0.735596 0.922974
0.793976 0.737457 0.922974
0.784088 0.739441 0.923035
0.772980 0.741699 0.923035
0.761047 0.744263 0.923340
