nova/tdt-studio/app/Lut_mau/.cube LUT/Suppol - Standard.cube
# Copyright: (C) Copyright 2010-2018 by IWLTBAP SAS
# Cannot be resold, shared or otherwise redistributed
# Website: https://luts.iwltbap.com
TITLE "IWLTBAP Suppol (Rec.709, sRGB, DCI-P3)"
LUT_3D_SIZE 5
0.003296 0.001770 0.002533
0.169281 0.000000 0.000000
0.459808 0.000000 0.010437
0.813263 0.000000 0.040497
1.000000 0.000000 0.103394
0.278870 0.078705 0.344025
0.129669 0.134949 0.466522
0.500000 0.156281 0.034515
0.841644 0.143524 0.034546
1.000000 0.204376 0.123047
0.791473 0.330414 0.809296
0.786102 0.386200 0.877136
0.388184 0.413177 0.847626
0.824493 0.506653 0.177856
1.000000 0.552246 0.223907
0.885071 0.669586 0.918976
0.864410 0.675110 0.918701
0.793976 0.680511 0.916687
0.637726 0.694366 0.912720
0.970764 0.789612 0.616058
0.909729 0.860931 0.948608
0.908264 0.865387 0.949860
0.906433 0.881287 0.955658
0.915009 0.917053 0.968109
0.954651 0.969849 0.989624
0.000000 0.051636 0.058533
0.101898 0.055573 0.130524
0.453461 0.000946 0.110962
0.823975 0.000000 0.099243
1.000000 0.000000 0.120972
0.289734 0.090271 0.284027
0.188751 0.188568 0.215332
0.496033 0.186768 0.156525
0.838837 0.185516 0.125946
1.000000 0.258514 0.150604
0.808929 0.323700 0.783478
0.616913 0.381653 0.644531
0.431702 0.427521 0.703339
0.830414 0.520233 0.265381
1.000000 0.565582 0.260315
0.899445 0.676300 0.919495
0.883911 0.680817 0.919586
0.811005 0.686127 0.917816
0.642944 0.700592 0.911865
0.981201 0.792419 0.603821
0.913147 0.862823 0.949158
0.912567 0.867401 0.950439
0.910065 0.885071 0.956818
0.920013 0.918671 0.968597
0.956390 0.971313 0.990204
0.000000 0.108643 0.131134
0.000000 0.146088 0.182373
0.332458 0.131104 0.342163
0.796295 0.064087 0.335815
1.000000 0.081879 0.307678
0.000000 0.217468 0.247314
0.005646 0.246704 0.288666
0.375946 0.260773 0.388000
0.806183 0.256531 0.377350
1.000000 0.313080 0.351776
0.814056 0.318146 0.699280
0.659729 0.398682 0.596069
0.528717 0.503662 0.509827
0.813690 0.535553 0.476471
1.000000 0.573273 0.445831
0.932739 0.686157 0.919922
0.925293 0.692413 0.919922
0.833771 0.703186 0.877441
0.686859 0.716644 0.889557
0.997253 0.795624 0.647491
0.926849 0.868622 0.950775
0.926727 0.873138 0.952087
0.926392 0.891479 0.960358
0.929016 0.923920 0.970398
0.963898 0.976105 0.992188
0.000000 0.179382 0.213165
0.000000 0.206848 0.250793
0.000000 0.275879 0.355621
0.628754 0.284454 0.606995
1.000000 0.365173 0.640259
0.000000 0.267151 0.313812
0.000000 0.294830 0.348846
0.000000 0.351776 0.440033
0.639069 0.388885 0.633026
0.996033 0.472260 0.662231
0.000000 0.472046 0.524750
0.000000 0.494385 0.543884
0.308105 0.534546 0.590729
0.678558 0.577179 0.695496
0.985809 0.631073 0.705444
0.976471 0.694244 0.914825
0.971069 0.704956 0.913177
0.882294 0.720520 0.857117
0.787994 0.769623 0.799042
0.983429 0.808960 0.788330
0.949768 0.880249 0.954865
0.949829 0.887787 0.957611
0.950470 0.901855 0.963562
0.952942 0.937256 0.973602
0.978271 0.986481 0.996155
0.000000 0.260803 0.311462
0.000000 0.283020 0.341370
0.000000 0.339783 0.421417
0.000000 0.418671 0.561829
0.983704 0.557312 0.888031
0.000000 0.334259 0.390808
0.000000 0.355896 0.420074
0.000000 0.403320 0.494507
0.000000 0.471313 0.615997
0.977386 0.612915 0.896912
0.000000 0.505890 0.578217
0.000000 0.523285 0.595703
0.158844 0.557892 0.642242
0.194336 0.600555 0.726318
0.964325 0.714355 0.914459
0.233154 0.706329 0.801788
0.222168 0.717438 0.801483
0.316254 0.742981 0.814575
0.579285 0.777283 0.849518
0.957672 0.838531 0.941528
0.977081 0.898254 0.961914
0.977478 0.902740 0.963318
0.979431 0.920471 0.968384
0.983612 0.950562 0.978638
0.999542 1.000000 1.000000
