nova/tdt-studio/app/Lut_mau/.cube LUT/What I Like.cube
LUT_3D_SIZE 16
0.026700 0.000200 0.002400
0.055713 0.001749 0.001013
0.196671 0.033246 0.002355
0.304504 0.034550 0.000000
0.418532 0.052288 0.000000
0.537579 0.071102 0.000000
0.641014 0.089473 0.000000
0.728700 0.107027 0.000000
0.801367 0.123078 0.000000
0.863187 0.136950 0.000000
0.916214 0.149258 0.000000
0.963777 0.160446 0.000000
0.977327 0.171957 0.000000
0.976901 0.182641 0.000000
0.976776 0.187261 0.000000
0.976459 0.197983 0.000000
0.025484 0.022761 0.000522
0.043546 0.013357 0.000899
0.179360 0.040739 0.001920
0.285676 0.039656 0.000000
0.390906 0.055130 0.000000
0.504987 0.075569 0.000000
0.607878 0.095223 0.000000
0.695294 0.113890 0.000000
0.768742 0.130553 0.000000
0.830401 0.144940 0.000000
0.883075 0.157906 0.000000
0.929244 0.170578 0.000000
0.967444 0.186941 0.000000
0.976249 0.203252 0.000000
0.975743 0.219018 0.000000
0.975451 0.227146 0.000000
-0.018073 0.116573 0.005178
0.014914 0.108622 0.017778
0.160228 0.082741 0.000000
0.270015 0.109959 0.000000
0.370167 0.102218 0.000000
0.478081 0.103608 0.000000
0.578760 0.110736 0.000000
0.664591 0.121208 0.000000
0.737465 0.132710 0.000000
0.799132 0.145828 0.000000
0.851626 0.162989 0.000000
0.896791 0.180429 0.000000
0.936706 0.197593 0.000000
0.967945 0.214096 0.000000
0.975259 0.231047 0.000000
0.974643 0.248603 0.000000
-0.046079 0.213648 0.003648
-0.000720 0.203087 0.019033
0.158568 0.192074 0.009073
0.253226 0.147614 0.000000
0.347206 0.179376 0.000000
0.452512 0.197955 0.000000
0.554629 0.188025 0.000000
0.639580 0.182632 0.000000
0.711105 0.183760 0.000000
0.771677 0.188997 0.000000
0.822994 0.196627 0.000000
0.866920 0.207230 0.000000
0.905035 0.218608 0.000000
0.938706 0.232077 0.000000
0.966087 0.247117 0.000000
0.974000 0.264986 0.000000
-0.045327 0.288473 -0.000200
-0.009936 0.283730 0.012270
0.132400 0.262657 0.015166
0.264719 0.260635 -0.000236
0.327667 0.203772 0.000000
0.429433 0.221578 0.000000
0.524887 0.255745 0.000000
0.609970 0.269058 0.000000
0.683846 0.263200 0.000000
0.745549 0.256477 0.000000
0.796938 0.254597 0.000000
0.840286 0.257325 0.000000
0.876853 0.263367 0.000000
0.908378 0.272955 0.000000
0.935843 0.285722 0.000000
0.959578 0.301132 0.000000
-0.050579 0.370930 0.009456
-0.004735 0.368390 0.015202
0.121299 0.344596 0.019011
0.241830 0.331339 0.001372
0.353424 0.324466 0.000000
0.405545 0.256855 0.000000
0.503499 0.270332 0.000000
0.584858 0.303555 0.000000
0.653479 0.338297 0.000000
0.713774 0.349785 0.000000
0.766644 0.346814 0.000000
0.811023 0.340145 0.000000
0.848331 0.336912 0.000000
0.879066 0.340777 0.000000
0.904756 0.348626 0.000000
0.926432 0.360251 0.000000
-0.051719 0.457235 0.012080
-0.000259 0.458691 0.012191
0.114980 0.433149 0.019237
0.222096 0.412420 0.013533
0.325553 0.411011 -0.002057
0.437313 0.386560 0.000000
0.478084 0.313050 0.000000
0.563902 0.324975 0.000000
0.631279 0.354516 0.000000
0.687473 0.393516 0.000000
0.735140 0.423573 0.000000
0.777496 0.436566 0.000000
0.814538 0.438449 0.000000
0.845872 0.435427 0.000000
0.886935 0.422842 0.000000
0.933671 0.407629 0.000000
-0.048460 0.535567 0.010282
0.005682 0.544030 0.008173
0.112034 0.518856 0.014887
0.205702 0.497712 0.020772
0.321194 0.476285 -0.001845
0.416488 0.486860 -0.001966
0.507395 0.443824 0.000000
0.542991 0.379583 0.000000
0.610271 0.384960 0.000000
0.666745 0.410103 0.000000
0.712319 0.444784 0.000000
0.750319 0.480881 0.000000
0.793790 0.500346 0.000000
0.843216 0.504536 0.000000
0.892801 0.495039 0.000000
0.942796 0.478039 0.000000
-0.055279 0.615473 -0.001589
0.020244 0.616351 0.005597
0.116254 0.593145 0.012871
0.203723 0.572707 0.021409
0.307512 0.549836 0.014319
0.404029 0.541223 -0.001375
0.498004 0.550402 -0.001753
0.565957 0.506367 0.000000
0.587993 0.441610 0.000000
0.644737 0.447984 0.000000
0.698621 0.461795 0.000000
0.751328 0.481575 0.000000
0.800695 0.510218 0.000000
0.848977 0.537577 0.000000
0.897982 0.553449 0.000000
0.948893 0.553782 0.000000
-0.047493 0.679243 -0.009206
0.035918 0.678816 0.004380
0.122767 0.658877 0.013188
0.209922 0.637151 0.026926
0.298810 0.618196 0.030823
0.394706 0.600830 0.019109
0.478298 0.595133 0.000232
0.557387 0.598470 0.000858
0.610610 0.554045 0.000000
0.636654 0.489356 0.000000
0.696680 0.482173 0.000000
0.754713 0.490478 0.000000
0.807833 0.510123 0.000000
0.857470 0.539654 0.000000
0.905911 0.574457 0.000000
0.951914 0.603149 0.000000
-0.029208 0.729227 -0.010097
0.050199 0.733736 0.006084
0.133642 0.713315 0.021963
0.222804 0.689171 0.044206
0.307872 0.667859 0.065436
0.388060 0.654412 0.067507
0.464905 0.648053 0.031922
0.540961 0.648914 0.000133
0.621770 0.654384 -0.001540
0.667594 0.592414 0.000000
0.694539 0.526032 0.000000
0.753034 0.517330 0.000000
0.811863 0.524678 0.000000
0.864900 0.543575 0.000000
0.915583 0.573725 0.000000
0.953208 0.610588 0.000000
-0.014532 0.778664 -0.008309
0.065328 0.780720 0.018500
0.156362 0.754325 0.046514
0.243690 0.729700 0.073908
0.316024 0.714802 0.080419
0.382031 0.710612 0.049509
0.467899 0.694828 0.006890
0.534673 0.699434 -0.004046
0.605167 0.713679 -0.003084
0.691446 0.713379 -0.001416
0.723825 0.629432 0.000000
0.750936 0.565358 0.000000
0.810570 0.556984 0.000000
0.868910 0.563691 0.000000
0.923314 0.582768 0.000000
0.954727 0.612246 0.000000
-0.006157 0.831410 0.000997
0.099949 0.810160 0.051727
0.175545 0.792587 0.063412
0.236579 0.786278 0.048472
0.303046 0.779380 0.031954
0.384695 0.762287 0.018394
0.470258 0.744368 -0.003407
0.531799 0.752696 -0.005100
0.595137 0.765505 -0.004287
0.674171 0.780556 -0.003167
0.751928 0.759302 -0.001186
0.781033 0.671264 0.000000
0.806581 0.607636 0.000000
0.867809 0.601864 0.000000
0.927416 0.608513 0.000000
0.953923 0.626665 0.000000
0.008389 0.870859 0.014438
0.089962 0.863061 0.027491
0.153636 0.856108 0.014498
0.233623 0.838697 0.010274
0.316657 0.820547 0.005462
0.399420 0.802597 -0.001440
0.470154 0.796299 -0.006767
0.530091 0.805565 -0.006103
0.592656 0.817217 -0.005320
0.659857 0.830409 -0.004426
0.748995 0.844462 -0.003071
0.810770 0.800574 -0.000882
0.837241 0.714802 0.000000
0.864271 0.655781 0.000000
0.926608 0.651420 0.000000
0.951102 0.661662 0.000000
0.020679 0.901227 -0.007977
0.093889 0.904474 -0.001601
0.174935 0.886124 -0.004287
0.259494 0.866660 -0.006655
0.339604 0.850968 -0.008115
0.407765 0.846392 -0.008543
0.468056 0.850654 -0.007814
0.529006 0.858516 -0.007078
0.591738 0.869152 -0.006307
0.657457 0.881757 -0.005466
0.729288 0.895622 -0.004481
0.825030 0.907378 -0.002922
0.868864 0.841058 -0.000580
0.894316 0.762924 0.000000
0.922666 0.711153 0.000000
0.946759 0.710083 0.000000
0.065596 0.900932 -0.014493
0.129307 0.919657 -0.013123
0.208452 0.904131 -0.011993
0.279970 0.895993 -0.010826
0.339204 0.899444 -0.010249
0.402589 0.902429 -0.009553
0.465362 0.905832 -0.008806
0.527898 0.912315 -0.008053
0.591024 0.922012 -0.007290
0.656450 0.933937 -0.006475
0.723191 0.947332 -0.005609
0.800752 0.961155 -0.004498
0.890259 0.958018 -0.002714
0.923460 0.892194 -0.000582
0.935739 0.815600 0.000000
0.941352 0.766048 0.000000
-0.072424 0.015734 0.115231
-0.000975 -0.001924 0.077900
0.189974 0.018445 0.030021
0.300095 0.000000 0.000000
0.411844 0.002844 0.000000
0.530013 0.031072 0.000000
0.633658 0.050830 0.000000
0.721176 0.068041 0.000000
0.794281 0.083734 0.000000
0.855833 0.097308 0.000000
0.908804 0.108308 0.000000
0.955886 0.117512 0.000000
0.978348 0.135563 0.000000
0.977804 0.155545 0.000000
0.977509 0.166301 0.000000
0.977185 0.177286 0.000000
-0.076217 0.015898 0.097975
-0.044700 0.028509 0.100231
0.169665 0.054319 0.049037
0.277332 0.072413 0.021243
0.383771 0.089432 0.000000
0.496826 0.110817 0.000000
0.599492 0.132112 0.000000
0.686835 0.152626 0.000000
0.760501 0.167827 0.000000
0.822641 0.181409 0.000000
0.875222 0.195009 0.000000
0.921243 0.209564 0.000000
0.962455 0.226292 0.000000
0.974889 0.242296 0.000000
0.974440 0.253201 0.000000
0.974023 0.263663 0.000000
-0.077169 0.117650 0.056965
-0.041565 0.111646 0.050415
0.150918 0.096173 0.041011
0.263081 0.110678 0.012456
0.362625 0.110905 0.000562
0.469650 0.127084 0.000057
0.570497 0.145377 0.000000
0.656919 0.163910 0.000000
0.730040 0.181804 0.000000
0.791670 0.198560 0.000000
0.844386 0.214728 0.000000
0.889574 0.230028 0.000000
0.928962 0.244929 0.000000
0.963742 0.260431 0.000000
0.973486 0.277211 0.000000
0.972797 0.294496 0.000000
-0.067929 0.215926 0.017162
-0.049817 0.207930 0.024249
0.136368 0.187488 0.047383
0.247085 0.161728 0.003744
0.341544 0.195845 0.000038
0.448275 0.188949 0.000001
0.547029 0.183897 0.000000
0.630473 0.188404 0.000000
0.702014 0.198026 0.000000
0.762973 0.210234 0.000000
0.814617 0.225166 0.000000
0.858727 0.240476 0.000000
0.896779 0.256036 0.000000
0.930137 0.273818 0.000000
0.959733 0.292263 0.000000
0.971110 0.311474 0.000000
-0.039210 0.285145 -0.000749
-0.069489 0.290831 0.009591
0.117220 0.261110 0.050075
0.248172 0.260542 0.012977
0.322124 0.218746 0.000202
0.422298 0.246607 0.000000
0.518969 0.267933 0.000000
0.605522 0.263071 0.000000
0.678020 0.256758 0.000000
0.738117 0.256673 0.000000
0.788422 0.261941 0.000000
0.831175 0.271634 0.000000
0.867298 0.283137 0.000000
0.898676 0.298261 0.000000
0.925935 0.315810 0.000000
0.949263 0.334822 0.001696
-0.045025 0.365681 0.001724
-0.068052 0.375311 0.010740
0.110469 0.342816 0.054486
0.214433 0.331241 0.042623
0.336734 0.329996 -0.000284
0.400296 0.271706 0.000161
0.497056 0.292854 0.000000
0.577690 0.329121 0.000000
0.647973 0.348519 0.000000
0.709478 0.345634 0.000000
0.761884 0.338899 0.000000
0.804814 0.336579 0.000113
0.840420 0.340858 0.000000
0.869844 0.351504 0.005948
0.894477 0.366447 0.010723
0.917630 0.380540 0.026210
-0.040296 0.445992 0.004726
-0.060851 0.464870 0.011882
0.104828 0.431538 0.056187
0.201051 0.413015 0.062456
0.303346 0.408210 0.019528
0.423421 0.397347 -0.000017
0.472845 0.329341 0.000000
0.557999 0.346543 0.000000
0.624435 0.381049 0.000000
0.680644 0.416385 0.000000
0.729834 0.432950 0.000000
0.772796 0.435163 0.001273
0.809269 0.432704 0.001513
0.840428 0.431380 0.019864
0.888128 0.416004 0.000238
0.934259 0.406100 0.000000
-0.036472 0.522079 0.001117
-0.048371 0.550181 0.012370
0.101785 0.517725 0.056662
0.193464 0.496513 0.069353
0.284309 0.484674 0.061269
0.393363 0.481127 0.014797
0.495170 0.457024 0.003178
0.535811 0.397036 0.010409
0.603800 0.405237 0.000000
0.659725 0.433991 0.003143
0.704135 0.470101 0.001063
0.742845 0.499101 0.007943
0.794665 0.505341 0.000000
0.845794 0.498476 0.000000
0.896034 0.482891 0.000000
0.945993 0.464254 0.000000
-0.033857 0.589009 -0.001868
-0.044283 0.626954 0.009796
0.102756 0.594025 0.059751
0.192350 0.571587 0.075528
0.281502 0.553652 0.085133
0.372899 0.547225 0.067869
0.471981 0.547336 0.035248
0.554324 0.518844 0.026346
0.578717 0.458796 0.080414
0.635213 0.465833 0.058808
0.695112 0.479107 0.001032
0.749597 0.502013 0.000000
0.799640 0.530527 0.000000
0.849281 0.550870 0.000000
0.899979 0.555511 0.000000
0.951941 0.546632 0.000000
-0.032564 0.647070 -0.008054
-0.023040 0.690900 0.016632
0.109908 0.659806 0.068731
0.198801 0.636207 0.087469
0.286299 0.615393 0.105150
0.370574 0.603005 0.110787
0.451728 0.599845 0.101316
0.535780 0.602221 0.078666
0.603389 0.564802 0.054470
0.630907 0.501233 0.034216
0.694832 0.496276 0.000393
0.753769 0.507198 0.000000
0.806837 0.530477 0.000000
0.856400 0.563195 0.000000
0.905413 0.596054 0.000000
0.951297 0.613468 0.000000
-0.037908 0.702013 -0.008197
0.005385 0.742378 0.035247
0.124732 0.712354 0.085237
0.212844 0.688134 0.107012
0.297723 0.665951 0.129265
0.376710 0.649725 0.145996
0.445403 0.650072 0.115236
0.521176 0.653448 0.042448
0.607525 0.654180 0.001314
0.662713 0.605587 0.000000
0.692097 0.539167 0.000000
0.752203 0.531478 0.000000
0.811053 0.541695 0.000000
0.864038 0.564316 0.000000
0.914781 0.597333 0.000000
0.951304 0.633995 0.000000
-0.051929 0.758518 -0.000470
0.038007 0.782184 0.061966
0.148889 0.752976 0.110268
0.235444 0.728238 0.134930
0.301183 0.718552 0.127401
0.367551 0.711825 0.110875
0.437287 0.710230 0.073022
0.520694 0.701824 0.012361
0.593161 0.709701 -0.003223
0.682200 0.720192 -0.001749
0.720912 0.643136 0.000000
0.749804 0.578686 0.000000
0.809793 0.571440 0.000000
0.868300 0.580668 0.000000
0.922749 0.602239 0.000000
0.953210 0.635082 0.000000
-0.075697 0.828094 0.007013
0.077108 0.810740 0.097010
0.158064 0.798809 0.110832
0.219751 0.791894 0.097206
0.286760 0.784499 0.083042
0.357320 0.776622 0.067295
0.436009 0.767292 0.030737
0.522265 0.752105 -0.001146
0.587753 0.762649 -0.004359
0.661285 0.777613 -0.003346
0.746414 0.770121 -0.001537
0.779530 0.685059 0.000000
0.805896 0.620161 0.000000
0.867358 0.614991 0.000000
0.927093 0.624077 0.000000
0.952441 0.645211 0.000000
-0.079468 0.880453 0.002289
0.046430 0.873626 0.052398
0.132308 0.864481 0.063988
0.200088 0.857382 0.049798
0.272480 0.849179 0.033020
0.355326 0.834271 0.022803
0.445830 0.812763 0.007897
0.523202 0.804327 -0.005322
0.586926 0.815327 -0.005378
0.653080 0.828735 -0.004513
0.737135 0.844056 -0.003289
0.808202 0.813256 -0.001217
0.836058 0.727106 0.000000
0.863838 0.667122 0.000000
0.926514 0.662550 0.000000
0.950218 0.671814 0.000000
-0.041375 0.892915 -0.014501
0.019359 0.935918 0.005914
0.107777 0.928971 0.014231
0.195591 0.910245 0.008916
0.286909 0.889189 0.004508
0.378395 0.867420 -0.001505
0.460512 0.852025 -0.007428
0.523145 0.857745 -0.007151
0.586714 0.868076 -0.006367
0.652906 0.881019 -0.005529
0.722072 0.894845 -0.004596
0.814871 0.909128 -0.003157
0.865904 0.852283 -0.000885
0.893556 0.770887 0.000000
0.922941 0.715760 0.000000
0.946532 0.712667 0.000000
0.002470 0.891539 -0.013497
0.048903 0.953051 -0.011904
0.132536 0.956091 -0.006217
0.227336 0.932818 -0.008389
0.322631 0.908799 -0.009901
0.394284 0.904720 -0.009618
0.459559 0.907118 -0.008905
0.522568 0.912474 -0.008132
0.586858 0.921625 -0.007346
0.652841 0.933826 -0.006531
0.720068 0.947281 -0.005662
0.795046 0.961579 -0.004611
0.887742 0.961051 -0.002829
0.923475 0.895590 -0.000655
0.935664 0.816730 0.000000
0.941240 0.767125 0.000000
-0.107851 0.092646 0.274538
-0.066048 0.031995 0.267158
0.142788 0.008362 0.179795
0.282762 0.002600 0.125102
0.396961 0.000000 0.069972
0.521112 0.000000 0.000000
0.626681 0.000000 0.000000
0.714746 0.000000 0.000000
0.788349 0.000000 0.000000
0.850475 0.001404 0.000000
0.903304 0.008163 0.000000
0.949964 0.014565 0.000000
0.980923 0.037523 0.000000
0.980036 0.076159 0.000000
0.979407 0.101548 0.000000
0.978957 0.116515 0.000000
-0.114729 0.105432 0.246168
-0.102438 0.089369 0.244492
0.117951 0.034404 0.164051
0.265635 0.024199 0.121422
0.376980 0.001897 0.038185
0.491209 0.009763 0.000029
0.592966 0.046825 0.000000
0.679691 0.081078 0.000000
0.752790 0.114161 0.000000
0.814683 0.140606 0.000000
0.867103 0.162449 0.000000
0.912824 0.182496 0.000000
0.953656 0.200705 0.000000
0.975722 0.217723 0.000000
0.975119 0.234671 0.000000
0.974585 0.248751 0.000000
-0.120863 0.114881 0.220347
-0.115567 0.119702 0.213942
0.105231 0.115310 0.170104
0.245646 0.126001 0.121119
0.341833 0.156455 0.116803
0.451582 0.177488 0.099688
0.555870 0.194045 0.064514
0.644950 0.208812 0.036013
0.719594 0.224725 0.008778
0.782268 0.239833 0.000391
0.835135 0.254644 0.000000
0.880268 0.266631 0.000106
0.919450 0.280359 0.000000
0.954369 0.297973 0.000000
0.971542 0.319254 0.000000
0.971264 0.330384 0.000000
-0.116915 0.218784 0.170185
-0.129070 0.215162 0.162351
0.056366 0.202048 0.124743
0.227645 0.181586 0.125358
0.324299 0.195039 0.123883
0.428014 0.203938 0.120847
0.527787 0.217277 0.108603
0.614855 0.232279 0.083848
0.690057 0.246679 0.037243
0.752126 0.260937 0.034984
0.804363 0.276833 0.022233
0.849381 0.292712 0.005359
0.887513 0.308617 0.005929
0.920251 0.327143 0.015258
0.949442 0.345526 0.009547
0.965298 0.363923 0.010615
-0.075874 0.292343 0.112511
-0.080140 0.286626 0.108495
0.061797 0.263907 0.116903
0.213429 0.250985 0.130023
0.303829 0.234564 0.117276
0.407482 0.265936 0.087490
0.508465 0.267679 0.069865
0.593664 0.265761 0.067643
0.664594 0.270815 0.071053
0.724343 0.280621 0.076674
0.775384 0.293502 0.055244
0.818983 0.309140 0.056696
0.855229 0.326705 0.076421
0.886813 0.346462 0.076535
0.914126 0.366566 0.086264
0.937521 0.387444 0.121092
-0.056688 0.366368 0.078918
-0.063227 0.361027 0.081945
0.064245 0.346079 0.113951
0.192777 0.324165 0.136447
0.303746 0.329019 0.121169
0.384429 0.288951 0.111559
0.483538 0.319838 0.065298
0.567564 0.346894 0.045541
0.640233 0.347449 0.036600
0.700831 0.343069 0.058698
0.750603 0.344692 0.087974
0.791653 0.352025 0.111915
0.826731 0.365092 0.122460
0.856079 0.380793 0.150166
0.881281 0.398719 0.173568
0.914581 0.408329 0.165993
-0.045876 0.444843 0.057017
-0.053106 0.439083 0.067055
0.062672 0.434940 0.110416
0.182874 0.410521 0.138209
0.274411 0.401456 0.137328
0.395968 0.402039 0.116251
0.458654 0.348407 0.127017
0.544808 0.371970 0.078443
0.612362 0.407582 0.065249
0.670785 0.431336 0.044151
0.721190 0.435367 0.073389
0.763601 0.433308 0.118715
0.799000 0.433845 0.152664
0.837187 0.432781 0.155713
0.884982 0.424958 0.115262
0.932043 0.418476 0.064609
-0.039779 0.519851 0.042813
-0.043059 0.510911 0.062577
0.059939 0.521685 0.105426
0.177171 0.495735 0.139546
0.265937 0.478299 0.148786
0.363029 0.477211 0.139681
0.475865 0.466310 0.129852
0.522956 0.415310 0.151882
0.590875 0.426605 0.134678
0.646414 0.459260 0.125218
0.692332 0.491498 0.122865
0.739127 0.508195 0.098467
0.793596 0.504047 0.043487
0.847062 0.489607 0.012227
0.897823 0.472256 0.006331
0.947610 0.456204 0.000822
-0.036357 0.586320 0.035215
-0.061585 0.597537 0.048890
0.071468 0.596539 0.112419
0.178309 0.571165 0.143871
0.266531 0.551061 0.156659
0.354604 0.540126 0.162132
0.446698 0.542133 0.154060
0.535460 0.524461 0.163784
0.570040 0.475318 0.194705
0.628857 0.480183 0.175753
0.688908 0.497638 0.106130
0.745147 0.523750 0.010550
0.798137 0.547486 0.000000
0.850382 0.556099 0.000000
0.902606 0.549411 0.000000
0.955336 0.533752 0.000000
-0.034171 0.643333 0.032283
-0.070434 0.669236 0.046318
0.075159 0.662884 0.113902
0.186495 0.635711 0.153217
0.273753 0.613950 0.169092
0.357099 0.597703 0.182134
0.436778 0.593058 0.187515
0.517689 0.597955 0.174297
0.593499 0.573608 0.153828
0.624364 0.513197 0.139880
0.689821 0.511426 0.043665
0.751362 0.525830 0.001739
0.805301 0.552782 0.000000
0.855107 0.586805 0.000000
0.905841 0.610817 0.000000
0.951484 0.616273 0.000000
-0.033204 0.690389 0.042336
-0.085164 0.746856 0.035701
0.093791 0.714926 0.128720
0.203336 0.687422 0.169680
0.288167 0.664908 0.188619
0.363154 0.648934 0.198468
0.430649 0.646878 0.178494
0.503626 0.652407 0.138450
0.589581 0.658813 0.057040
0.656885 0.617976 0.024769
0.687590 0.552253 0.002032
0.750815 0.547081 0.000000
0.809987 0.560352 0.000000
0.862831 0.587178 0.000000
0.913641 0.622020 0.000000
0.949759 0.655531 0.000000
-0.033566 0.728177 0.064090
-0.043358 0.791783 0.060773
0.123347 0.754620 0.154237
0.221570 0.731149 0.186020
0.285944 0.722948 0.174750
0.352880 0.714360 0.162848
0.423221 0.709300 0.142807
0.496198 0.711489 0.098725
0.578164 0.710326 0.018462
0.665724 0.718222 -0.002032
0.716027 0.656871 0.000000
0.748048 0.593218 0.000000
0.809091 0.587269 0.000000
0.867444 0.599579 0.000000
0.921937 0.624745 0.000000
0.951210 0.660050 0.000000
-0.061467 0.788278 0.074480
0.003777 0.822213 0.092664
0.120934 0.808019 0.141167
0.202435 0.797943 0.147847
0.270310 0.789876 0.134980
0.341831 0.781066 0.122246
0.415967 0.774056 0.103159
0.490545 0.773229 0.049402
0.577747 0.761813 0.002741
0.649368 0.773943 -0.003490
0.738813 0.779142 -0.001887
0.775973 0.698652 0.000000
0.804990 0.634977 0.000000
0.866717 0.630718 0.000000
0.926491 0.642388 0.000000
0.950656 0.666552 0.000000
-0.059237 0.830316 0.057576
-0.044835 0.890819 0.038389
0.091746 0.874728 0.096100
0.180889 0.864366 0.104932
0.254241 0.855657 0.091330
0.331207 0.846602 0.076124
0.408561 0.838269 0.056804
0.497460 0.821863 0.021042
0.579173 0.812258 -0.005326
0.646570 0.826328 -0.004579
0.723851 0.841876 -0.003494
0.803809 0.825959 -0.001589
0.834451 0.741263 0.000000
0.863084 0.680816 0.000000
0.926042 0.677163 0.000000
0.948752 0.688385 0.000000
-0.034469 0.855595 0.014877
-0.066265 0.941076 -0.003839
0.068894 0.939738 0.055234
0.160916 0.929350 0.058752
0.238644 0.920290 0.042367
0.322066 0.909277 0.025837
0.416690 0.887886 0.018091
0.509464 0.864524 -0.000514
0.580009 0.866007 -0.006434
0.646251 0.878998 -0.005602
0.714947 0.893209 -0.004691
0.801394 0.908551 -0.003404
0.863864 0.866469 -0.001243
0.892248 0.783113 0.000000
0.922027 0.727568 0.000000
0.945306 0.726071 0.000000
-0.011720 0.891127 -0.013030
-0.033767 0.945094 -0.017070
0.045482 0.997098 0.003254
0.150715 0.984914 0.015887
0.245524 0.966049 0.006528
0.346492 0.941699 0.001230
0.441151 0.919348 -0.005023
0.516486 0.912751 -0.007931
0.581090 0.920464 -0.007413
0.647197 0.932356 -0.006595
0.715146 0.946575 -0.005733
0.786632 0.961119 -0.004756
0.879038 0.966187 -0.003111
0.920488 0.907032 -0.000967
0.934437 0.827109 0.000000
0.940385 0.775096 0.000000
-0.105437 0.165484 0.373695
-0.124507 0.101321 0.414119
-0.006406 0.017187 0.354443
0.254250 0.015752 0.268358
0.372487 0.022402 0.213785
0.493539 0.002481 0.186139
0.604538 0.000000 0.146121
0.700012 0.000000 0.061342
0.778304 0.000000 0.004196
0.842081 0.000000 0.000000
0.895612 0.000000 0.000000
0.942403 0.000000 0.000000
0.978413 0.000000 0.000000
0.982187 0.000000 0.000000
0.982138 0.000310 0.000000
0.981679 0.017268 0.000000
-0.096361 0.181185 0.330147
-0.118147 0.155030 0.347546
-0.009946 0.041773 0.337373
0.231577 0.037350 0.254046
0.349161 0.035941 0.210440
0.466529 0.017795 0.180193
0.577504 0.000040 0.118469
0.671530 0.000196 0.036561
0.747831 0.006617 0.001551
0.810076 0.022408 0.000000
0.862271 0.045381 0.000000
0.906915 0.083609 0.000000
0.946501 0.122520 0.000000
0.974973 0.154823 0.000000
0.976847 0.184005 0.000000
0.976061 0.209582 0.000000
-0.103442 0.187340 0.307538
-0.105030 0.189228 0.297715
-0.019690 0.152496 0.319078
0.202642 0.111948 0.234926
0.325006 0.115642 0.201066
0.440537 0.113428 0.166884
0.547337 0.117952 0.123566
0.635875 0.141630 0.085439
0.710424 0.171522 0.056725
0.773705 0.198105 0.017776
0.826915 0.218984 0.005802
0.871611 0.238458 0.006833
0.910711 0.256820 0.003102
0.945454 0.274869 0.000000
0.968310 0.293821 0.002353
0.971786 0.313341 0.004837
-0.110206 0.202120 0.285575
-0.117814 0.202341 0.282533
-0.030905 0.208785 0.292324
0.204699 0.201575 0.234452
0.318636 0.209354 0.204603
0.408202 0.235808 0.209256
0.509019 0.257776 0.209923
0.597130 0.274720 0.205093
0.672490 0.289575 0.196717
0.735912 0.304552 0.187112
0.789373 0.320661 0.178785
0.834730 0.339197 0.175064
0.873547 0.359097 0.177831
0.907326 0.372279 0.172391
0.937018 0.386522 0.168603
0.957501 0.407909 0.179246
-0.100629 0.293031 0.258337
-0.101589 0.287941 0.250700
-0.036882 0.277910 0.240425
0.146321 0.272178 0.199964
0.301520 0.252347 0.193565
0.393222 0.269403 0.213153
0.488148 0.282348 0.220733
0.573202 0.296970 0.221215
0.645912 0.313173 0.219309
0.707800 0.330217 0.216785
0.760110 0.347799 0.214397
0.804793 0.365782 0.212287
0.842652 0.383856 0.212489
0.874849 0.401798 0.216008
0.902542 0.420020 0.221986
0.926385 0.438707 0.229526
-0.072644 0.367734 0.210755
-0.073676 0.360326 0.205312
-0.025858 0.360913 0.198496
0.144925 0.331989 0.198280
0.269250 0.324070 0.198771
0.372894 0.306222 0.205552
0.467530 0.339722 0.208586
0.553600 0.350242 0.211431
0.625237 0.350337 0.219866
0.684934 0.357352 0.225198
0.734937 0.369091 0.230204
0.777178 0.382630 0.236861
0.813453 0.400547 0.242978
0.843999 0.419808 0.249700
0.869848 0.438165 0.259998
0.913136 0.444890 0.240684
-0.056380 0.444692 0.174883
-0.057514 0.435806 0.174246
-0.021379 0.449560 0.168443
0.147303 0.413369 0.200399
0.251599 0.394320 0.212597
0.366559 0.400992 0.209736
0.447444 0.367342 0.220027
0.530518 0.396819 0.212981
0.599384 0.425222 0.208787
0.660033 0.434030 0.215632
0.711351 0.433702 0.231022
0.753359 0.436323 0.245654
0.787729 0.443865 0.261430
0.833415 0.443881 0.249155
0.881391 0.443155 0.226863
0.929073 0.442579 0.200428
