nova/tdt-studio/app/Lut_mau/.cube LUT/What I Like.cube
LUT_3D_SIZE 6
0.026700 0.000200 0.002400
0.304504 0.034550 0.000000
0.641014 0.089473 0.000000
0.863187 0.136950 0.000000
0.977327 0.171957 0.000000
0.976459 0.197983 0.000000
-0.046079 0.213648 0.003648
0.253226 0.147614 0.000000
0.554629 0.188025 0.000000
0.771677 0.188997 0.000000
0.905035 0.218608 0.000000
0.974000 0.264986 0.000000
-0.051719 0.457235 0.012080
0.222096 0.412420 0.013533
0.478084 0.313050 0.000000
0.687473 0.393516 0.000000
0.814538 0.438449 0.000000
0.933671 0.407629 0.000000
-0.047493 0.679243 -0.009206
0.209922 0.637151 0.026926
0.478298 0.595133 0.000232
0.636654 0.489356 0.000000
0.807833 0.510123 0.000000
0.951914 0.603149 0.000000
-0.006157 0.831410 0.000997
0.236579 0.786278 0.048472
0.470258 0.744368 -0.003407
0.674171 0.780556 -0.003167
0.806581 0.607636 0.000000
0.953923 0.626665 0.000000
0.065596 0.900932 -0.014493
0.279970 0.895993 -0.010826
0.465362 0.905832 -0.008806
0.656450 0.933937 -0.006475
0.890259 0.958018 -0.002714
0.941352 0.766048 0.000000
-0.105437 0.165484 0.373695
0.254250 0.015752 0.268358
0.604538 0.000000 0.146121
0.842081 0.000000 0.000000
0.978413 0.000000 0.000000
0.981679 0.017268 0.000000
-0.110206 0.202120 0.285575
0.204699 0.201575 0.234452
0.509019 0.257776 0.209923
0.735912 0.304552 0.187112
0.873547 0.359097 0.177831
0.957501 0.407909 0.179246
-0.056380 0.444692 0.174883
0.147303 0.413369 0.200399
0.447444 0.367342 0.220027
0.660033 0.434030 0.215632
0.787729 0.443865 0.261430
0.929073 0.442579 0.200428
-0.038096 0.640317 0.123830
0.158937 0.638282 0.203657
0.421777 0.585348 0.254114
0.618715 0.525138 0.218289
0.801423 0.577568 0.009139
0.952550 0.609557 0.000000
-0.073181 0.790889 0.141378
0.166881 0.807037 0.185192
0.401385 0.776885 0.165255
0.637024 0.773397 0.011026
0.803409 0.650830 0.000000
0.948627 0.689780 0.000000
-0.028340 0.904102 -0.002073
0.105687 0.999140 0.062500
0.390482 0.960351 0.039356
0.640662 0.930116 -0.006659
0.867359 0.969900 -0.003418
0.938986 0.788442 0.000000
-0.134982 0.356970 0.857382
0.014962 0.103394 0.792896
0.561526 0.082863 0.533907
0.796277 0.092180 0.392913
0.936761 0.006546 0.323861
0.977905 -0.000020 0.251604
-0.049900 0.371757 0.554506
0.009423 0.322456 0.649033
0.448063 0.211094 0.460529
0.698531 0.233776 0.384792
0.847854 0.240230 0.307116
0.938039 0.292307 0.271618
-0.060310 0.400895 0.472461
0.017292 0.421296 0.513248
0.434549 0.418779 0.423102
0.671035 0.471391 0.410919
0.768851 0.530702 0.439005
0.921829 0.555144 0.397353
-0.043977 0.630153 0.411418
0.031596 0.663082 0.416279
0.316018 0.622100 0.360329
0.624557 0.565400 0.350098
0.792325 0.618360 0.352530
0.951251 0.592348 0.313124
-0.037354 0.748232 0.369495
-0.008080 0.851186 0.309890
0.351072 0.793050 0.358547
0.589796 0.771523 0.318826
0.792266 0.698770 0.255702
0.939837 0.767784 0.000000
-0.032123 0.909299 0.255672
-0.088393 0.990441 0.186918
0.321265 0.997585 0.268802
0.589309 0.958367 0.241152
0.828439 0.971166 0.007329
0.932738 0.837290 0.000000
-0.134225 0.536118 1.076432
-0.033517 0.259224 1.186722
0.196318 0.179083 0.989556
0.783320 0.136125 0.744658
0.919381 0.153919 0.602211
0.981992 0.153156 0.532445
-0.034270 0.552982 0.770700
-0.157059 0.498250 0.957434
0.203790 0.254198 0.862223
0.670141 0.240681 0.663373
0.814584 0.274065 0.569836
0.901633 0.303829 0.534383
-0.037947 0.512013 0.683232
-0.157510 0.603500 0.819442
0.212366 0.537365 0.780509
0.624246 0.436492 0.636753
0.757303 0.456318 0.555587
0.924136 0.440015 0.484583
-0.041263 0.583975 0.612631
-0.016129 0.646618 0.703493
0.151888 0.660798 0.686191
0.596693 0.599564 0.561723
0.777692 0.649304 0.572804
0.939573 0.696801 0.560372
-0.037563 0.752046 0.579102
-0.192723 0.894836 0.631660
0.179934 0.841345 0.549996
0.539765 0.772613 0.537183
0.780037 0.746785 0.531442
0.931043 0.813635 0.483232
-0.034968 0.915041 0.517466
-0.034476 0.926434 0.485902
0.111835 1.045161 0.433430
0.542952 0.984941 0.493994
0.790271 0.971656 0.464855
0.922324 0.890689 0.416165
-0.118702 0.585325 1.086404
-0.031173 0.358078 1.291996
0.138056 0.225771 1.230008
0.492351 0.204365 1.051744
0.911032 0.170585 0.859347
0.976545 0.198147 0.708383
-0.035470 0.680932 0.900418
-0.033543 0.566443 0.875775
0.144687 0.324575 1.132739
0.416101 0.284792 0.948443
0.796631 0.283777 0.776640
0.885372 0.322060 0.687284
-0.034725 0.657922 0.815066
-0.036014 0.657101 0.778245
0.186650 0.642385 0.916052
0.421742 0.477623 0.830222
0.745933 0.450891 0.725805
0.910239 0.446324 0.692862
-0.035430 0.616603 0.740560
-0.048581 0.706683 0.878699
0.164318 0.716807 0.836019
0.445794 0.695190 0.811841
0.749401 0.612373 0.703914
0.931502 0.623078 0.693280
-0.036573 0.725362 0.712675
-0.196582 0.834580 0.827611
0.077383 0.853297 0.833006
0.419460 0.820040 0.775264
0.755035 0.788198 0.709247
0.926095 0.844433 0.718820
-0.040023 0.922271 0.721328
-0.039819 0.933787 0.709893
-0.025408 1.068568 0.755164
0.395037 1.037009 0.697189
0.737483 0.971379 0.691765
0.917162 0.957992 0.694112
-0.118702 0.585325 1.086404
-0.034030 0.365240 1.289557
0.129059 0.224793 1.248663
0.344702 0.231946 1.159476
0.746966 0.209959 1.040164
0.970873 0.209085 0.893780
-0.035580 0.684232 0.903731
-0.033596 0.610582 0.915320
0.099390 0.418710 1.264849
0.305011 0.319402 1.120932
0.628270 0.319913 0.957867
0.899023 0.314959 0.852254
-0.037364 0.751483 0.888290
-0.037084 0.746168 0.863708
0.134141 0.739086 1.035631
0.357110 0.523596 1.028642
0.607036 0.465282 0.929353
0.918325 0.442176 0.847078
-0.035701 0.704120 0.824007
-0.188575 0.809918 0.952200
0.028078 0.863959 0.985479
0.392198 0.790575 0.959228
0.613054 0.640481 0.928199
0.922903 0.625067 0.832253
-0.036396 0.731806 0.810218
-0.057521 0.765245 0.830906
0.010025 0.897354 0.994445
0.347484 0.902005 0.936361
0.635247 0.886171 0.926406
0.925381 0.811334 0.818814
-0.040844 0.889287 0.824062
-0.041460 0.910421 0.829310
-0.143649 1.079578 0.974101
0.306131 1.061897 0.934514
0.665672 1.018154 0.876862
0.921567 0.978036 0.838736
