nova/tdt-studio/app/Lut_mau/.cube LUT/X-9400-STD.cube
# Copyright: (C) Copyright 2010-2019 by IWLTBAP SAS
# Cannot be resold, shared or otherwise redistributed
# Website: https://luts.iwltbap.com
TITLE "IWLTBAP 9400 (Rec.709, sRGB, DCI-P3)"
LUT_3D_SIZE 33
0.060516 0.043030 0.097015
0.071521 0.045371 0.098242
0.087138 0.047535 0.099152
0.107011 0.049602 0.100079
0.131435 0.052115 0.101663
0.159574 0.054674 0.103925
0.191480 0.057256 0.107082
0.220689 0.059295 0.110068
0.244595 0.060969 0.112562
0.264754 0.062153 0.114196
0.283343 0.063320 0.115519
0.299956 0.064785 0.116800
0.314925 0.066498 0.118045
0.329192 0.068522 0.119359
0.342769 0.070971 0.120846
0.355993 0.073699 0.122471
0.369331 0.076631 0.124423
0.383112 0.079791 0.126746
0.398296 0.083330 0.129201
0.415669 0.087467 0.131645
0.434798 0.092047 0.134157
0.455508 0.096808 0.136842
0.478876 0.101604 0.139066
0.505867 0.106129 0.140014
0.536719 0.110327 0.139884
0.568779 0.114882 0.138881
0.602756 0.121506 0.137265
0.638147 0.131642 0.134735
0.669541 0.146586 0.132609
0.698048 0.165098 0.131105
0.720341 0.186436 0.130535
0.744004 0.209692 0.130012
0.770966 0.231689 0.129913
0.062423 0.048660 0.098727
0.077183 0.049855 0.098212
0.092738 0.052165 0.099187
0.111978 0.054550 0.100424
0.135374 0.057444 0.102321
0.161605 0.060399 0.104700
0.189271 0.063413 0.107916
0.219836 0.065694 0.111159
0.249276 0.067439 0.114113
0.272913 0.068378 0.115921
0.291610 0.069387 0.117167
0.307536 0.070772 0.118313
0.322144 0.072543 0.119524
0.336073 0.074610 0.120849
0.349469 0.076976 0.122345
0.362772 0.079630 0.123998
0.376310 0.082712 0.126024
0.390433 0.086202 0.128461
0.405948 0.089963 0.130987
0.423457 0.094114 0.133424
0.442670 0.098789 0.135993
0.463047 0.103905 0.138982
0.485303 0.109114 0.141708
0.510694 0.114316 0.143180
0.539277 0.119773 0.143309
0.570831 0.125911 0.142141
0.604302 0.133877 0.140875
0.639914 0.146201 0.138665
0.674551 0.163912 0.134617
0.703933 0.184011 0.131969
0.727860 0.206356 0.130865
0.753243 0.229365 0.130499
0.781562 0.250701 0.130677
0.060510 0.056115 0.100742
0.076452 0.056923 0.101096
0.097332 0.058191 0.099927
0.117192 0.060747 0.101140
0.141962 0.063875 0.103295
0.167498 0.067369 0.106061
0.193911 0.071008 0.109529
0.219889 0.074422 0.113050
0.246931 0.077058 0.116267
0.273960 0.077624 0.118154
0.297416 0.077944 0.119442
0.315687 0.078856 0.120561
0.330498 0.080362 0.121655
0.344068 0.082367 0.122957
0.357369 0.084920 0.124587
0.370768 0.087845 0.126429
0.384630 0.090934 0.128442
0.399311 0.094442 0.130794
0.415229 0.098480 0.133409
0.432903 0.102828 0.135972
0.452240 0.107569 0.138628
0.472762 0.112831 0.141684
0.495056 0.118339 0.144509
0.519904 0.123898 0.146185
0.547717 0.130095 0.146417
0.578749 0.137558 0.144997
0.611367 0.147063 0.143502
0.645552 0.160506 0.141755
0.680979 0.180175 0.137511
0.712615 0.203183 0.133175
0.738576 0.226434 0.131742
0.766613 0.246936 0.131662
0.795490 0.267061 0.132401
0.054901 0.067182 0.103884
0.071227 0.067227 0.105241
0.092669 0.067993 0.104991
0.120031 0.069481 0.103270
0.147399 0.072151 0.105033
0.174983 0.075588 0.107940
0.201371 0.079742 0.111676
0.226565 0.083905 0.115384
0.250389 0.087940 0.118914
0.273483 0.091247 0.121684
0.297300 0.092912 0.123512
0.319253 0.093351 0.124708
0.337593 0.093755 0.125639
0.352731 0.094934 0.126783
0.366164 0.096807 0.128304
0.379357 0.099131 0.130041
0.393331 0.101887 0.131934
0.408442 0.105010 0.134013
0.424709 0.108398 0.136271
0.442517 0.112324 0.138699
0.462053 0.117183 0.141348
0.483157 0.122880 0.144222
0.506430 0.129067 0.146573
0.532215 0.135414 0.147560
0.559799 0.142369 0.147885
0.589952 0.151159 0.147086
0.622556 0.162352 0.145140
0.657064 0.177606 0.142472
0.692826 0.198136 0.138369
0.723118 0.221991 0.134042
0.751439 0.246782 0.132552
0.781080 0.265626 0.132672
0.810730 0.282290 0.133958
0.046939 0.084911 0.108774
0.065047 0.085570 0.110822
0.086175 0.084155 0.111488
0.114140 0.083567 0.110115
0.149571 0.085303 0.109092
0.179732 0.088328 0.111437
0.207803 0.091706 0.114982
0.233556 0.095762 0.118584
0.257426 0.100138 0.122017
0.279429 0.104425 0.124956
0.300318 0.108253 0.127416
0.320363 0.110616 0.129146
0.339796 0.111519 0.130146
0.358103 0.112024 0.131172
0.374389 0.113128 0.132711
0.388838 0.115143 0.134541
0.403321 0.117066 0.136194
0.419042 0.119065 0.137828
0.435705 0.121753 0.139798
0.453513 0.124805 0.141979
0.473051 0.128948 0.144316
0.494528 0.134706 0.146755
0.518444 0.141246 0.148518
0.544776 0.148127 0.148834
0.572781 0.156285 0.148492
0.602455 0.166651 0.148039
0.634939 0.179876 0.146147
0.669523 0.196957 0.142882
0.703712 0.218013 0.139361
0.733170 0.240771 0.135668
0.762796 0.264777 0.134706
0.794405 0.281448 0.134964
0.823091 0.296076 0.136806
0.040238 0.105800 0.114509
0.056881 0.107525 0.116434
0.078300 0.106390 0.117702
0.106165 0.102804 0.117288
0.144703 0.101879 0.116227
0.182031 0.103677 0.116052
0.212665 0.106943 0.118921
0.240004 0.110581 0.122240
0.264690 0.114979 0.125482
0.286547 0.119782 0.128216
0.306704 0.124453 0.130645
0.325191 0.128974 0.132823
0.342501 0.132981 0.134600
0.360177 0.135024 0.136054
0.378268 0.135265 0.137629
0.395688 0.135625 0.139369
0.412378 0.136755 0.140895
0.428971 0.138164 0.142135
0.445967 0.139503 0.143581
0.463923 0.141422 0.145485
0.483543 0.144671 0.147375
0.505432 0.149427 0.149023
0.529794 0.156684 0.150025
0.556470 0.165415 0.149511
0.584726 0.175287 0.148821
0.614782 0.188018 0.148318
0.647926 0.202724 0.146051
0.683069 0.221045 0.142054
0.714120 0.241550 0.139680
0.743111 0.263000 0.136847
0.773999 0.282509 0.136353
0.806421 0.297008 0.136676
0.835287 0.308761 0.138766
0.036903 0.129350 0.120968
0.048265 0.133088 0.121975
0.068047 0.132946 0.123542
0.094839 0.129638 0.124010
0.137962 0.124046 0.123511
0.180554 0.123172 0.122895
0.215880 0.124717 0.123827
0.244919 0.127622 0.126357
0.270554 0.131585 0.129152
0.292599 0.136206 0.131535
0.312559 0.141270 0.133605
0.330649 0.146516 0.135540
0.347138 0.151802 0.137359
0.363219 0.156886 0.139148
0.379830 0.160855 0.140960
0.397663 0.162638 0.142649
0.416805 0.163273 0.144165
0.436047 0.164131 0.145494
0.454497 0.164321 0.146873
0.473221 0.163618 0.148558
0.493516 0.164214 0.150122
0.515744 0.167243 0.151138
0.540380 0.173026 0.151286
0.567149 0.182676 0.150201
0.595522 0.194501 0.149068
0.625950 0.209068 0.148533
0.659554 0.225640 0.146070
0.694672 0.244728 0.141310
0.723774 0.264680 0.139067
0.752463 0.283884 0.137795
0.783634 0.300405 0.137901
0.815770 0.312023 0.139079
0.843347 0.320987 0.141923
0.035791 0.154839 0.126281
0.045287 0.159916 0.126603
0.059728 0.162464 0.127071
0.082605 0.160158 0.127937
0.123536 0.153437 0.127715
0.175800 0.148370 0.128155
0.217181 0.147746 0.129047
0.249395 0.149055 0.129705
0.275905 0.152204 0.131648
0.297836 0.155740 0.133796
0.317420 0.160261 0.135709
0.335287 0.165478 0.137410
0.351631 0.170883 0.138988
0.367287 0.176792 0.140706
0.382811 0.183178 0.142670
0.399143 0.188709 0.144660
0.417980 0.191584 0.146392
0.439130 0.192263 0.147849
0.460432 0.191709 0.149365
0.481100 0.190016 0.150968
0.502449 0.188944 0.152064
0.525432 0.190573 0.152398
0.550056 0.195596 0.152010
0.576803 0.204556 0.150670
0.605212 0.217429 0.149307
0.635825 0.232725 0.148596
0.669521 0.249346 0.146186
0.703258 0.267324 0.141529
0.731581 0.284999 0.139865
0.760335 0.302000 0.139210
0.791452 0.315591 0.139652
0.822788 0.326213 0.141515
0.849113 0.334736 0.144931
0.035886 0.180561 0.130768
0.044861 0.187024 0.130284
0.055590 0.191788 0.129775
0.073538 0.191409 0.130152
0.109734 0.184570 0.129756
0.165202 0.177738 0.130656
0.217776 0.174643 0.132541
0.255273 0.174168 0.132928
0.282064 0.174438 0.133760
0.303342 0.176305 0.135459
0.322261 0.180121 0.137281
0.339619 0.185095 0.138850
0.355844 0.190591 0.140210
0.371566 0.196792 0.141606
0.387033 0.203958 0.143319
0.402789 0.211451 0.145272
0.420108 0.218189 0.147106
0.440289 0.222147 0.148638
0.462840 0.223341 0.150248
0.485889 0.223516 0.152003
0.509047 0.222755 0.152942
0.533204 0.222610 0.152679
0.558677 0.225528 0.151871
0.585720 0.231983 0.150700
0.614429 0.242764 0.149493
0.645182 0.257459 0.148593
0.678509 0.273188 0.146192
0.710475 0.289021 0.141847
0.738537 0.304764 0.140667
0.767598 0.319505 0.140674
0.798531 0.330983 0.141376
0.829135 0.341977 0.143568
0.853681 0.351219 0.148407
0.037565 0.205362 0.135545
0.046840 0.212451 0.134536
0.057141 0.218042 0.133261
0.070646 0.220853 0.131869
0.102825 0.215184 0.130940
0.151790 0.208726 0.130845
0.209776 0.204550 0.133122
0.258677 0.202204 0.134289
0.290768 0.200380 0.134716
0.311716 0.200343 0.135521
0.329257 0.203171 0.137075
0.345788 0.207352 0.138684
0.361589 0.212057 0.140135
0.377413 0.217912 0.141450
0.393421 0.225078 0.142820
0.409623 0.232878 0.144410
0.426693 0.241088 0.146061
0.445566 0.248649 0.147644
0.466718 0.253577 0.149620
0.490028 0.255879 0.151962
0.514687 0.256602 0.153388
0.540147 0.255901 0.153127
0.566836 0.255922 0.151942
0.594532 0.259596 0.150822
0.623833 0.267097 0.149707
0.654853 0.279787 0.148622
0.687004 0.294266 0.146321
0.717181 0.308615 0.142334
0.745343 0.322508 0.141478
0.774648 0.336532 0.142030
0.805282 0.348241 0.142971
0.834817 0.359973 0.145562
0.857951 0.369973 0.151744
0.039464 0.228229 0.140032
0.049989 0.236106 0.138796
0.060839 0.242112 0.136985
0.072503 0.246476 0.134606
0.095515 0.244938 0.133022
0.138604 0.239523 0.131927
0.195620 0.234242 0.133350
0.251990 0.231594 0.135403
0.295442 0.228852 0.135400
0.322355 0.226832 0.134491
0.340255 0.226240 0.135100
0.355923 0.228653 0.136717
0.371073 0.232683 0.138464
0.386628 0.237864 0.139976
0.402819 0.244519 0.141281
0.419373 0.252088 0.142595
0.436651 0.260333 0.144023
0.455276 0.269280 0.145585
0.475458 0.277615 0.147670
0.497560 0.283016 0.150488
0.521948 0.285355 0.152876
0.548040 0.285621 0.153445
0.575248 0.284124 0.152636
0.603591 0.284878 0.151665
0.633572 0.289820 0.150426
0.665182 0.299019 0.148687
0.695658 0.311907 0.146602
0.724108 0.325479 0.143248
0.752306 0.338883 0.142534
0.781562 0.353634 0.143290
0.811413 0.365857 0.144419
0.840110 0.378648 0.147293
0.862494 0.389271 0.154094
0.042710 0.248801 0.145264
0.054393 0.256934 0.144093
0.065564 0.263056 0.142217
0.077109 0.267633 0.139157
0.091849 0.269637 0.136934
0.127332 0.266656 0.135000
0.181529 0.260938 0.135028
0.240161 0.257691 0.136781
0.290469 0.255701 0.137654
0.326194 0.253776 0.135601
0.349374 0.251064 0.134373
0.366560 0.249950 0.134806
0.382089 0.252045 0.136174
0.397686 0.256389 0.137769
0.413687 0.262173 0.139295
0.430154 0.269153 0.140703
0.447282 0.277170 0.142246
0.465506 0.286269 0.144091
0.485149 0.295975 0.146322
0.506562 0.304313 0.149118
0.530687 0.309481 0.151772
0.557429 0.311926 0.153104
0.584971 0.312429 0.153230
0.612949 0.312197 0.152882
0.643090 0.314420 0.151653
0.674756 0.319705 0.149150
0.703578 0.329767 0.146643
0.731092 0.343817 0.143930
0.759306 0.358211 0.143382
0.788285 0.372598 0.144270
0.817269 0.384675 0.145553
0.844533 0.397386 0.148886
0.866040 0.408649 0.156941
0.047607 0.267560 0.151304
0.059839 0.275189 0.150298
0.071389 0.281082 0.148662
0.083056 0.285608 0.144971
0.095339 0.288831 0.142178
0.119162 0.289479 0.139161
0.168122 0.285028 0.138124
0.227918 0.280542 0.138882
0.280184 0.278955 0.139949
0.321198 0.278822 0.138823
0.350898 0.276994 0.136889
0.372100 0.274324 0.135724
0.389477 0.273346 0.135626
0.406219 0.275736 0.136373
0.423165 0.280425 0.137576
0.440084 0.286358 0.139023
0.457135 0.293798 0.140860
0.474963 0.302646 0.143070
0.494209 0.312371 0.145547
0.515447 0.322257 0.148312
0.539528 0.330621 0.150786
0.567060 0.336171 0.152147
0.596098 0.339374 0.152819
0.624052 0.340700 0.153378
0.653151 0.341462 0.152493
0.683721 0.344133 0.149431
0.710373 0.351223 0.146500
0.737478 0.365637 0.144007
0.766006 0.379754 0.143457
0.794659 0.393149 0.144560
0.822967 0.404578 0.146127
0.848587 0.416391 0.150157
0.869264 0.427967 0.159658
0.052724 0.284808 0.157572
0.065589 0.291978 0.156550
0.077739 0.297657 0.154893
0.089542 0.302162 0.150849
0.102204 0.305728 0.147751
0.118629 0.308566 0.144146
0.155670 0.307280 0.142122
0.213025 0.302758 0.141893
0.268581 0.300041 0.142313
0.312770 0.300640 0.141949
0.347188 0.300773 0.140829
0.371919 0.299507 0.139747
0.391172 0.297633 0.138565
0.409277 0.297416 0.137847
0.427506 0.300294 0.138178
0.445612 0.305219 0.139320
0.463692 0.311540 0.141055
0.482119 0.319456 0.143251
0.501614 0.328693 0.145743
0.523146 0.338867 0.148452
0.547311 0.349346 0.150680
0.575101 0.358089 0.151616
0.605977 0.363704 0.152091
0.636013 0.367678 0.153001
0.664210 0.369634 0.152512
0.692256 0.371920 0.149197
0.717244 0.377411 0.146120
0.743495 0.389255 0.143862
0.772385 0.401814 0.143173
0.801054 0.414189 0.144274
0.828624 0.424689 0.146324
0.853306 0.435665 0.150857
0.873335 0.446549 0.161071
0.057424 0.300723 0.164641
0.071203 0.307938 0.163442
0.083849 0.313506 0.161564
0.096196 0.317994 0.157315
0.109495 0.321684 0.154121
0.124408 0.325009 0.150600
0.148747 0.326815 0.147568
0.196008 0.324500 0.146108
0.253315 0.320836 0.145602
0.303333 0.320147 0.145113
0.341706 0.321061 0.144574
0.369716 0.321696 0.144055
0.390915 0.321217 0.143176
0.409406 0.320529 0.142162
0.427900 0.321470 0.141580
0.446848 0.324929 0.141936
0.466243 0.330255 0.143242
0.486186 0.336978 0.145082
0.506968 0.345329 0.147214
0.529358 0.355186 0.149628
0.553909 0.366367 0.151628
0.581375 0.377703 0.152288
0.612533 0.386725 0.152426
0.645077 0.393174 0.152988
0.674111 0.397617 0.152404
0.700126 0.400647 0.148928
0.724553 0.405393 0.145773
0.750041 0.413708 0.143844
0.778707 0.423898 0.143225
0.807443 0.434900 0.144140
0.834266 0.444395 0.146610
0.857644 0.453938 0.151886
0.877004 0.463381 0.162114
0.061907 0.316086 0.172579
0.076388 0.323450 0.171181
0.089684 0.329093 0.169032
0.102793 0.333523 0.164625
0.116854 0.337199 0.161233
0.132146 0.340664 0.157909
0.151594 0.343932 0.154278
0.183534 0.345031 0.151485
0.235151 0.342523 0.149688
0.289950 0.340261 0.148830
0.334271 0.340064 0.148162
0.366102 0.341270 0.147555
0.390477 0.342344 0.147028
0.410650 0.343013 0.146550
0.428904 0.343684 0.146114
0.447274 0.345545 0.145991
0.466905 0.349663 0.146677
0.488030 0.355604 0.148049
0.510443 0.363065 0.149658
0.534241 0.372370 0.151486
0.559785 0.383482 0.152965
0.587416 0.396162 0.153263
0.617672 0.408612 0.153204
0.649960 0.418312 0.153589
0.679978 0.424797 0.152757
0.706232 0.428573 0.149175
0.731909 0.432201 0.145908
0.757984 0.438076 0.144270
0.785860 0.444763 0.144023
0.814133 0.454134 0.144957
0.839953 0.462661 0.147658
0.861062 0.470347 0.153765
0.879627 0.478639 0.163671
0.066656 0.331537 0.181575
0.081400 0.338574 0.180188
0.095628 0.344421 0.177458
0.109411 0.348842 0.172700
0.124657 0.352813 0.168669
0.140676 0.356573 0.165284
0.160979 0.360888 0.161269
0.183630 0.364452 0.157557
0.221423 0.365285 0.154637
0.273378 0.363046 0.153310
0.323336 0.361057 0.152027
0.360571 0.360563 0.151051
0.388925 0.361716 0.150365
0.412738 0.363806 0.149797
0.432716 0.365622 0.149694
0.450679 0.367120 0.149824
0.469218 0.370013 0.150288
0.489871 0.375227 0.151362
0.513019 0.382338 0.152532
0.538199 0.391332 0.153551
0.565010 0.402449 0.154201
0.593493 0.415534 0.153822
0.623433 0.429701 0.153339
0.653713 0.442614 0.153778
0.682621 0.451223 0.153033
0.710336 0.455830 0.149544
0.738271 0.458638 0.146226
0.766676 0.462382 0.144949
0.794090 0.465931 0.145075
0.821476 0.472442 0.146313
0.846022 0.480215 0.149170
0.865181 0.487041 0.155914
0.882062 0.494008 0.165266
0.071899 0.347522 0.191880
0.086623 0.353838 0.190732
0.101481 0.359585 0.187403
0.116165 0.364124 0.181633
0.132717 0.368572 0.176667
0.149889 0.372850 0.172622
0.171780 0.378526 0.168023
0.193985 0.383706 0.163516
0.220669 0.387672 0.159824
0.260724 0.388011 0.157960
0.309168 0.385838 0.155821
0.351306 0.382752 0.154507
0.384889 0.381631 0.153868
0.412747 0.383641 0.152967
0.436349 0.386517 0.152465
0.456612 0.388872 0.152618
0.475181 0.391593 0.153142
0.494590 0.395868 0.154044
0.516922 0.402494 0.154999
0.542431 0.411617 0.155615
0.570110 0.422915 0.155628
0.599368 0.436023 0.154644
0.629554 0.450312 0.153531
0.658456 0.464571 0.153572
0.684956 0.475479 0.152794
0.713445 0.481127 0.149347
0.743035 0.484391 0.146244
0.773445 0.486591 0.145271
0.801381 0.488178 0.145582
0.828076 0.491220 0.147090
0.851810 0.497663 0.150086
0.869172 0.504438 0.157665
0.884228 0.510192 0.166582
0.076527 0.364604 0.203801
0.091145 0.370343 0.203041
0.106249 0.375551 0.199657
0.122315 0.380317 0.192413
0.140500 0.385250 0.185999
0.159352 0.390355 0.180551
0.182663 0.397221 0.175022
0.206606 0.404167 0.169513
0.231572 0.409992 0.164698
0.260613 0.413497 0.162127
0.298422 0.413861 0.159255
0.338747 0.410518 0.157618
0.376751 0.406621 0.157141
0.408945 0.405610 0.156342
0.436036 0.407562 0.155547
0.460373 0.410852 0.155133
0.482493 0.414832 0.155026
0.502915 0.419124 0.155394
0.524191 0.424397 0.156106
0.548993 0.432567 0.156576
0.577123 0.443673 0.156345
0.606939 0.456359 0.155268
0.636935 0.470022 0.153857
0.664491 0.483860 0.153159
0.689049 0.495841 0.151985
0.716669 0.502913 0.148562
0.746699 0.507266 0.145820
0.777466 0.509380 0.145090
0.806185 0.509829 0.145433
0.832880 0.510870 0.146983
0.856651 0.514951 0.150062
0.872432 0.521333 0.158416
0.886089 0.526611 0.167406
0.079939 0.383105 0.216950
0.094359 0.387915 0.218303
0.109724 0.392676 0.215161
0.127202 0.397751 0.206742
0.148088 0.403975 0.196675
0.168991 0.410372 0.188662
0.194020 0.418770 0.181544
0.219668 0.427461 0.174729
0.246007 0.434795 0.168561
0.272881 0.439900 0.165287
0.301172 0.443232 0.161818
0.333275 0.442859 0.159644
0.369289 0.439270 0.158984
0.403809 0.435086 0.158301
0.433927 0.433457 0.157593
0.461859 0.435634 0.156820
0.488641 0.440780 0.155818
0.512573 0.446194 0.155429
0.534599 0.450477 0.155749
0.558445 0.456003 0.155873
0.585934 0.465002 0.155558
0.616084 0.476580 0.154800
0.645662 0.488829 0.153652
0.671566 0.501377 0.152542
0.695134 0.512980 0.150997
0.721360 0.521286 0.147747
0.750467 0.526860 0.145262
0.781002 0.529582 0.144873
0.809688 0.530235 0.145293
0.836752 0.530729 0.146785
0.860763 0.533140 0.149896
0.875905 0.538453 0.158458
0.888260 0.543454 0.167831
0.083193 0.402795 0.230727
0.096892 0.406089 0.236266
0.111926 0.410584 0.233993
0.130506 0.415857 0.225079
0.153691 0.423609 0.210862
0.177822 0.432377 0.196984
0.204959 0.442680 0.186855
0.232536 0.453442 0.177889
0.260278 0.462112 0.170414
0.288027 0.468156 0.166599
0.314928 0.472830 0.162706
0.341225 0.475672 0.159942
0.370214 0.475346 0.158811
0.401299 0.472127 0.157930
0.432460 0.467979 0.157309
0.463162 0.466488 0.156782
0.493143 0.469727 0.155866
0.520591 0.475148 0.155201
0.545507 0.479841 0.155011
0.569901 0.483701 0.154711
0.595604 0.489040 0.154301
0.624457 0.497878 0.153814
0.653456 0.507867 0.153025
0.678665 0.518203 0.151895
0.702309 0.528371 0.150313
0.728361 0.536080 0.147519
0.756252 0.542491 0.145293
0.785901 0.545805 0.145253
0.813767 0.547648 0.145947
0.840572 0.548609 0.147499
0.864418 0.551274 0.150621
0.879044 0.555647 0.159064
0.890613 0.560350 0.168923
0.086993 0.423436 0.245124
0.098659 0.425738 0.255386
0.112386 0.429594 0.254961
0.131946 0.434753 0.245728
0.155679 0.442945 0.229791
0.183813 0.454532 0.208510
0.212748 0.466260 0.193049
0.241391 0.478637 0.181087
0.270233 0.488716 0.171711
0.298976 0.495567 0.167030
0.326078 0.500975 0.162764
0.352165 0.505384 0.159590
0.377093 0.508117 0.158037
0.402567 0.508403 0.156843
0.430993 0.506111 0.156078
0.462418 0.503015 0.155948
0.494922 0.502321 0.155913
0.525747 0.504854 0.155669
0.554869 0.509205 0.154866
0.582389 0.513375 0.153737
0.607499 0.516777 0.153140
0.633287 0.521927 0.152767
0.660142 0.528918 0.152007
0.685477 0.536080 0.150795
0.710236 0.543560 0.149358
0.736926 0.549038 0.147503
0.764460 0.554540 0.145945
0.792488 0.558368 0.146261
0.819076 0.561351 0.147356
0.844759 0.563805 0.149243
0.868156 0.567623 0.152475
0.882027 0.572415 0.160600
0.892875 0.576696 0.170838
0.092794 0.444773 0.258140
0.101185 0.446379 0.274456
0.113416 0.449558 0.276083
0.133052 0.454686 0.265752
0.156779 0.463356 0.247942
0.187425 0.476432 0.222643
0.217718 0.489023 0.201552
0.244746 0.501087 0.186029
0.272293 0.511954 0.173918
0.301632 0.519553 0.167621
0.329617 0.525105 0.162832
0.356507 0.530810 0.159313
0.382290 0.535786 0.157515
0.406742 0.538886 0.156198
0.432222 0.540320 0.155262
0.461692 0.540194 0.155202
0.494769 0.538969 0.155732
0.528553 0.537810 0.156137
0.562062 0.538937 0.155375
0.593092 0.542056 0.153760
0.619335 0.544792 0.152891
0.643444 0.547845 0.152531
0.667040 0.551195 0.151641
0.691965 0.554846 0.150138
0.718276 0.559161 0.148588
0.746010 0.562380 0.147364
0.773513 0.566043 0.146767
0.800209 0.569854 0.147468
0.825251 0.573887 0.149154
0.849600 0.577944 0.151674
0.872315 0.582740 0.155452
0.885002 0.588444 0.163440
0.894779 0.592807 0.173724
0.102527 0.465164 0.269874
0.107596 0.466374 0.290785
0.116821 0.468863 0.297624
0.133993 0.474113 0.288063
0.156479 0.483179 0.269231
0.188951 0.497154 0.240537
0.220745 0.510563 0.215541
0.246867 0.523222 0.194455
0.271264 0.534182 0.178043
0.298079 0.541668 0.168813
0.327155 0.546655 0.163034
0.355613 0.552099 0.159156
0.382404 0.558154 0.157242
0.408129 0.563384 0.156047
0.434174 0.567133 0.155180
0.462570 0.570201 0.155191
0.494310 0.572175 0.155834
0.529172 0.571777 0.156395
0.566275 0.570217 0.156022
0.600703 0.569925 0.154775
0.628593 0.571059 0.153966
0.652698 0.572627 0.153639
0.675191 0.573303 0.152590
0.699338 0.572323 0.150708
0.726245 0.573516 0.149151
0.755272 0.574727 0.148207
0.783020 0.577010 0.147967
0.808702 0.580473 0.149024
0.832404 0.585315 0.151451
0.854990 0.590715 0.155400
0.876561 0.596295 0.160488
0.888349 0.602140 0.169199
0.896194 0.606908 0.179611
0.115520 0.483565 0.280793
0.117648 0.485175 0.302946
0.122136 0.486706 0.318246
0.133586 0.490910 0.317239
0.152954 0.499572 0.300372
0.182916 0.512645 0.272821
0.216323 0.527527 0.242910
0.247110 0.545489 0.212237
0.272278 0.559393 0.188520
0.295516 0.566403 0.173843
0.323618 0.569195 0.164874
0.352680 0.572509 0.159602
0.379224 0.576888 0.157435
0.404740 0.581750 0.156448
0.431348 0.586471 0.155782
0.460622 0.590541 0.155935
0.492693 0.594383 0.156678
0.528425 0.597334 0.157364
0.567878 0.597790 0.157330
0.605367 0.596558 0.156537
0.635343 0.595986 0.155974
0.659443 0.596321 0.155721
0.682603 0.595174 0.154590
0.707882 0.591348 0.152308
0.734283 0.588870 0.150550
0.763524 0.588343 0.149720
0.792447 0.588617 0.149658
0.817799 0.590977 0.151086
0.840606 0.595865 0.154481
0.860820 0.602618 0.160972
0.879817 0.609355 0.168210
0.890766 0.615167 0.177920
0.897406 0.620212 0.188479
0.130599 0.499843 0.289672
0.131424 0.502185 0.311649
0.133713 0.504426 0.330311
0.137489 0.507181 0.341183
0.150350 0.513805 0.335004
0.171968 0.523288 0.317251
0.201047 0.536618 0.290148
0.235699 0.559378 0.252036
0.268164 0.581826 0.216089
0.293936 0.593297 0.191863
0.320900 0.594797 0.175221
0.349808 0.594494 0.165163
0.376849 0.595591 0.160384
0.401378 0.597682 0.158524
0.426668 0.600806 0.157876
0.455811 0.604432 0.158058
0.488640 0.608236 0.158844
0.525485 0.612060 0.159703
0.567073 0.615187 0.160270
0.607910 0.616705 0.160261
0.640194 0.616812 0.159939
0.664510 0.616691 0.159625
0.688491 0.614611 0.158230
0.716189 0.609372 0.155329
0.743621 0.605312 0.153171
0.771539 0.603005 0.152192
0.800499 0.601649 0.152206
0.826461 0.602032 0.154149
0.848939 0.606180 0.158539
0.868112 0.612966 0.166757
0.883607 0.620861 0.176053
0.892690 0.627755 0.187390
0.898361 0.633118 0.198524
0.144116 0.516644 0.299690
0.146031 0.518726 0.318808
0.147161 0.521551 0.339805
0.149180 0.524349 0.353915
0.153060 0.528025 0.363202
0.165932 0.534949 0.359974
0.186471 0.544587 0.343545
0.215114 0.560942 0.315249
0.248879 0.584418 0.276683
0.281632 0.606143 0.239059
0.312300 0.618722 0.208532
0.344042 0.621130 0.188161
0.375538 0.618736 0.174319
0.403038 0.616913 0.166032
0.428027 0.617030 0.162445
0.455161 0.618355 0.161355
0.486698 0.620855 0.161557
0.523371 0.624266 0.162335
0.565285 0.627805 0.163131
0.608959 0.631172 0.163644
0.646098 0.633633 0.163694
0.672424 0.634537 0.163349
0.695161 0.633523 0.162075
