nova/tdt-studio/app/Lut_mau/.cube LUT/X-9400-STD.cube
# Copyright: (C) Copyright 2010-2019 by IWLTBAP SAS
# Cannot be resold, shared or otherwise redistributed
# Website: https://luts.iwltbap.com
TITLE "IWLTBAP 9400 (Rec.709, sRGB, DCI-P3)"
LUT_3D_SIZE 5
0.060516 0.043030 0.097015
0.244595 0.060969 0.112562
0.369331 0.076631 0.124423
0.536719 0.110327 0.139884
0.770966 0.231689 0.129913
0.035886 0.180561 0.130768
0.282064 0.174438 0.133760
0.420108 0.218189 0.147106
0.614429 0.242764 0.149493
0.853681 0.351219 0.148407
0.066656 0.331537 0.181575
0.221423 0.365285 0.154637
0.469218 0.370013 0.150288
0.682621 0.451223 0.153033
0.882062 0.494008 0.165266
0.115520 0.483565 0.280793
0.272278 0.559393 0.188520
0.492693 0.594383 0.156678
0.734283 0.588870 0.150550
0.897406 0.620212 0.188479
0.202057 0.659943 0.454803
0.305572 0.707887 0.477303
0.548248 0.733401 0.338348
0.801774 0.717936 0.209842
0.899994 0.736450 0.278503
0.048119 0.092054 0.243394
0.183974 0.102145 0.256181
0.359895 0.099728 0.211348
0.540108 0.153839 0.232519
0.786036 0.259484 0.234858
0.012224 0.219357 0.272284
0.127731 0.267153 0.330907
0.460760 0.291148 0.307875
0.639191 0.309385 0.339089
0.825724 0.388297 0.368031
0.054455 0.346160 0.341093
0.171957 0.405328 0.373764
0.515908 0.433067 0.302524
0.687686 0.488143 0.373512
0.845564 0.505697 0.428966
0.147017 0.522396 0.376541
0.235711 0.601854 0.498580
0.462303 0.610159 0.432332
0.737584 0.629321 0.373195
0.878165 0.645428 0.456416
0.213331 0.687596 0.529576
0.320327 0.748405 0.616000
0.509904 0.751905 0.587939
0.752875 0.783304 0.467264
0.896634 0.796543 0.476874
0.067940 0.101712 0.416619
0.164377 0.107994 0.455474
0.339720 0.126733 0.387294
0.526702 0.185356 0.307693
0.763728 0.292883 0.391547
0.014816 0.291915 0.385738
0.191484 0.309863 0.470991
0.451592 0.317069 0.458149
0.660859 0.373035 0.479590
0.840603 0.414255 0.504142
0.058043 0.399232 0.438629
0.165896 0.468171 0.519430
0.461952 0.496634 0.526845
0.732749 0.520894 0.523160
0.878652 0.536292 0.582071
0.156170 0.545479 0.500637
0.250445 0.638294 0.580991
0.453890 0.667688 0.599978
0.757723 0.681013 0.547373
0.906967 0.703540 0.636434
0.241846 0.715488 0.603290
0.357103 0.782776 0.695071
0.563275 0.813072 0.742185
0.775291 0.839294 0.680665
0.923606 0.856848 0.660747
0.130806 0.144345 0.584755
0.287100 0.146547 0.594637
0.373890 0.163932 0.574392
0.549396 0.200681 0.517530
0.758978 0.312891 0.587495
0.102590 0.403733 0.556379
0.301288 0.337409 0.645122
0.423123 0.341220 0.701978
0.655548 0.372512 0.658024
0.824882 0.420188 0.653412
0.132788 0.513515 0.579827
0.236822 0.569181 0.659557
0.450898 0.537362 0.750720
0.742101 0.525098 0.726548
0.884974 0.569925 0.711270
0.189454 0.602696 0.635342
0.298189 0.682182 0.705545
0.416386 0.732376 0.787820
0.732671 0.768530 0.813346
0.944324 0.777943 0.820428
0.287668 0.757721 0.745553
0.402266 0.824779 0.811881
0.547113 0.868048 0.875820
0.762688 0.907348 0.891753
0.954946 0.909915 0.856432
0.278229 0.278198 0.785248
0.429811 0.247839 0.788078
0.505458 0.270119 0.843056
0.685934 0.304719 0.812210
0.832764 0.347137 0.799469
0.226215 0.477444 0.805002
0.435869 0.431396 0.856103
0.583365 0.367501 0.927634
0.767702 0.385195 0.881224
0.874080 0.432042 0.886510
0.228150 0.620219 0.786631
0.409270 0.649074 0.852013
0.605051 0.623905 0.935213
0.825358 0.560282 0.942237
0.924133 0.609406 0.922226
0.275956 0.718882 0.816252
0.413378 0.778619 0.871182
0.560993 0.823659 0.920049
0.804337 0.835336 0.940443
0.953939 0.813232 0.945185
0.375153 0.828735 0.877228
0.506165 0.872440 0.916480
0.623549 0.908852 0.947985
0.783429 0.946020 0.974828
0.961578 0.963898 0.979279
