nova/tdt-studio/app/Lut_mau/.cube LUT/X-9400-STD.cube
# Copyright: (C) Copyright 2010-2019 by IWLTBAP SAS
# Cannot be resold, shared or otherwise redistributed
# Website: https://luts.iwltbap.com
TITLE "IWLTBAP 9400 (Rec.709, sRGB, DCI-P3)"
LUT_3D_SIZE 9
0.060516 0.043030 0.097015
0.131435 0.052115 0.101663
0.244595 0.060969 0.112562
0.314925 0.066498 0.118045
0.369331 0.076631 0.124423
0.434798 0.092047 0.134157
0.536719 0.110327 0.139884
0.669541 0.146586 0.132609
0.770966 0.231689 0.129913
0.046939 0.084911 0.108774
0.149571 0.085303 0.109092
0.257426 0.100138 0.122017
0.339796 0.111519 0.130146
0.403321 0.117066 0.136194
0.473051 0.128948 0.144316
0.572781 0.156285 0.148492
0.703712 0.218013 0.139361
0.823091 0.296076 0.136806
0.035886 0.180561 0.130768
0.109734 0.184570 0.129756
0.282064 0.174438 0.133760
0.355844 0.190591 0.140210
0.420108 0.218189 0.147106
0.509047 0.222755 0.152942
0.614429 0.242764 0.149493
0.738537 0.304764 0.140667
0.853681 0.351219 0.148407
0.047607 0.267560 0.151304
0.095339 0.288831 0.142178
0.280184 0.278955 0.139949
0.389477 0.273346 0.135626
0.457135 0.293798 0.140860
0.539528 0.330621 0.150786
0.653151 0.341462 0.152493
0.766006 0.379754 0.143457
0.869264 0.427967 0.159658
0.066656 0.331537 0.181575
0.124657 0.352813 0.168669
0.221423 0.365285 0.154637
0.388925 0.361716 0.150365
0.469218 0.370013 0.150288
0.565010 0.402449 0.154201
0.682621 0.451223 0.153033
0.794090 0.465931 0.145075
0.882062 0.494008 0.165266
0.083193 0.402795 0.230727
0.153691 0.423609 0.210862
0.260278 0.462112 0.170414
0.370214 0.475346 0.158811
0.493143 0.469727 0.155866
0.595604 0.489040 0.154301
0.702309 0.528371 0.150313
0.813767 0.547648 0.145947
0.890613 0.560350 0.168923
0.115520 0.483565 0.280793
0.152954 0.499572 0.300372
0.272278 0.559393 0.188520
0.379224 0.576888 0.157435
0.492693 0.594383 0.156678
0.635343 0.595986 0.155974
0.734283 0.588870 0.150550
0.840606 0.595865 0.154481
0.897406 0.620212 0.188479
0.164451 0.560107 0.334449
0.179437 0.565922 0.393721
0.215923 0.591788 0.405875
0.371145 0.655366 0.271249
0.506104 0.659966 0.179794
0.653113 0.659651 0.171176
0.761866 0.662612 0.167084
0.858647 0.651343 0.179806
0.901309 0.675071 0.226042
0.202057 0.659943 0.454803
0.237509 0.676562 0.496495
0.305572 0.707887 0.477303
0.425031 0.713035 0.400031
0.548248 0.733401 0.338348
0.687181 0.737862 0.241671
0.801774 0.717936 0.209842
0.856094 0.723563 0.235380
0.899994 0.736450 0.278503
0.058568 0.056689 0.138499
0.123862 0.058491 0.146252
0.241383 0.068366 0.153171
0.317893 0.075053 0.155622
0.380319 0.087851 0.164245
0.443887 0.104356 0.177368
0.532499 0.124647 0.181974
0.667461 0.159555 0.163146
0.796402 0.241003 0.160036
0.033038 0.111252 0.155505
0.106275 0.120397 0.186201
0.263842 0.131355 0.168846
0.361158 0.142534 0.179536
0.433738 0.145265 0.190924
0.496018 0.155214 0.203899
0.581025 0.186321 0.227284
0.709038 0.242921 0.214417
0.827325 0.305562 0.206446
0.033775 0.194202 0.191388
0.082118 0.221281 0.197015
0.295644 0.218327 0.170934
0.376661 0.230459 0.181642
0.443132 0.256777 0.205532
0.524782 0.259846 0.233267
0.611114 0.273539 0.253406
0.724498 0.321474 0.264197
0.838974 0.371341 0.264931
0.042776 0.277501 0.218079
0.089583 0.302986 0.223280
0.226153 0.297519 0.235480
0.400598 0.314069 0.179017
0.476298 0.327089 0.192288
0.549657 0.361469 0.233864
0.641729 0.371341 0.270610
0.751512 0.401495 0.277915
0.845404 0.439991 0.297919
0.057210 0.347952 0.255818
0.106991 0.374159 0.280876
0.195406 0.378803 0.258904
0.396449 0.387651 0.231329
0.486016 0.400815 0.196787
0.574392 0.428721 0.227501
0.685032 0.466916 0.254125
0.782355 0.478065 0.277715
0.856081 0.499169 0.307300
0.079239 0.431498 0.294508
0.121648 0.456865 0.353131
0.204443 0.464825 0.344779
0.331278 0.478698 0.291666
0.506198 0.497863 0.227827
0.610606 0.524956 0.204374
0.707482 0.563476 0.231455
0.811075 0.568258 0.261140
0.864813 0.555914 0.323320
0.136178 0.505377 0.328129
0.160268 0.534805 0.412105
0.241001 0.561473 0.410288
0.371917 0.578796 0.350710
0.487730 0.614941 0.305235
0.626853 0.630143 0.255282
0.749897 0.642065 0.211808
0.831154 0.650739 0.268604
0.878354 0.629052 0.349102
0.172125 0.585458 0.379559
0.205438 0.612316 0.463926
0.256315 0.646207 0.492699
0.375121 0.663560 0.417987
0.510010 0.701141 0.326601
0.633490 0.723023 0.290048
0.743931 0.732501 0.279897
0.838935 0.721080 0.301179
0.885776 0.704737 0.381093
0.204659 0.675768 0.490229
0.251015 0.700122 0.544791
0.297041 0.724117 0.569760
0.360183 0.730790 0.565066
0.484284 0.724865 0.517909
0.652153 0.743415 0.423449
0.760594 0.767817 0.353063
0.855289 0.776097 0.337779
0.891653 0.771676 0.392266
0.048119 0.092054 0.243394
0.079348 0.099078 0.287630
0.183974 0.102145 0.256181
0.305261 0.102026 0.230016
0.359895 0.099728 0.211348
0.423172 0.109679 0.209036
0.540108 0.153839 0.232519
0.659951 0.185169 0.233743
0.786036 0.259484 0.234858
0.012267 0.163530 0.243241
0.036628 0.191168 0.289926
0.198490 0.171190 0.277676
0.358001 0.176464 0.255479
0.446236 0.191112 0.257976
0.521730 0.201302 0.261872
0.599833 0.227569 0.284373
0.705165 0.265320 0.303463
0.812569 0.321369 0.299535
0.012224 0.219357 0.272284
0.022878 0.261863 0.309720
0.127731 0.267153 0.330907
0.374465 0.269831 0.299868
0.460760 0.291148 0.307875
0.551441 0.292726 0.326082
0.639191 0.309385 0.339089
0.734047 0.345816 0.365209
0.825724 0.388297 0.368031
0.014151 0.273553 0.314007
0.061940 0.320846 0.340706
0.179222 0.334714 0.341351
0.409078 0.345415 0.285789
0.487827 0.366064 0.301309
0.568085 0.393937 0.338977
0.669274 0.402739 0.364630
0.753258 0.420742 0.392902
0.833717 0.450488 0.411543
0.054455 0.346160 0.341093
0.099547 0.395210 0.360008
0.171957 0.405328 0.373764
0.361995 0.408000 0.370195
0.515908 0.433067 0.302524
0.606876 0.459293 0.331620
0.687686 0.488143 0.373512
0.771427 0.486943 0.406616
0.845564 0.505697 0.428966
0.086521 0.445741 0.357553
0.131138 0.482601 0.399692
0.200078 0.500613 0.437048
0.310018 0.505748 0.404027
0.503129 0.515186 0.369315
0.633922 0.534843 0.332974
0.717395 0.549200 0.373664
0.791941 0.561575 0.411473
0.862786 0.562352 0.439365
0.147017 0.522396 0.376541
0.177956 0.556694 0.450064
0.235711 0.601854 0.498580
0.338851 0.616112 0.470465
0.462303 0.610159 0.432332
0.631008 0.622668 0.385834
0.737584 0.629321 0.373195
0.824833 0.638253 0.415764
0.878165 0.645428 0.456416
0.180810 0.608622 0.429426
0.217257 0.636067 0.508493
0.283946 0.680298 0.559586
0.377958 0.690293 0.535274
0.512347 0.689649 0.482028
0.635244 0.705721 0.454871
0.736941 0.725184 0.433887
0.818795 0.726554 0.435586
0.897365 0.719920 0.466112
0.213331 0.687596 0.529576
0.258497 0.712864 0.576261
0.320327 0.748405 0.616000
0.385372 0.756372 0.623647
0.509904 0.751905 0.587939
0.634997 0.759566 0.513050
0.752875 0.783304 0.467264
0.830681 0.806682 0.451450
0.896634 0.796543 0.476874
0.053699 0.104152 0.327452
0.089166 0.100529 0.377556
0.129257 0.103137 0.386907
0.215120 0.113061 0.356542
0.356155 0.129781 0.289971
0.433633 0.141440 0.252027
0.497374 0.150926 0.247927
0.658965 0.214534 0.284134
0.774541 0.279663 0.320013
0.015011 0.206473 0.303171
0.090506 0.177975 0.367752
0.180949 0.149641 0.406128
0.331140 0.177176 0.352636
0.449802 0.229899 0.332587
0.520300 0.245332 0.331491
0.615104 0.258871 0.332219
0.717927 0.294180 0.364557
0.804255 0.339346 0.386304
0.013481 0.256431 0.325417
0.023390 0.287624 0.368116
0.088997 0.299930 0.408042
0.334188 0.300229 0.397292
0.457454 0.313032 0.385498
0.557369 0.327086 0.395175
0.657865 0.340645 0.403710
0.749381 0.357807 0.433572
0.830026 0.398186 0.440579
0.013580 0.300502 0.358683
0.024828 0.337075 0.403014
0.102911 0.378384 0.433775
0.327364 0.374777 0.431660
0.475584 0.390176 0.405546
0.581018 0.421818 0.414570
0.694585 0.424752 0.434997
0.775310 0.436549 0.465602
0.848221 0.458444 0.477491
0.048937 0.366237 0.392896
0.098258 0.409022 0.430645
0.172062 0.444883 0.452469
0.341156 0.455150 0.445213
0.515481 0.458562 0.398491
0.616168 0.488667 0.413944
0.709857 0.502611 0.448994
0.790277 0.498777 0.480276
0.859778 0.514663 0.505921
0.092116 0.454738 0.418515
0.138574 0.499518 0.447904
0.203061 0.528786 0.482533
0.306662 0.540784 0.485671
0.481981 0.540209 0.464348
0.651861 0.557802 0.417865
0.731714 0.570204 0.455507
0.805417 0.576403 0.496014
0.877110 0.578352 0.518261
0.150432 0.532315 0.435945
0.188925 0.573186 0.486276
0.243765 0.621800 0.540657
0.339072 0.645755 0.553438
0.464586 0.638308 0.508127
0.629281 0.639502 0.476061
0.750607 0.649385 0.462634
0.823824 0.665818 0.503793
0.891748 0.673459 0.532114
0.186933 0.622580 0.478297
0.227335 0.653635 0.543735
0.295590 0.697845 0.601495
0.383269 0.715551 0.613543
0.517048 0.715209 0.573048
0.619598 0.716991 0.552000
0.740676 0.736066 0.526982
0.827720 0.748908 0.509921
0.917655 0.752391 0.539759
0.226173 0.701073 0.564270
0.275947 0.730964 0.612881
0.339155 0.765781 0.653367
0.413604 0.781447 0.679140
0.549957 0.779612 0.655843
0.661839 0.784231 0.594363
0.764589 0.810077 0.558427
0.839809 0.834399 0.535063
0.908338 0.826153 0.563309
0.067940 0.101712 0.416619
0.113184 0.103934 0.451434
0.164377 0.107994 0.455474
0.233030 0.112586 0.436668
0.339720 0.126733 0.387294
0.445776 0.157788 0.342063
0.526702 0.185356 0.307693
0.608147 0.210397 0.313526
0.763728 0.292883 0.391547
0.042875 0.216363 0.376265
0.109349 0.157105 0.446218
0.185916 0.144019 0.491804
0.261849 0.146934 0.488445
0.404564 0.186737 0.442262
0.519364 0.254951 0.402870
0.577916 0.254432 0.364105
0.714603 0.303556 0.412658
0.816330 0.357104 0.465717
0.014816 0.291915 0.385738
0.036579 0.311246 0.431303
0.191484 0.309863 0.470991
0.326310 0.296386 0.491267
0.451592 0.317069 0.458149
0.547207 0.357305 0.475610
0.660859 0.373035 0.479590
0.764163 0.381537 0.497637
0.840603 0.414255 0.504142
0.015180 0.341930 0.417633
0.042090 0.361227 0.467972
0.135685 0.408110 0.497854
0.277091 0.420781 0.523101
0.457198 0.414599 0.495243
0.579459 0.435062 0.494717
0.706325 0.446345 0.499748
0.787580 0.450852 0.525639
0.859440 0.468402 0.538470
0.058043 0.399232 0.438629
0.103464 0.432157 0.482992
0.165896 0.468171 0.519430
0.264321 0.508716 0.542542
0.461952 0.496634 0.526845
0.619677 0.512117 0.504933
0.732749 0.520894 0.523160
0.811815 0.515582 0.550393
0.878652 0.536292 0.582071
0.102858 0.476071 0.466738
0.144577 0.512327 0.511370
0.203214 0.554494 0.546271
0.301425 0.583704 0.565656
0.462890 0.581439 0.556827
0.651081 0.586490 0.506957
0.748835 0.598774 0.535635
0.823826 0.602984 0.573217
0.895721 0.606439 0.610233
0.156170 0.545479 0.500637
0.194342 0.586551 0.539168
0.250445 0.638294 0.580991
0.340877 0.664304 0.611633
0.453890 0.667688 0.599978
0.615246 0.663273 0.576150
0.757723 0.681013 0.547373
0.829786 0.699159 0.593104
0.906967 0.703540 0.636434
0.194368 0.630907 0.543615
0.238328 0.670236 0.584327
0.311351 0.713996 0.638254
0.386178 0.733958 0.673813
0.515182 0.747466 0.673734
0.636510 0.747387 0.639509
0.748156 0.761415 0.612431
0.842656 0.774919 0.603851
0.920133 0.787746 0.650927
0.241846 0.715488 0.603290
0.296345 0.750548 0.649251
0.357103 0.782776 0.695071
0.425682 0.801624 0.730546
0.563275 0.813072 0.742185
0.685387 0.819382 0.703983
0.775291 0.839294 0.680665
0.845887 0.858146 0.662443
0.923606 0.856848 0.660747
0.096291 0.114913 0.499673
0.159899 0.119302 0.517578
0.223231 0.122763 0.518438
0.282671 0.124858 0.503237
0.351038 0.134189 0.479380
0.448301 0.153209 0.440738
0.536404 0.188981 0.410793
0.629471 0.229408 0.417912
0.732968 0.285258 0.477407
0.058673 0.242215 0.456760
0.149006 0.174236 0.515983
0.246876 0.177979 0.559993
0.305981 0.176620 0.568286
0.365363 0.195272 0.559092
0.484725 0.226915 0.523217
0.590400 0.287619 0.483948
0.686887 0.314380 0.490626
0.793802 0.353370 0.522931
0.027864 0.339165 0.466856
0.110781 0.336112 0.504395
0.237578 0.299751 0.551897
0.323727 0.292850 0.593038
0.379645 0.292074 0.594655
0.524002 0.340756 0.568126
0.642825 0.379948 0.554063
0.732051 0.378053 0.537417
0.843668 0.425717 0.562657
0.057009 0.400420 0.483776
0.099802 0.420678 0.532810
0.199564 0.438414 0.567058
0.342676 0.434689 0.595836
0.429820 0.411998 0.618756
0.575338 0.431088 0.584885
0.699223 0.462947 0.595371
0.781506 0.461062 0.581995
0.871588 0.490398 0.606723
0.094581 0.454279 0.499096
0.137722 0.479545 0.547639
0.196197 0.508671 0.588459
0.283297 0.543322 0.625049
0.417590 0.547116 0.637399
0.601510 0.535001 0.616253
0.742009 0.539099 0.617140
0.826138 0.541284 0.623253
0.891094 0.562494 0.657044
0.124169 0.506429 0.520112
0.164062 0.542484 0.565352
0.221026 0.580267 0.603920
0.294429 0.609765 0.644802
0.377810 0.635679 0.667937
0.601960 0.628029 0.656151
0.759048 0.644633 0.636364
0.844109 0.644850 0.663753
0.916139 0.642623 0.698351
0.171227 0.570188 0.562133
0.208786 0.611288 0.599304
0.263925 0.653174 0.643069
0.342504 0.681696 0.679182
0.412709 0.703821 0.705384
0.616644 0.704195 0.689231
0.767960 0.721754 0.646675
0.850400 0.736041 0.688281
0.926001 0.738558 0.734382
0.207342 0.649192 0.613085
0.251667 0.687988 0.644874
0.316096 0.728991 0.687158
0.393130 0.754157 0.724064
0.470729 0.776295 0.761415
0.647062 0.784115 0.741383
0.759823 0.797314 0.719076
0.856456 0.810685 0.704187
0.929506 0.822401 0.755412
0.259443 0.730512 0.669845
0.316536 0.771258 0.700106
0.377990 0.801932 0.740232
0.443115 0.822632 0.782736
0.535050 0.844009 0.823323
0.659764 0.862831 0.823572
0.778735 0.870701 0.788306
0.856477 0.882465 0.770998
0.938553 0.883178 0.763804
0.130806 0.144345 0.584755
0.225434 0.143894 0.595082
0.287100 0.146547 0.594637
0.328959 0.152339 0.585348
0.373890 0.163932 0.574392
0.448581 0.175407 0.560183
0.549396 0.200681 0.517530
0.652893 0.249851 0.524523
0.758978 0.312891 0.587495
0.088074 0.304988 0.536093
0.229824 0.244394 0.608597
0.312798 0.236160 0.639938
0.364299 0.237000 0.653196
0.413128 0.259648 0.652179
0.509250 0.277672 0.633122
0.610366 0.312620 0.601349
0.720468 0.344163 0.601381
0.795559 0.367672 0.627735
0.102590 0.403733 0.556379
0.169324 0.392293 0.591378
0.301288 0.337409 0.645122
0.371882 0.340338 0.683061
0.423123 0.341220 0.701978
0.516952 0.347454 0.710764
0.655548 0.372512 0.658024
0.759406 0.402578 0.646481
0.824882 0.420188 0.653412
0.111591 0.467836 0.567805
0.160776 0.489146 0.610397
0.262179 0.472332 0.656516
0.366102 0.404293 0.699938
0.440959 0.394404 0.753342
0.525947 0.382350 0.773222
0.698983 0.422958 0.701816
0.788663 0.464951 0.679890
0.847413 0.478194 0.669150
0.132788 0.513515 0.579827
0.174636 0.545331 0.621028
0.236822 0.569181 0.659557
0.338800 0.572475 0.705231
0.450898 0.537362 0.750720
0.590450 0.474094 0.802294
0.742101 0.525098 0.726548
0.820795 0.573019 0.721331
0.884974 0.569925 0.711270
0.161151 0.554624 0.600352
0.198913 0.592796 0.639918
0.265887 0.624593 0.677835
0.328247 0.646583 0.721387
0.408814 0.669370 0.756138
0.599040 0.678933 0.766931
0.740509 0.676662 0.755465
0.849793 0.684149 0.758188
0.925892 0.684024 0.772648
0.189454 0.602696 0.635342
0.230104 0.644063 0.667647
0.298189 0.682182 0.705545
0.361345 0.705740 0.744741
0.416386 0.732376 0.787820
0.537102 0.759837 0.821332
0.732671 0.768530 0.813346
0.867064 0.780386 0.790712
0.944324 0.777943 0.820428
0.223860 0.673556 0.687350
0.280529 0.716819 0.717364
0.348350 0.752923 0.755355
0.405980 0.776870 0.794536
0.460461 0.803626 0.835464
0.570942 0.829472 0.871669
0.752794 0.838134 0.841358
0.870892 0.850738 0.802123
0.946959 0.857124 0.843555
0.287668 0.757721 0.745553
0.348808 0.796830 0.778523
0.402266 0.824779 0.811881
0.459727 0.846396 0.840546
0.547113 0.868048 0.875820
0.630063 0.890756 0.909462
0.762688 0.907348 0.891753
0.872652 0.912833 0.862619
0.954946 0.909915 0.856432
0.185345 0.197355 0.684682
0.285552 0.181396 0.694403
0.347360 0.190961 0.694718
0.382183 0.199773 0.686958
0.417481 0.212244 0.683872
0.477913 0.225696 0.681564
0.609408 0.247384 0.641934
0.699268 0.290034 0.638460
0.793575 0.339347 0.681580
0.137379 0.362165 0.645832
0.301699 0.313469 0.715173
0.374985 0.290015 0.737947
0.424490 0.287269 0.755945
0.467617 0.304778 0.776719
0.543817 0.311349 0.775396
0.669681 0.333439 0.724992
0.753811 0.352515 0.703637
0.821554 0.369832 0.722652
0.148001 0.464007 0.665352
0.251396 0.422896 0.720100
0.374729 0.387723 0.769745
0.434153 0.375603 0.786570
0.486343 0.369008 0.828891
0.583447 0.362547 0.833372
0.718880 0.369420 0.788422
0.786873 0.383940 0.772195
0.848136 0.403522 0.780777
0.154891 0.528892 0.667668
0.231208 0.531011 0.714487
0.345740 0.488503 0.778578
0.429954 0.433143 0.824676
0.502571 0.427239 0.868481
0.619730 0.396810 0.885300
0.752150 0.393693 0.850549
0.816785 0.416767 0.829499
0.872015 0.468581 0.836785
0.171636 0.569022 0.678737
0.230361 0.597788 0.714857
0.317054 0.611674 0.754588
0.407221 0.586079 0.815886
0.488696 0.529140 0.882396
0.634874 0.506748 0.926251
0.759881 0.485657 0.904711
0.838010 0.525172 0.870781
0.898803 0.562862 0.859602
0.194877 0.606778 0.696750
0.247106 0.646235 0.731221
0.324266 0.675592 0.763060
0.379839 0.697880 0.801355
0.476214 0.708368 0.850941
0.632978 0.696429 0.887836
0.769192 0.661293 0.893399
0.859402 0.678874 0.863906
0.922215 0.707974 0.860519
0.218979 0.654004 0.725303
0.278257 0.697633 0.756481
0.356632 0.729219 0.787169
0.405310 0.753521 0.825667
0.470883 0.777376 0.866612
0.624320 0.796973 0.896588
0.762045 0.813517 0.894147
0.861064 0.805538 0.890301
0.949180 0.812116 0.895050
0.253119 0.710722 0.762703
0.325811 0.755189 0.792987
0.394600 0.784530 0.823426
0.438045 0.807685 0.855763
0.511019 0.832156 0.888193
0.619188 0.855571 0.919256
0.741374 0.873972 0.931081
0.861922 0.886025 0.922131
0.961497 0.886918 0.917897
0.329455 0.796209 0.818236
0.391112 0.826463 0.844058
0.440316 0.850276 0.869334
0.514001 0.868599 0.891849
0.583116 0.888942 0.915414
0.655001 0.910906 0.942638
0.753587 0.929569 0.953442
0.885935 0.939886 0.935271
0.967637 0.941531 0.928978
0.278229 0.278198 0.785248
0.371336 0.232052 0.778083
0.429811 0.247839 0.788078
0.470839 0.261961 0.812291
0.505458 0.270119 0.843056
0.574520 0.266250 0.858052
0.685934 0.304719 0.812210
0.764514 0.334616 0.790744
0.832764 0.347137 0.799469
0.238093 0.403404 0.795558
0.373013 0.372784 0.817608
0.446016 0.320788 0.838858
0.494947 0.320829 0.867646
0.538212 0.314040 0.901138
0.636236 0.319655 0.890263
0.719919 0.347430 0.843361
0.797864 0.362768 0.827559
0.854675 0.375618 0.846021
0.226215 0.477444 0.805002
0.354146 0.460837 0.841523
0.435869 0.431396 0.856103
0.502975 0.401874 0.889817
0.583365 0.367501 0.927634
0.685060 0.370196 0.913360
0.767702 0.385195 0.881224
0.826511 0.400163 0.880566
0.874080 0.432042 0.886510
0.220732 0.560907 0.793105
0.337110 0.557296 0.832555
0.422803 0.545612 0.870421
0.494844 0.506321 0.914313
0.601455 0.459845 0.944515
0.712050 0.432018 0.942148
0.806004 0.440716 0.919146
0.855817 0.468280 0.918728
0.898486 0.501568 0.915605
0.228150 0.620219 0.786631
0.327631 0.638861 0.818200
0.409270 0.649074 0.852013
0.476204 0.654166 0.893401
0.605051 0.623905 0.935213
0.725561 0.577671 0.952202
0.825358 0.560282 0.942237
0.882146 0.579851 0.930410
0.924133 0.609406 0.922226
0.245840 0.671910 0.792517
0.333051 0.703136 0.819416
0.403130 0.724182 0.850941
0.462592 0.744093 0.882323
0.593539 0.754110 0.908019
0.708415 0.737462 0.930454
0.833221 0.703875 0.931014
0.896676 0.702302 0.928438
0.940587 0.726792 0.923549
0.275956 0.718882 0.816252
0.354335 0.752478 0.842571
0.413378 0.778619 0.871182
0.456653 0.802577 0.898122
0.560993 0.823659 0.920049
0.679090 0.837665 0.939838
0.804337 0.835336 0.940443
0.898242 0.804316 0.941082
0.953939 0.813232 0.945185
0.318582 0.773692 0.847938
0.392775 0.804501 0.870482
0.442783 0.828914 0.893490
0.506443 0.849763 0.914786
0.580253 0.870483 0.935272
0.666908 0.890342 0.955481
0.779327 0.906500 0.963192
0.886560 0.913988 0.960379
0.956460 0.900362 0.964879
0.375153 0.828735 0.877228
0.433633 0.853809 0.898558
0.506165 0.872440 0.916480
0.564042 0.889343 0.931968
0.623549 0.908852 0.947985
0.687223 0.929358 0.967520
0.783429 0.946020 0.974828
0.887955 0.956378 0.971402
0.961578 0.963898 0.979279
