nova/tdt-studio/app/Lut_mau/Neumann Films LUTs/Neumann Films - Sony SLog - COOL HAND.cube
# Generated by FilmConvert
# Date: 2015/05/13
# Time 18:58:44
TITLE "Cool Hand.cube"
LUT_3D_SIZE 9
0.089338 0.052695 0.043322
0.190359 0.012468 0.031686
0.151207 0.006489 0.035844
0.216985 0.041488 0.022928
0.354405 0.074060 0.017018
0.532916 0.043702 0.000214
0.742410 0.006796 0.000214
0.941935 0.000214 0.000214
0.999969 0.000214 0.000214
0.073905 0.137207 0.010296
0.121910 0.138777 0.015549
0.150016 0.094759 0.027470
0.219971 0.071033 0.023472
0.348918 0.085682 0.022465
0.548771 0.095390 0.000214
0.783516 0.106485 0.000214
0.999969 0.103899 0.000214
0.999969 0.184025 0.000214
0.112013 0.160233 0.029955
0.116349 0.170204 0.070404
0.168612 0.171523 0.066927
0.214222 0.172462 0.042506
0.360114 0.176669 0.053508
0.599711 0.202708 0.035683
0.864870 0.251835 0.003537
0.999969 0.314202 0.000214
0.999969 0.380180 0.000214
0.112677 0.278740 0.094197
0.185494 0.283147 0.036859
0.183926 0.302305 0.037240
0.278662 0.315736 0.056010
0.433414 0.352003 0.019024
0.632932 0.386854 0.000214
0.855649 0.439012 0.000214
0.999969 0.503107 0.000214
0.999969 0.547434 0.000214
0.077153 0.462124 0.053998
0.219307 0.475100 0.000214
0.226172 0.492187 0.000214
0.326784 0.525008 0.000214
0.506453 0.563253 0.000214
0.709963 0.588139 0.000214
0.887545 0.620878 0.000214
0.999969 0.657608 0.000214
0.999969 0.697917 0.000214
0.036917 0.623441 0.000214
0.191690 0.644848 0.000214
0.275793 0.682621 0.000214
0.373968 0.724191 0.000214
0.583806 0.739365 0.000214
0.767877 0.748102 0.000214
0.909469 0.758984 0.000214
0.995274 0.789839 0.001877
0.999969 0.806166 0.172197
0.004071 0.772479 0.000214
0.163829 0.800127 0.000214
0.300916 0.845414 0.000214
0.423564 0.880825 0.000214
0.626811 0.876661 0.028583
0.809525 0.858935 0.120299
0.917293 0.852058 0.064021
0.976767 0.858753 0.063712
0.999969 0.877849 0.208715
0.000214 0.914040 0.000214
0.137983 0.941494 0.000214
0.297373 0.980876 0.000214
0.450926 0.998316 0.035061
0.625852 0.983587 0.176941
0.780235 0.957636 0.287659
0.886544 0.933296 0.314861
0.931692 0.907691 0.313220
0.978477 0.903408 0.344642
0.000214 0.999969 0.000214
0.113478 0.999969 0.000214
0.275728 0.999969 0.037076
0.428200 0.999969 0.283499
0.589498 0.999969 0.307591
0.738409 0.999969 0.336464
0.843022 0.999969 0.356204
0.885019 0.999969 0.368911
0.946734 0.988108 0.360133
0.067677 0.029290 0.243850
0.168843 0.002405 0.191167
0.132072 0.027568 0.076931
0.214975 0.019786 0.086424
0.353379 0.037751 0.087049
0.592600 0.043759 0.093084
0.828572 0.013754 0.067994
0.999969 0.000214 0.038621
0.999969 0.000214 0.017658
0.076447 0.107457 0.150253
0.127696 0.115926 0.134521
0.167153 0.089706 0.120063
0.193711 0.091538 0.098967
0.335149 0.091730 0.060143
0.572874 0.094526 0.063318
0.811983 0.089108 0.031469
0.999969 0.062394 0.000214
0.999969 0.056958 0.000214
0.092380 0.165912 0.105233
0.126525 0.183251 0.112834
0.150550 0.177523 0.129200
0.208865 0.164696 0.123873
0.356263 0.169231 0.108154
0.572696 0.192825 0.095334
0.827476 0.209760 0.042210
0.999969 0.232190 0.013175
0.999969 0.260054 0.002197
0.076374 0.266678 0.134935
0.175144 0.281274 0.146092
0.199983 0.304780 0.152573
0.280056 0.306935 0.125014
0.425355 0.352011 0.093473
0.613179 0.387158 0.088920
0.830626 0.426882 0.108392
0.999969 0.486557 0.105042
0.999969 0.549009 0.098724
0.064291 0.466730 0.160969
0.194932 0.488806 0.132221
0.280881 0.507123 0.081198
0.351632 0.521422 0.070238
0.527366 0.564653 0.080215
0.718791 0.604504 0.084936
0.882317 0.631579 0.102371
0.973594 0.669223 0.105076
0.999969 0.719407 0.113222
0.037676 0.650624 0.120765
0.194589 0.682961 0.080612
0.357723 0.706145 0.043526
0.427711 0.714308 0.034312
0.574160 0.733888 0.052929
0.756952 0.763976 0.119928
0.908353 0.781273 0.146198
0.968905 0.799164 0.220473
0.999969 0.818361 0.270379
0.006154 0.810010 0.080723
0.180391 0.848186 0.035091
0.366250 0.866372 0.037125
0.516265 0.866068 0.096850
0.626619 0.873812 0.144728
0.786106 0.868795 0.287310
0.897442 0.861355 0.324626
0.953191 0.876898 0.259848
0.992626 0.893588 0.399456
0.000214 0.948408 0.046440
0.166706 0.981625 0.031628
0.371454 0.990523 0.098528
0.553960 0.976207 0.216000
0.640929 0.964897 0.368122
0.747485 0.934656 0.514238
0.882665 0.907904 0.546619
0.921546 0.902371 0.485239
0.967262 0.906617 0.488727
0.000214 0.999969 0.020615
0.144561 0.999969 0.023087
0.351121 0.999969 0.230323
0.490873 0.999969 0.408071
0.574940 0.999969 0.511130
0.699653 0.999969 0.543528
0.845076 0.999969 0.538963
0.887688 0.992311 0.517076
0.940801 0.983435 0.490222
0.112854 0.006161 0.166125
0.112508 0.005328 0.209425
0.137097 0.008520 0.155221
0.221416 0.018467 0.148032
0.342364 0.001329 0.141349
0.599312 0.000214 0.198833
0.882170 0.000214 0.247377
0.999969 0.000214 0.236527
0.999969 0.000214 0.222589
0.119021 0.080778 0.150704
0.122264 0.092519 0.206949
0.155374 0.100449 0.155565
0.210701 0.105014 0.129581
0.340554 0.091398 0.124904
0.587861 0.071764 0.116829
0.867547 0.079916 0.177933
0.999969 0.075978 0.197559
0.999969 0.057847 0.194293
0.100032 0.158729 0.161353
0.133156 0.163035 0.198848
0.147872 0.166952 0.184049
0.242033 0.158134 0.173473
0.378188 0.163846 0.153202
0.582291 0.169629 0.129699
0.839681 0.182410 0.149457
0.999969 0.203179 0.167581
0.999969 0.207800 0.162283
0.112904 0.261076 0.156263
0.164496 0.280529 0.190249
0.195358 0.296430 0.183377
0.257807 0.301345 0.186958
0.427272 0.331658 0.168612
0.625629 0.373860 0.199210
0.829106 0.407301 0.223443
0.993824 0.410176 0.206880
0.999969 0.438048 0.213082
0.134063 0.444988 0.146342
0.184184 0.486433 0.209260
0.282822 0.509676 0.208793
0.354256 0.520734 0.227125
0.507428 0.533366 0.200518
0.702705 0.595082 0.241168
0.868758 0.641521 0.293196
0.971434 0.667478 0.323729
0.999969 0.710146 0.367519
0.109858 0.639657 0.159997
0.212396 0.697319 0.237178
0.353391 0.714428 0.240557
0.460910 0.725102 0.262273
0.592872 0.736334 0.252521
0.776956 0.760109 0.311428
0.897101 0.804259 0.388513
0.961849 0.822329 0.435566
0.975680 0.827849 0.451635
0.049783 0.823359 0.192991
0.204963 0.867796 0.253524
0.389668 0.867645 0.297511
0.568970 0.855178 0.357466
0.666266 0.875418 0.332942
0.798061 0.885013 0.340816
0.895912 0.892969 0.485256
0.937351 0.896629 0.513244
0.969966 0.882456 0.534424
0.015286 0.972694 0.201288
0.210647 0.994853 0.306327
0.412188 0.980085 0.391279
0.604924 0.956858 0.457457
0.743784 0.948439 0.480246
0.770215 0.962629 0.488529
0.856615 0.925902 0.630383
0.914741 0.913209 0.628463
0.958165 0.919984 0.586707
0.000214 0.999969 0.199279
0.204747 0.999969 0.319594
0.424418 0.999969 0.453443
0.603112 0.999969 0.499684
0.723087 0.999969 0.559504
0.704221 0.999969 0.656163
0.806060 0.999969 0.680974
0.900593 0.990133 0.643703
0.940507 0.984610 0.576136
0.122665 0.005614 0.164648
0.181357 0.001191 0.215503
0.106934 0.042087 0.257847
0.220028 0.064535 0.223260
0.365853 0.012030 0.278700
0.572553 0.000214 0.321933
0.880233 0.000214 0.398719
0.999969 0.000214 0.426600
0.999969 0.000214 0.436605
0.101260 0.109922 0.195024
0.167248 0.084711 0.198376
0.137398 0.093408 0.259467
0.219857 0.126589 0.245607
0.366341 0.107922 0.264417
0.575405 0.050602 0.272072
0.865625 0.016736 0.318755
0.999969 0.051749 0.380771
0.999969 0.086461 0.417211
0.097160 0.164907 0.235624
0.145237 0.166436 0.217555
0.149340 0.156445 0.254781
0.237577 0.173870 0.274413
0.412358 0.182657 0.291648
0.606083 0.172714 0.297457
0.841260 0.149822 0.299637
0.999969 0.171954 0.338418
0.999969 0.243487 0.400357
0.111145 0.269113 0.285436
0.169269 0.294164 0.313455
0.193629 0.300180 0.318800
0.253510 0.303867 0.333128
0.452069 0.338060 0.341952
0.659751 0.356186 0.362119
0.824993 0.348217 0.378954
0.976285 0.374667 0.406554
0.999969 0.440964 0.434395
0.145823 0.470103 0.353045
0.214694 0.493763 0.375460
0.259686 0.508355 0.386942
0.342637 0.523472 0.381976
0.478568 0.537333 0.382484
0.695098 0.581925 0.420280
0.854330 0.619551 0.478104
0.952539 0.651398 0.545820
0.994342 0.671978 0.559970
0.116625 0.652801 0.373196
0.239834 0.692735 0.434769
0.339755 0.717664 0.456655
0.457094 0.727228 0.467641
0.571119 0.737008 0.495321
0.731060 0.740041 0.497819
0.859629 0.801381 0.554999
0.927117 0.840331 0.641179
0.976352 0.838686 0.696599
0.073262 0.821213 0.391549
0.226759 0.869368 0.497702
0.401515 0.867284 0.545731
0.554023 0.854640 0.561222
0.676013 0.878551 0.617985
0.792677 0.876684 0.607942
0.902197 0.872355 0.652477
0.914725 0.906741 0.734415
0.966820 0.901053 0.722836
0.051082 0.986699 0.450741
0.247533 0.998768 0.575349
0.438441 0.967611 0.637174
0.614797 0.941350 0.677296
0.763310 0.933832 0.697260
0.814274 0.974202 0.684458
0.875082 0.951982 0.684385
0.917457 0.932157 0.782660
0.954969 0.922709 0.718549
0.045850 0.999969 0.479486
0.256782 0.999969 0.608269
0.438834 0.999969 0.673508
0.608236 0.999969 0.697749
0.770020 0.999969 0.708224
0.841189 0.999969 0.713237
0.820601 0.999969 0.724790
0.885878 0.999969 0.760005
0.939279 0.989391 0.681332
0.110071 0.002083 0.380585
0.218750 0.000214 0.384809
0.129764 0.038614 0.424906
0.220735 0.049296 0.437155
0.388646 0.012950 0.464338
0.574487 0.000214 0.514771
0.831186 0.000214 0.544231
0.999969 0.000214 0.585991
0.999969 0.000214 0.635691
0.059785 0.120996 0.362999
0.170368 0.091222 0.376436
0.204761 0.085963 0.421615
0.212946 0.155022 0.447182
0.376966 0.151225 0.490975
0.574693 0.100595 0.537932
0.826437 0.025230 0.561147
0.999969 0.007403 0.582708
0.999969 0.072081 0.622277
0.059645 0.178421 0.414369
0.128257 0.199964 0.414834
0.190926 0.185346 0.456339
0.252775 0.197328 0.487274
0.414638 0.254351 0.551870
0.619982 0.237996 0.578664
0.812949 0.199795 0.590987
0.999969 0.169042 0.593448
0.999969 0.233872 0.628310
0.100817 0.297054 0.510287
0.155825 0.315325 0.519663
0.207047 0.339854 0.549732
0.280995 0.342873 0.561960
0.430325 0.361955 0.589828
0.662721 0.384169 0.621913
0.819812 0.383590 0.639638
0.952379 0.370256 0.639835
0.999969 0.434259 0.672375
0.152264 0.502096 0.594688
0.208073 0.503414 0.598354
0.265562 0.527020 0.619402
0.359583 0.554828 0.627705
0.473062 0.545593 0.610984
0.691873 0.593758 0.654487
0.856655 0.631916 0.705812
0.922160 0.621086 0.721754
0.970159 0.637084 0.715263
0.142167 0.686884 0.624082
0.265473 0.721483 0.680004
0.356814 0.733892 0.703056
0.450948 0.752501 0.707257
0.563011 0.752372 0.681520
0.708722 0.773444 0.703130
0.861788 0.830974 0.768117
0.927661 0.850831 0.819543
0.967119 0.818783 0.803729
0.110656 0.856220 0.649526
0.272829 0.893710 0.754728
0.442970 0.888818 0.776287
0.542810 0.886922 0.769530
0.676185 0.883266 0.795334
0.776282 0.890838 0.807042
0.891792 0.908871 0.820285
0.911817 0.950304 0.864758
0.964804 0.941443 0.890385
0.107622 0.999969 0.699897
0.299804 0.999969 0.784851
0.482738 0.987713 0.798493
0.614450 0.952967 0.823601
0.744740 0.933869 0.850753
0.833860 0.948450 0.878146
0.900072 0.952631 0.859578
0.927465 0.933388 0.880244
0.960311 0.945021 0.872196
0.125505 0.999969 0.748520
0.313381 0.999969 0.795369
0.476236 0.999969 0.813156
0.610897 0.999969 0.847505
0.750624 0.999969 0.860841
0.867123 0.999969 0.855165
0.889997 0.999969 0.867819
0.898728 0.999969 0.857826
0.943361 0.994968 0.789961
0.088585 0.000214 0.577971
0.191702 0.000214 0.593589
0.218503 0.000214 0.642195
0.235647 0.018093 0.655771
0.407118 0.000214 0.705276
0.615757 0.000214 0.793338
0.838840 0.000214 0.855723
0.999969 0.000214 0.861010
0.999969 0.000214 0.865840
0.023784 0.104844 0.570310
0.139816 0.086955 0.610345
0.253502 0.090855 0.675496
0.262996 0.144180 0.694220
0.405481 0.160092 0.745617
0.615107 0.164580 0.823676
0.823434 0.133579 0.866516
0.999969 0.071709 0.865879
0.999969 0.063759 0.849470
0.015075 0.201771 0.617385
0.090588 0.240880 0.650278
0.217148 0.248228 0.709379
0.309173 0.245572 0.748882
0.422914 0.306375 0.790701
0.618686 0.325851 0.845143
0.813899 0.293591 0.871630
0.971489 0.252429 0.872162
0.999969 0.245552 0.864337
0.080327 0.325163 0.735552
0.124770 0.359447 0.748654
0.199700 0.382471 0.767524
0.308007 0.386307 0.791272
0.443804 0.402794 0.815304
0.644151 0.456657 0.863386
0.816123 0.461943 0.879196
0.925893 0.449991 0.885973
0.999969 0.443179 0.876230
0.131414 0.528335 0.800636
0.211828 0.548671 0.822958
0.274179 0.546543 0.822294
0.382323 0.585718 0.850451
0.507925 0.594269 0.847856
0.653878 0.608534 0.855882
0.823924 0.649498 0.885748
0.902448 0.648097 0.907221
0.948399 0.634653 0.890458
0.158999 0.731779 0.852513
0.317432 0.754420 0.884126
0.369383 0.730933 0.866890
0.489587 0.771593 0.887105
0.611564 0.789249 0.877429
0.727830 0.793072 0.873779
0.862719 0.837053 0.918365
0.932414 0.863490 0.957896
0.954470 0.797416 0.906112
0.195121 0.912026 0.889971
0.369379 0.909827 0.908636
0.487377 0.880309 0.921653
0.597479 0.902540 0.935234
0.699237 0.912621 0.930595
0.792324 0.920752 0.913639
0.886248 0.944946 0.939610
0.934447 0.969713 0.963308
0.973432 0.931435 0.946070
0.202988 0.999969 0.884016
0.368621 0.999969 0.910864
0.521395 0.979842 0.924876
0.661579 0.960644 0.923850
0.738956 0.966037 0.940704
0.837105 0.950749 0.949905
0.912046 0.966619 0.964084
0.940141 0.971221 0.956849
0.968176 0.964497 0.939465
0.210539 0.999969 0.895715
0.361194 0.999969 0.912824
0.507927 0.999969 0.913473
0.645700 0.999969 0.906814
0.738092 0.999969 0.937307
0.834155 0.999969 0.949380
0.916910 0.999969 0.955653
0.940705 0.999969 0.948532
0.948259 0.999969 0.868268
0.069610 0.000214 0.760001
0.171811 0.000214 0.795581
0.267989 0.000214 0.876149
0.303665 0.000214 0.896847
0.438425 0.000214 0.937921
0.662102 0.011934 0.999969
0.870705 0.021597 0.999969
0.999969 0.009609 0.999969
0.999969 0.000214 0.999969
0.000214 0.094222 0.775656
0.116113 0.091891 0.844524
0.252942 0.106254 0.921991
0.351598 0.133495 0.952443
0.451994 0.168823 0.980003
0.654293 0.183876 0.999969
0.851692 0.191714 0.999969
0.999969 0.180884 0.999969
0.999969 0.168781 0.999969
0.000214 0.220253 0.824925
0.065582 0.267045 0.889406
0.212179 0.281905 0.940854
0.361102 0.290599 0.977639
0.472115 0.325514 0.999969
0.644947 0.347541 0.999969
0.830843 0.354848 0.999969
0.970068 0.346734 0.999969
0.999969 0.339761 0.999969
0.034999 0.354747 0.918514
0.072873 0.416963 0.942537
0.187747 0.441152 0.961235
0.339840 0.446066 0.983443
0.490657 0.452077 0.999969
0.645108 0.496930 0.999969
0.806883 0.520515 0.999969
0.913637 0.525473 0.999969
0.975467 0.516083 0.999969
0.105407 0.552174 0.977766
0.201258 0.590153 0.999969
0.282238 0.589344 0.990963
0.378918 0.599600 0.985240
0.531672 0.629061 0.999741
0.665642 0.643047 0.998601
0.805303 0.690047 0.989269
0.889372 0.713562 0.999969
0.933489 0.704878 0.999969
0.208002 0.774601 0.999969
0.346261 0.779442 0.999969
0.407523 0.764255 0.994156
0.514800 0.782376 0.990928
0.665728 0.828331 0.998875
0.773706 0.832744 0.994359
0.851475 0.833954 0.996360
0.925277 0.862794 0.999969
0.930843 0.809298 0.993266
0.263566 0.924937 0.999969
0.441804 0.913579 0.999969
0.548923 0.893310 0.992434
0.623752 0.909322 0.993843
0.753732 0.929733 0.999627
0.835646 0.938236 0.996601
0.895680 0.942525 0.996679
0.943087 0.949080 0.999969
0.965319 0.915419 0.996895
0.266417 0.999969 0.998000
0.444220 0.999969 0.982146
0.590930 0.989535 0.974423
0.681162 0.962479 0.989465
0.771190 0.966136 0.995535
0.849796 0.972003 0.993127
0.911450 0.979781 0.993042
0.943404 0.987287 0.993392
0.974217 0.975812 0.981634
0.271371 0.999969 0.990484
0.432756 0.999969 0.977739
0.554684 0.999969 0.975091
0.649938 0.999969 0.983825
0.750982 0.999969 0.978141
0.831467 0.999969 0.984218
0.903845 0.999969 0.995622
0.959910 0.999969 0.994702
0.955161 0.999969 0.924897
0.054383 0.000214 0.930863
0.162629 0.000214 0.973334
0.274802 0.000214 0.999969
0.374358 0.000214 0.999969
0.496419 0.005306 0.999969
0.697629 0.029809 0.999969
0.890324 0.051018 0.999969
0.999969 0.082007 0.999969
0.999969 0.108666 0.999969
0.000214 0.092037 0.962677
0.104756 0.104133 0.999969
0.244790 0.125726 0.999969
0.393386 0.144496 0.999969
0.515304 0.174503 0.999969
0.682636 0.198029 0.999969
0.862575 0.215993 0.999969
0.999969 0.244510 0.999969
0.999969 0.268406 0.999969
0.000214 0.237622 0.999969
0.055592 0.286942 0.999969
0.207659 0.303847 0.999969
0.375069 0.313899 0.999969
0.531636 0.332995 0.999969
0.668608 0.362021 0.999969
0.829067 0.381388 0.999969
0.967418 0.406275 0.999969
0.999969 0.422193 0.999969
0.000214 0.386207 0.999969
0.048346 0.452056 0.999969
0.183435 0.470583 0.999969
0.356794 0.478500 0.999969
0.541060 0.490505 0.999969
0.667298 0.518444 0.999969
0.784810 0.548996 0.999969
0.916605 0.572293 0.999969
0.999969 0.577136 0.999969
0.087970 0.580984 0.999969
0.174292 0.624397 0.999969
0.266134 0.634212 0.999969
0.378934 0.637340 0.999969
0.553273 0.654396 0.999969
0.710963 0.669448 0.999969
0.791198 0.715652 0.999969
0.890422 0.743258 0.999969
0.967014 0.737333 0.999969
0.224173 0.783722 0.999969
0.335635 0.795926 0.999969
0.429454 0.796278 0.999969
0.508211 0.793949 0.999969
0.622327 0.807959 0.999969
0.773354 0.832380 0.999969
0.854310 0.838016 0.999969
0.924969 0.874141 0.999969
0.944932 0.854986 0.999969
0.289246 0.920654 0.999969
0.451123 0.907920 0.999969
0.554163 0.905621 0.999969
0.644108 0.910183 0.999969
0.757737 0.929590 0.999969
0.856350 0.944606 0.999969
0.907590 0.941642 0.999969
0.945525 0.940518 0.999969
0.956279 0.914530 0.999969
0.282494 0.999969 0.999969
0.453801 0.999969 0.999969
0.605467 0.985761 0.999969
0.716927 0.968620 0.999969
0.788815 0.970444 0.999969
0.862303 0.973464 0.999969
0.916849 0.978576 0.999969
0.944840 0.981402 0.999969
0.977059 0.968459 0.999969
0.277401 0.999969 0.999969
0.438617 0.999969 0.999969
0.583862 0.999969 0.999969
0.704861 0.999969 0.999969
0.780405 0.999969 0.999969
0.841244 0.999969 0.999969
0.910785 0.999969 0.999969
0.951594 0.999969 0.999969
0.968411 0.999969 0.975205
0.042806 0.000214 0.999969
0.162932 0.000214 0.999969
0.277197 0.000214 0.999969
0.400956 0.000214 0.999969
0.562113 0.015504 0.999969
0.746579 0.058267 0.999969
0.890206 0.084281 0.999969
0.999969 0.125882 0.999969
0.999969 0.153400 0.999969
0.000214 0.091931 0.999969
0.106677 0.104431 0.999969
0.244886 0.133866 0.999969
0.410564 0.161110 0.999969
0.587003 0.188484 0.999969
0.727365 0.219980 0.999969
0.853932 0.245216 0.999969
0.981457 0.282374 0.999969
0.999969 0.308271 0.999969
0.000214 0.251175 0.999969
0.057338 0.299589 0.999969
0.215945 0.323932 0.999969
0.395004 0.335649 0.999969
0.580146 0.349933 0.999969
0.710883 0.379193 0.999969
0.810307 0.410214 0.999969
0.942954 0.436931 0.999969
0.999969 0.461711 0.999969
0.000214 0.417451 0.999969
0.056870 0.471729 0.999969
0.200414 0.490917 0.999969
0.381373 0.499858 0.999969
0.568796 0.510561 0.999969
0.716799 0.532964 0.999969
0.763248 0.576177 0.999969
0.898235 0.596446 0.999969
0.999969 0.614103 0.999969
0.082209 0.606174 0.999969
0.148315 0.646369 0.999969
0.235328 0.656913 0.999969
0.380078 0.660744 0.999969
0.560917 0.670399 0.999969
0.749079 0.681846 0.999969
0.784859 0.725124 0.999969
0.860431 0.757007 0.999969
0.999969 0.756705 0.999969
0.203844 0.792549 0.999969
0.294894 0.807989 0.999969
0.407915 0.809047 0.999969
0.500546 0.814404 0.999969
0.596169 0.811567 0.999969
0.773767 0.824158 0.999969
0.887588 0.839088 0.999969
0.891718 0.868906 0.999969
0.989447 0.861694 0.999969
0.274414 0.919104 0.999969
0.412857 0.912260 0.999969
0.523651 0.912955 0.999969
0.636130 0.910807 0.999969
0.729186 0.914005 0.999969
0.831123 0.925162 0.999969
0.912753 0.932507 0.999969
0.961984 0.930869 0.999969
0.974696 0.937948 0.999969
0.279743 0.999969 0.999969
0.440232 0.999969 0.999969
0.581203 0.982923 0.999969
0.686172 0.972700 0.999969
0.778815 0.966142 0.999969
0.865935 0.966227 0.999969
0.932428 0.978675 0.999969
0.959614 0.980745 0.999969
0.993232 0.968940 0.999969
0.255235 0.999969 0.999969
0.411593 0.999969 0.999969
0.560414 0.999969 0.999969
0.687946 0.999969 0.999969
0.779409 0.999969 0.999969
0.854440 0.999969 0.999969
0.929107 0.999969 0.999969
0.943695 0.999969 0.999969
0.981257 0.999969 0.999969
