nova/tdt-studio/app/Lut_mau/Neumann Films LUTs/Neumann Films - Sony SLog - COOL HAND.cube
# Generated by FilmConvert
# Date: 2015/05/13
# Time 18:58:44
TITLE "Cool Hand.cube"
LUT_3D_SIZE 5
0.089338 0.052695 0.043322
0.151207 0.006489 0.035844
0.354405 0.074060 0.017018
0.742410 0.006796 0.000214
0.999969 0.000214 0.000214
0.112013 0.160233 0.029955
0.168612 0.171523 0.066927
0.360114 0.176669 0.053508
0.864870 0.251835 0.003537
0.999969 0.380180 0.000214
0.077153 0.462124 0.053998
0.226172 0.492187 0.000214
0.506453 0.563253 0.000214
0.887545 0.620878 0.000214
0.999969 0.697917 0.000214
0.004071 0.772479 0.000214
0.300916 0.845414 0.000214
0.626811 0.876661 0.028583
0.917293 0.852058 0.064021
0.999969 0.877849 0.208715
0.000214 0.999969 0.000214
0.275728 0.999969 0.037076
0.589498 0.999969 0.307591
0.843022 0.999969 0.356204
0.946734 0.988108 0.360133
0.112854 0.006161 0.166125
0.137097 0.008520 0.155221
0.342364 0.001329 0.141349
0.882170 0.000214 0.247377
0.999969 0.000214 0.222589
0.100032 0.158729 0.161353
0.147872 0.166952 0.184049
0.378188 0.163846 0.153202
0.839681 0.182410 0.149457
0.999969 0.207800 0.162283
0.134063 0.444988 0.146342
0.282822 0.509676 0.208793
0.507428 0.533366 0.200518
0.868758 0.641521 0.293196
0.999969 0.710146 0.367519
0.049783 0.823359 0.192991
0.389668 0.867645 0.297511
0.666266 0.875418 0.332942
0.895912 0.892969 0.485256
0.969966 0.882456 0.534424
0.000214 0.999969 0.199279
0.424418 0.999969 0.453443
0.723087 0.999969 0.559504
0.806060 0.999969 0.680974
0.940507 0.984610 0.576136
0.110071 0.002083 0.380585
0.129764 0.038614 0.424906
0.388646 0.012950 0.464338
0.831186 0.000214 0.544231
0.999969 0.000214 0.635691
0.059645 0.178421 0.414369
0.190926 0.185346 0.456339
0.414638 0.254351 0.551870
0.812949 0.199795 0.590987
0.999969 0.233872 0.628310
0.152264 0.502096 0.594688
0.265562 0.527020 0.619402
0.473062 0.545593 0.610984
0.856655 0.631916 0.705812
0.970159 0.637084 0.715263
0.110656 0.856220 0.649526
0.442970 0.888818 0.776287
0.676185 0.883266 0.795334
0.891792 0.908871 0.820285
0.964804 0.941443 0.890385
0.125505 0.999969 0.748520
0.476236 0.999969 0.813156
0.750624 0.999969 0.860841
0.889997 0.999969 0.867819
0.943361 0.994968 0.789961
0.069610 0.000214 0.760001
0.267989 0.000214 0.876149
0.438425 0.000214 0.937921
0.870705 0.021597 0.999969
0.999969 0.000214 0.999969
0.000214 0.220253 0.824925
0.212179 0.281905 0.940854
0.472115 0.325514 0.999969
0.830843 0.354848 0.999969
0.999969 0.339761 0.999969
0.105407 0.552174 0.977766
0.282238 0.589344 0.990963
0.531672 0.629061 0.999741
0.805303 0.690047 0.989269
0.933489 0.704878 0.999969
0.263566 0.924937 0.999969
0.548923 0.893310 0.992434
0.753732 0.929733 0.999627
0.895680 0.942525 0.996679
0.965319 0.915419 0.996895
0.271371 0.999969 0.990484
0.554684 0.999969 0.975091
0.750982 0.999969 0.978141
0.903845 0.999969 0.995622
0.955161 0.999969 0.924897
0.042806 0.000214 0.999969
0.277197 0.000214 0.999969
0.562113 0.015504 0.999969
0.890206 0.084281 0.999969
0.999969 0.153400 0.999969
0.000214 0.251175 0.999969
0.215945 0.323932 0.999969
0.580146 0.349933 0.999969
0.810307 0.410214 0.999969
0.999969 0.461711 0.999969
0.082209 0.606174 0.999969
0.235328 0.656913 0.999969
0.560917 0.670399 0.999969
0.784859 0.725124 0.999969
0.999969 0.756705 0.999969
0.274414 0.919104 0.999969
0.523651 0.912955 0.999969
0.729186 0.914005 0.999969
0.912753 0.932507 0.999969
0.974696 0.937948 0.999969
0.255235 0.999969 0.999969
0.560414 0.999969 0.999969
0.779409 0.999969 0.999969
0.929107 0.999969 0.999969
0.981257 0.999969 0.999969
