nova/tdt-studio/app/Lut_mau/Neumann Films LUTs/Neumann Films - Sony SLog - COOL HAND.cube
# Generated by FilmConvert
# Date: 2015/05/13
# Time 18:58:44
TITLE "Cool Hand.cube"
LUT_3D_SIZE 33
0.089338 0.052695 0.043322
0.125508 0.047871 0.038345
0.157413 0.039334 0.031557
0.180462 0.027133 0.028904
0.190359 0.012468 0.031686
0.183829 0.004595 0.035684
0.167151 0.005551 0.036896
0.154095 0.006331 0.035697
0.151207 0.006489 0.035844
0.158165 0.006108 0.035462
0.171854 0.013135 0.032843
0.191212 0.027439 0.028058
0.216985 0.041488 0.022928
0.247382 0.056427 0.017235
0.280621 0.069392 0.011811
0.316425 0.075763 0.012620
0.354405 0.074060 0.017018
0.394971 0.067153 0.012342
0.438161 0.058695 0.003279
0.484044 0.050832 0.001874
0.532916 0.043702 0.000214
0.584067 0.036233 0.000214
0.636504 0.027517 0.000214
0.689496 0.017472 0.000214
0.742410 0.006796 0.000214
0.794326 0.000214 0.000214
0.844883 0.000214 0.000214
0.894002 0.000214 0.000214
0.941935 0.000214 0.000214
0.989244 0.000214 0.000214
0.999969 0.000214 0.000214
0.999969 0.000214 0.000214
0.999969 0.000214 0.000214
0.079126 0.088726 0.031723
0.114706 0.083995 0.026885
0.145115 0.075442 0.021071
0.166782 0.063160 0.021315
0.176803 0.048638 0.024147
0.173879 0.032915 0.032348
0.163413 0.019702 0.037765
0.154850 0.013694 0.033930
0.153591 0.016515 0.033312
0.159696 0.026379 0.030548
0.172341 0.038945 0.026684
0.190820 0.051923 0.022274
0.214628 0.065638 0.017359
0.242839 0.080622 0.011809
0.274415 0.093711 0.006472
0.309338 0.100207 0.003997
0.347147 0.098427 0.006364
0.387946 0.091539 0.000581
0.431373 0.083496 0.000214
0.477782 0.076929 0.000214
0.527194 0.071760 0.000214
0.579013 0.066433 0.000214
0.632172 0.059514 0.000214
0.685884 0.050610 0.000214
0.739470 0.040432 0.000214
0.791883 0.030162 0.000214
0.842961 0.020762 0.000214
0.892440 0.012622 0.000214
0.940791 0.005783 0.000214
0.988714 0.000594 0.000214
0.999969 0.000214 0.000214
0.999969 0.000214 0.000214
0.999969 0.001096 0.000214
0.070373 0.116248 0.017089
0.103779 0.112618 0.014022
0.129694 0.105788 0.013826
0.147605 0.095089 0.015099
0.157695 0.081728 0.020114
0.158787 0.067114 0.030524
0.154497 0.053952 0.037182
0.151802 0.045204 0.035928
0.155387 0.042521 0.027036
0.165132 0.044964 0.025759
0.179702 0.050674 0.023362
0.197737 0.058749 0.020174
0.218853 0.069408 0.016163
0.243511 0.082532 0.011318
0.272154 0.094913 0.006350
0.305712 0.101878 0.002356
0.343525 0.101472 0.000214
0.384944 0.096115 0.000214
0.429257 0.090153 0.000214
0.476522 0.086435 0.000214
0.526914 0.084957 0.000214
0.580066 0.083675 0.000214
0.634956 0.080593 0.000214
0.690334 0.074715 0.000214
0.745389 0.066414 0.000214
0.799161 0.057031 0.000214
0.851485 0.047975 0.000214
0.902251 0.040217 0.000214
0.951929 0.034503 0.000214
0.999969 0.032344 0.000214
0.999969 0.036555 0.000214
0.999969 0.048230 0.000214
0.999969 0.058657 0.000214
0.068357 0.130684 0.012222
0.098306 0.129816 0.010319
0.117138 0.127999 0.009423
0.128674 0.122076 0.010014
0.137849 0.111813 0.017438
0.143316 0.099191 0.028643
0.145575 0.086536 0.035063
0.148131 0.075638 0.035221
0.154734 0.067496 0.030044
0.166918 0.062379 0.021511
0.183393 0.059877 0.020926
0.202377 0.060330 0.019463
0.222851 0.064551 0.017026
0.245704 0.072471 0.013541
0.272643 0.081747 0.014185
0.305843 0.088698 0.013614
0.344956 0.091044 0.004755
0.388221 0.089585 0.000214
0.434132 0.087429 0.000214
0.482658 0.087056 0.000214
0.534343 0.088827 0.000214
0.589166 0.091290 0.000214
0.646138 0.092434 0.000214
0.703756 0.090769 0.000214
0.760852 0.086181 0.000214
0.816457 0.079739 0.000214
0.870474 0.072960 0.000214
0.922876 0.067260 0.000214
0.974208 0.064637 0.000214
0.999969 0.067950 0.000214
0.999969 0.081130 0.000214
0.999969 0.104384 0.000214
0.999969 0.123000 0.000214
0.073905 0.137207 0.010296
0.100446 0.139602 0.007852
0.111597 0.144209 0.005975
0.115378 0.144904 0.005550
0.121910 0.138777 0.015549
0.130026 0.128479 0.026284
0.137195 0.116762 0.031166
0.143065 0.105226 0.030792
0.150016 0.094759 0.027470
0.161415 0.085723 0.023105
0.178100 0.078283 0.019358
0.198280 0.073121 0.018927
0.219971 0.071033 0.023472
0.243593 0.072488 0.031298
0.271633 0.076779 0.036520
0.306844 0.081851 0.033648
0.348918 0.085682 0.022465
0.395570 0.087945 0.007072
0.444485 0.089581 0.000214
0.495199 0.091844 0.000214
0.548771 0.095390 0.000214
0.605610 0.099790 0.000214
0.664718 0.103781 0.000214
0.724495 0.106243 0.000214
0.783516 0.106485 0.000214
0.840686 0.104952 0.000214
0.896050 0.102796 0.000214
0.949480 0.101549 0.000214
0.999969 0.103899 0.000214
0.999969 0.113386 0.000214
0.999969 0.133468 0.000214
0.999969 0.162760 0.000214
0.999969 0.184025 0.000214
0.083441 0.141559 0.008593
0.107768 0.145658 0.005889
0.112727 0.154419 0.003475
0.108710 0.160229 0.003585
0.111006 0.157881 0.019135
0.120150 0.149961 0.029610
0.131064 0.139695 0.032966
0.139861 0.129208 0.030856
0.146476 0.119654 0.026581
0.155290 0.110922 0.022864
0.169768 0.102937 0.021839
0.189547 0.095959 0.025547
0.212408 0.090577 0.034367
0.237924 0.087475 0.045389
0.268270 0.087011 0.052757
0.306468 0.088731 0.052082
0.352220 0.091723 0.043338
0.403079 0.095260 0.029923
0.456125 0.099129 0.015168
0.510822 0.103445 0.000435
0.567812 0.108397 0.000214
0.627557 0.114007 0.000214
0.689055 0.120067 0.000214
0.750870 0.126008 0.000214
0.811569 0.131317 0.000214
0.869906 0.135786 0.000214
0.925680 0.139739 0.000214
0.978907 0.144336 0.000214
0.999969 0.152387 0.000214
0.999969 0.166812 0.000214
0.999969 0.190076 0.000214
0.999969 0.219192 0.000214
0.999969 0.239870 0.000214
0.093576 0.147337 0.006502
0.117531 0.150616 0.004037
0.119316 0.159110 0.001915
0.108892 0.166284 0.013895
0.106367 0.166671 0.031986
0.114939 0.161434 0.043038
0.128920 0.153561 0.045554
0.141186 0.145702 0.041398
0.148630 0.139280 0.034178
0.154891 0.133931 0.027476
0.165700 0.128755 0.024570
0.183138 0.123353 0.027894
0.205729 0.117928 0.037371
0.232537 0.113359 0.049574
0.264841 0.110477 0.058805
0.305072 0.109744 0.061268
0.353157 0.111304 0.056843
0.407175 0.114678 0.047919
0.464317 0.119369 0.036947
0.523387 0.124822 0.025114
0.584603 0.130897 0.012940
0.647854 0.137791 0.000825
0.712072 0.145718 0.000214
0.775801 0.154704 0.000214
0.837748 0.164363 0.000214
0.896536 0.174113 0.000214
0.951926 0.183728 0.000214
0.999969 0.193802 0.000214
0.999969 0.206315 0.000214
0.999969 0.223320 0.000214
0.999969 0.246169 0.000214
0.999969 0.272046 0.000214
0.999969 0.289924 0.000214
0.103337 0.153778 0.004293
0.127983 0.154547 0.002360
0.129047 0.159414 0.012653
0.115180 0.165418 0.033024
0.108259 0.168013 0.052341
0.114947 0.166318 0.064125
0.130846 0.162060 0.066501
0.147095 0.157729 0.060785
0.157290 0.154879 0.050411
0.162896 0.153395 0.039372
0.170317 0.151956 0.032068
0.184349 0.149562 0.031756
0.205443 0.146380 0.038426
0.232492 0.143168 0.048568
0.265614 0.140762 0.057021
0.306144 0.140003 0.060648
0.354210 0.141178 0.059390
0.408820 0.144559 0.054726
0.467887 0.149713 0.047977
0.530210 0.156167 0.039657
0.595074 0.163539 0.030133
0.661528 0.171922 0.020152
0.728119 0.181646 0.010414
0.793273 0.192904 0.001201
0.855763 0.205478 0.000214
0.914157 0.218645 0.000214
0.968201 0.231980 0.000214
0.999969 0.245725 0.000214
0.999969 0.260961 0.000214
0.999969 0.278789 0.000214
0.999969 0.299655 0.000214
0.999969 0.321434 0.000214
0.999969 0.336020 0.000214
0.112013 0.160233 0.029955
0.137693 0.158428 0.029884
0.140342 0.159623 0.037387
0.126237 0.164650 0.053475
0.116349 0.170204 0.070404
0.119697 0.173389 0.081562
0.135155 0.173567 0.083991
0.154225 0.172316 0.078193
0.168612 0.171523 0.066927
0.176401 0.171811 0.054099
0.182994 0.172426 0.044042
0.194776 0.172635 0.040131
0.214222 0.172462 0.042506
0.241006 0.172379 0.048023
0.274221 0.172835 0.052695
0.313944 0.174183 0.054414
0.360114 0.176669 0.053508
0.412697 0.180780 0.051134
0.470751 0.186617 0.047634
0.533401 0.194040 0.042580
0.599711 0.202708 0.035683
0.668035 0.212749 0.027522
0.736273 0.224271 0.018975
0.802363 0.237425 0.010812
0.864870 0.251835 0.003537
0.922357 0.266850 0.000214
0.974636 0.282168 0.000214
0.999969 0.297779 0.000214
0.999969 0.314202 0.000214
0.999969 0.331615 0.000214
0.999969 0.350108 0.000214
0.999969 0.368237 0.000214
0.999969 0.380180 0.000214
0.117860 0.172691 0.061947
0.144864 0.169371 0.058403
0.150941 0.168301 0.057979
0.140203 0.172966 0.064740
0.129609 0.181521 0.075510
0.128754 0.189391 0.084086
0.140611 0.193779 0.086534
0.159518 0.194774 0.082392
0.177083 0.194182 0.073751
0.188984 0.193858 0.063691
0.198089 0.194436 0.055348
0.210503 0.196040 0.050826
0.229947 0.198685 0.049958
0.256924 0.202271 0.050445
0.290307 0.206409 0.049802
0.329293 0.210720 0.047138
0.373281 0.215163 0.043665
0.422664 0.220441 0.040707
0.477396 0.227079 0.038303
0.537533 0.235369 0.035445
0.602317 0.245240 0.031161
0.670104 0.256647 0.025313
0.738271 0.269666 0.018366
0.804391 0.284091 0.011191
0.866520 0.299619 0.004562
0.922950 0.315594 0.000214
0.973466 0.331811 0.000214
0.999969 0.348189 0.000214
0.999969 0.364852 0.000214
0.999969 0.381384 0.000214
0.999969 0.397727 0.000214
0.999969 0.413019 0.000214
0.999969 0.422896 0.000214
0.119448 0.197327 0.083522
0.147987 0.193460 0.076613
0.159237 0.191381 0.067923
0.155016 0.195448 0.064057
0.146809 0.204983 0.066603
0.142421 0.215503 0.070793
0.148099 0.222701 0.072725
0.163032 0.225156 0.071263
0.180895 0.224528 0.067755
0.196460 0.223174 0.064007
0.210220 0.223145 0.060995
0.226217 0.225445 0.059015
0.247764 0.230255 0.057298
0.276061 0.236918 0.054392
0.310264 0.244114 0.049038
0.349340 0.250835 0.041510
0.392204 0.256798 0.033663
0.438982 0.262912 0.027334
0.490158 0.270178 0.023152
0.546332 0.279131 0.020442
0.607397 0.289909 0.018055
0.672129 0.302248 0.015173
0.738085 0.315963 0.011310
0.802524 0.330899 0.006402
0.863321 0.346836 0.000959
0.918473 0.363196 0.000214
0.967489 0.379867 0.000214
0.999969 0.396687 0.000214
0.999969 0.413292 0.000214
0.999969 0.428925 0.000214
0.999969 0.443479 0.000214
0.999969 0.456492 0.000214
0.999969 0.464820 0.000214
0.117246 0.234150 0.093013
0.147617 0.230680 0.084057
0.164892 0.228450 0.069596
0.169102 0.231472 0.056906
0.166116 0.239860 0.050914
0.160330 0.250091 0.049236
0.159330 0.258029 0.049496
0.167304 0.261415 0.050707
0.182074 0.261272 0.053209
0.199456 0.260036 0.056558
0.218078 0.260242 0.059563
0.239033 0.263401 0.061037
0.264187 0.269747 0.060237
0.294742 0.278387 0.056325
0.330279 0.287556 0.048673
0.370198 0.295685 0.037665
0.413143 0.302478 0.025326
0.458876 0.308983 0.013920
0.507775 0.316511 0.005121
0.560591 0.325942 0.000214
0.617621 0.337146 0.000214
0.678011 0.349753 0.000214
0.739689 0.363312 0.000214
0.800542 0.377773 0.000214
0.858509 0.393117 0.000214
0.911597 0.409219 0.000214
0.958928 0.425990 0.000214
0.999969 0.443062 0.000214
0.999969 0.459532 0.000214
0.999969 0.474482 0.000214
0.999969 0.487771 0.000214
0.999969 0.499220 0.000214
0.999969 0.506343 0.000214
0.112677 0.278740 0.094197
0.145063 0.276182 0.084643
0.168134 0.274811 0.067690
0.181298 0.277044 0.049739
0.185494 0.283147 0.036859
0.181107 0.291085 0.029204
0.174716 0.297846 0.026885
0.174653 0.301409 0.029928
0.183926 0.302305 0.037240
0.201018 0.302396 0.045788
0.223447 0.303923 0.052508
0.249420 0.308224 0.055944
0.278662 0.315736 0.056010
0.311736 0.325510 0.052687
0.348779 0.335712 0.045505
0.389748 0.344755 0.033942
0.433414 0.352003 0.019024
0.479451 0.358593 0.002702
0.527720 0.366105 0.000214
0.578860 0.375607 0.000214
0.632932 0.386854 0.000214
0.689211 0.399202 0.000214
0.746098 0.411971 0.000214
0.802017 0.425189 0.000214
0.855649 0.439012 0.000214
0.905370 0.453910 0.000214
0.950244 0.469980 0.000214
0.989818 0.486732 0.000214
0.999969 0.503107 0.000214
0.999969 0.517779 0.000214
0.999969 0.530438 0.000214
0.999969 0.541062 0.000214
0.999969 0.547434 0.000214
0.106435 0.326141 0.090350
0.140608 0.324737 0.081145
0.168755 0.324951 0.064072
0.190060 0.327316 0.044131
0.202438 0.331477 0.027172
0.202384 0.336796 0.015082
0.193639 0.341561 0.010324
0.186223 0.344721 0.014075
0.188622 0.346559 0.023868
0.203547 0.348493 0.034426
0.228280 0.351798 0.041462
0.258558 0.357504 0.044057
0.291636 0.365861 0.043489
0.327270 0.376246 0.041033
0.365721 0.387111 0.036229
0.407699 0.396801 0.027301
0.452400 0.404591 0.013036
0.499437 0.411292 0.000214
0.548263 0.418474 0.000214
0.599073 0.427384 0.000214
0.651704 0.438134 0.000214
0.705207 0.449860 0.000214
0.758092 0.461699 0.000214
0.809198 0.473433 0.000214
0.857809 0.485388 0.000214
0.903121 0.498234 0.000214
0.944546 0.512516 0.000214
0.981546 0.528168 0.000214
0.999969 0.544077 0.000214
0.999969 0.558669 0.000214
0.999969 0.571521 0.000214
0.999969 0.582197 0.000214
0.999969 0.588169 0.000214
0.098226 0.373176 0.082359
0.133903 0.372780 0.073586
0.165896 0.374577 0.057120
0.193881 0.377681 0.037026
0.214479 0.381150 0.018485
0.221249 0.384804 0.004262
0.214093 0.388145 0.000214
0.201964 0.390836 0.001849
0.197601 0.393518 0.012122
0.208607 0.397045 0.022084
0.233843 0.402144 0.027001
0.267209 0.409156 0.026680
0.303803 0.418047 0.023853
0.341846 0.428671 0.021334
0.381711 0.439746 0.019202
0.424585 0.450027 0.014722
0.470301 0.458571 0.004330
0.518527 0.465515 0.000214
0.568491 0.472208 0.000214
0.619708 0.480006 0.000214
0.671836 0.489404 0.000214
0.723737 0.499940 0.000214
0.773907 0.511070 0.000214
0.821245 0.521632 0.000214
0.865485 0.532029 0.000214
0.906357 0.542696 0.000214
0.943945 0.554637 0.000214
0.977903 0.568196 0.000214
0.999969 0.582828 0.000214
0.999969 0.597136 0.000214
0.999969 0.610466 0.000214
0.999969 0.621987 0.000214
0.999969 0.628151 0.000214
0.088218 0.418536 0.069918
0.124994 0.418725 0.061304
0.159516 0.421591 0.045224
0.192198 0.425594 0.025448
0.219986 0.429245 0.006609
0.234865 0.432653 0.000214
0.233001 0.435719 0.000214
0.220242 0.438691 0.000214
0.210690 0.442349 0.000214
0.216862 0.447390 0.006989
0.240628 0.454004 0.009207
0.275741 0.462035 0.005620
0.315368 0.471339 0.000214
0.356051 0.481695 0.000214
0.397484 0.492420 0.000214
0.441397 0.502817 0.000214
0.487990 0.511857 0.000214
0.537210 0.519296 0.000214
0.588066 0.525639 0.000214
0.639788 0.532081 0.000214
0.691601 0.539594 0.000214
0.742403 0.548537 0.000214
0.790687 0.558318 0.000214
0.835463 0.568154 0.000214
0.876428 0.577661 0.000214
0.913771 0.586899 0.000214
0.947994 0.596725 0.000214
0.979105 0.607846 0.000214
0.999969 0.620365 0.000214
0.999969 0.633481 0.000214
0.999969 0.646649 0.000214
0.999969 0.658727 0.000214
0.999969 0.665213 0.000214
0.077153 0.462124 0.053998
0.114695 0.462580 0.045185
0.150769 0.466060 0.028890
0.186225 0.470776 0.009022
0.219307 0.475100 0.000214
0.241866 0.479131 0.000214
0.247454 0.483071 0.000214
0.237944 0.487174 0.000214
0.226172 0.492187 0.000214
0.227898 0.498765 0.000214
0.249038 0.506701 0.000214
0.284586 0.515605 0.000214
0.326784 0.525008 0.000214
0.370421 0.534777 0.000214
0.414067 0.544628 0.000214
0.459222 0.554321 0.000214
0.506453 0.563253 0.000214
0.556075 0.570965 0.000214
0.607180 0.577183 0.000214
0.658817 0.582562 0.000214
0.709963 0.588139 0.000214
0.759587 0.594850 0.000214
0.806265 0.602894 0.000214
0.848944 0.611745 0.000214
0.887545 0.620878 0.000214
0.922183 0.629713 0.000214
0.953807 0.638406 0.000214
0.982677 0.647578 0.000214
0.999969 0.657608 0.000214
0.999969 0.668482 0.000214
0.999969 0.680131 0.000214
0.999969 0.691467 0.000214
0.999969 0.697917 0.000214
0.066098 0.504147 0.036257
0.104026 0.504811 0.027080
0.140994 0.508675 0.010058
0.177975 0.513980 0.000214
0.214302 0.519049 0.000214
0.242828 0.524086 0.000214
0.255920 0.529318 0.000214
0.252140 0.535065 0.000214
0.241512 0.541861 0.000214
0.240733 0.550002 0.000214
0.259186 0.559162 0.000214
0.294279 0.568719 0.000214
0.338380 0.578098 0.000214
0.385116 0.587028 0.000214
0.431506 0.595561 0.000214
0.478438 0.603839 0.000214
0.526235 0.611775 0.000214
0.575633 0.619125 0.000214
0.626009 0.625230 0.000214
0.676511 0.629983 0.000214
0.726318 0.634048 0.000214
0.774316 0.638566 0.000214
0.819233 0.644468 0.000214
0.860065 0.651914 0.000214
0.896549 0.660512 0.000214
0.928892 0.669373 0.000214
0.958135 0.678046 0.000214
0.984988 0.686299 0.000214
0.999969 0.694452 0.000214
0.999969 0.702742 0.000214
0.999969 0.711616 0.000214
0.999969 0.720635 0.000214
0.999969 0.725965 0.000214
0.055638 0.544931 0.018480
0.093847 0.545814 0.008804
0.131366 0.550116 0.000214
0.169070 0.556091 0.000214
0.207081 0.561818 0.000214
0.239646 0.567814 0.000214
0.259049 0.574321 0.000214
0.261808 0.581758 0.000214
0.254933 0.590364 0.000214
0.254049 0.600174 0.000214
0.270757 0.610430 0.000214
0.304982 0.620411 0.000214
0.350171 0.629417 0.000214
0.399550 0.637455 0.000214
0.448911 0.644444 0.000214
0.498036 0.650895 0.000214
0.546720 0.657178 0.000214
0.595689 0.663276 0.000214
0.644635 0.668700 0.000214
0.693143 0.673018 0.000214
0.740744 0.676238 0.000214
0.786542 0.679253 0.000214
0.829369 0.683212 0.000214
0.868368 0.688905 0.000214
0.902927 0.696393 0.000214
0.933144 0.705031 0.000214
0.959926 0.713984 0.000214
0.984295 0.722375 0.000214
0.999969 0.729785 0.000214
0.999969 0.736324 0.009921
0.999969 0.742469 0.034371
0.999969 0.748390 0.056398
0.999969 0.751719 0.068685
0.045941 0.584658 0.001844
0.084366 0.585765 0.000214
0.122321 0.590623 0.000214
0.160478 0.597262 0.000214
0.199292 0.603814 0.000214
0.234434 0.610640 0.000214
0.258685 0.618260 0.000214
0.267811 0.627114 0.000214
0.266193 0.637335 0.000214
0.267310 0.648550 0.000214
0.283418 0.659721 0.000214
0.316684 0.669793 0.000214
0.362029 0.678240 0.000214
0.413084 0.685153 0.000214
0.464871 0.690699 0.000214
0.516250 0.695345 0.000214
0.566391 0.699576 0.000214
0.615337 0.703788 0.000214
0.663020 0.707865 0.000214
0.709369 0.711413 0.000214
0.754201 0.714156 0.000214
0.797164 0.716391 0.000214
0.837382 0.718974 0.000214
0.874217 0.723068 0.000214
0.906971 0.729090 0.000214
0.935391 0.736859 0.000214
0.959984 0.745645 0.000214
0.981664 0.754340 0.000214
0.999969 0.761961 0.000214
0.999969 0.768114 0.035620
0.999969 0.773019 0.073639
0.999969 0.776768 0.110122
0.999969 0.778285 0.131828
0.036917 0.623441 0.000214
0.075488 0.624730 0.000214
0.113749 0.630140 0.000214
0.152387 0.637565 0.000214
0.191690 0.644848 0.000214
0.228537 0.652642 0.000214
0.256625 0.661258 0.000214
0.271591 0.671230 0.000214
0.275793 0.682621 0.000214
0.280342 0.694839 0.000214
0.296838 0.706587 0.000214
0.329198 0.716510 0.000214
0.373968 0.724191 0.000214
0.425577 0.729913 0.000214
0.478872 0.734024 0.000214
0.532149 0.737044 0.000214
0.583806 0.739365 0.000214
0.633546 0.741467 0.000214
0.680838 0.743752 0.000214
0.725560 0.746018 0.000214
0.767877 0.748102 0.000214
0.807654 0.749891 0.000214
0.844666 0.751702 0.000214
0.878768 0.754509 0.000214
0.909469 0.758984 0.000214
0.936292 0.765447 0.000214
0.959262 0.773337 0.000214
0.978705 0.781816 0.000214
0.995274 0.789839 0.001877
0.999969 0.796542 0.046896
0.999969 0.801743 0.095718
0.999969 0.805257 0.143448
0.999969 0.806166 0.172197
0.028316 0.661486 0.000214
0.067040 0.662933 0.000214
0.105636 0.668718 0.000214
0.144650 0.676871 0.000214
0.184377 0.684991 0.000214
0.222518 0.693667 0.000214
0.253750 0.703233 0.000214
0.273945 0.714054 0.000214
0.284201 0.726183 0.000214
0.292941 0.738967 0.000214
0.310714 0.750837 0.000214
0.342380 0.760417 0.000214
0.386161 0.767273 0.000214
0.437423 0.771810 0.000214
0.491255 0.774633 0.000214
0.545551 0.776172 0.000214
0.598490 0.776786 0.000214
0.649346 0.776999 0.000214
0.697098 0.777265 0.000214
0.741288 0.777957 0.000214
0.781780 0.778935 0.000214
0.818785 0.780084 0.000214
0.852497 0.781273 0.000214
0.883315 0.783096 0.000214
0.911475 0.786200 0.000214
0.936542 0.790983 0.000214
0.958258 0.797519 0.000214
0.976136 0.805129 0.000214
0.990299 0.813046 0.000214
0.999969 0.820342 0.047652
0.999969 0.826490 0.103018
0.999969 0.831127 0.158347
0.999969 0.832738 0.191879
0.020042 0.698955 0.000214
0.058927 0.700452 0.000214
0.097848 0.706587 0.000214
0.137231 0.715292 0.000214
0.177349 0.724200 0.000214
0.216466 0.733696 0.000214
0.250223 0.743963 0.000214
0.275165 0.755341 0.000214
0.291426 0.767949 0.000214
0.304854 0.780753 0.000214
0.324562 0.792518 0.000214
0.355965 0.801610 0.000214
0.398645 0.807653 0.000214
0.449024 0.811119 0.000214
0.502494 0.812697 0.000214
0.556938 0.812903 0.000214
0.610406 0.812110 0.000214
0.662068 0.810642 0.000214
0.710528 0.809044 0.000214
0.754956 0.807799 0.000214
0.794804 0.807239 0.000214
0.829992 0.807264 0.000214
0.860972 0.807717 0.000214
0.888574 0.808614 0.000214
0.913774 0.810471 0.000214
0.936664 0.813637 0.000214
0.956914 0.818481 0.000214
0.973604 0.824703 0.000214
0.986240 0.831885 0.002376
0.995646 0.839165 0.048045
0.999969 0.846017 0.104052
0.999969 0.851818 0.161910
0.999969 0.854310 0.197489
0.011950 0.735960 0.000214
0.051010 0.737507 0.000214
0.090197 0.743869 0.000214
0.129971 0.753051 0.000214
0.170522 0.762578 0.000214
0.210339 0.772710 0.000214
0.246332 0.783439 0.000214
0.275385 0.795105 0.000214
0.297161 0.807688 0.000214
0.315562 0.820293 0.000214
0.337896 0.831579 0.000214
0.369604 0.840169 0.000214
0.411343 0.845508 0.000214
0.460479 0.848010 0.000214
0.513044 0.848477 0.000214
0.566778 0.847443 0.000214
0.619862 0.845389 0.000214
0.671396 0.842472 0.021709
0.720087 0.839214 0.040295
0.764795 0.836098 0.051439
0.804680 0.833715 0.051554
0.839246 0.832179 0.040121
0.868599 0.831517 0.021062
0.893750 0.831486 0.001105
0.916201 0.832107 0.000214
0.936643 0.833728 0.000214
0.955067 0.836609 0.000214
0.970485 0.841023 0.000214
0.982069 0.846873 0.021999
0.990402 0.853485 0.060059
0.996397 0.860287 0.110312
0.999969 0.866306 0.164973
0.999969 0.869089 0.199374
0.004071 0.772479 0.000214
0.043250 0.774025 0.000214
0.082778 0.780574 0.000214
0.122961 0.790136 0.000214
0.163829 0.800127 0.000214
0.204282 0.810637 0.000214
0.241921 0.821575 0.000214
0.274388 0.833148 0.000214
0.300916 0.845414 0.000214
0.324207 0.857455 0.000214
0.349733 0.868167 0.000214
0.382429 0.876154 0.000214
0.423564 0.880825 0.000214
0.471414 0.882535 0.000214
0.522531 0.881999 0.000214
0.574939 0.879890 0.002369
0.626811 0.876661 0.028583
0.677290 0.872585 0.056704
0.725266 0.867917 0.084228
0.769622 0.863127 0.107061
0.809525 0.858935 0.120299
0.844106 0.855683 0.120113
0.873011 0.853631 0.106794
0.896933 0.852508 0.085514
0.917293 0.852058 0.064021
0.935443 0.852025 0.049030
0.951890 0.852726 0.043385
0.965976 0.854837 0.047847
0.976767 0.858753 0.063712
0.984604 0.864053 0.091680
0.990223 0.870136 0.131910
0.997486 0.875491 0.178482
0.999969 0.877849 0.208715
0.000214 0.808653 0.000214
0.035635 0.810215 0.000214
0.075471 0.816809 0.000214
0.115981 0.826647 0.000214
0.157201 0.836992 0.000214
0.198100 0.847605 0.000214
0.237035 0.858583 0.000214
0.272013 0.869858 0.000214
0.302530 0.881501 0.000214
0.330211 0.892779 0.000214
0.359166 0.902653 0.000214
0.393526 0.909990 0.000214
0.434525 0.913998 0.000214
0.481108 0.914914 0.000214
0.530542 0.913475 0.002124
0.581191 0.910397 0.030468
0.631251 0.906198 0.060582
0.679892 0.901140 0.093009
0.726087 0.895465 0.126068
0.769212 0.889503 0.156745
0.808529 0.883812 0.180163
0.843224 0.878981 0.190892
0.872483 0.875468 0.186306
0.896161 0.873183 0.169049
0.915264 0.871490 0.146652
0.931385 0.869832 0.127729
0.945911 0.868278 0.117233
0.958866 0.867658 0.116047
0.969323 0.868930 0.124549
0.977130 0.872250 0.143137
0.982613 0.876903 0.172615
0.989577 0.881362 0.209177
0.999969 0.883098 0.233495
0.000214 0.844379 0.000214
0.028173 0.845871 0.000214
0.068302 0.852449 0.000214
0.109170 0.862413 0.000214
0.150721 0.872891 0.000214
0.192012 0.883567 0.000214
0.231778 0.894336 0.000214
0.268651 0.905146 0.000214
0.302221 0.916053 0.000214
0.333514 0.926350 0.000214
0.365764 0.935282 0.000214
0.401993 0.941721 0.000214
0.443217 0.944938 0.000214
0.488771 0.945029 0.000214
0.536415 0.942741 0.030895
0.585008 0.938844 0.063115
0.632805 0.933907 0.095986
0.679090 0.928196 0.130344
0.723034 0.921888 0.165250
0.764168 0.915259 0.198612
0.802355 0.908647 0.226731
0.837009 0.902668 0.244475
0.866826 0.897931 0.247914
0.890809 0.894321 0.237732
0.909146 0.891231 0.219954
0.923467 0.887920 0.203262
0.936209 0.884179 0.193088
