nova/tdt-studio/app/Lut_mau/Neumann Films LUTs/Neumann Films - BMPCC - Film - OLD GROWTH.cube
TITLE "BMPCC - Film - OLD GROWTH"
LUT_3D_SIZE 32
0.0349 0.0349 0.0349
0.0370 0.0349 0.0349
0.0443 0.0349 0.0349
0.0560 0.0349 0.0349
0.0729 0.0349 0.0349
0.0950 0.0349 0.0349
0.1288 0.0349 0.0359
0.1668 0.0349 0.0370
0.2101 0.0359 0.0380
0.2556 0.0370 0.0391
0.3010 0.0401 0.0401
0.3485 0.0422 0.0412
0.4013 0.0464 0.0443
0.4573 0.0496 0.0475
0.5100 0.0539 0.0496
0.5554 0.0581 0.0528
0.5955 0.0612 0.0560
0.6304 0.0644 0.0591
0.6610 0.0676 0.0612
0.6927 0.0707 0.0634
0.7223 0.0729 0.0655
0.7508 0.0771 0.0676
0.7783 0.0813 0.0697
0.8036 0.0834 0.0718
0.8247 0.0866 0.0729
0.8437 0.0887 0.0750
0.8627 0.0919 0.0760
0.8828 0.0940 0.0771
0.9029 0.1003 0.0792
0.9166 0.1067 0.0813
0.9134 0.1140 0.0908
0.9039 0.1394 0.1225
0.0349 0.0370 0.0349
0.0370 0.0370 0.0349
0.0443 0.0401 0.0349
0.0570 0.0422 0.0349
0.0729 0.0433 0.0349
0.0940 0.0454 0.0349
0.1267 0.0464 0.0349
0.1637 0.0486 0.0349
0.2070 0.0496 0.0359
0.2513 0.0507 0.0359
0.2978 0.0539 0.0370
0.3453 0.0570 0.0370
0.3970 0.0612 0.0412
0.4530 0.0655 0.0454
0.5069 0.0697 0.0496
0.5523 0.0729 0.0528
0.5934 0.0771 0.0560
0.6283 0.0803 0.0591
0.6610 0.0834 0.0612
0.6927 0.0866 0.0634
0.7223 0.0887 0.0655
0.7508 0.0929 0.0676
0.7793 0.0971 0.0707
0.8047 0.0993 0.0718
0.8268 0.1024 0.0729
0.8448 0.1056 0.0750
0.8648 0.1077 0.0760
0.8838 0.1109 0.0771
0.9039 0.1172 0.0792
0.9176 0.1225 0.0813
0.9166 0.1267 0.0876
0.9081 0.1447 0.1140
0.0349 0.0443 0.0349
0.0401 0.0443 0.0349
0.0454 0.0454 0.0349
0.0570 0.0496 0.0349
0.0729 0.0528 0.0349
0.0929 0.0570 0.0349
0.1257 0.0602 0.0349
0.1626 0.0623 0.0349
0.2049 0.0634 0.0359
0.2492 0.0665 0.0359
0.2946 0.0697 0.0370
0.3432 0.0739 0.0370
0.3949 0.0782 0.0401
0.4498 0.0824 0.0454
0.5058 0.0866 0.0496
0.5523 0.0908 0.0528
0.5945 0.0950 0.0560
0.6304 0.0982 0.0591
0.6631 0.1014 0.0623
0.6948 0.1046 0.0644
0.7255 0.1077 0.0665
0.7529 0.1109 0.0686
0.7825 0.1151 0.0707
0.8078 0.1183 0.0729
0.8300 0.1204 0.0739
0.8490 0.1225 0.0760
0.8680 0.1257 0.0771
0.8881 0.1278 0.0782
0.9071 0.1352 0.0803
0.9208 0.1404 0.0824
0.9197 0.1415 0.0845
0.9176 0.1478 0.0950
0.0359 0.0560 0.0349
0.0422 0.0560 0.0349
0.0496 0.0560 0.0349
0.0570 0.0570 0.0349
0.0729 0.0623 0.0349
0.0929 0.0676 0.0349
0.1246 0.0729 0.0349
0.1616 0.0760 0.0349
0.2028 0.0792 0.0359
0.2460 0.0824 0.0359
0.2914 0.0855 0.0370
0.3400 0.0898 0.0370
0.3918 0.0950 0.0401
0.4477 0.0993 0.0443
0.5037 0.1046 0.0496
0.5523 0.1088 0.0528
0.5955 0.1130 0.0570
0.6325 0.1162 0.0602
0.6663 0.1204 0.0634
0.6990 0.1235 0.0655
0.7286 0.1257 0.0676
0.7582 0.1299 0.0697
0.7877 0.1331 0.0718
0.8141 0.1362 0.0739
0.8363 0.1383 0.0760
0.8553 0.1404 0.0771
0.8743 0.1425 0.0782
0.8933 0.1457 0.0792
0.9124 0.1531 0.0824
0.9261 0.1574 0.0834
0.9261 0.1584 0.0834
0.9250 0.1595 0.0855
0.0370 0.0718 0.0349
0.0443 0.0718 0.0349
0.0539 0.0718 0.0349
0.0634 0.0718 0.0349
0.0729 0.0718 0.0349
0.0929 0.0792 0.0349
0.1214 0.0855 0.0349
0.1574 0.0919 0.0349
0.1975 0.0961 0.0359
0.2397 0.0993 0.0359
0.2851 0.1035 0.0370
0.3358 0.1067 0.0370
0.3875 0.1119 0.0401
0.4435 0.1172 0.0443
0.5015 0.1225 0.0496
0.5523 0.1267 0.0539
0.5987 0.1310 0.0581
0.6357 0.1352 0.0612
0.6705 0.1383 0.0634
0.7033 0.1415 0.0665
0.7339 0.1447 0.0686
0.7635 0.1478 0.0707
0.7930 0.1510 0.0739
0.8194 0.1552 0.0760
0.8416 0.1574 0.0771
0.8606 0.1584 0.0782
0.8807 0.1605 0.0792
0.8986 0.1658 0.0813
0.9176 0.1721 0.0834
0.9314 0.1764 0.0845
0.9314 0.1764 0.0845
0.9314 0.1753 0.0845
0.0380 0.0908 0.0349
0.0475 0.0908 0.0349
0.0581 0.0908 0.0349
0.0686 0.0908 0.0349
0.0803 0.0908 0.0349
0.0929 0.0908 0.0349
0.1183 0.1035 0.0349
0.1542 0.1119 0.0349
0.1922 0.1172 0.0349
0.2334 0.1204 0.0359
0.2799 0.1235 0.0359
0.3305 0.1267 0.0370
0.3833 0.1299 0.0401
0.4393 0.1352 0.0443
0.4995 0.1404 0.0496
0.5512 0.1457 0.0539
0.5998 0.1499 0.0581
0.6388 0.1542 0.0623
0.6737 0.1574 0.0655
0.7075 0.1605 0.0676
0.7381 0.1637 0.0707
0.7677 0.1668 0.0729
0.7972 0.1700 0.0750
0.8236 0.1732 0.0771
0.8469 0.1753 0.0782
0.8669 0.1774 0.0792
0.8849 0.1816 0.0813
0.9039 0.1859 0.0834
0.9229 0.1922 0.0855
0.9366 0.1953 0.0866
0.9366 0.1953 0.0866
0.9366 0.1953 0.0866
0.0391 0.1119 0.0349
0.0496 0.1119 0.0349
0.0623 0.1130 0.0349
0.0750 0.1130 0.0349
0.0866 0.1140 0.0349
0.1003 0.1151 0.0349
0.1162 0.1193 0.0349
0.1510 0.1331 0.0349
0.1880 0.1404 0.0349
0.2270 0.1447 0.0359
0.2735 0.1468 0.0359
0.3252 0.1489 0.0370
0.3791 0.1521 0.0401
0.4361 0.1531 0.0443
0.4963 0.1584 0.0496
0.5502 0.1637 0.0539
0.6008 0.1689 0.0591
0.6410 0.1721 0.0623
0.6769 0.1753 0.0655
0.7107 0.1795 0.0686
0.7413 0.1827 0.0707
0.7719 0.1859 0.0739
0.8015 0.1890 0.0760
0.8279 0.1922 0.0782
0.8522 0.1953 0.0803
0.8712 0.1985 0.0813
0.8891 0.2028 0.0834
0.9092 0.2059 0.0845
0.9282 0.2112 0.0866
0.9419 0.2133 0.0876
0.9419 0.2133 0.0876
0.9419 0.2133 0.0876
0.0401 0.1383 0.0349
0.0528 0.1394 0.0349
0.0655 0.1404 0.0349
0.0792 0.1415 0.0349
0.0929 0.1425 0.0349
0.1067 0.1436 0.0349
0.1214 0.1457 0.0349
0.1447 0.1499 0.0349
0.1859 0.1647 0.0349
0.2239 0.1711 0.0359
0.2672 0.1732 0.0359
0.3200 0.1753 0.0370
0.3749 0.1764 0.0401
0.4319 0.1774 0.0443
0.4942 0.1795 0.0496
0.5502 0.1827 0.0539
0.6008 0.1869 0.0591
0.6441 0.1911 0.0634
0.6800 0.1953 0.0665
0.7138 0.1985 0.0697
0.7455 0.2006 0.0718
0.7761 0.2038 0.0750
0.8057 0.2070 0.0771
0.8321 0.2112 0.0803
0.8564 0.2154 0.0813
0.8765 0.2196 0.0834
0.8954 0.2217 0.0845
0.9145 0.2249 0.0866
0.9345 0.2302 0.0887
0.9472 0.2334 0.0898
0.9472 0.2334 0.0898
0.9472 0.2334 0.0898
0.0412 0.1679 0.0349
0.0549 0.1689 0.0349
0.0686 0.1689 0.0349
0.0824 0.1700 0.0349
0.0971 0.1711 0.0349
0.1119 0.1721 0.0349
0.1267 0.1742 0.0349
0.1478 0.1774 0.0349
0.1795 0.1848 0.0349
0.2217 0.1996 0.0359
0.2640 0.2059 0.0359
0.3147 0.2070 0.0370
0.3706 0.2070 0.0412
0.4266 0.2070 0.0454
0.4889 0.2059 0.0507
0.5480 0.2059 0.0549
0.6019 0.2080 0.0602
0.6452 0.2101 0.0644
0.6832 0.2144 0.0676
0.7180 0.2175 0.0707
0.7497 0.2207 0.0739
0.7804 0.2239 0.0760
0.8089 0.2292 0.0792
0.8363 0.2344 0.0824
0.8596 0.2387 0.0845
0.8807 0.2418 0.0866
0.8997 0.2450 0.0876
0.9187 0.2481 0.0887
0.9388 0.2524 0.0908
0.9525 0.2545 0.0919
0.9525 0.2545 0.0919
0.9525 0.2545 0.0919
0.0433 0.1975 0.0349
0.0570 0.1985 0.0349
0.0718 0.1996 0.0349
0.0855 0.2006 0.0349
0.1014 0.2017 0.0349
0.1162 0.2038 0.0349
0.1320 0.2049 0.0349
0.1499 0.2080 0.0349
0.1774 0.2123 0.0349
0.2133 0.2217 0.0359
0.2619 0.2397 0.0359
0.3126 0.2481 0.0401
0.3675 0.2460 0.0422
0.4224 0.2429 0.0464
0.4858 0.2408 0.0517
0.5470 0.2376 0.0570
0.6040 0.2344 0.0612
0.6484 0.2344 0.0665
0.6874 0.2344 0.0697
0.7233 0.2387 0.0729
0.7550 0.2429 0.0760
0.7846 0.2471 0.0792
0.8141 0.2534 0.0813
0.8395 0.2587 0.0845
0.8638 0.2629 0.0866
0.8849 0.2661 0.0887
0.9039 0.2693 0.0908
0.9229 0.2724 0.0919
0.9440 0.2767 0.0940
0.9578 0.2788 0.0950
0.9578 0.2788 0.0950
0.9578 0.2788 0.0950
0.0454 0.2302 0.0349
0.0591 0.2313 0.0349
0.0739 0.2323 0.0349
0.0887 0.2344 0.0349
0.1046 0.2355 0.0349
0.1204 0.2376 0.0359
0.1362 0.2387 0.0359
0.1531 0.2418 0.0359
0.1753 0.2460 0.0359
0.2080 0.2524 0.0359
0.2503 0.2661 0.0370
0.3115 0.2883 0.0422
0.3664 0.2936 0.0475
0.4203 0.2914 0.0507
0.4836 0.2883 0.0549
0.5459 0.2851 0.0602
0.6051 0.2799 0.0665
0.6526 0.2724 0.0697
0.6927 0.2650 0.0729
0.7286 0.2672 0.0760
0.7613 0.2693 0.0792
0.7909 0.2745 0.0824
0.8194 0.2799 0.0855
0.8458 0.2851 0.0887
0.8690 0.2893 0.0908
0.8902 0.2925 0.0929
0.9092 0.2957 0.0950
0.9282 0.2988 0.0961
0.9483 0.3020 0.0982
0.9630 0.3052 0.1003
0.9630 0.3052 0.1003
0.9630 0.3052 0.1003
0.0475 0.2682 0.0359
0.0612 0.2703 0.0359
0.0771 0.2724 0.0359
0.0919 0.2756 0.0359
0.1077 0.2777 0.0359
0.1235 0.2788 0.0359
0.1404 0.2809 0.0359
0.1574 0.2830 0.0359
0.1764 0.2862 0.0359
0.2038 0.2925 0.0359
0.2418 0.3010 0.0370
0.2999 0.3189 0.0433
0.3664 0.3369 0.0507
0.4213 0.3411 0.0570
0.4826 0.3400 0.0623
0.5470 0.3379 0.0665
0.6072 0.3348 0.0718
0.6579 0.3305 0.0782
0.7001 0.3242 0.0824
0.7360 0.3126 0.0845
0.7666 0.3084 0.0855
0.7962 0.3084 0.0887
0.8247 0.3115 0.0908
0.8511 0.3147 0.0940
0.8733 0.3189 0.0961
0.8933 0.3221 0.0982
0.9134 0.3252 0.1003
0.9335 0.3274 0.1014
0.9536 0.3305 0.1024
0.9683 0.3326 0.1046
0.9683 0.3326 0.1046
0.9683 0.3326 0.1046
0.0496 0.3157 0.0391
0.0634 0.3178 0.0391
0.0803 0.3200 0.0391
0.0950 0.3231 0.0391
0.1109 0.3252 0.0391
0.1278 0.3274 0.0391
0.1436 0.3295 0.0380
0.1616 0.3305 0.0380
0.1795 0.3316 0.0370
0.2028 0.3358 0.0380
0.2376 0.3432 0.0401
0.2872 0.3516 0.0443
0.3590 0.3696 0.0539
0.4245 0.3854 0.0612
0.4868 0.3918 0.0686
0.5480 0.3907 0.0750
0.6114 0.3886 0.0803
0.6642 0.3865 0.0866
0.7096 0.3823 0.0919
0.7487 0.3770 0.0950
0.7793 0.3696 0.0961
0.8068 0.3569 0.0961
0.8332 0.3506 0.0971
0.8575 0.3485 0.0993
0.8796 0.3516 0.1014
0.8997 0.3548 0.1024
0.9197 0.3569 0.1046
0.9398 0.3601 0.1056
0.9599 0.3633 0.1077
0.9747 0.3654 0.1088
0.9747 0.3654 0.1088
0.9747 0.3654 0.1088
0.0517 0.3633 0.0475
0.0665 0.3654 0.0475
0.0834 0.3675 0.0486
0.0993 0.3696 0.0475
0.1162 0.3717 0.0464
0.1341 0.3738 0.0454
0.1521 0.3749 0.0443
0.1700 0.3749 0.0433
0.1880 0.3759 0.0422
0.2091 0.3780 0.0433
0.2365 0.3823 0.0443
0.2841 0.3907 0.0475
0.3495 0.4023 0.0549
0.4213 0.4266 0.0655
0.4931 0.4425 0.0739
0.5565 0.4477 0.0824
0.6156 0.4488 0.0908
0.6705 0.4477 0.0961
0.7191 0.4456 0.1014
0.7603 0.4403 0.1046
0.7941 0.4351 0.1067
0.8215 0.4298 0.1077
0.8479 0.4213 0.1088
0.8712 0.4161 0.1088
0.8912 0.4171 0.1098
0.9102 0.4192 0.1109
0.9303 0.4213 0.1130
0.9504 0.4234 0.1140
0.9704 0.4256 0.1151
0.9863 0.4277 0.1162
0.9863 0.4277 0.1162
0.9863 0.4277 0.1162
0.0570 0.4055 0.0560
0.0729 0.4076 0.0570
0.0898 0.4097 0.0570
0.1067 0.4118 0.0560
0.1235 0.4129 0.0549
0.1415 0.4150 0.0528
0.1595 0.4171 0.0517
0.1774 0.4182 0.0496
0.1964 0.4182 0.0486
0.2154 0.4192 0.0486
0.2376 0.4224 0.0496
0.2799 0.4309 0.0517
0.3474 0.4446 0.0581
0.4129 0.4615 0.0676
0.4995 0.4963 0.0803
0.5660 0.5100 0.0887
0.6273 0.5174 0.0982
0.6811 0.5238 0.1077
0.7297 0.5227 0.1140
0.7719 0.5195 0.1172
0.8078 0.5142 0.1193
0.8374 0.5090 0.1204
0.8648 0.5037 0.1214
0.8870 0.4984 0.1214
0.9071 0.4984 0.1225
0.9250 0.4963 0.1225
0.9419 0.4942 0.1235
0.9609 0.4921 0.1235
0.9799 0.4900 0.1235
0.9947 0.4910 0.1246
0.9947 0.4910 0.1246
0.9947 0.4910 0.1246
0.0634 0.4446 0.0665
0.0782 0.4467 0.0665
0.0961 0.4488 0.0676
0.1130 0.4520 0.0676
0.1299 0.4530 0.0655
0.1478 0.4562 0.0634
0.1668 0.4594 0.0602
0.1859 0.4615 0.0581
0.2038 0.4615 0.0560
0.2228 0.4625 0.0549
0.2429 0.4657 0.0560
0.2714 0.4741 0.0581
0.3411 0.4931 0.0634
0.4161 0.5142 0.0739
0.4889 0.5322 0.0834
0.5744 0.5618 0.0950
0.6378 0.5723 0.1046
0.6927 0.5787 0.1140
0.7413 0.5839 0.1225
0.7814 0.5818 0.1288
0.8173 0.5797 0.1320
0.8490 0.5766 0.1331
0.8765 0.5723 0.1341
0.8986 0.5702 0.1341
0.9187 0.5702 0.1352
0.9356 0.5691 0.1352
0.9546 0.5669 0.1352
0.9725 0.5649 0.1362
0.9915 0.5628 0.1362
1.0000 0.5597 0.1352
1.0000 0.5597 0.1352
1.0000 0.5597 0.1352
0.0686 0.4868 0.0803
0.0845 0.4900 0.0803
0.1014 0.4921 0.0813
0.1183 0.4942 0.0792
0.1362 0.4963 0.0771
0.1542 0.4995 0.0739
0.1732 0.5037 0.0707
0.1922 0.5069 0.0676
0.2123 0.5100 0.0644
0.2313 0.5111 0.0623
0.2513 0.5132 0.0623
0.2777 0.5216 0.0644
0.3400 0.5406 0.0697
0.4213 0.5628 0.0803
0.5005 0.5818 0.0908
0.5723 0.5966 0.0993
0.6473 0.6177 0.1098
0.7022 0.6251 0.1193
0.7508 0.6283 0.1278
0.7920 0.6304 0.1352
0.8268 0.6294 0.1394
0.8564 0.6262 0.1425
0.8838 0.6230 0.1436
0.9071 0.6220 0.1447
0.9261 0.6220 0.1447
0.9440 0.6209 0.1457
0.9620 0.6198 0.1457
0.9810 0.6198 0.1457
0.9989 0.6188 0.1457
1.0000 0.6156 0.1457
1.0000 0.6156 0.1457
1.0000 0.6156 0.1457
0.0739 0.5312 0.0929
0.0898 0.5333 0.0929
0.1067 0.5354 0.0929
0.1235 0.5375 0.0929
0.1404 0.5406 0.0898
0.1595 0.5438 0.0866
0.1785 0.5470 0.0813
0.1975 0.5512 0.0760
0.2186 0.5554 0.0718
0.2387 0.5575 0.0697
0.2587 0.5607 0.0686
0.2862 0.5691 0.0707
0.3463 0.5861 0.0760
0.4298 0.6082 0.0876
0.5132 0.6273 0.0982
0.5850 0.6410 0.1067
0.6484 0.6537 0.1140
0.7096 0.6631 0.1235
0.7582 0.6663 0.1320
0.7983 0.6674 0.1383
0.8332 0.6674 0.1436
0.8648 0.6674 0.1468
0.8902 0.6642 0.1489
0.9124 0.6631 0.1499
0.9314 0.6631 0.1521
0.9493 0.6621 0.1521
0.9673 0.6621 0.1531
0.9863 0.6610 0.1531
1.0000 0.6610 0.1531
1.0000 0.6610 0.1531
1.0000 0.6610 0.1531
1.0000 0.6610 0.1531
0.0782 0.5723 0.1035
0.0940 0.5744 0.1035
0.1109 0.5766 0.1046
0.1278 0.5787 0.1035
0.1447 0.5818 0.1003
0.1637 0.5839 0.0971
0.1827 0.5882 0.0919
0.2028 0.5924 0.0845
0.2228 0.5966 0.0782
0.2439 0.5998 0.0750
0.2650 0.6030 0.0750
0.2967 0.6135 0.0771
0.3612 0.6294 0.0834
0.4382 0.6473 0.0929
0.5259 0.6652 0.1035
0.5966 0.6790 0.1119
0.6589 0.6916 0.1204
0.7075 0.6927 0.1235
0.7635 0.6990 0.1362
0.8047 0.7001 0.1415
0.8384 0.7012 0.1457
0.8690 0.7001 0.1499
0.8954 0.6990 0.1521
0.9166 0.6980 0.1531
0.9356 0.6980 0.1542
0.9546 0.6969 0.1552
0.9715 0.6969 0.1563
0.9884 0.6959 0.1563
1.0000 0.6959 0.1563
1.0000 0.6959 0.1563
1.0000 0.6959 0.1563
1.0000 0.6959 0.1563
0.0813 0.6103 0.1119
0.0971 0.6125 0.1119
0.1140 0.6135 0.1119
0.1310 0.6156 0.1109
0.1478 0.6188 0.1098
0.1668 0.6209 0.1056
0.1859 0.6241 0.0993
0.2059 0.6273 0.0908
0.2270 0.6315 0.0834
0.2492 0.6378 0.0803
0.2714 0.6431 0.0803
0.3094 0.6526 0.0834
0.3759 0.6674 0.0898
0.4477 0.6832 0.0982
0.5343 0.6990 0.1088
0.6040 0.7128 0.1162
0.6663 0.7255 0.1246
0.7149 0.7276 0.1288
0.7592 0.7265 0.1352
0.8068 0.7297 0.1436
0.8405 0.7297 0.1478
0.8722 0.7297 0.1510
0.8986 0.7286 0.1542
0.9197 0.7286 0.1552
0.9388 0.7286 0.1563
0.9578 0.7286 0.1574
0.9747 0.7276 0.1584
0.9905 0.7265 0.1584
1.0000 0.7276 0.1584
1.0000 0.7286 0.1584
1.0000 0.7286 0.1584
1.0000 0.7286 0.1584
0.0845 0.6441 0.1183
0.0993 0.6452 0.1183
0.1162 0.6462 0.1183
0.1331 0.6484 0.1172
0.1499 0.6505 0.1151
0.1689 0.6526 0.1109
0.1880 0.6558 0.1046
0.2080 0.6589 0.0961
0.2302 0.6642 0.0876
0.2524 0.6695 0.0834
0.2777 0.6758 0.0845
0.3200 0.6864 0.0876
0.3875 0.7001 0.0940
0.4604 0.7138 0.1024
0.5385 0.7276 0.1109
0.6072 0.7402 0.1183
0.6705 0.7519 0.1267
0.7212 0.7571 0.1331
0.7645 0.7561 0.1373
0.8036 0.7550 0.1425
0.8426 0.7571 0.1489
0.8743 0.7561 0.1531
0.9007 0.7561 0.1552
0.9208 0.7561 0.1574
0.9409 0.7571 0.1584
0.9599 0.7571 0.1595
0.9768 0.7561 0.1595
0.9915 0.7561 0.1595
1.0000 0.7571 0.1595
1.0000 0.7582 0.1595
1.0000 0.7582 0.1595
1.0000 0.7582 0.1595
0.0855 0.6748 0.1225
0.1003 0.6748 0.1225
0.1172 0.6769 0.1214
0.1341 0.6779 0.1214
0.1521 0.6800 0.1193
0.1700 0.6822 0.1162
0.1890 0.6843 0.1098
0.2101 0.6874 0.1003
0.2313 0.6927 0.0908
0.2556 0.6980 0.0866
0.2820 0.7064 0.0876
0.3316 0.7170 0.0908
0.3970 0.7297 0.0982
0.4678 0.7423 0.1056
0.5427 0.7550 0.1130
0.6072 0.7666 0.1204
0.6716 0.7783 0.1288
0.7255 0.7867 0.1362
0.7666 0.7846 0.1383
0.8057 0.7835 0.1447
0.8405 0.7825 0.1489
0.8754 0.7835 0.1531
0.9018 0.7835 0.1563
0.9218 0.7825 0.1584
0.9419 0.7825 0.1595
0.9609 0.7825 0.1605
0.9778 0.7825 0.1605
0.9926 0.7835 0.1605
1.0000 0.7835 0.1605
1.0000 0.7846 0.1605
1.0000 0.7846 0.1605
1.0000 0.7846 0.1605
0.0855 0.7033 0.1267
0.1014 0.7043 0.1267
0.1183 0.7043 0.1267
0.1352 0.7054 0.1257
0.1531 0.7075 0.1235
0.1711 0.7096 0.1193
0.1901 0.7117 0.1130
0.2112 0.7138 0.1046
0.2334 0.7180 0.0940
0.2566 0.7244 0.0887
0.2862 0.7339 0.0908
0.3379 0.7444 0.0940
0.4023 0.7571 0.1003
0.4731 0.7687 0.1077
0.5459 0.7804 0.1151
0.6051 0.7899 0.1214
0.6684 0.8015 0.1299
0.7244 0.8110 0.1373
0.7666 0.8110 0.1404
0.8068 0.8099 0.1457
0.8416 0.8089 0.1499
0.8712 0.8068 0.1521
0.9007 0.8078 0.1563
0.9229 0.8068 0.1584
0.9419 0.8068 0.1605
0.9620 0.8068 0.1616
0.9778 0.8068 0.1616
0.9937 0.8068 0.1616
1.0000 0.8078 0.1616
1.0000 0.8089 0.1616
1.0000 0.8089 0.1616
1.0000 0.8089 0.1616
0.0855 0.7286 0.1299
0.1014 0.7297 0.1299
0.1183 0.7297 0.1288
0.1352 0.7318 0.1288
0.1531 0.7328 0.1267
0.1711 0.7350 0.1225
0.1911 0.7371 0.1172
0.2112 0.7381 0.1077
0.2334 0.7423 0.0961
0.2577 0.7487 0.0908
0.2872 0.7571 0.0919
0.3432 0.7687 0.0961
0.4055 0.7804 0.1024
0.4752 0.7920 0.1098
0.5459 0.8025 0.1162
0.6051 0.8120 0.1225
0.6631 0.8226 0.1299
0.7201 0.8332 0.1373
0.7656 0.8342 0.1415
0.8057 0.8342 0.1457
0.8405 0.8332 0.1499
0.8722 0.8321 0.1531
0.8976 0.8300 0.1552
0.9218 0.8300 0.1584
0.9430 0.8300 0.1605
0.9620 0.8289 0.1626
0.9778 0.8300 0.1626
0.9947 0.8300 0.1626
1.0000 0.8311 0.1616
1.0000 0.8311 0.1626
1.0000 0.8311 0.1626
1.0000 0.8311 0.1626
0.0845 0.7529 0.1331
0.1003 0.7529 0.1331
0.1172 0.7540 0.1331
0.1341 0.7550 0.1320
0.1521 0.7561 0.1299
0.1711 0.7582 0.1257
0.1901 0.7592 0.1193
0.2112 0.7613 0.1098
0.2334 0.7656 0.0982
0.2587 0.7708 0.0919
0.2904 0.7804 0.0940
0.3432 0.7920 0.0971
0.4076 0.8036 0.1035
0.4752 0.8131 0.1109
0.5449 0.8236 0.1172
0.6040 0.8332 0.1225
0.6600 0.8437 0.1299
0.7149 0.8522 0.1373
0.7635 0.8585 0.1425
0.8036 0.8564 0.1457
0.8395 0.8564 0.1499
0.8712 0.8553 0.1542
0.8965 0.8532 0.1563
0.9187 0.8511 0.1584
0.9409 0.8511 0.1605
0.9620 0.8522 0.1626
0.9789 0.8522 0.1626
0.9947 0.8522 0.1626
1.0000 0.8532 0.1626
1.0000 0.8532 0.1626
1.0000 0.8532 0.1626
1.0000 0.8532 0.1626
0.0824 0.7761 0.1362
0.0982 0.7761 0.1362
0.1151 0.7772 0.1352
0.1331 0.7772 0.1341
0.1510 0.7793 0.1331
0.1700 0.7804 0.1278
0.1901 0.7814 0.1214
0.2112 0.7835 0.1119
0.2344 0.7867 0.1003
0.2587 0.7930 0.0929
0.2893 0.8025 0.0950
0.3442 0.8131 0.0993
0.4055 0.8236 0.1046
0.4720 0.8342 0.1109
0.5406 0.8437 0.1172
0.5998 0.8532 0.1225
0.6558 0.8627 0.1299
0.7075 0.8712 0.1362
0.7592 0.8786 0.1425
0.7994 0.8775 0.1447
0.8374 0.8775 0.1499
0.8690 0.8775 0.1542
0.8954 0.8754 0.1563
0.9176 0.8733 0.1584
0.9398 0.8733 0.1605
0.9599 0.8722 0.1616
0.9799 0.8733 0.1637
0.9958 0.8743 0.1637
1.0000 0.8743 0.1637
1.0000 0.8743 0.1626
1.0000 0.8743 0.1626
1.0000 0.8743 0.1626
0.0834 0.7962 0.1394
0.0993 0.7972 0.1394
0.1162 0.7972 0.1383
0.1331 0.7983 0.1373
0.1521 0.7994 0.1352
0.1711 0.8004 0.1310
0.1911 0.8015 0.1235
0.2123 0.8036 0.1140
0.2355 0.8068 0.1024
0.2598 0.8120 0.0950
0.2904 0.8205 0.0961
0.3442 0.8321 0.1003
0.4034 0.8416 0.1046
0.4678 0.8511 0.1109
0.5354 0.8606 0.1172
0.5955 0.8701 0.1225
0.6515 0.8796 0.1299
0.7012 0.8881 0.1352
0.7508 0.8954 0.1415
0.7951 0.8965 0.1457
0.8332 0.8965 0.1489
0.8648 0.8965 0.1531
0.8923 0.8944 0.1563
0.9166 0.8933 0.1584
0.9377 0.8923 0.1605
0.9588 0.8912 0.1616
0.9789 0.8912 0.1637
0.9958 0.8923 0.1637
1.0000 0.8933 0.1637
1.0000 0.8933 0.1637
1.0000 0.8933 0.1637
1.0000 0.8933 0.1637
0.0845 0.8173 0.1436
0.1003 0.8184 0.1436
0.1172 0.8184 0.1425
0.1341 0.8194 0.1415
0.1531 0.8205 0.1394
0.1721 0.8215 0.1341
0.1932 0.8226 0.1267
0.2144 0.8247 0.1172
0.2365 0.8279 0.1056
0.2598 0.8321 0.0982
0.2904 0.8405 0.0982
0.3453 0.8511 0.1014
0.4023 0.8606 0.1056
0.4625 0.8680 0.1109
0.5279 0.8775 0.1162
0.5892 0.8870 0.1225
0.6441 0.8965 0.1288
0.6948 0.9039 0.1352
0.7423 0.9113 0.1404
0.7909 0.9166 0.1457
0.8268 0.9145 0.1478
0.8606 0.9145 0.1521
0.8891 0.9134 0.1552
0.9134 0.9113 0.1584
0.9366 0.9113 0.1605
0.9578 0.9102 0.1616
0.9778 0.9092 0.1637
0.9958 0.9092 0.1647
1.0000 0.9113 0.1637
1.0000 0.9134 0.1647
1.0000 0.9134 0.1647
1.0000 0.9134 0.1647
0.0876 0.8458 0.1531
0.1024 0.8458 0.1521
0.1204 0.8458 0.1521
0.1373 0.8469 0.1499
