nova/tdt-studio/app/Lut_mau/Neumann Films LUTs/Neumann Films - BMPCC - Film - OLD GROWTH.cube
TITLE "BMPCC - Film - OLD GROWTH"
LUT_3D_SIZE 5
DOMAIN_MIN 0.000000 0.000000 0.000000
DOMAIN_MAX 0.903226 0.903226 0.903226
0.0349 0.0349 0.0349
0.1668 0.0349 0.0370
0.5100 0.0539 0.0496
0.7508 0.0771 0.0676
0.9029 0.1003 0.0792
0.0401 0.1383 0.0349
0.1447 0.1499 0.0349
0.4942 0.1795 0.0496
0.7761 0.2038 0.0750
0.9345 0.2302 0.0887
0.0570 0.4055 0.0560
0.1774 0.4182 0.0496
0.4995 0.4963 0.0803
0.8374 0.5090 0.1204
0.9799 0.4900 0.1235
0.0855 0.6748 0.1225
0.2101 0.6874 0.1003
0.5427 0.7550 0.1130
0.8754 0.7835 0.1531
1.0000 0.7835 0.1605
0.0876 0.8458 0.1531
0.2165 0.8511 0.1267
0.5216 0.8954 0.1172
0.8553 0.9345 0.1499
1.0000 0.9293 0.1647
0.0349 0.0370 0.1616
0.1574 0.0380 0.1563
0.5269 0.0528 0.1753
0.7497 0.0686 0.1806
0.8912 0.0971 0.1953
0.0349 0.1425 0.1499
0.1468 0.1447 0.1457
0.5121 0.1404 0.1436
0.7550 0.1658 0.1552
0.9018 0.1901 0.1668
0.0443 0.4129 0.1890
0.1563 0.4118 0.1383
0.5111 0.4942 0.1658
0.8289 0.4551 0.1953
0.9736 0.4477 0.2017
0.0750 0.6843 0.2503
0.1859 0.6864 0.2028
0.5322 0.7540 0.1975
0.8765 0.7825 0.2387
1.0000 0.7793 0.2450
0.0845 0.8469 0.2724
0.1880 0.8342 0.2070
0.5385 0.8976 0.2038
0.8543 0.9324 0.2355
1.0000 0.9324 0.2492
0.0380 0.0486 0.4910
0.1975 0.0422 0.4921
0.4710 0.0718 0.5121
0.7592 0.0950 0.5396
0.9176 0.1193 0.5375
0.0380 0.2281 0.4425
0.1225 0.1552 0.4393
0.4900 0.1595 0.4636
0.7730 0.1647 0.4403
0.9166 0.1816 0.4234
0.0464 0.4330 0.4393
0.1341 0.4372 0.4403
0.4277 0.4382 0.4414
0.7899 0.3981 0.3727
0.9240 0.3939 0.3601
0.0750 0.7128 0.4256
0.1689 0.7086 0.3981
0.4477 0.7423 0.3200
0.8902 0.7888 0.3770
1.0000 0.7761 0.3759
0.0855 0.8701 0.4372
0.1679 0.8522 0.3970
0.5069 0.8986 0.3337
0.8575 0.9419 0.3696
1.0000 0.9366 0.3812
0.0401 0.0539 0.7064
0.2344 0.0486 0.7170
0.4456 0.0792 0.7223
0.7318 0.1056 0.7540
0.8881 0.1267 0.7740
0.0433 0.2693 0.6843
0.1257 0.1489 0.6822
0.4023 0.1521 0.7022
0.7350 0.1901 0.7223
0.8912 0.2133 0.7350
0.0581 0.4858 0.7075
0.1425 0.4805 0.7117
0.2672 0.4351 0.7297
0.7592 0.3727 0.7402
0.9250 0.4013 0.7466
0.0824 0.7423 0.7307
0.1689 0.7476 0.7307
0.3105 0.7719 0.7508
0.8089 0.8141 0.7983
1.0000 0.7899 0.7751
0.0940 0.9029 0.7286
0.1774 0.8997 0.7096
0.3316 0.9145 0.7043
0.8194 0.9842 0.6853
1.0000 0.9799 0.6336
0.0412 0.1257 0.8342
0.2365 0.0517 0.8564
0.4805 0.0887 0.8532
0.7286 0.1056 0.8712
0.8965 0.1595 0.8976
0.0496 0.2936 0.8353
0.1257 0.1859 0.8374
0.4277 0.1785 0.8490
0.7170 0.1996 0.8606
0.8891 0.2281 0.8775
0.0644 0.5185 0.8680
0.1468 0.4995 0.8627
0.2714 0.4530 0.8828
0.7233 0.4013 0.8881
0.9113 0.4002 0.8954
0.0866 0.7571 0.8944
0.1700 0.7487 0.8881
0.3073 0.7687 0.9060
0.7350 0.7983 0.9620
0.9884 0.7508 0.9609
0.0950 0.9113 0.8986
0.1806 0.9124 0.8933
0.3178 0.9345 0.9102
0.6558 0.9968 0.9567
1.0000 1.0000 0.9842
