nova/tdt-studio/app/Lut_mau/Neumann Films LUTs/Neumann Films - BMPCC - Film - OLD GROWTH.cube
TITLE "BMPCC - Film - OLD GROWTH"
LUT_3D_SIZE 8
DOMAIN_MIN 0.000000 0.000000 0.000000
DOMAIN_MAX 0.903226 0.903226 0.903226
0.0349 0.0349 0.0349
0.0729 0.0349 0.0349
0.2101 0.0359 0.0380
0.4013 0.0464 0.0443
0.5955 0.0612 0.0560
0.7223 0.0729 0.0655
0.8247 0.0866 0.0729
0.9029 0.1003 0.0792
0.0370 0.0718 0.0349
0.0729 0.0718 0.0349
0.1975 0.0961 0.0359
0.3875 0.1119 0.0401
0.5987 0.1310 0.0581
0.7339 0.1447 0.0686
0.8416 0.1574 0.0771
0.9176 0.1721 0.0834
0.0412 0.1679 0.0349
0.0971 0.1711 0.0349
0.1795 0.1848 0.0349
0.3706 0.2070 0.0412
0.6019 0.2080 0.0602
0.7497 0.2207 0.0739
0.8596 0.2387 0.0845
0.9388 0.2524 0.0908
0.0496 0.3157 0.0391
0.1109 0.3252 0.0391
0.1795 0.3316 0.0370
0.3590 0.3696 0.0539
0.6114 0.3886 0.0803
0.7793 0.3696 0.0961
0.8796 0.3516 0.1014
0.9599 0.3633 0.1077
0.0686 0.4868 0.0803
0.1362 0.4963 0.0771
0.2123 0.5100 0.0644
0.3400 0.5406 0.0697
0.6473 0.6177 0.1098
0.8268 0.6294 0.1394
0.9261 0.6220 0.1447
0.9989 0.6188 0.1457
0.0845 0.6441 0.1183
0.1499 0.6505 0.1151
0.2302 0.6642 0.0876
0.3875 0.7001 0.0940
0.6705 0.7519 0.1267
0.8426 0.7571 0.1489
0.9409 0.7571 0.1584
1.0000 0.7571 0.1595
0.0845 0.7529 0.1331
0.1521 0.7561 0.1299
0.2334 0.7656 0.0982
0.4076 0.8036 0.1035
0.6600 0.8437 0.1299
0.8395 0.8564 0.1499
0.9409 0.8511 0.1605
1.0000 0.8532 0.1626
0.0876 0.8458 0.1531
0.1563 0.8479 0.1468
0.2387 0.8543 0.1172
0.4013 0.8817 0.1077
0.6378 0.9134 0.1288
0.8205 0.9345 0.1478
0.9345 0.9303 0.1605
1.0000 0.9293 0.1647
0.0349 0.0359 0.0760
0.0707 0.0349 0.0718
0.2101 0.0359 0.0940
0.4034 0.0422 0.1077
0.5987 0.0591 0.1193
0.7191 0.0686 0.1288
0.8194 0.0866 0.1383
0.8954 0.1056 0.1468
0.0349 0.0729 0.0750
0.0707 0.0707 0.0707
0.2101 0.0718 0.0718
0.4034 0.0792 0.0824
0.5966 0.0929 0.0876
0.7233 0.1056 0.0982
0.8258 0.1193 0.1056
0.9007 0.1299 0.1109
0.0349 0.1679 0.0929
0.0792 0.1700 0.0686
0.1837 0.1848 0.0686
0.3791 0.1932 0.0739
0.6061 0.1964 0.0919
0.7476 0.2070 0.1046
0.8564 0.2217 0.1140
0.9324 0.2334 0.1193
0.0380 0.3136 0.1046
0.0929 0.3242 0.0729
0.1753 0.3326 0.0697
0.3675 0.3738 0.0866
0.6177 0.3780 0.1119
0.7783 0.3538 0.1257
0.8775 0.3390 0.1310
0.9546 0.3485 0.1362
0.0549 0.4858 0.1478
0.1162 0.5005 0.1162
0.2049 0.5111 0.0971
0.3369 0.5406 0.1014
0.6547 0.6198 0.1425
0.8268 0.6241 0.1711
0.9261 0.6146 0.1753
0.9979 0.6061 0.1753
0.0718 0.6452 0.1859
0.1288 0.6515 0.1510
0.2217 0.6652 0.1235
0.3833 0.7012 0.1257
0.6705 0.7529 0.1595
0.8448 0.7571 0.1816
0.9419 0.7561 0.1901
1.0000 0.7550 0.1911
0.0782 0.7540 0.2006
0.1267 0.7561 0.1658
0.2249 0.7656 0.1352
0.4045 0.8047 0.1362
0.6589 0.8448 0.1616
0.8405 0.8564 0.1827
0.9430 0.8522 0.1932
1.0000 0.8532 0.1943
0.0834 0.8426 0.2186
0.1267 0.8416 0.1795
0.2292 0.8490 0.1457
0.4034 0.8807 0.1394
0.6388 0.9124 0.1605
0.8205 0.9324 0.1785
0.9335 0.9293 0.1911
1.0000 0.9314 0.1964
0.0359 0.0380 0.2471
0.0929 0.0359 0.2481
0.1996 0.0422 0.2503
0.4213 0.0486 0.2682
0.6177 0.0591 0.2397
0.7307 0.0676 0.2249
0.8236 0.0771 0.2323
0.8933 0.0866 0.2344
0.0349 0.0929 0.1880
0.0676 0.0750 0.1943
0.1996 0.0750 0.1985
0.4224 0.0739 0.1922
0.6072 0.0908 0.1859
0.7244 0.0982 0.1848
0.8184 0.1088 0.1911
0.8902 0.1193 0.1985
0.0349 0.1700 0.1753
0.0686 0.1711 0.1774
0.1795 0.1753 0.1795
0.3918 0.1764 0.1679
0.6019 0.1668 0.1647
0.7297 0.1816 0.1721
0.8311 0.1975 0.1806
0.9039 0.2144 0.1880
0.0370 0.3210 0.1911
0.0803 0.3210 0.1742
0.1658 0.3210 0.1478
0.3685 0.3664 0.1616
0.6177 0.3400 0.1764
0.7730 0.3147 0.1880
0.8690 0.3041 0.1922
0.9461 0.3178 0.1996
0.0560 0.5016 0.2365
0.0993 0.4952 0.2123
0.1901 0.4974 0.1742
0.3168 0.5290 0.1689
0.6547 0.6135 0.2144
0.8247 0.6072 0.2397
0.9229 0.5861 0.2397
0.9937 0.5681 0.2376
0.0729 0.6589 0.2650
0.1151 0.6526 0.2439
0.2059 0.6579 0.2112
0.3590 0.6948 0.1943
0.6621 0.7508 0.2292
0.8448 0.7561 0.2534
0.9430 0.7540 0.2629
1.0000 0.7487 0.2619
0.0792 0.7613 0.2745
0.1140 0.7582 0.2577
0.2091 0.7603 0.2217
0.4013 0.8036 0.2070
0.6526 0.8416 0.2323
0.8363 0.8543 0.2524
0.9451 0.8532 0.2650
1.0000 0.8511 0.2661
0.0845 0.8479 0.2893
0.1151 0.8395 0.2693
0.2112 0.8363 0.2186
0.4108 0.8786 0.2112
0.6420 0.9134 0.2323
0.8184 0.9314 0.2503
0.9345 0.9293 0.2640
1.0000 0.9314 0.2682
0.0380 0.0433 0.4203
0.1014 0.0380 0.4139
0.2112 0.0433 0.4171
0.3643 0.0591 0.4256
0.6082 0.0760 0.4425
0.7434 0.0792 0.4351
0.8448 0.0866 0.4298
0.9187 0.1003 0.4224
0.0370 0.1204 0.3633
0.0686 0.0771 0.3601
0.1880 0.0771 0.3664
0.3812 0.0919 0.3749
0.6230 0.0993 0.3727
0.7487 0.1014 0.3538
0.8416 0.1109 0.3390
0.9102 0.1193 0.3390
0.0370 0.2207 0.3580
0.0686 0.2091 0.3527
0.1404 0.1795 0.3590
0.3696 0.1774 0.3675
0.6230 0.1647 0.3358
0.7423 0.1721 0.3020
0.8300 0.1859 0.2809
0.8986 0.1932 0.2851
0.0370 0.3421 0.3548
0.0686 0.3421 0.3495
0.1478 0.3421 0.3538
0.3326 0.3379 0.3463
0.5998 0.3168 0.2936
0.7413 0.2841 0.2714
0.8395 0.3052 0.2714
0.9134 0.3178 0.2777
0.0549 0.5100 0.3643
0.0971 0.5111 0.3495
0.1806 0.5111 0.3284
0.2767 0.5037 0.2619
0.6367 0.5955 0.2893
0.8289 0.5607 0.3041
0.9261 0.5248 0.3031
0.9968 0.5174 0.3041
0.0729 0.6758 0.3612
0.1077 0.6737 0.3474
0.1964 0.6652 0.3231
0.3105 0.6790 0.2640
0.6336 0.7434 0.2988
0.8522 0.7582 0.3316
0.9451 0.7529 0.3369
1.0000 0.7444 0.3358
0.0792 0.7740 0.3654
0.1109 0.7730 0.3527
0.1975 0.7645 0.3263
0.3474 0.7920 0.2756
0.6388 0.8437 0.3062
0.8405 0.8585 0.3305
0.9483 0.8553 0.3411
1.0000 0.8543 0.3411
0.0845 0.8617 0.3812
0.1151 0.8511 0.3612
0.1996 0.8426 0.3305
0.3643 0.8712 0.2809
0.6441 0.9187 0.3094
0.8205 0.9377 0.3274
0.9430 0.9335 0.3421
1.0000 0.9335 0.3432
0.0391 0.0549 0.5544
0.1140 0.0391 0.5597
0.2387 0.0464 0.5670
0.3453 0.0591 0.5755
0.5607 0.0845 0.5924
0.7159 0.1014 0.6093
0.8236 0.1088 0.6283
0.9050 0.1331 0.6336
0.0391 0.1700 0.5100
0.0707 0.0771 0.5121
0.2123 0.0760 0.5227
0.3379 0.0887 0.5312
0.5755 0.1183 0.5502
0.7276 0.1288 0.5618
0.8342 0.1373 0.5744
0.9113 0.1510 0.5681
0.0391 0.2682 0.5079
0.0707 0.2587 0.5132
0.1425 0.1880 0.5142
0.2978 0.1626 0.5301
0.5744 0.1901 0.5480
0.7339 0.1975 0.5480
0.8416 0.2070 0.5385
0.9187 0.2196 0.5290
0.0454 0.3823 0.5121
0.0771 0.3802 0.5164
0.1478 0.3706 0.5227
0.2239 0.3411 0.5364
0.5691 0.3178 0.5533
0.7561 0.2820 0.5100
0.8596 0.2883 0.4815
0.9282 0.2988 0.4667
0.0549 0.5174 0.5121
0.0876 0.5216 0.5164
0.1616 0.5343 0.5290
0.2566 0.5533 0.5491
0.5470 0.5639 0.5502
0.7783 0.5269 0.4868
0.8765 0.4952 0.4584
0.9461 0.4910 0.4467
0.0750 0.6927 0.5238
0.1067 0.6948 0.5227
0.1869 0.6959 0.5132
0.2862 0.6959 0.4858
0.4995 0.7339 0.4319
0.8448 0.7666 0.4330
0.9440 0.7487 0.4309
1.0000 0.7339 0.4309
0.0813 0.7941 0.4942
0.1130 0.7951 0.4900
0.1837 0.7909 0.4688
0.2967 0.7867 0.4203
0.6103 0.8490 0.3897
0.8332 0.8712 0.4087
0.9504 0.8648 0.4234
1.0000 0.8627 0.4245
0.0855 0.8754 0.4995
0.1162 0.8701 0.4880
0.1869 0.8638 0.4646
0.2999 0.8606 0.4067
0.6251 0.9229 0.3886
0.8173 0.9483 0.4034
0.9504 0.9451 0.4277
1.0000 0.9409 0.4266
0.0401 0.0528 0.6790
0.1267 0.0401 0.6853
0.2608 0.0517 0.6906
0.3759 0.0665 0.6959
0.5216 0.0834 0.7043
0.7033 0.1024 0.7255
0.8120 0.1098 0.7413
0.8902 0.1278 0.7519
0.0401 0.1985 0.6484
0.0718 0.0866 0.6431
0.2323 0.0792 0.6579
0.3590 0.0950 0.6652
0.5312 0.1162 0.6716
0.7086 0.1352 0.6916
0.8163 0.1425 0.7086
0.8944 0.1626 0.7170
0.0443 0.2862 0.6579
0.0750 0.2724 0.6558
0.1436 0.1721 0.6568
0.3136 0.1563 0.6726
0.5026 0.1848 0.6748
0.7096 0.2070 0.6927
0.8194 0.2165 0.7033
0.8976 0.2408 0.7086
0.0507 0.4055 0.6674
0.0834 0.4023 0.6674
0.1531 0.3897 0.6726
0.2207 0.3538 0.6811
0.4615 0.3115 0.7001
0.7191 0.2946 0.6990
0.8342 0.3210 0.7043
0.9155 0.3432 0.7117
0.0623 0.5575 0.6843
0.0950 0.5586 0.6832
0.1668 0.5586 0.6895
0.2418 0.5597 0.7001
0.3727 0.5238 0.7286
0.7444 0.4995 0.7339
0.8754 0.4604 0.7149
0.9514 0.4584 0.6948
0.0782 0.7064 0.6959
0.1098 0.7075 0.6906
0.1837 0.7159 0.6990
0.2629 0.7276 0.7107
0.3771 0.7519 0.7286
0.7666 0.7730 0.7592
0.9155 0.7466 0.7318
0.9915 0.7350 0.7128
0.0887 0.8215 0.6938
0.1214 0.8226 0.6874
0.1932 0.8226 0.6811
0.2745 0.8300 0.6822
0.3960 0.8501 0.6547
0.7561 0.8976 0.6589
0.9493 0.9039 0.6610
1.0000 0.9018 0.6874
0.0919 0.8986 0.6927
0.1235 0.8954 0.6800
0.1943 0.8944 0.6674
0.2756 0.8997 0.6621
0.4118 0.9155 0.5924
0.7877 0.9736 0.6135
0.9398 0.9842 0.6357
1.0000 0.9683 0.5649
0.0401 0.0961 0.7719
0.1299 0.0412 0.7867
0.2714 0.0549 0.7888
0.4002 0.0750 0.7888
0.5248 0.0876 0.7941
0.6916 0.1014 0.8089
0.8099 0.1151 0.8247
0.8860 0.1341 0.8311
0.0401 0.2059 0.7444
0.0718 0.1003 0.7476
0.2429 0.0813 0.7635
0.3823 0.1024 0.7656
0.5142 0.1183 0.7708
0.6916 0.1331 0.7856
0.8099 0.1436 0.8004
0.8870 0.1626 0.8078
0.0475 0.2999 0.7571
0.0782 0.2841 0.7571
0.1447 0.1869 0.7624
0.3316 0.1668 0.7751
0.4720 0.1911 0.7783
0.6769 0.2017 0.7835
0.8078 0.2144 0.7972
0.8870 0.2344 0.8036
0.0549 0.4161 0.7719
0.0866 0.4118 0.7740
0.1563 0.3949 0.7751
0.2217 0.3506 0.7867
0.4245 0.2957 0.8036
0.6769 0.3126 0.7972
0.8205 0.3168 0.8089
0.9018 0.3411 0.8152
0.0665 0.5766 0.7962
0.0993 0.5787 0.7983
0.1700 0.5723 0.7994
0.2450 0.5670 0.8057
0.3136 0.5280 0.8236
0.6790 0.4974 0.8300
0.8437 0.4340 0.8258
0.9250 0.4530 0.8289
0.0824 0.7212 0.8120
0.1151 0.7223 0.8131
0.1859 0.7201 0.8131
0.2629 0.7276 0.8205
0.3379 0.7381 0.8363
0.6663 0.7476 0.8754
0.8923 0.6990 0.8754
0.9894 0.7033 0.8743
0.0908 0.8300 0.8131
0.1225 0.8311 0.8141
0.1953 0.8332 0.8141
0.2735 0.8448 0.8236
0.3506 0.8648 0.8384
0.6441 0.9081 0.8754
0.9208 0.9229 0.8954
1.0000 0.9218 0.8954
0.0950 0.9092 0.8152
0.1267 0.9081 0.8120
0.1996 0.9124 0.8110
0.2767 0.9218 0.8194
0.3527 0.9388 0.8300
0.6008 0.9789 0.8416
0.9081 1.0000 0.8617
1.0000 1.0000 0.8543
0.0412 0.1257 0.8342
0.1225 0.0507 0.8490
0.2693 0.0549 0.8564
0.4066 0.0771 0.8543
0.5406 0.0919 0.8575
0.6959 0.1035 0.8669
0.8152 0.1278 0.8860
0.8965 0.1595 0.8976
0.0454 0.2281 0.8289
0.0729 0.1552 0.8279
0.2429 0.0908 0.8479
0.3918 0.1109 0.8448
0.5290 0.1267 0.8458
0.6906 0.1352 0.8553
0.8131 0.1595 0.8722
0.8944 0.1890 0.8838
0.0507 0.3157 0.8384
0.0813 0.2978 0.8342
0.1447 0.2070 0.8416
0.3379 0.1880 0.8543
0.4858 0.2133 0.8543
0.6790 0.2260 0.8606
0.8089 0.2302 0.8712
0.8912 0.2503 0.8796
0.0581 0.4340 0.8532
0.0887 0.4245 0.8501
0.1584 0.4034 0.8501
0.2260 0.3612 0.8659
0.4287 0.3178 0.8807
0.6758 0.3421 0.8754
0.8184 0.3358 0.8828
0.9029 0.3474 0.8902
0.0707 0.5924 0.8765
0.1024 0.5882 0.8733
0.1721 0.5776 0.8722
0.2471 0.5755 0.8807
0.3200 0.5523 0.8997
0.6705 0.5079 0.9039
0.8374 0.4498 0.8997
0.9218 0.4520 0.9029
0.0845 0.7265 0.8902
0.1162 0.7244 0.8870
0.1859 0.7180 0.8860
0.2640 0.7276 0.8944
0.3390 0.7392 0.9113
0.6526 0.7487 0.9493
0.8807 0.7255 0.9536
0.9725 0.6864 0.9451
0.0919 0.8342 0.8976
0.1235 0.8342 0.8944
0.1964 0.8353 0.8954
0.2745 0.8469 0.9039
0.3506 0.8648 0.9176
0.6114 0.9029 0.9546
0.9081 0.9218 0.9831
1.0000 0.9081 0.9894
0.0950 0.9113 0.8986
0.1267 0.9102 0.8933
0.1996 0.9145 0.8954
0.2777 0.9261 0.9039
0.3538 0.9430 0.9166
0.5301 0.9842 0.9440
0.8754 1.0000 0.9799
1.0000 1.0000 0.9842
