nova/tdt-studio/app/Lut_mau/IWLTBAP/1 - LUTs by IWLTBAP (CUBE)/01 - Standard/GoPro & Drones/IWLTBAP Batiog.cube
# Copyright: (C) Copyright 2016 by IWLTBAP
TITLE "LUT created by IWLTBAP for GoPro Pack"
LUT_3D_SIZE 8
DOMAIN_MIN 0.000000 0.000000 0.000000
DOMAIN_MAX 0.903226 0.903226 0.903226
0.041077 0.057007 0.064056
0.094577 0.068848 0.070903
0.207236 0.084145 0.070696
0.384143 0.089209 0.063579
0.531046 0.104552 0.077984
0.652984 0.122003 0.113916
0.732844 0.136133 0.141004
0.801406 0.156522 0.158196
0.046037 0.091463 0.065898
0.087826 0.100340 0.068636
0.226508 0.109009 0.055564
0.400325 0.123541 0.065068
0.557118 0.139453 0.080030
0.683135 0.160143 0.116909
0.765543 0.179507 0.145534
0.830718 0.208046 0.163619
0.060571 0.141131 0.068618
0.101531 0.157111 0.068171
0.266488 0.168342 0.056746
0.450801 0.171080 0.068681
0.624386 0.191038 0.088990
0.738683 0.221863 0.118315
0.818584 0.264536 0.147377
0.884794 0.337907 0.162725
0.079476 0.207188 0.078261
0.132635 0.238459 0.076622
0.361449 0.304161 0.103952
0.533198 0.290364 0.082885
0.692070 0.280385 0.097048
0.798894 0.327640 0.137317
0.865509 0.383118 0.159905
0.904568 0.450110 0.186154
0.120705 0.305350 0.095885
0.218122 0.363761 0.097347
0.465217 0.443962 0.145259
0.622287 0.472463 0.141632
0.747388 0.471708 0.163180
0.830107 0.464031 0.170411
0.889424 0.491750 0.191665
0.916287 0.537760 0.214152
0.205186 0.429206 0.115595
0.326371 0.488923 0.132682
0.524104 0.538046 0.173423
0.678487 0.586660 0.196791
0.775594 0.615923 0.227033
0.857785 0.621005 0.243200
0.909441 0.608064 0.243516
0.926810 0.621507 0.252122
0.287498 0.534100 0.151412
0.403041 0.575295 0.161382
0.568701 0.619368 0.201776
0.716142 0.665167 0.231688
0.805138 0.694386 0.258777
0.869618 0.724846 0.292695
0.920102 0.733788 0.308241
0.931809 0.713401 0.299255
0.398643 0.655538 0.187530
0.496809 0.680182 0.198868
0.620690 0.715093 0.219811
0.744355 0.752960 0.246589
0.832590 0.777778 0.296262
0.885452 0.786426 0.317146
0.923984 0.794679 0.327183
0.938566 0.797961 0.328961
0.038892 0.067382 0.101105
0.101290 0.076523 0.112198
0.246450 0.085692 0.110845
0.413304 0.085281 0.093605
0.539998 0.099876 0.106907
0.650658 0.113604 0.135980
0.730066 0.130998 0.161577
0.795726 0.158703 0.182883
0.039910 0.093681 0.108493
0.071381 0.101039 0.113630
0.207195 0.121248 0.114362
0.419865 0.127502 0.089073
0.569271 0.140641 0.098973
0.677475 0.158513 0.139482
0.755229 0.177034 0.166903
0.819547 0.208938 0.187370
0.053257 0.148205 0.110636
0.076931 0.157222 0.106079
0.274352 0.178976 0.092174
0.466509 0.176328 0.086706
0.622458 0.199595 0.105916
0.732564 0.227257 0.131731
0.810549 0.267109 0.164991
0.871660 0.327630 0.184758
0.076082 0.207753 0.106940
0.104712 0.236017 0.105504
0.344585 0.320510 0.136452
0.554070 0.312017 0.105440
0.707907 0.298125 0.119436
0.800142 0.343926 0.158548
0.863546 0.393055 0.179840
0.902851 0.455954 0.204709
0.106134 0.293865 0.124964
0.196666 0.376152 0.119179
0.448778 0.453236 0.173057
0.631160 0.487251 0.167832
0.751880 0.488760 0.191677
0.835349 0.477967 0.196948
0.893008 0.502767 0.216237
0.915715 0.543587 0.237926
0.160197 0.399314 0.162189
0.305106 0.498785 0.155936
0.508460 0.543284 0.197967
0.671763 0.593402 0.234522
0.779208 0.626027 0.255007
0.858777 0.632010 0.273719
0.910571 0.615565 0.271761
0.927049 0.628652 0.280117
0.270530 0.542623 0.208178
0.390451 0.585447 0.193182
0.554046 0.621552 0.226885
0.703371 0.666814 0.272233
0.807850 0.702511 0.288954
0.870719 0.729891 0.321805
0.919881 0.738359 0.337554
0.931756 0.718323 0.328398
0.371264 0.654272 0.232092
0.489106 0.698952 0.229407
0.616956 0.718822 0.246123
0.736056 0.749781 0.269927
0.830046 0.781420 0.322607
0.885947 0.790598 0.346343
0.923334 0.798130 0.355296
0.938396 0.800304 0.356262
0.042928 0.081490 0.149015
0.061748 0.085133 0.160184
0.264254 0.109590 0.181610
0.457924 0.103176 0.144626
0.595913 0.111607 0.149558
0.683750 0.123483 0.167834
0.743613 0.136760 0.183351
0.800250 0.159814 0.203724
0.044093 0.104203 0.151118
0.060083 0.114185 0.168826
0.241127 0.142818 0.194650
0.449626 0.135489 0.152430
0.603638 0.145227 0.154892
0.702072 0.158273 0.177906
0.760418 0.177225 0.192973
0.818350 0.220570 0.222547
0.050443 0.150491 0.180498
0.065666 0.160160 0.192871
0.134372 0.188755 0.219308
0.436284 0.216836 0.194198
0.622212 0.215777 0.165851
0.725041 0.234239 0.192064
0.795428 0.252823 0.207324
0.856207 0.322172 0.224301
0.074889 0.266275 0.245023
0.088652 0.261906 0.217026
0.153325 0.300000 0.195816
0.553665 0.364536 0.175786
0.703852 0.344346 0.165465
0.796330 0.388777 0.202751
0.856467 0.429580 0.232519
0.900200 0.468815 0.243956
0.104424 0.369767 0.274375
0.123956 0.353067 0.232992
0.327450 0.452670 0.203377
0.604980 0.514434 0.249235
0.744392 0.517107 0.245912
0.834083 0.497525 0.234830
0.888136 0.518520 0.244981
0.917462 0.556714 0.268949
0.138416 0.451457 0.308248
0.161688 0.429661 0.251731
0.453818 0.553632 0.229023
0.628312 0.599682 0.297237
0.779780 0.639828 0.299903
0.856791 0.644606 0.305450
0.911551 0.623005 0.301471
0.927529 0.637371 0.310183
0.168212 0.518392 0.345620
0.229313 0.532584 0.303524
0.517091 0.630208 0.263150
0.659377 0.664469 0.322849
0.799119 0.713472 0.363778
0.871240 0.736414 0.351429
0.919580 0.741985 0.366306
0.931421 0.719983 0.356058
0.302201 0.637869 0.339742
0.373342 0.660682 0.301833
0.603646 0.752219 0.286156
0.723543 0.760240 0.307152
0.818535 0.782685 0.355803
0.884128 0.796984 0.387656
0.923885 0.803126 0.383220
0.937835 0.802258 0.383629
0.050103 0.101484 0.210274
0.064031 0.101544 0.216713
0.167737 0.117251 0.247514
0.481071 0.144663 0.241953
0.624844 0.139158 0.207003
0.708276 0.157662 0.233689
0.766138 0.170380 0.242936
0.813776 0.184074 0.252882
0.051820 0.125707 0.214572
0.066843 0.131679 0.227943
0.116159 0.141600 0.260532
0.472577 0.185575 0.265486
0.629590 0.171451 0.213555
0.716786 0.190142 0.241369
0.776682 0.208128 0.256884
0.833826 0.263801 0.294982
0.057378 0.165189 0.237624
0.073809 0.177807 0.256970
0.092946 0.196555 0.290533
0.463405 0.298186 0.359204
0.640500 0.249710 0.256368
0.735397 0.263096 0.273351
0.802498 0.324676 0.321003
0.860871 0.386032 0.359864
0.077492 0.254279 0.307166
0.097518 0.280659 0.333641
0.119561 0.310164 0.365177
0.327112 0.426539 0.443857
0.632554 0.460923 0.418431
0.767977 0.462490 0.357716
0.830222 0.483655 0.390845
0.886272 0.501483 0.399444
0.126016 0.423219 0.418178
0.152576 0.457469 0.436458
0.166339 0.452436 0.419320
0.389236 0.523899 0.402402
0.723779 0.561077 0.355233
0.816739 0.549282 0.358523
0.878921 0.572264 0.391589
0.916313 0.596331 0.416202
0.185748 0.556653 0.491303
0.192795 0.539734 0.464294
0.207159 0.531328 0.438833
0.526207 0.608022 0.382010
0.753400 0.665957 0.405051
0.843924 0.675060 0.426492
0.903891 0.644999 0.419090
0.926399 0.663473 0.427341
0.217618 0.601389 0.495952
0.232098 0.592501 0.480617
0.267354 0.592674 0.444119
0.587073 0.670919 0.386567
0.761695 0.720412 0.439570
0.864857 0.752960 0.459503
0.917547 0.751774 0.430666
0.930056 0.729698 0.421993
0.288697 0.694314 0.490262
0.323216 0.690961 0.465116
0.379907 0.685307 0.394642
0.678765 0.777351 0.376162
0.783754 0.789215 0.422190
0.866881 0.807084 0.477703
0.921111 0.816512 0.484449
0.937284 0.805040 0.411031
0.058856 0.125964 0.278741
0.071645 0.122665 0.279047
0.092721 0.129724 0.310076
0.418019 0.192075 0.364596
0.644230 0.179171 0.291311
0.717652 0.194764 0.310272
0.770324 0.208512 0.317149
0.819167 0.246942 0.344570
0.061661 0.153525 0.287815
0.075696 0.157428 0.297070
0.091894 0.164275 0.318567
0.406390 0.240497 0.390649
0.649196 0.221376 0.306953
0.725690 0.235139 0.324491
0.782311 0.266003 0.347956
0.838087 0.331318 0.390103
0.068944 0.194448 0.309137
0.085194 0.207005 0.327472
0.104299 0.227820 0.359465
0.277817 0.284416 0.432050
0.658381 0.326280 0.381285
0.741119 0.320540 0.371148
0.802701 0.386798 0.423707
0.859146 0.437019 0.452133
0.086823 0.274054 0.366623
0.108398 0.304702 0.399039
0.130195 0.332552 0.429332
0.175451 0.388805 0.497707
0.651990 0.491332 0.521187
0.757821 0.492689 0.481382
0.824183 0.511722 0.497565
0.875210 0.530270 0.509922
0.123062 0.404747 0.462574
0.149681 0.437664 0.491029
0.177692 0.468588 0.517720
0.218265 0.514715 0.560281
0.591560 0.599706 0.595911
0.754067 0.617963 0.582885
0.850902 0.621627 0.547386
0.903055 0.623223 0.541080
0.186810 0.556835 0.555585
0.227314 0.587067 0.571663
0.267346 0.612352 0.591057
0.291588 0.611216 0.571597
0.602623 0.673544 0.560293
0.824499 0.699390 0.514374
0.889266 0.692398 0.529643
0.925596 0.702883 0.536971
0.275763 0.677579 0.625225
0.293903 0.674425 0.603748
0.300594 0.656001 0.581546
0.330448 0.659471 0.569770
0.668903 0.724402 0.539051
0.835439 0.765607 0.536739
0.909025 0.770287 0.536613
0.927781 0.749540 0.535358
0.315690 0.736163 0.620749
0.333315 0.732936 0.583123
0.352618 0.731258 0.556693
0.430762 0.750256 0.498174
0.730123 0.800883 0.489823
0.839493 0.820028 0.545520
0.913036 0.826722 0.560382
0.936174 0.819596 0.516467
0.067756 0.152061 0.343955
0.079661 0.147113 0.342506
0.095055 0.149247 0.358861
0.349882 0.203516 0.419341
0.620251 0.234077 0.405120
0.731390 0.235317 0.377552
0.778710 0.257424 0.396657
0.822052 0.310007 0.443378
0.073705 0.186861 0.360088
0.087271 0.189843 0.368173
0.101387 0.191797 0.379054
0.272677 0.233057 0.445350
0.626774 0.309592 0.458382
0.741230 0.288733 0.399801
0.791551 0.336143 0.441657
0.837066 0.383140 0.479130
0.082019 0.231018 0.381394
0.097716 0.242334 0.397707
0.115716 0.260839 0.423415
0.149120 0.289490 0.474078
0.627062 0.425097 0.542054
0.752860 0.396383 0.470465
0.804596 0.434263 0.503214
0.851750 0.467105 0.528626
0.101407 0.316155 0.440177
0.123734 0.346482 0.471954
0.144448 0.366317 0.494123
0.178874 0.413748 0.553541
0.576455 0.500644 0.601487
0.758105 0.520704 0.568794
0.818603 0.531248 0.568115
0.865678 0.546068 0.578969
0.129850 0.414738 0.506744
0.159027 0.452785 0.540681
0.187227 0.482375 0.567408
0.223476 0.518207 0.604688
0.415127 0.578918 0.664605
0.764231 0.630979 0.664859
0.831684 0.640472 0.653640
0.886033 0.647143 0.632862
0.180971 0.541332 0.589027
0.215826 0.568323 0.608879
0.253284 0.592336 0.628400
0.295617 0.618680 0.651190
0.391208 0.665988 0.695484
0.758429 0.731113 0.711297
0.849215 0.743266 0.712150
0.912696 0.735290 0.675818
0.259993 0.656704 0.657573
0.295549 0.677199 0.671239
0.329732 0.696088 0.683737
0.360976 0.710261 0.695028
0.442620 0.721458 0.685932
0.767207 0.779285 0.674599
0.897981 0.789637 0.615843
0.928414 0.786716 0.647079
0.326277 0.749478 0.710404
0.353657 0.762164 0.717562
0.374497 0.764878 0.698426
0.393635 0.763802 0.676154
0.478562 0.780548 0.615423
0.799099 0.834136 0.619536
0.894508 0.845289 0.646484
0.934849 0.833252 0.597792
0.078872 0.182766 0.408616
0.091443 0.181761 0.410996
0.104563 0.180545 0.419740
0.210185 0.199439 0.471306
0.610197 0.310423 0.530718
0.727536 0.289029 0.483119
0.794669 0.328340 0.519146
0.838699 0.381087 0.554821
0.086643 0.225003 0.431290
0.101890 0.233850 0.444972
0.113806 0.229880 0.446790
0.151544 0.250110 0.492820
0.603423 0.384493 0.567843
0.738140 0.360850 0.517815
0.807843 0.415824 0.554731
0.848729 0.443302 0.575930
0.097054 0.277606 0.458135
0.114565 0.293503 0.478773
0.131981 0.307872 0.498939
0.155164 0.333040 0.536858
0.567281 0.443649 0.603461
0.739508 0.471777 0.600056
0.817001 0.487530 0.598976
0.858005 0.503473 0.606282
0.117670 0.360545 0.513544
0.142935 0.392610 0.545860
0.161568 0.403777 0.558025
0.191541 0.437074 0.597290
0.354675 0.483316 0.659586
0.736656 0.550871 0.672501
0.827900 0.557547 0.662523
0.870005 0.568683 0.653279
0.147149 0.452179 0.570613
0.176879 0.489127 0.603117
0.204064 0.512020 0.622552
0.235889 0.532860 0.643472
0.295716 0.582104 0.704794
0.700326 0.624051 0.726296
0.842140 0.647354 0.726372
0.886277 0.660710 0.714444
0.189082 0.549779 0.627915
0.229455 0.583050 0.652743
0.263221 0.602045 0.667979
0.296708 0.617585 0.681117
0.348734 0.654247 0.724094
0.667319 0.718527 0.763836
0.851976 0.743275 0.773956
0.894259 0.748247 0.763681
0.256933 0.649013 0.682905
0.288587 0.665177 0.694455
0.319018 0.679062 0.704618
0.351018 0.693881 0.716008
0.391192 0.718941 0.742369
0.623673 0.772101 0.778813
0.852412 0.823035 0.797479
0.915611 0.829016 0.800670
0.312933 0.728848 0.725797
0.342555 0.743308 0.735437
0.371048 0.757141 0.744874
0.400265 0.772384 0.756161
0.427645 0.785031 0.765125
0.573306 0.815438 0.751177
0.860584 0.869909 0.766465
0.936940 0.860305 0.719511
0.093647 0.227636 0.487289
0.107759 0.231712 0.495727
0.120166 0.228603 0.500233
0.146389 0.241782 0.532840
0.551013 0.360714 0.604666
0.719302 0.399606 0.632856
0.796979 0.429109 0.648953
0.852347 0.462472 0.678635
0.104507 0.280481 0.518045
0.121207 0.292746 0.534854
0.132769 0.287464 0.532757
0.151444 0.302170 0.558627
0.542317 0.407967 0.634695
0.723534 0.458704 0.658619
0.803316 0.483575 0.670136
0.861249 0.503891 0.695554
0.116693 0.335130 0.544507
0.135861 0.352839 0.564781
0.154843 0.367566 0.582357
0.174567 0.379666 0.599885
0.313534 0.417113 0.661783
0.716275 0.502574 0.691106
0.809673 0.527436 0.701001
0.869943 0.543401 0.721093
0.137487 0.408906 0.586174
0.163580 0.439389 0.612857
0.181096 0.444942 0.618783
0.206416 0.467028 0.642053
0.238369 0.491749 0.684604
0.650580 0.550793 0.731967
0.810911 0.575935 0.740540
0.878887 0.593105 0.753098
0.167135 0.495214 0.633155
0.198899 0.527643 0.659327
0.225797 0.543928 0.671933
0.249889 0.550692 0.678807
0.302135 0.587982 0.722783
0.529959 0.621727 0.769422
0.802787 0.644674 0.781025
0.890569 0.663377 0.786447
0.207423 0.575796 0.673723
0.248958 0.605959 0.696111
0.280587 0.621163 0.707236
0.309272 0.631076 0.715557
0.349533 0.652976 0.743356
0.521955 0.697920 0.791215
0.805866 0.736781 0.810183
0.904368 0.742902 0.816500
0.262477 0.652947 0.712259
0.297204 0.673544 0.727834
0.324835 0.683860 0.735115
0.351628 0.691355 0.740897
0.385371 0.706525 0.759036
0.505508 0.740691 0.797765
0.815433 0.815847 0.831535
0.911715 0.825814 0.844887
0.311554 0.724429 0.748083
0.337997 0.734740 0.754927
0.363662 0.743808 0.760736
0.390622 0.753601 0.767559
0.417557 0.764259 0.775500
0.448351 0.785438 0.801513
0.787551 0.861355 0.846170
0.917770 0.890049 0.852215
