nova/tdt-studio/app/Lut_mau/IWLTBAP/1 - LUTs by IWLTBAP (CUBE)/01 - Standard/GoPro & Drones/IWLTBAP Aructa.cube
# Copyright: (C) Copyright 2016 by IWLTBAP
TITLE "LUT created by IWLTBAP for GoPro Pack"
LUT_3D_SIZE 9
0.001343 0.003326 0.005188
0.092072 0.007599 0.002441
0.262451 0.018341 0.000000
0.379364 0.022797 0.000000
0.471344 0.027771 0.000000
0.533356 0.034210 0.000183
0.584473 0.049591 0.003265
0.628784 0.062714 0.010986
0.656799 0.071808 0.020111
0.062103 0.095001 0.059570
0.085480 0.087830 0.043457
0.304657 0.096252 0.000977
0.438904 0.088348 0.000000
0.525238 0.088135 0.000000
0.583557 0.091034 0.001740
0.633331 0.110260 0.009033
0.674591 0.127899 0.024780
0.702240 0.136688 0.041931
0.177429 0.244751 0.136627
0.228241 0.239716 0.111816
0.291199 0.203033 0.063782
0.475067 0.200317 0.013855
0.580444 0.179504 0.000824
0.633636 0.180634 0.009277
0.678192 0.191498 0.026703
0.721893 0.204926 0.048248
0.746460 0.208557 0.061005
0.313812 0.381683 0.205627
0.348969 0.379883 0.187103
0.386932 0.372925 0.156067
0.477692 0.304901 0.087799
0.614716 0.302673 0.056671
0.681091 0.301331 0.046112
0.721069 0.290863 0.053162
0.763580 0.302795 0.082947
0.788757 0.304779 0.097015
0.409973 0.485107 0.269287
0.443909 0.479553 0.259155
0.449097 0.479095 0.257111
0.584473 0.446075 0.132843
0.619629 0.399750 0.119995
0.696716 0.396118 0.109772
0.753876 0.397980 0.089325
0.797638 0.408142 0.116455
0.824371 0.408630 0.133057
0.472015 0.553741 0.318756
0.505737 0.553986 0.315582
0.516876 0.552429 0.315033
0.595734 0.533905 0.224365
0.679688 0.515900 0.187683
0.701691 0.473511 0.168182
0.763855 0.478424 0.176117
0.819000 0.479797 0.142670
0.849365 0.488007 0.163300
0.530029 0.612122 0.363068
0.555969 0.609863 0.362457
0.566864 0.609436 0.364441
0.582458 0.600372 0.335907
0.731567 0.565460 0.172699
0.744415 0.571655 0.246765
0.763885 0.539062 0.231415
0.817810 0.543213 0.235352
0.854126 0.544830 0.243134
0.574982 0.662506 0.396729
0.596161 0.658661 0.397797
0.607361 0.660065 0.399139
0.579834 0.660492 0.395782
0.714661 0.643097 0.311157
0.800415 0.629852 0.236267
0.806396 0.636932 0.317291
0.817444 0.602142 0.301300
0.851257 0.600525 0.311707
0.604980 0.695343 0.415741
0.624542 0.693237 0.419159
0.633423 0.693665 0.421936
0.607269 0.696564 0.418549
0.727509 0.686066 0.355682
0.828247 0.661926 0.231354
0.834930 0.679810 0.349945
0.836395 0.649841 0.333527
0.860504 0.639557 0.331543
0.019806 0.042053 0.093689
0.047821 0.036591 0.086884
0.164307 0.011810 0.054443
0.316101 0.011261 0.009918
0.420929 0.014008 0.003723
0.513153 0.031921 0.009277
0.574951 0.053162 0.025024
0.622375 0.066498 0.042053
0.645111 0.065186 0.048737
0.040955 0.100281 0.124451
0.108643 0.137726 0.148376
0.302246 0.138824 0.102264
0.446716 0.142670 0.078033
0.544495 0.146606 0.067017
0.611755 0.149658 0.065796
0.655853 0.152802 0.063568
0.695831 0.157654 0.074799
0.722656 0.162598 0.088409
0.132233 0.236725 0.177460
0.222443 0.263794 0.188538
0.304199 0.248993 0.160248
0.484558 0.241516 0.109619
0.582611 0.226135 0.081299
0.642853 0.225098 0.074005
0.693634 0.223175 0.075409
0.736237 0.235596 0.095795
0.763092 0.235168 0.106750
0.292633 0.379883 0.219757
0.353973 0.394989 0.220398
0.376892 0.395538 0.225525
0.486389 0.359680 0.188019
0.608124 0.359894 0.154816
0.674805 0.337799 0.125885
0.729645 0.324188 0.107208
0.769379 0.332306 0.128540
0.799347 0.332916 0.143188
0.388245 0.488708 0.289520
0.440125 0.493713 0.296143
0.451447 0.498688 0.312592
0.568634 0.474945 0.211243
0.608521 0.439728 0.220947
0.688782 0.449524 0.212952
0.752258 0.439697 0.172729
0.800873 0.422974 0.162537
0.827301 0.429108 0.178040
0.448334 0.548096 0.332428
0.498932 0.563660 0.347290
0.510345 0.565247 0.360565
0.564178 0.554626 0.317200
0.661011 0.534393 0.278442
0.683289 0.506927 0.273407
0.747620 0.515686 0.266754
0.813965 0.507050 0.216644
0.851562 0.510742 0.225769
0.512909 0.612549 0.379700
0.549957 0.617920 0.390472
0.559021 0.620544 0.404541
0.557465 0.617188 0.397858
0.709808 0.582123 0.235779
0.730957 0.596405 0.335968
0.744141 0.566406 0.325867
0.806274 0.572510 0.325409
0.845001 0.582123 0.330017
0.561737 0.664856 0.411530
0.591339 0.669800 0.424591
0.599548 0.671936 0.438568
0.550842 0.668427 0.438202
0.693787 0.662476 0.379211
0.783173 0.641296 0.285217
0.792694 0.656342 0.387695
0.811188 0.626038 0.379059
0.841492 0.628235 0.391022
0.593445 0.696869 0.423340
0.619354 0.699860 0.439423
0.624756 0.702026 0.453491
0.573395 0.696259 0.450043
0.704132 0.696106 0.412445
0.809631 0.673615 0.285126
0.823608 0.698029 0.408997
0.830414 0.670502 0.405792
0.849457 0.662170 0.402313
0.061676 0.108429 0.189941
0.075043 0.084656 0.180511
0.125092 0.020416 0.118317
0.259888 0.019653 0.100800
0.377777 0.024078 0.082367
0.457245 0.031403 0.076050
0.511902 0.031891 0.071289
0.555206 0.028381 0.056946
0.581207 0.028320 0.060120
0.072357 0.172272 0.222717
0.135284 0.195435 0.243622
0.223145 0.156677 0.218201
0.383453 0.139893 0.172363
0.505493 0.133057 0.133179
0.574280 0.129700 0.124603
0.629242 0.134796 0.118652
0.676941 0.138855 0.115295
0.703949 0.143707 0.125366
0.057007 0.242676 0.263916
0.143127 0.272705 0.281830
0.310699 0.299835 0.292450
0.476746 0.294922 0.245392
0.580994 0.306427 0.234924
0.644653 0.310760 0.234772
0.695465 0.318909 0.247009
0.746643 0.325775 0.255341
0.771088 0.331573 0.267944
0.224182 0.380981 0.312256
0.289429 0.403168 0.329071
0.376190 0.423065 0.362305
0.475922 0.416138 0.328308
0.591309 0.393799 0.267944
0.657715 0.392365 0.262085
0.715607 0.394012 0.263977
0.775452 0.396545 0.265747
0.805176 0.399994 0.276367
0.344452 0.483307 0.327362
0.399384 0.499725 0.340729
0.438477 0.508484 0.329865
0.537781 0.499451 0.305267
0.594452 0.491608 0.348328
0.670349 0.498749 0.337799
0.733673 0.489899 0.312592
0.792786 0.482574 0.304047
0.823792 0.481873 0.309052
0.431183 0.540833 0.314819
0.487000 0.556946 0.325378
0.508209 0.558441 0.318451
0.552856 0.558197 0.324310
0.641815 0.566040 0.378326
0.665466 0.551117 0.391785
0.732300 0.556519 0.384705
0.799255 0.553925 0.352570
0.832703 0.555969 0.360962
0.517334 0.601257 0.324951
0.549133 0.602020 0.327698
0.561646 0.608856 0.350647
0.557800 0.618683 0.394775
0.682953 0.598602 0.298767
0.709381 0.621552 0.428650
0.729004 0.598022 0.428741
0.798065 0.608093 0.419373
0.835632 0.616821 0.416626
0.568817 0.651642 0.349792
0.598785 0.650787 0.349457
0.599487 0.657928 0.393158
0.550842 0.668243 0.433807
0.676941 0.668549 0.403320
0.753174 0.660004 0.374817
0.783630 0.672272 0.458801
0.790771 0.647705 0.454346
0.832428 0.650970 0.461090
0.605438 0.684052 0.359344
0.626129 0.684296 0.374939
0.625824 0.692627 0.415283
0.565002 0.691956 0.443695
0.690094 0.697418 0.428589
0.785126 0.681732 0.338684
0.808655 0.712860 0.466675
0.821625 0.696503 0.474823
0.842072 0.683563 0.471710
0.089478 0.184631 0.302521
0.113708 0.159607 0.289001
0.122284 0.056183 0.218475
0.231812 0.034576 0.174805
0.331482 0.038574 0.173431
0.413574 0.048096 0.168274
0.483276 0.053833 0.157715
0.539429 0.058807 0.156433
0.563232 0.056641 0.160400
0.110718 0.262115 0.347626
0.185974 0.284668 0.354858
0.213837 0.227753 0.328033
0.329102 0.161713 0.269440
0.438873 0.151306 0.245422
0.513367 0.146667 0.229706
0.571320 0.133942 0.206696
0.610413 0.119629 0.191650
0.632874 0.116821 0.190186
0.125916 0.325745 0.378845
0.201996 0.347839 0.390808
0.320862 0.366455 0.386810
0.396576 0.332275 0.368164
0.531494 0.307526 0.328247
0.606354 0.307281 0.311523
0.669281 0.312805 0.308411
0.716675 0.313446 0.303864
0.739410 0.308411 0.308685
0.127289 0.387085 0.403351
0.198181 0.410400 0.422333
0.362732 0.442841 0.441833
0.474396 0.460358 0.445801
0.573517 0.450806 0.409729
0.642944 0.455780 0.406250
0.703156 0.470306 0.413055
0.756531 0.473114 0.412292
0.782684 0.475159 0.421875
0.244812 0.491821 0.440521
0.289764 0.504303 0.451477
0.379517 0.520660 0.467529
0.523346 0.540802 0.503052
0.581757 0.534882 0.477020
0.648010 0.518463 0.438080
0.711029 0.521973 0.429230
0.769379 0.522980 0.428101
0.805328 0.525482 0.430786
0.336426 0.561218 0.457367
0.382111 0.567657 0.475464
0.398773 0.574341 0.481720
0.538177 0.587982 0.479950
0.613739 0.588104 0.475830
0.656769 0.578735 0.488708
0.717712 0.582642 0.470245
0.783447 0.584137 0.455475
0.821075 0.586182 0.459839
0.409058 0.608246 0.476349
0.454895 0.617981 0.488556
0.463348 0.620911 0.488068
0.551361 0.633209 0.476410
0.642487 0.634216 0.458588
0.698212 0.641357 0.504333
0.724091 0.632263 0.509705
0.789825 0.639221 0.496765
0.828827 0.639679 0.490906
0.480988 0.654785 0.480438
0.522858 0.663147 0.487823
0.547150 0.671021 0.477783
0.564270 0.674927 0.454712
0.675293 0.670105 0.408234
0.726501 0.682281 0.463715
0.773346 0.695770 0.527924
0.793488 0.675262 0.522980
0.829987 0.676270 0.522522
0.514130 0.686859 0.484741
0.556061 0.697021 0.486481
0.576019 0.702393 0.478180
0.590118 0.702637 0.455109
0.694336 0.696106 0.421173
0.745911 0.705261 0.459900
0.796539 0.726654 0.521881
0.822113 0.716217 0.529053
0.841949 0.704956 0.526642
0.121979 0.267426 0.404724
0.143555 0.237030 0.388580
0.118317 0.123291 0.322021
0.230713 0.064575 0.248016
0.297272 0.051147 0.226562
0.374969 0.061432 0.231781
0.440979 0.073578 0.237671
0.505371 0.075592 0.224976
0.537903 0.068298 0.226685
0.145294 0.331940 0.440155
0.212982 0.352295 0.452362
0.241455 0.318451 0.433960
0.311890 0.194946 0.346069
0.391357 0.171600 0.316467
0.463470 0.165527 0.311218
0.518097 0.154694 0.294373
0.567413 0.138000 0.271942
0.605591 0.138397 0.276703
0.158295 0.384888 0.472534
0.228912 0.411285 0.486938
0.340546 0.431915 0.480927
0.373291 0.359650 0.450256
0.474792 0.323120 0.413666
0.554321 0.325043 0.408173
0.622833 0.325256 0.397736
0.675934 0.320038 0.381836
0.705811 0.312195 0.377808
0.160217 0.436829 0.501068
0.233826 0.459473 0.507294
0.358612 0.486938 0.513947
0.465698 0.493256 0.505737
0.522034 0.485779 0.496918
0.611176 0.465271 0.483856
0.679626 0.467865 0.465698
0.729706 0.466370 0.458191
0.760376 0.461365 0.455780
0.186127 0.496918 0.516815
0.236725 0.510773 0.529877
0.372955 0.533875 0.534821
0.511475 0.548065 0.539703
0.574554 0.553375 0.542145
0.638824 0.551605 0.520752
0.701324 0.555664 0.523407
0.762512 0.563690 0.520905
0.794128 0.567505 0.527252
0.249725 0.565033 0.548401
0.287506 0.576416 0.554535
0.411713 0.586945 0.547119
0.525452 0.597504 0.557526
0.601318 0.608765 0.576569
0.648010 0.603638 0.558472
0.707825 0.602051 0.537048
0.772766 0.604156 0.528870
0.812653 0.611816 0.537323
0.324738 0.618469 0.553864
0.360046 0.623901 0.554565
0.406219 0.628845 0.561981
0.539398 0.644379 0.568878
0.622314 0.658264 0.562256
0.677307 0.660645 0.568817
0.721283 0.650513 0.568298
0.780792 0.659271 0.556763
0.819580 0.660767 0.552155
0.389984 0.660339 0.559753
0.430176 0.665955 0.560455
0.424072 0.666260 0.561554
0.542816 0.688232 0.569550
0.645203 0.706085 0.561127
0.704468 0.704926 0.554260
0.761169 0.708313 0.575012
0.788727 0.698822 0.584106
0.825836 0.697113 0.581940
0.420685 0.687103 0.554749
0.459595 0.694580 0.558136
0.447479 0.692200 0.558441
0.552277 0.708649 0.564331
0.662720 0.729492 0.559937
0.722198 0.733490 0.554443
0.782715 0.739929 0.569824
0.815094 0.733215 0.587891
0.836365 0.724213 0.582733
0.147430 0.328827 0.483032
0.170807 0.303650 0.470184
0.154114 0.230896 0.429443
0.229767 0.096375 0.315552
0.304962 0.083862 0.293762
0.347260 0.070221 0.270416
0.410980 0.080444 0.280762
0.464142 0.092651 0.295166
0.506683 0.092712 0.296661
0.171844 0.389984 0.522156
0.234161 0.407227 0.528931
0.255035 0.377228 0.515320
0.283264 0.233521 0.420197
0.372681 0.198669 0.382599
0.423981 0.178589 0.355255
0.484070 0.172668 0.352478
0.532806 0.164948 0.349060
0.575195 0.168793 0.352570
0.186859 0.437164 0.548279
0.258270 0.460083 0.550293
0.356506 0.477417 0.550812
0.369171 0.424622 0.522888
0.457916 0.353607 0.472107
0.513367 0.336670 0.459045
0.581024 0.342957 0.460236
0.642273 0.336060 0.451111
0.678467 0.328125 0.441498
0.191193 0.479645 0.565247
0.266174 0.506256 0.575378
0.382233 0.521729 0.569794
0.479156 0.534637 0.565216
0.509491 0.490143 0.542694
0.568848 0.470825 0.526276
0.642334 0.471161 0.520966
0.702087 0.469177 0.507446
0.730469 0.466431 0.499298
0.201019 0.527008 0.582031
0.264801 0.541016 0.589630
0.391205 0.557861 0.585724
0.501038 0.574615 0.588745
0.561584 0.575653 0.582458
0.607056 0.564209 0.573730
0.678986 0.558899 0.561920
0.739319 0.558716 0.550629
0.773102 0.557251 0.548859
0.241119 0.579254 0.611053
0.284210 0.587616 0.606506
0.406189 0.600555 0.600830
0.511993 0.605835 0.599854
0.592804 0.614380 0.606323
0.645355 0.622803 0.610077
0.703186 0.625275 0.599670
0.766052 0.631409 0.597473
0.800110 0.631897 0.595520
0.282440 0.624329 0.615875
0.321411 0.626770 0.613983
0.429565 0.640900 0.610962
0.535400 0.656281 0.615082
0.608093 0.667206 0.621552
0.669617 0.674744 0.623688
0.718781 0.673676 0.622559
0.777252 0.672028 0.611053
0.815308 0.674438 0.612762
0.324860 0.667328 0.619843
0.360840 0.673279 0.620728
0.420105 0.682098 0.618866
0.537842 0.698883 0.624603
0.614960 0.710815 0.628601
0.689514 0.717468 0.619751
0.746094 0.722015 0.620728
0.784180 0.710175 0.631500
0.820160 0.716217 0.634155
0.355865 0.695251 0.617218
0.384003 0.701019 0.621796
0.424713 0.705505 0.621216
0.545532 0.724731 0.627136
0.624390 0.734497 0.628265
0.704132 0.748566 0.623138
0.763550 0.752106 0.622589
0.805420 0.747803 0.641815
0.828827 0.745422 0.640198
0.173401 0.383881 0.556396
0.198151 0.365631 0.546783
0.201965 0.321625 0.524841
0.199341 0.127075 0.390778
0.302429 0.111481 0.354462
0.344543 0.094482 0.335876
0.378265 0.082886 0.316254
0.439362 0.098969 0.328674
0.475677 0.103210 0.341095
0.195679 0.437286 0.583984
0.262970 0.457275 0.589081
0.291412 0.433899 0.568695
0.251495 0.303284 0.512939
0.357788 0.212677 0.436646
0.407196 0.198639 0.415527
0.445709 0.176117 0.386566
0.492950 0.169556 0.388824
0.544098 0.184845 0.401459
0.209076 0.480774 0.603149
0.283356 0.505676 0.611145
0.375885 0.519043 0.604065
0.396149 0.489471 0.591003
0.433197 0.377594 0.529816
0.494873 0.360138 0.504456
0.538971 0.344330 0.491486
0.598511 0.348206 0.494415
0.639557 0.350983 0.494568
0.215424 0.520111 0.619568
0.293732 0.543762 0.630188
0.399841 0.555878 0.620911
0.490112 0.570190 0.614594
0.493683 0.523376 0.591583
0.550934 0.485352 0.565369
0.600464 0.476349 0.560608
0.660126 0.474548 0.556427
0.697693 0.475983 0.557343
0.214325 0.548462 0.628021
0.293518 0.571655 0.645111
0.413422 0.592041 0.630981
0.507935 0.598877 0.629303
0.577515 0.608521 0.632965
0.590210 0.574158 0.615234
0.644226 0.557831 0.598206
0.703857 0.558685 0.596832
0.738708 0.559204 0.597260
0.240601 0.586426 0.641327
0.289490 0.600830 0.651123
0.412445 0.617889 0.643585
0.513397 0.622345 0.643250
0.589874 0.639557 0.649628
0.648315 0.651642 0.655975
0.679108 0.628876 0.636963
0.743774 0.625092 0.631409
0.777740 0.625153 0.624451
0.279999 0.625427 0.653931
0.315277 0.639557 0.667145
0.422882 0.646393 0.655304
0.528900 0.667419 0.661804
0.598938 0.673370 0.666840
0.658203 0.683319 0.670471
0.713501 0.690308 0.671722
0.770020 0.692047 0.670685
0.809357 0.692078 0.667755
0.313934 0.675049 0.670197
0.345398 0.679260 0.670502
0.438629 0.691833 0.663910
0.536682 0.705078 0.667999
0.609100 0.717377 0.673370
0.667053 0.725006 0.682556
0.730713 0.732880 0.676178
0.777710 0.729034 0.681793
0.816589 0.730377 0.679718
0.329193 0.701691 0.671509
0.357025 0.705231 0.674530
0.446472 0.719940 0.669037
0.535828 0.729553 0.671600
0.606628 0.742554 0.676666
0.672577 0.750732 0.685089
0.746490 0.763275 0.683624
0.798767 0.764404 0.689606
0.823608 0.758270 0.688782
0.202972 0.437134 0.614014
0.227173 0.421204 0.603333
0.231354 0.383514 0.591614
0.147980 0.198883 0.504486
0.289154 0.136444 0.416840
0.341003 0.122986 0.402039
0.374542 0.107208 0.380432
0.403748 0.088593 0.360199
0.441193 0.094147 0.366943
0.218018 0.481476 0.634735
0.283844 0.502380 0.647369
0.315308 0.487518 0.631744
0.290863 0.415283 0.603302
0.324127 0.238129 0.507080
0.387329 0.202698 0.464691
0.423645 0.183990 0.442078
0.453644 0.161530 0.413971
0.496033 0.173889 0.425781
0.231110 0.522430 0.655273
0.303345 0.540680 0.660919
0.395660 0.557343 0.658508
0.412292 0.534180 0.644745
0.383881 0.436646 0.603180
0.468262 0.372894 0.560638
0.516083 0.358032 0.536652
0.557007 0.342651 0.520355
0.596558 0.352753 0.527710
0.239838 0.554779 0.668854
0.316956 0.569153 0.669373
0.413422 0.592987 0.672211
0.493011 0.596436 0.667267
0.516785 0.581177 0.657318
0.522766 0.511536 0.624115
0.578766 0.488892 0.603119
0.613037 0.468994 0.588593
0.656494 0.481720 0.590729
0.236816 0.579529 0.680511
0.323120 0.598969 0.684540
0.423431 0.621368 0.682281
0.507996 0.626495 0.681824
0.578033 0.636414 0.680878
0.586609 0.609741 0.664368
0.624329 0.573669 0.642792
0.659973 0.562408 0.634583
0.696838 0.560883 0.635162
0.244781 0.605560 0.687805
0.315491 0.622742 0.692047
0.424164 0.641510 0.692841
0.519165 0.656403 0.693848
0.587830 0.666046 0.697327
0.644043 0.672089 0.697937
0.657867 0.642090 0.678192
0.698975 0.621307 0.665894
0.736328 0.627228 0.666626
0.274933 0.639648 0.697296
0.308838 0.646057 0.697632
0.421661 0.667816 0.701813
0.520966 0.684967 0.707581
0.592834 0.694366 0.706970
0.650208 0.697632 0.711823
0.707520 0.706268 0.712097
0.736389 0.684967 0.702118
0.778168 0.691925 0.703003
0.307526 0.678314 0.711700
0.336304 0.682800 0.712097
0.430084 0.699890 0.708557
0.524719 0.712067 0.717590
0.598206 0.722504 0.718231
0.655792 0.729187 0.720947
0.715485 0.735840 0.728577
0.771667 0.740173 0.729431
0.809967 0.748077 0.731476
0.324066 0.704285 0.713959
0.348694 0.708740 0.717194
0.438873 0.729218 0.713715
0.525208 0.737427 0.722198
0.598114 0.748322 0.725800
0.663696 0.760956 0.733124
0.725433 0.767517 0.739166
0.780670 0.773651 0.736298
0.815857 0.776184 0.740631
0.206818 0.460083 0.650757
0.236450 0.449585 0.641144
0.242889 0.411438 0.624451
0.155609 0.252991 0.564026
0.281311 0.156677 0.467102
0.334778 0.139496 0.443298
0.373322 0.125244 0.428955
0.400574 0.104370 0.402374
0.413025 0.084076 0.384247
0.224426 0.507172 0.673615
0.284760 0.525635 0.674774
0.314819 0.512360 0.670807
0.312622 0.455261 0.647827
0.307312 0.271027 0.560669
0.372650 0.217438 0.502991
0.420410 0.203644 0.489014
0.448853 0.176758 0.457031
0.465057 0.159119 0.437897
0.238007 0.539337 0.688843
0.305695 0.558167 0.690369
0.395538 0.573914 0.683838
0.420197 0.555756 0.679901
0.383331 0.468567 0.642120
0.461639 0.405487 0.606476
0.505280 0.374695 0.581085
0.546570 0.347900 0.548950
0.569397 0.338928 0.544586
0.244385 0.560699 0.695343
0.320312 0.586945 0.703827
0.412140 0.607147 0.699829
0.490570 0.612335 0.700653
0.517181 0.600891 0.688019
0.510742 0.531403 0.656036
0.573120 0.503723 0.632294
0.607849 0.484741 0.618927
0.625793 0.469360 0.606598
0.245331 0.589050 0.708984
0.325653 0.612640 0.714233
0.420959 0.632874 0.713501
0.504791 0.642578 0.714935
0.574738 0.651031 0.707794
0.588409 0.630066 0.695923
0.613312 0.583405 0.671906
0.650299 0.570160 0.662506
0.674500 0.561188 0.652740
0.244629 0.612793 0.720306
0.317413 0.633942 0.722656
0.419952 0.654572 0.724365
0.508209 0.670410 0.725586
0.583923 0.682068 0.728699
0.641327 0.685425 0.725098
0.650665 0.653168 0.707397
0.691803 0.634583 0.695801
0.707855 0.619446 0.682220
0.264984 0.642334 0.730225
0.304779 0.654755 0.732422
0.412506 0.678650 0.735779
0.502563 0.694550 0.737183
0.583618 0.706146 0.739349
0.647217 0.711212 0.737366
0.705963 0.717987 0.739929
0.726013 0.695740 0.728912
0.749878 0.686279 0.721680
0.288269 0.675507 0.737823
0.314880 0.683624 0.740082
0.408875 0.703766 0.741180
0.503326 0.719482 0.746552
0.579681 0.729675 0.744476
0.651337 0.738556 0.748474
0.712799 0.748138 0.756683
0.768036 0.748840 0.755890
0.789459 0.740417 0.751862
0.301849 0.700439 0.742767
0.326813 0.707916 0.745667
0.412384 0.725555 0.745911
0.507324 0.739868 0.749817
0.582855 0.756378 0.755005
0.654755 0.764374 0.759338
0.718719 0.775146 0.768494
0.774109 0.777313 0.767273
0.813019 0.781921 0.773102
