nova/tdt-studio/app/Lut_mau/IWLTBAP/1 - LUTs by IWLTBAP (CUBE)/01 - Standard/GoPro & Drones/IWLTBAP Batiog.cube
# Copyright: (C) Copyright 2016 by IWLTBAP
TITLE "LUT created by IWLTBAP for GoPro Pack"
LUT_3D_SIZE 5
DOMAIN_MIN 0.000000 0.000000 0.000000
DOMAIN_MAX 0.903226 0.903226 0.903226
0.041077 0.057007 0.064056
0.167573 0.081211 0.073346
0.455436 0.096508 0.069647
0.675221 0.125760 0.121405
0.801406 0.156522 0.158196
0.056563 0.127300 0.066755
0.203212 0.150598 0.057184
0.522919 0.170261 0.076573
0.745354 0.211924 0.123236
0.872152 0.300162 0.162231
0.095641 0.252550 0.084598
0.355790 0.370611 0.118085
0.658547 0.385889 0.114480
0.833650 0.407475 0.158757
0.911062 0.495628 0.199747
0.228966 0.462005 0.125899
0.501205 0.551167 0.166870
0.739030 0.620000 0.217813
0.877204 0.654862 0.262242
0.928082 0.642364 0.261864
0.398643 0.655538 0.187530
0.590813 0.706716 0.215306
0.794551 0.768910 0.269982
0.893869 0.785782 0.317308
0.938566 0.797961 0.328961
0.041557 0.077802 0.136452
0.213917 0.101024 0.163703
0.519329 0.098022 0.125409
0.690303 0.122524 0.162860
0.798262 0.158252 0.198239
0.047054 0.133259 0.157911
0.117393 0.158817 0.182926
0.532182 0.182880 0.140392
0.729978 0.204388 0.174605
0.845009 0.286399 0.214993
0.089343 0.299985 0.210142
0.210753 0.360643 0.164516
0.667775 0.433936 0.180100
0.834685 0.439431 0.198248
0.910037 0.511282 0.239448
0.148278 0.445080 0.263976
0.443746 0.563360 0.214017
0.736007 0.642782 0.300642
0.876662 0.669934 0.315373
0.928333 0.652894 0.310668
0.314092 0.632513 0.305220
0.575797 0.741722 0.273026
0.781708 0.769889 0.311805
0.893693 0.793016 0.368303
0.938009 0.801805 0.376876
0.054221 0.113167 0.243730
0.082979 0.117343 0.272053
0.578130 0.156967 0.252346
0.728201 0.178370 0.272421
0.816089 0.218218 0.302563
0.060195 0.165491 0.263033
0.089913 0.189122 0.303850
0.571695 0.275352 0.343941
0.748642 0.268197 0.314167
0.854351 0.384345 0.394675
0.098781 0.329392 0.386213
0.140596 0.384689 0.438332
0.485596 0.526869 0.530710
0.788571 0.550241 0.480897
0.894229 0.564901 0.481472
0.220378 0.604835 0.546997
0.244859 0.589886 0.524343
0.574644 0.656695 0.478041
0.859326 0.708961 0.479320
0.926319 0.694379 0.491714
0.298818 0.713063 0.538801
0.339421 0.713275 0.505858
0.700201 0.786263 0.431709
0.874893 0.816348 0.519793
0.937187 0.811386 0.461303
0.070387 0.158929 0.359934
0.092936 0.154866 0.367162
0.508678 0.258950 0.473962
0.748373 0.251238 0.402115
0.823921 0.323014 0.467392
0.082927 0.228992 0.393413
0.110128 0.246854 0.421638
0.468001 0.367946 0.536362
0.766213 0.393937 0.485651
0.849055 0.457610 0.535045
0.117413 0.371889 0.488158
0.163380 0.428846 0.542602
0.226973 0.500864 0.629585
0.782432 0.578369 0.638922
0.873854 0.597380 0.628906
0.199717 0.572221 0.615655
0.263275 0.612142 0.645609
0.337498 0.659207 0.687943
0.785448 0.756146 0.736402
0.911846 0.760940 0.714497
0.324522 0.746353 0.716852
0.372201 0.767921 0.730115
0.408135 0.770489 0.692965
0.814651 0.843761 0.659541
0.934778 0.837172 0.615145
0.093647 0.227636 0.487289
0.116479 0.227696 0.496316
0.347846 0.290418 0.575854
0.743369 0.400127 0.632382
0.852347 0.462472 0.678635
0.113432 0.321353 0.538547
0.145510 0.347593 0.569948
0.181467 0.370059 0.610577
0.746815 0.502224 0.684414
0.867776 0.533162 0.714394
0.151986 0.452314 0.610312
0.197389 0.497485 0.647600
0.245428 0.527557 0.681900
0.680230 0.592240 0.755405
0.884072 0.626009 0.770162
0.221118 0.596106 0.683763
0.285588 0.634916 0.712356
0.337554 0.653902 0.729830
0.616307 0.731741 0.805860
0.906927 0.762635 0.823445
0.311554 0.724429 0.748083
0.357184 0.741486 0.759184
0.404325 0.758977 0.771287
0.539722 0.803664 0.815498
0.917770 0.890049 0.852215
