nova/tdt-studio/app/Lut_mau/IWLTBAP/1 - LUTs by IWLTBAP (CUBE)/01 - Standard/GoPro & Drones/IWLTBAP Aptira.cube
# Copyright: (C) Copyright 2010-2018 by IWLTBAP
TITLE "LUT created by IWLTBAP for GoPro Pack"
LUT_3D_SIZE 9
0.000031 0.000153 0.000397
0.071075 0.017609 0.007812
0.183167 0.050140 0.029724
0.339050 0.076691 0.038971
0.491791 0.115082 0.077942
0.603210 0.145966 0.107758
0.700775 0.171539 0.133972
0.785370 0.192596 0.156616
0.849274 0.206207 0.171875
0.007965 0.070618 0.032318
0.068665 0.077667 0.028900
0.216156 0.115387 0.042450
0.399811 0.150696 0.061005
0.540222 0.189545 0.096893
0.653137 0.219574 0.129578
0.750549 0.245087 0.157013
0.827148 0.269135 0.181061
0.885376 0.280579 0.194916
0.017731 0.155579 0.075500
0.085510 0.165222 0.076141
0.210785 0.194000 0.066467
0.446075 0.250732 0.087494
0.595520 0.283264 0.117493
0.706360 0.308350 0.147949
0.789429 0.337708 0.178345
0.857208 0.356934 0.202209
0.912109 0.365845 0.216949
0.022888 0.256775 0.118652
0.104980 0.274933 0.124603
0.234589 0.308044 0.118713
0.457794 0.361267 0.134613
0.634125 0.394287 0.154816
0.738281 0.416748 0.181610
0.818848 0.438354 0.204437
0.884491 0.452026 0.221558
0.939636 0.458038 0.232605
0.028717 0.363098 0.169800
0.098724 0.384979 0.177979
0.272217 0.419342 0.182068
0.475891 0.472870 0.202240
0.630829 0.499420 0.218475
0.749847 0.520020 0.229126
0.835205 0.536316 0.245239
0.903961 0.546173 0.260193
0.961823 0.549377 0.268402
0.050934 0.467529 0.216858
0.170624 0.492065 0.231476
0.332123 0.523132 0.234314
0.488434 0.566864 0.262726
0.641693 0.597870 0.274963
0.747009 0.611298 0.283722
0.840454 0.623535 0.291626
0.915222 0.632660 0.297516
0.974274 0.634399 0.304504
0.095306 0.566589 0.255768
0.265320 0.594604 0.270905
0.384125 0.624115 0.288696
0.497498 0.650299 0.300537
0.667542 0.691620 0.322174
0.758026 0.701263 0.325012
0.840729 0.706085 0.325409
0.917755 0.715546 0.340149
0.979401 0.719513 0.346741
0.181335 0.661011 0.284393
0.323120 0.695770 0.316345
0.429260 0.720825 0.332520
0.555878 0.746704 0.343689
0.694000 0.777222 0.352570
0.782288 0.785950 0.351440
0.853180 0.787445 0.354156
0.917511 0.791290 0.365479
0.977051 0.799988 0.386200
0.235809 0.757385 0.322235
0.367065 0.789703 0.347504
0.496552 0.812256 0.361450
0.615509 0.832977 0.363647
0.716949 0.850311 0.372162
0.800629 0.859039 0.378326
0.868042 0.865784 0.390228
0.927612 0.868988 0.402039
0.974487 0.874359 0.418274
0.005066 0.008759 0.056976
0.063446 0.019196 0.067749
0.183289 0.054596 0.091888
0.343384 0.081757 0.102203
0.485443 0.115936 0.130768
0.596313 0.145935 0.158020
0.689087 0.170593 0.179871
0.771301 0.190033 0.198395
0.833252 0.199524 0.208405
0.009277 0.078522 0.095917
0.066406 0.083710 0.092102
0.195892 0.117188 0.109589
0.388336 0.156952 0.131012
0.540894 0.197357 0.161224
0.650238 0.227661 0.187408
0.744354 0.251587 0.210602
0.818665 0.268250 0.228149
0.876343 0.277008 0.238831
0.015472 0.160339 0.143555
0.069672 0.170319 0.143890
0.189911 0.193481 0.143066
0.442780 0.257355 0.162537
0.590240 0.295135 0.191772
0.701141 0.323029 0.218079
0.788727 0.347809 0.244080
0.859558 0.364319 0.263336
0.914124 0.368469 0.272247
0.020233 0.264008 0.198120
0.060028 0.277161 0.199677
0.189331 0.301300 0.204803
0.437347 0.367401 0.219940
0.626892 0.407257 0.233704
0.740143 0.428741 0.250366
0.824280 0.449463 0.268768
0.891724 0.460693 0.286316
0.943848 0.462372 0.300171
0.024719 0.371490 0.253632
0.063354 0.387238 0.254883
0.200958 0.410217 0.260895
0.440735 0.472656 0.293091
0.608978 0.504944 0.302368
0.748535 0.529968 0.304474
0.839325 0.548523 0.314270
0.909760 0.557251 0.324432
0.965912 0.558075 0.333069
0.043427 0.469940 0.291443
0.088989 0.488342 0.294250
0.271729 0.513947 0.309021
0.455109 0.563080 0.336212
0.617737 0.595581 0.352600
0.735016 0.618988 0.360596
0.843597 0.636627 0.364136
0.919678 0.645538 0.361389
0.976257 0.650085 0.374298
0.071228 0.564423 0.318390
0.188446 0.584015 0.327454
0.354584 0.613098 0.347900
0.472748 0.647583 0.369354
0.643646 0.686615 0.393799
0.748352 0.706696 0.401154
0.835846 0.719513 0.405151
0.918549 0.730713 0.409912
0.978851 0.735229 0.418457
0.103516 0.649658 0.337006
0.278717 0.673157 0.357544
0.412384 0.714355 0.392029
0.526123 0.746094 0.416382
0.675446 0.775635 0.427917
0.776917 0.793335 0.432526
0.849792 0.800110 0.433380
0.918671 0.808533 0.442383
0.974365 0.815826 0.455780
0.191193 0.733002 0.358917
0.340607 0.774261 0.393311
0.475739 0.817932 0.439178
0.596924 0.836975 0.444702
0.709686 0.856659 0.451141
0.798187 0.870300 0.458221
0.868683 0.878296 0.467529
0.929810 0.885040 0.479126
0.973816 0.890808 0.493225
0.010590 0.023590 0.116974
0.063385 0.029907 0.124878
0.153870 0.049255 0.148193
0.324432 0.080292 0.171051
0.473297 0.115082 0.191193
0.584137 0.145325 0.214844
0.679443 0.170319 0.235016
0.759705 0.187958 0.248810
0.823639 0.197540 0.256927
0.015472 0.090668 0.163544
0.063873 0.093079 0.155487
0.161743 0.108856 0.168610
0.356964 0.154694 0.199341
0.518494 0.194336 0.226379
0.631622 0.230713 0.252197
0.726440 0.256165 0.273529
0.802856 0.268646 0.285309
0.861145 0.271851 0.288971
0.017365 0.170349 0.219727
0.057556 0.176697 0.216278
0.165131 0.196136 0.216888
0.392700 0.255615 0.250610
0.567627 0.305939 0.283813
0.678802 0.335205 0.303345
0.772400 0.357422 0.319000
0.846680 0.366974 0.326935
0.902710 0.365906 0.328400
0.018463 0.271698 0.276764
0.054260 0.283295 0.280029
0.125977 0.299744 0.282867
0.380249 0.359985 0.312286
0.608734 0.419678 0.329620
0.711334 0.444550 0.355713
0.805389 0.464264 0.366028
0.880890 0.472534 0.370422
0.938934 0.470245 0.369751
0.025299 0.379944 0.331573
0.060974 0.393616 0.336029
0.117523 0.410370 0.337250
0.374451 0.459473 0.366882
0.582550 0.513977 0.394501
0.734558 0.545135 0.397308
0.829285 0.563202 0.407104
0.907227 0.572571 0.406372
0.962952 0.571838 0.409790
0.041168 0.477051 0.371735
0.076691 0.491760 0.374207
0.176422 0.510071 0.375092
0.399628 0.551025 0.403229
0.590851 0.603363 0.439911
0.721375 0.625824 0.440765
0.833801 0.654449 0.453156
0.915497 0.663269 0.451172
0.972748 0.665802 0.453003
0.060852 0.569061 0.397156
0.105652 0.584167 0.397583
0.277954 0.605225 0.407471
0.439209 0.638733 0.433228
0.614258 0.690521 0.473297
0.733154 0.709778 0.477905
0.824615 0.732117 0.489868
0.913544 0.749268 0.497070
0.975189 0.754028 0.497375
0.083588 0.647675 0.404572
0.175568 0.668091 0.416779
0.363403 0.696747 0.440979
0.511383 0.745453 0.479340
0.643951 0.777283 0.504120
0.761169 0.796753 0.508148
0.842133 0.811737 0.518433
0.914612 0.824799 0.530457
0.972046 0.833099 0.537140
0.115265 0.726410 0.415741
0.285522 0.753021 0.438385
0.453461 0.807251 0.486176
0.581451 0.845795 0.526459
0.690918 0.861237 0.528778
0.788544 0.878815 0.541351
0.862823 0.889832 0.551483
0.928375 0.900360 0.566498
0.973419 0.907257 0.577728
0.017365 0.037689 0.176697
0.061798 0.042023 0.183258
0.140625 0.052795 0.202576
0.280365 0.075806 0.235352
0.452179 0.113617 0.256500
0.568512 0.144043 0.278046
0.666687 0.170258 0.297363
0.748505 0.187958 0.309631
0.814331 0.197357 0.313354
0.017365 0.097534 0.222351
0.063171 0.105072 0.223114
0.141296 0.113434 0.226959
0.295776 0.144714 0.264496
0.491180 0.190857 0.294952
0.613159 0.224792 0.317780
0.709686 0.254028 0.335602
0.789490 0.267609 0.343750
0.849701 0.269012 0.343933
0.016998 0.176056 0.290039
0.053589 0.187439 0.293457
0.132629 0.203064 0.288391
0.315430 0.241455 0.312317
0.532532 0.300659 0.351196
0.654724 0.336975 0.377594
0.750458 0.362549 0.394592
0.826477 0.368622 0.393829
0.886749 0.363403 0.388184
0.023468 0.275970 0.342163
0.058899 0.291626 0.351990
0.106689 0.306335 0.354401
0.325439 0.362793 0.387909
0.560333 0.421051 0.417267
0.687469 0.456360 0.443085
0.780090 0.474396 0.454285
0.857880 0.476349 0.447357
0.921295 0.466400 0.434784
0.029266 0.383362 0.398254
0.063171 0.399902 0.408844
0.102478 0.413849 0.411652
0.269745 0.444733 0.426300
0.551056 0.516541 0.468079
0.707214 0.552979 0.486237
0.815125 0.575531 0.492798
0.883606 0.582062 0.502045
0.949646 0.579498 0.490051
0.041595 0.481628 0.441254
0.075897 0.499329 0.449615
0.127716 0.513397 0.450287
0.309418 0.538666 0.459991
0.564819 0.604828 0.506165
0.695343 0.634155 0.525879
0.819489 0.662750 0.537842
0.903412 0.677155 0.543610
0.965210 0.680908 0.541779
0.059113 0.575836 0.474701
0.095398 0.587219 0.474518
0.194611 0.604095 0.477966
0.365784 0.628845 0.489899
0.593262 0.694366 0.540955
0.712128 0.716949 0.556122
0.816254 0.739502 0.566589
0.909790 0.763153 0.577393
0.972443 0.770905 0.584106
0.073914 0.650909 0.482666
0.119232 0.668884 0.486694
0.275970 0.692993 0.499207
0.465912 0.732574 0.530670
0.628479 0.785370 0.575592
0.745026 0.802521 0.581879
0.837463 0.820465 0.593811
0.911591 0.836945 0.610931
0.972290 0.848389 0.622223
0.094849 0.723755 0.481598
0.161865 0.750183 0.498199
0.399719 0.790039 0.528534
0.566467 0.844208 0.583130
0.676361 0.869904 0.607300
0.776459 0.885498 0.616028
0.855743 0.897369 0.625366
0.927368 0.911713 0.641876
0.973877 0.921112 0.655304
0.020599 0.047119 0.238007
0.061310 0.051117 0.244446
0.131317 0.057190 0.259674
0.252625 0.073730 0.290131
0.418152 0.110138 0.320190
0.545868 0.141052 0.340332
0.648895 0.168060 0.357056
0.731171 0.184143 0.365234
0.802094 0.196167 0.372681
0.018829 0.104584 0.286896
0.058044 0.117889 0.295868
0.126282 0.121399 0.293762
0.263550 0.141724 0.321075
0.444427 0.188110 0.358093
0.587250 0.220978 0.381897
0.691559 0.249786 0.398926
0.774353 0.264862 0.405029
0.839203 0.267242 0.404419
0.023804 0.187866 0.355927
0.058899 0.201385 0.363647
0.119781 0.216949 0.364410
0.259979 0.242218 0.376801
0.459045 0.289642 0.411743
0.624756 0.330017 0.437653
0.729950 0.355621 0.454315
0.811523 0.364014 0.455139
0.875000 0.358887 0.447113
0.031860 0.284760 0.408936
0.065033 0.303162 0.422119
0.103607 0.316895 0.426300
0.280518 0.367889 0.453003
0.481720 0.408295 0.471161
0.650848 0.454437 0.504730
0.759094 0.475708 0.519867
0.839447 0.477203 0.516632
0.903198 0.463379 0.500000
0.037537 0.387726 0.460327
0.069550 0.405426 0.472656
0.103210 0.417999 0.476562
0.233795 0.448334 0.488770
0.503723 0.516022 0.530304
0.676056 0.557373 0.555939
0.789398 0.581024 0.572174
0.869659 0.588409 0.575348
0.934235 0.579163 0.561584
0.045746 0.484039 0.502869
0.078186 0.504059 0.515381
0.119202 0.517395 0.518219
0.255188 0.534882 0.522644
0.521515 0.601288 0.563568
0.677094 0.639404 0.590393
0.805847 0.669159 0.608978
0.892578 0.686218 0.620087
0.956146 0.689514 0.619690
0.059387 0.576721 0.537476
0.094116 0.591156 0.542297
0.157654 0.605957 0.544861
0.315063 0.627075 0.554230
0.558075 0.688324 0.595123
0.694122 0.723846 0.623138
0.804626 0.749115 0.641418
0.905670 0.772339 0.653473
0.970917 0.784210 0.664642
0.072815 0.654266 0.552795
0.111847 0.670929 0.558197
0.217957 0.692291 0.566101
0.390564 0.723114 0.582977
0.602173 0.780060 0.628967
0.732880 0.813965 0.658112
0.828247 0.829346 0.667297
0.910278 0.847778 0.683502
0.973022 0.862152 0.696106
0.086121 0.725555 0.556091
0.134308 0.749725 0.565674
0.306122 0.784027 0.582886
0.529327 0.833282 0.629974
0.662445 0.872437 0.668121
0.766327 0.894897 0.687012
0.850464 0.907471 0.696686
0.926971 0.922791 0.712097
0.974487 0.932526 0.724762
0.022217 0.054352 0.303467
0.058716 0.058838 0.309082
0.125122 0.064178 0.320831
0.243958 0.081268 0.352203
0.385162 0.106720 0.377563
0.517303 0.138977 0.401154
0.623383 0.164398 0.416870
0.710388 0.181671 0.422760
0.783417 0.194061 0.429047
0.026184 0.119171 0.356506
0.062225 0.134491 0.369232
0.121338 0.135773 0.362457
0.245148 0.153778 0.385132
0.403564 0.182800 0.414856
0.547333 0.218048 0.441406
0.665649 0.244934 0.459869
0.752502 0.260315 0.463135
0.822968 0.265137 0.463531
0.031860 0.199646 0.418488
0.066162 0.216675 0.429840
0.115143 0.234558 0.434662
0.238190 0.255341 0.444458
0.408142 0.286041 0.467285
0.571472 0.329498 0.497192
0.703735 0.352173 0.513306
0.792419 0.359680 0.514008
0.857971 0.354767 0.507751
0.039520 0.296753 0.472717
0.071716 0.316345 0.489044
0.106232 0.329895 0.493073
0.253876 0.376831 0.515747
0.422607 0.407837 0.533356
0.596771 0.444794 0.553680
0.732910 0.471802 0.572998
0.824005 0.472351 0.571503
0.890198 0.460083 0.559326
0.045929 0.394775 0.523804
0.076355 0.411713 0.535583
0.108154 0.425476 0.541840
0.212799 0.451630 0.549225
0.457489 0.515808 0.590759
0.622864 0.548798 0.603790
0.758820 0.579102 0.628174
0.852051 0.586639 0.633423
0.920380 0.577026 0.622467
0.052979 0.486328 0.559601
0.084259 0.506195 0.573334
0.121033 0.519165 0.577820
0.226044 0.536896 0.583160
0.460541 0.591858 0.616272
0.644379 0.642334 0.649231
0.782410 0.674225 0.674866
0.876556 0.691132 0.687927
0.945953 0.691650 0.685394
0.062744 0.576569 0.595459
0.095612 0.593475 0.604645
0.137848 0.605743 0.606262
0.283051 0.627350 0.614990
0.472198 0.670868 0.641327
0.670380 0.726044 0.681244
0.792328 0.756439 0.706421
0.896271 0.780975 0.724213
0.964905 0.794403 0.734406
0.072815 0.654022 0.613770
0.110229 0.673767 0.623077
0.181427 0.693787 0.631531
0.337311 0.718872 0.643616
0.541351 0.767731 0.677032
0.717804 0.816010 0.717957
0.816742 0.837433 0.735199
0.903839 0.857635 0.753754
0.972961 0.874542 0.767395
0.085175 0.726990 0.622589
0.127014 0.750519 0.635315
0.221283 0.781342 0.649872
0.461975 0.823822 0.676727
0.626678 0.863403 0.718109
0.753601 0.899384 0.751404
0.844116 0.917572 0.765747
0.922455 0.930695 0.776978
0.974030 0.942657 0.790283
0.030579 0.071838 0.374268
0.064423 0.075073 0.377655
0.127167 0.079193 0.386963
0.240387 0.094330 0.414978
0.360077 0.109161 0.437134
0.486267 0.134369 0.457428
0.595825 0.161346 0.477112
0.684448 0.177979 0.484222
0.762207 0.192017 0.486298
0.034821 0.135010 0.424530
0.068329 0.149902 0.436493
0.123291 0.152863 0.431610
0.235413 0.167389 0.449280
0.373566 0.191071 0.478363
0.509338 0.215424 0.497223
0.632324 0.244507 0.519318
0.728729 0.258789 0.524841
0.801239 0.263367 0.522278
0.041595 0.215942 0.481964
0.073517 0.233612 0.493469
0.114624 0.252411 0.503204
0.232758 0.272156 0.510651
0.379364 0.297668 0.529449
0.528748 0.325165 0.550690
0.667267 0.356812 0.573273
0.769501 0.359619 0.574585
0.841217 0.355530 0.568115
0.047028 0.307343 0.533691
0.078308 0.325439 0.549896
0.113586 0.347290 0.558868
0.245575 0.389679 0.578674
0.398163 0.417297 0.598297
0.540802 0.436615 0.605560
0.690094 0.470062 0.627289
0.802429 0.472595 0.629822
0.874115 0.458832 0.618988
0.053619 0.401245 0.581787
0.083069 0.418396 0.594208
0.113831 0.435577 0.604675
0.202698 0.461487 0.610718
0.436157 0.521057 0.649170
0.554657 0.537292 0.653595
0.713318 0.570892 0.674286
0.829590 0.584076 0.686401
0.905853 0.574493 0.679565
0.059998 0.488525 0.617126
0.090118 0.507172 0.629669
0.125183 0.523743 0.637939
0.191589 0.536682 0.640717
0.432312 0.596100 0.675049
0.596222 0.636749 0.700134
0.735046 0.664673 0.720032
0.854156 0.687775 0.742310
0.930573 0.688446 0.742554
0.069214 0.576996 0.650299
0.100433 0.593140 0.660065
0.138947 0.606262 0.665009
0.234863 0.626709 0.673431
0.410492 0.663452 0.694733
0.620544 0.717041 0.731049
0.762146 0.757202 0.763550
0.877655 0.785858 0.789856
0.954010 0.798706 0.799866
0.075348 0.653320 0.670258
0.109955 0.671417 0.680786
0.156525 0.692780 0.690643
0.290894 0.715759 0.702240
0.457275 0.751007 0.724823
0.672363 0.807831 0.766327
0.797272 0.838806 0.794464
0.894196 0.865387 0.817322
0.970306 0.884949 0.835480
0.085266 0.726379 0.683716
0.125244 0.752106 0.699280
0.179382 0.779663 0.713745
0.381348 0.816895 0.736237
0.563965 0.853851 0.763855
0.719421 0.891510 0.797699
0.833221 0.921509 0.824829
0.916626 0.937744 0.839630
0.972870 0.951324 0.853271
0.039734 0.089752 0.447296
0.071075 0.092407 0.448181
0.130432 0.095520 0.454742
0.233276 0.106750 0.475922
0.348022 0.122345 0.500580
0.461914 0.135040 0.515533
0.566589 0.155945 0.530060
0.658875 0.173492 0.540039
0.738434 0.188446 0.546295
0.043610 0.151550 0.491547
0.076508 0.165833 0.503113
0.124084 0.173584 0.503723
0.229645 0.182495 0.514404
0.355927 0.202911 0.538086
0.477417 0.219513 0.557190
0.598541 0.241882 0.573456
0.700073 0.256836 0.583374
0.780182 0.262695 0.583496
0.050232 0.232117 0.544250
0.081390 0.249634 0.557648
0.119720 0.272766 0.573456
0.228973 0.289612 0.575745
0.360596 0.310547 0.592346
0.492310 0.333221 0.614441
0.625946 0.352844 0.625488
0.740173 0.359985 0.632690
0.820953 0.357117 0.630524
0.056976 0.322784 0.599548
0.086823 0.340240 0.610046
0.120850 0.364227 0.621460
0.231384 0.401306 0.639282
0.376831 0.424866 0.652557
0.495422 0.440674 0.664886
0.641113 0.458008 0.674835
0.765717 0.475342 0.687805
0.854919 0.463837 0.684143
0.060852 0.407928 0.637543
0.089386 0.422852 0.648956
0.119873 0.440033 0.659210
0.191254 0.475372 0.672638
0.405945 0.525726 0.703217
0.502350 0.540588 0.716125
0.644379 0.554901 0.720703
0.781921 0.578552 0.739288
0.879944 0.576935 0.742401
0.068054 0.492371 0.674774
0.096802 0.508484 0.684723
0.129791 0.526093 0.694336
0.171997 0.536987 0.696716
0.380798 0.594574 0.729553
0.528839 0.633972 0.760406
0.655182 0.646179 0.763550
0.800659 0.674286 0.784882
0.904572 0.686523 0.799255
0.075470 0.575012 0.703247
0.105560 0.590210 0.713318
0.141479 0.605316 0.722198
0.189606 0.622620 0.728638
0.344879 0.655762 0.748138
0.552429 0.711761 0.787506
0.702637 0.745544 0.808990
0.825439 0.769318 0.828033
0.931335 0.793396 0.850342
0.081665 0.652710 0.725586
0.114655 0.668884 0.735748
0.156219 0.689789 0.748291
0.229034 0.711975 0.759766
0.374054 0.738525 0.777130
0.580872 0.789490 0.811249
0.745026 0.828949 0.838959
0.869843 0.863495 0.870483
0.960907 0.888306 0.893494
0.086823 0.723785 0.740509
0.124878 0.747009 0.755554
0.172668 0.772430 0.770142
0.271545 0.803925 0.787659
0.478546 0.839325 0.813904
0.652863 0.878754 0.841858
0.798767 0.914032 0.870270
0.905182 0.940033 0.895386
0.971375 0.957520 0.911011
0.049713 0.107727 0.516693
0.080841 0.109497 0.515320
0.135895 0.113953 0.522461
0.227051 0.120422 0.537109
0.333832 0.133759 0.558716
0.446198 0.146637 0.578094
0.545258 0.155029 0.586578
0.632080 0.166840 0.591705
0.709839 0.181396 0.602478
0.053314 0.168915 0.558014
0.086273 0.183105 0.567810
0.129578 0.194733 0.573669
0.222351 0.196259 0.577362
0.337524 0.213104 0.595520
0.451569 0.230957 0.618408
0.567139 0.242371 0.630829
0.667450 0.250153 0.636108
0.752777 0.259491 0.642700
0.059113 0.248596 0.607117
0.089996 0.266510 0.622131
0.130066 0.292755 0.639435
0.219177 0.304474 0.637634
0.333374 0.319550 0.651093
0.458069 0.337433 0.666199
0.584717 0.352386 0.685303
0.697418 0.355499 0.685486
0.791962 0.356781 0.689972
0.065918 0.336700 0.656403
0.094574 0.352753 0.667328
0.129181 0.377228 0.682312
0.210541 0.410034 0.697906
0.338745 0.428619 0.706299
0.441925 0.440186 0.723389
0.572815 0.452545 0.732544
0.710846 0.462524 0.737793
0.815857 0.470093 0.747772
0.067780 0.411469 0.690735
0.096100 0.425201 0.702942
0.129456 0.446259 0.713654
0.193909 0.482910 0.730499
0.326996 0.521912 0.754913
0.431641 0.532867 0.767059
0.538666 0.541779 0.773102
0.698547 0.554382 0.782593
0.824951 0.571136 0.798096
0.075714 0.492950 0.729095
0.103119 0.505432 0.735443
0.134705 0.519592 0.742676
0.177765 0.535889 0.749268
0.291260 0.588074 0.780365
0.438080 0.619232 0.806580
0.529419 0.632263 0.815979
0.698456 0.646759 0.823181
0.838989 0.672119 0.842407
0.081665 0.569824 0.752319
0.110687 0.583221 0.760803
0.145020 0.596954 0.769836
0.188293 0.611572 0.776947
0.247223 0.638092 0.793152
0.458893 0.695068 0.833252
0.618134 0.730499 0.855072
0.761780 0.751648 0.866669
0.894440 0.788574 0.890381
0.087555 0.646637 0.775421
0.118652 0.660461 0.784668
0.158081 0.681061 0.797363
0.206848 0.700073 0.808868
0.272614 0.723175 0.822662
0.503296 0.775208 0.857056
0.711090 0.826599 0.886902
0.859650 0.866394 0.915894
0.950989 0.891449 0.934906
0.092896 0.719238 0.794800
0.128479 0.739502 0.806671
0.173706 0.765564 0.821014
0.227173 0.789429 0.835327
0.393188 0.823730 0.856445
0.600769 0.868713 0.887329
0.778778 0.909637 0.916016
0.896545 0.942780 0.941803
0.971161 0.961731 0.958191
