nova/tdt-studio/app/Lut_mau/IWLTBAP/1 - LUTs by IWLTBAP (CUBE)/01 - Standard/GoPro & Drones/IWLTBAP Aptira.cube
# Copyright: (C) Copyright 2010-2018 by IWLTBAP
TITLE "LUT created by IWLTBAP for GoPro Pack"
LUT_3D_SIZE 33
0.000031 0.000153 0.000397
0.012360 0.001587 0.000702
0.027374 0.004913 0.001862
0.047974 0.010620 0.003967
0.071075 0.017609 0.007812
0.096161 0.026489 0.012451
0.122528 0.034912 0.018311
0.151489 0.043060 0.024719
0.183167 0.050140 0.029724
0.218109 0.058197 0.033051
0.256256 0.066193 0.034332
0.296936 0.071960 0.034546
0.339050 0.076691 0.038971
0.382538 0.085175 0.048981
0.423676 0.095581 0.059662
0.459503 0.105835 0.069031
0.491791 0.115082 0.077942
0.521240 0.123138 0.085510
0.548950 0.130463 0.092834
0.576599 0.138397 0.100311
0.603210 0.145966 0.107758
0.628601 0.152893 0.114441
0.653107 0.159637 0.121307
0.677185 0.165619 0.127594
0.700775 0.171539 0.133972
0.724487 0.177765 0.140503
0.746826 0.183533 0.146454
0.766815 0.188202 0.151733
0.785370 0.192596 0.156616
0.803680 0.196777 0.161133
0.820770 0.200531 0.165588
0.836426 0.203857 0.169312
0.849274 0.206207 0.171875
0.001434 0.014587 0.005859
0.012512 0.015839 0.005768
0.026367 0.018341 0.006104
0.048248 0.023651 0.007233
0.071259 0.030609 0.010498
0.098022 0.040009 0.015625
0.127411 0.048706 0.022095
0.159515 0.057343 0.028259
0.193268 0.064880 0.032471
0.229858 0.072754 0.034821
0.269684 0.080505 0.035553
0.311859 0.086090 0.037964
0.354187 0.091217 0.044373
0.396423 0.101135 0.053833
0.436371 0.112274 0.064758
0.470856 0.122040 0.073822
0.502075 0.130768 0.082123
0.531342 0.138733 0.089569
0.559418 0.146118 0.096954
0.587616 0.154053 0.104858
0.614868 0.161713 0.112396
0.640503 0.169006 0.119537
0.664948 0.175446 0.126343
0.688934 0.181580 0.132843
0.712372 0.187317 0.139191
0.735992 0.193207 0.145569
0.758148 0.199036 0.151611
0.777405 0.203857 0.156769
0.795441 0.208313 0.161560
0.813293 0.212708 0.166382
0.829773 0.216431 0.170685
0.845306 0.219696 0.174469
0.858124 0.221954 0.177032
0.003326 0.032776 0.013733
0.013672 0.033478 0.013702
0.027374 0.035431 0.013000
0.047668 0.039551 0.013428
0.072479 0.046509 0.014374
0.101196 0.055603 0.019348
0.133453 0.065063 0.026337
0.167694 0.073639 0.032104
0.204193 0.081848 0.035980
0.243591 0.089630 0.036743
0.285919 0.097290 0.037292
0.329315 0.102905 0.042297
0.371277 0.110046 0.049622
0.412445 0.120728 0.059875
0.451233 0.132263 0.070923
0.484253 0.141663 0.079437
0.514496 0.149963 0.087433
0.543732 0.157562 0.094635
0.572205 0.165192 0.102386
0.600952 0.173065 0.110626
0.628723 0.181061 0.118561
0.654633 0.187988 0.125793
0.679382 0.194489 0.132721
0.703217 0.200378 0.139099
0.726318 0.206024 0.145264
0.749359 0.212067 0.151794
0.771027 0.217651 0.157928
0.790009 0.222839 0.163208
0.807556 0.227386 0.168121
0.824677 0.231720 0.172852
0.840668 0.235596 0.177216
0.855988 0.238800 0.180817
0.868744 0.241150 0.183441
0.005219 0.051178 0.022491
0.015198 0.051910 0.022705
0.029419 0.053223 0.021881
0.047302 0.055817 0.020630
0.070068 0.060944 0.020233
0.099274 0.070312 0.024170
0.133362 0.079773 0.029602
0.171356 0.089386 0.035492
0.211670 0.098328 0.038361
0.254333 0.105988 0.038727
0.298920 0.113678 0.039917
0.343262 0.120758 0.047546
0.385254 0.129578 0.055420
0.425995 0.140961 0.066132
0.464111 0.152222 0.076660
0.496857 0.161285 0.085022
0.526794 0.169373 0.092560
0.555908 0.176880 0.100128
0.584412 0.184387 0.107788
0.613342 0.192322 0.116241
0.641022 0.200073 0.124390
0.667389 0.207001 0.131897
0.692719 0.213531 0.138916
0.716583 0.219269 0.145233
0.739014 0.224762 0.151154
0.760925 0.230774 0.157532
0.781616 0.236755 0.163666
0.800507 0.242584 0.169403
0.817963 0.247772 0.174744
0.834595 0.252197 0.179535
0.850098 0.255676 0.183563
0.865112 0.258514 0.186951
0.877625 0.260498 0.189301
0.007965 0.070618 0.032318
0.018463 0.071289 0.032532
0.032898 0.072510 0.032288
0.049713 0.074280 0.030701
0.068665 0.077667 0.028900
0.096191 0.085205 0.030548
0.131134 0.095093 0.034210
0.172089 0.105469 0.038940
0.216156 0.115387 0.042450
0.263275 0.123566 0.041687
0.310577 0.131500 0.044525
0.356628 0.140228 0.052551
0.399811 0.150696 0.061005
0.440552 0.162201 0.071106
0.478149 0.173096 0.080658
0.510345 0.181641 0.088898
0.540222 0.189545 0.096893
0.568878 0.197113 0.104889
0.596985 0.204773 0.113068
0.625458 0.212341 0.121460
0.653137 0.219574 0.129578
0.679993 0.226654 0.137451
0.705566 0.233368 0.144653
0.728760 0.239380 0.151031
0.750549 0.245087 0.157013
0.771393 0.251404 0.163116
0.791168 0.257416 0.169281
0.809723 0.263580 0.175354
0.827148 0.269135 0.181061
0.843353 0.273254 0.185608
0.858368 0.276398 0.189423
0.873108 0.278900 0.192657
0.885376 0.280579 0.194916
0.010925 0.090820 0.043671
0.021545 0.091431 0.043793
0.037659 0.092987 0.043182
0.053589 0.094818 0.042511
0.072205 0.097534 0.040161
0.096375 0.102814 0.039429
0.127747 0.111053 0.040955
0.168427 0.122345 0.044983
0.216431 0.133484 0.046356
0.269562 0.142487 0.045624
0.320984 0.151093 0.049774
0.369354 0.161926 0.057892
0.413666 0.173553 0.066650
0.454834 0.184784 0.075958
0.491791 0.194580 0.085205
0.523285 0.202972 0.093475
0.552673 0.210480 0.101562
0.582123 0.218170 0.109711
0.610809 0.225891 0.118530
0.638733 0.233124 0.126892
0.665924 0.240082 0.135315
0.692749 0.247253 0.143097
0.717834 0.254181 0.150299
0.740204 0.260559 0.156891
0.761017 0.266724 0.163208
0.781097 0.273529 0.169403
0.800171 0.280060 0.175690
0.818207 0.286072 0.181763
0.835297 0.291229 0.187103
0.851257 0.295105 0.191620
0.866028 0.297913 0.195251
0.880371 0.299896 0.198364
0.892456 0.301239 0.200592
0.013245 0.111267 0.054535
0.025208 0.112549 0.054688
0.042267 0.114105 0.054565
0.058350 0.116150 0.054108
0.076141 0.118927 0.052704
0.098572 0.123291 0.050385
0.125946 0.129608 0.049561
0.165009 0.140381 0.051758
0.214081 0.152222 0.052521
0.271851 0.162537 0.051025
0.328278 0.172546 0.055115
0.378937 0.185425 0.063721
0.425964 0.198242 0.073303
0.468170 0.208496 0.081482
0.505249 0.217773 0.089783
0.536896 0.225494 0.097595
0.566162 0.232880 0.105713
0.596191 0.240509 0.114746
0.625397 0.248138 0.123322
0.652893 0.254944 0.131561
0.679535 0.261780 0.139679
0.705170 0.268707 0.147980
0.729279 0.275787 0.155426
0.750793 0.282623 0.162445
0.770996 0.289673 0.169250
0.790405 0.296692 0.175781
0.808868 0.303406 0.182373
0.826416 0.308838 0.187958
0.842743 0.313293 0.192993
0.858459 0.316956 0.197388
0.873108 0.319489 0.201233
0.887329 0.321320 0.204407
0.899231 0.322449 0.206635
0.015869 0.132996 0.064941
0.029297 0.134613 0.065491
0.047363 0.137054 0.066010
0.063171 0.138733 0.065582
0.080902 0.141541 0.064178
0.102448 0.145905 0.062531
0.129608 0.152344 0.060638
0.164612 0.160767 0.059875
0.210510 0.171906 0.059662
0.270081 0.183990 0.058624
0.331207 0.195770 0.061646
0.386353 0.210297 0.070007
0.436951 0.224091 0.080383
0.480499 0.234100 0.088745
0.518829 0.242584 0.095673
0.551270 0.250183 0.103180
0.581055 0.257050 0.111206
0.611420 0.264343 0.119537
0.640564 0.271454 0.127899
0.667633 0.277985 0.136353
0.693390 0.284821 0.144440
0.717377 0.291840 0.152405
0.739868 0.299042 0.160309
0.760651 0.306305 0.167603
0.780243 0.313416 0.174469
0.799316 0.320343 0.181030
0.817383 0.326447 0.187469
0.834167 0.331238 0.193207
0.849976 0.335114 0.198212
0.865173 0.338409 0.202545
0.879608 0.340881 0.206451
0.893677 0.342773 0.209900
0.905640 0.343933 0.212280
0.017731 0.155579 0.075500
0.032745 0.157928 0.076263
0.050781 0.160645 0.077057
0.067810 0.162628 0.076874
0.085510 0.165222 0.076141
0.107086 0.169983 0.074249
0.133575 0.176453 0.072327
0.168854 0.184479 0.069489
0.210785 0.194000 0.066467
0.268402 0.207306 0.067413
0.330475 0.221161 0.072296
0.391418 0.236542 0.078339
0.446075 0.250732 0.087494
0.490997 0.261292 0.096710
0.530365 0.269592 0.103821
0.564514 0.276794 0.110809
0.595520 0.283264 0.117493
0.626038 0.289520 0.124664
0.655182 0.295807 0.132355
0.681824 0.302063 0.140198
0.706360 0.308350 0.147949
0.729004 0.315369 0.155365
0.750214 0.322601 0.163300
0.770325 0.330383 0.170715
0.789429 0.337708 0.178345
0.808014 0.344055 0.185272
0.825684 0.349609 0.191742
0.841980 0.353699 0.197113
0.857208 0.356934 0.202209
0.872040 0.359711 0.206573
0.886078 0.362152 0.210693
0.900208 0.364288 0.214386
0.912109 0.365845 0.216949
0.019196 0.179199 0.086395
0.033508 0.182007 0.087036
0.051910 0.184906 0.087952
0.071564 0.187378 0.087921
0.091400 0.190735 0.087494
0.113129 0.195496 0.085358
0.139496 0.202057 0.082794
0.175629 0.210571 0.079407
0.219788 0.220886 0.076843
0.272156 0.232971 0.076447
0.331879 0.247223 0.081146
0.394165 0.262573 0.088409
0.452209 0.277405 0.095490
0.499634 0.288147 0.103790
0.540649 0.296600 0.111786
0.575958 0.303467 0.118774
0.607727 0.309631 0.125214
0.638153 0.315765 0.131897
0.666687 0.321869 0.138794
0.692383 0.327667 0.145691
0.715973 0.333801 0.152985
0.738129 0.340912 0.160553
0.759155 0.348328 0.167908
0.778992 0.355499 0.175446
0.797974 0.362213 0.182312
0.816376 0.368134 0.188904
0.833832 0.373138 0.194672
0.849792 0.376617 0.200073
0.864838 0.379364 0.205048
0.879211 0.381775 0.209595
0.892975 0.383850 0.213562
0.906891 0.386353 0.217865
0.918915 0.388153 0.220764
0.021149 0.204193 0.097412
0.033905 0.207092 0.098297
0.051117 0.210632 0.099152
0.073517 0.213867 0.099365
0.097137 0.217529 0.099121
0.119263 0.222382 0.096771
0.147064 0.229156 0.093811
0.183624 0.238281 0.091400
0.228973 0.249481 0.089539
0.279480 0.261688 0.088257
0.334412 0.275299 0.091431
0.395630 0.289978 0.100677
0.455139 0.304413 0.106232
0.506134 0.315308 0.112793
0.549500 0.324005 0.120789
0.586182 0.330750 0.127808
0.618469 0.336853 0.133850
0.648560 0.342957 0.140411
0.676239 0.348999 0.146851
0.700989 0.354706 0.153595
0.723999 0.360565 0.160431
0.746002 0.367615 0.167786
0.766968 0.374664 0.175049
0.786865 0.381226 0.181366
0.805603 0.387085 0.187897
0.824097 0.392609 0.193573
0.841370 0.397247 0.199158
0.857239 0.400269 0.203979
0.871948 0.402527 0.208740
0.886078 0.404480 0.212708
0.899567 0.406219 0.216492
0.913666 0.408783 0.220947
0.925751 0.410828 0.224091
0.022217 0.230377 0.107971
0.032104 0.233673 0.108582
0.049133 0.237793 0.109833
0.075226 0.241608 0.110748
0.101929 0.245972 0.111420
0.125519 0.250580 0.109070
0.152435 0.257019 0.106384
0.187866 0.266388 0.104736
0.233032 0.278656 0.103760
0.286682 0.293396 0.103516
0.341003 0.306854 0.104919
0.399933 0.320068 0.112671
0.455902 0.332397 0.120697
0.509430 0.343719 0.125580
0.556946 0.352936 0.131165
0.595032 0.359680 0.137054
0.627533 0.365448 0.143585
0.657257 0.371552 0.150665
0.684296 0.377502 0.157501
0.708801 0.382935 0.163879
0.731659 0.388550 0.170624
0.753357 0.394958 0.177582
0.774048 0.401520 0.184021
0.793793 0.407288 0.189911
0.812622 0.412598 0.195374
0.830933 0.417969 0.200745
0.848206 0.422455 0.205688
0.863922 0.425110 0.209778
0.878601 0.426971 0.213440
0.892578 0.428345 0.216736
0.906158 0.429657 0.220062
0.920502 0.432190 0.223816
0.932800 0.434265 0.226929
0.022888 0.256775 0.118652
0.033051 0.260498 0.119476
0.051483 0.265411 0.120972
0.076202 0.269806 0.122650
0.104980 0.274933 0.124603
0.131348 0.279938 0.123108
0.158661 0.286407 0.120880
0.191040 0.295441 0.119324
0.234589 0.308044 0.118713
0.293488 0.324707 0.119995
0.349976 0.339294 0.122437
0.404938 0.350372 0.126373
0.457794 0.361267 0.134613
0.510437 0.372375 0.141052
0.560303 0.381958 0.145142
0.600403 0.388824 0.149078
0.634125 0.394287 0.154816
0.663940 0.400391 0.161682
0.690552 0.406189 0.168610
0.715240 0.411530 0.174866
0.738281 0.416748 0.181610
0.759827 0.422668 0.188080
0.780518 0.428284 0.194061
0.800079 0.433472 0.199402
0.818848 0.438354 0.204437
0.837036 0.443573 0.209839
0.854034 0.448059 0.214813
0.869751 0.450500 0.218353
0.884491 0.452026 0.221558
0.898651 0.453033 0.223999
0.912415 0.454132 0.226471
0.927185 0.456177 0.229553
0.939636 0.458038 0.232605
0.023193 0.283783 0.130402
0.032867 0.288025 0.131500
0.050720 0.293518 0.133636
0.072906 0.298584 0.135925
0.102783 0.304138 0.138489
0.133148 0.310242 0.139374
0.165405 0.317413 0.138794
0.196655 0.325226 0.136261
0.238342 0.336121 0.134705
0.298737 0.352966 0.136993
0.357849 0.369080 0.140381
0.411041 0.380341 0.143799
0.462189 0.390656 0.149902
0.511871 0.400452 0.156189
0.559052 0.409332 0.160645
0.600281 0.416504 0.164703
0.636536 0.422638 0.169098
0.667603 0.428436 0.174164
0.694702 0.433899 0.179901
0.719910 0.439087 0.185944
0.743134 0.444244 0.192200
0.765076 0.449524 0.198425
0.785797 0.454529 0.204132
0.805511 0.459259 0.209229
0.824219 0.463837 0.214294
0.842255 0.468658 0.219299
0.859314 0.472504 0.223785
0.875336 0.474976 0.227631
0.890503 0.476654 0.230713
0.904999 0.477753 0.233002
0.919037 0.478668 0.235077
0.933838 0.480438 0.237976
0.946289 0.481842 0.240356
0.023468 0.310791 0.143219
0.033691 0.315460 0.144501
0.048981 0.321411 0.146973
0.069031 0.326721 0.149231
0.099701 0.332611 0.152466
0.135895 0.339752 0.155060
0.173096 0.347504 0.156311
0.205109 0.354553 0.153320
0.245148 0.364044 0.150818
0.303833 0.379974 0.153687
0.363922 0.396423 0.157867
0.417023 0.409180 0.162231
0.466370 0.419342 0.166595
0.513245 0.428131 0.171753
0.556946 0.435577 0.176605
0.597931 0.442932 0.181488
0.635864 0.449707 0.184937
0.668457 0.455444 0.188599
0.696930 0.460602 0.192383
0.723083 0.465729 0.197174
0.746857 0.470764 0.202972
0.769104 0.475555 0.208710
0.790192 0.479980 0.214020
0.809875 0.484436 0.219299
0.828735 0.488831 0.224548
0.846802 0.493073 0.229370
0.863892 0.496613 0.233826
0.880310 0.499054 0.237457
0.895935 0.500946 0.240692
0.910950 0.502075 0.243103
0.925323 0.502991 0.245087
0.940033 0.504303 0.247314
0.952301 0.505432 0.249481
0.025299 0.337189 0.156738
0.035522 0.341492 0.157990
0.047577 0.347168 0.159851
0.066437 0.352631 0.162231
0.096222 0.359039 0.165222
0.141174 0.367065 0.169342
0.182495 0.375549 0.172272
0.218475 0.382904 0.169342
0.257599 0.391998 0.166534
0.310486 0.405914 0.168915
0.367310 0.421143 0.172791
0.421143 0.435455 0.178650
0.471497 0.446960 0.184296
0.515564 0.454437 0.187897
0.557129 0.461151 0.192505
0.595917 0.468231 0.198364
0.632690 0.474701 0.203186
0.666382 0.480591 0.205383
0.696655 0.485840 0.207184
0.724213 0.490936 0.210175
0.749176 0.495880 0.214600
0.772186 0.500336 0.219482
0.793304 0.504547 0.224640
0.813324 0.508728 0.229645
0.832245 0.512909 0.234863
0.850403 0.516602 0.239410
0.867615 0.519806 0.243713
0.884216 0.522095 0.247406
0.900146 0.523804 0.250427
0.915558 0.525085 0.253113
0.930206 0.526154 0.255554
0.944946 0.527100 0.257660
0.957245 0.527679 0.259216
0.028717 0.363098 0.169800
0.038300 0.367126 0.171051
0.050354 0.372406 0.173004
0.067352 0.378174 0.174896
0.098724 0.384979 0.177979
0.149353 0.393768 0.182831
0.193024 0.402740 0.187073
0.232971 0.410553 0.184784
0.272217 0.419342 0.182068
0.318542 0.431030 0.183258
0.369141 0.444489 0.186584
0.424103 0.459808 0.194458
0.475891 0.472870 0.202240
0.518463 0.479980 0.205139
0.558655 0.486359 0.208557
0.595825 0.492981 0.213715
0.630829 0.499420 0.218475
0.664307 0.504761 0.222107
0.694824 0.509979 0.224060
0.723541 0.515137 0.226105
0.749847 0.520020 0.229126
0.773743 0.524323 0.232666
0.795746 0.528320 0.236359
0.816101 0.532349 0.240540
0.835205 0.536316 0.245239
0.853424 0.539703 0.249603
0.870819 0.542633 0.253723
0.887695 0.544647 0.257050
0.903961 0.546173 0.260193
0.919617 0.547546 0.262848
0.934540 0.548676 0.265137
0.949402 0.549164 0.267151
0.961823 0.549377 0.268402
0.033356 0.389282 0.181763
0.043121 0.393402 0.183258
0.055115 0.398804 0.185333
0.076660 0.404602 0.187714
0.110382 0.411255 0.191010
0.159760 0.420258 0.196411
0.205231 0.429596 0.201050
0.246582 0.437408 0.199341
0.285767 0.445862 0.196350
0.326721 0.455933 0.197388
0.372162 0.467834 0.200775
0.426636 0.483337 0.209930
0.479218 0.497681 0.219818
0.523163 0.505524 0.222748
0.562866 0.511688 0.224731
0.598450 0.518005 0.229187
0.631073 0.523865 0.233398
0.663269 0.528961 0.237305
0.693390 0.533691 0.240295
0.722198 0.538727 0.241974
0.749664 0.543427 0.243927
0.774323 0.547638 0.246460
0.797058 0.551605 0.248932
0.818054 0.555511 0.251953
0.837402 0.559113 0.255707
0.855835 0.562286 0.259430
0.873627 0.565002 0.262909
0.890808 0.566925 0.266113
0.907318 0.568420 0.269135
0.922943 0.569611 0.271912
0.938019 0.570435 0.273895
0.953125 0.570496 0.275757
0.965790 0.570465 0.277252
0.038879 0.415497 0.194000
0.048889 0.419891 0.195435
0.063141 0.425507 0.197876
0.085846 0.431213 0.200531
0.128052 0.437897 0.204285
0.174896 0.446594 0.209564
0.220734 0.456024 0.213989
0.261597 0.463745 0.212891
0.299622 0.471741 0.210266
0.335876 0.480438 0.210754
0.376617 0.491028 0.214142
0.428955 0.506256 0.225067
0.482086 0.521332 0.236145
0.528290 0.530182 0.239044
0.568726 0.536713 0.240265
0.602081 0.542786 0.243744
0.632935 0.548309 0.247559
0.663422 0.553162 0.250946
0.692383 0.557495 0.254181
0.720886 0.561737 0.257172
0.748535 0.566071 0.259125
0.774170 0.570221 0.260590
0.797638 0.574158 0.262268
0.818970 0.577850 0.264526
0.838776 0.581238 0.267365
0.857544 0.584229 0.270020
0.875702 0.586731 0.272858
0.893433 0.588745 0.275604
0.910309 0.590179 0.278534
0.926056 0.591187 0.280823
0.941132 0.591583 0.282623
0.956512 0.591492 0.284210
0.969299 0.591248 0.285980
0.044403 0.441528 0.205750
0.054565 0.446014 0.207092
0.071167 0.451996 0.209961
0.100952 0.458008 0.213684
0.148010 0.465027 0.218140
0.195007 0.473633 0.222870
0.240540 0.482788 0.226135
0.279877 0.490204 0.224976
0.315979 0.497498 0.222473
0.346893 0.504822 0.222931
0.382477 0.514130 0.226746
0.432556 0.529236 0.238373
0.485321 0.544434 0.250153
0.532532 0.554199 0.253632
0.573517 0.561188 0.254730
0.606201 0.567657 0.257599
0.636902 0.573242 0.261414
0.665833 0.577332 0.264221
0.692749 0.580933 0.266632
0.720551 0.584808 0.269531
0.747498 0.588715 0.272186
0.773010 0.592407 0.274628
0.797241 0.595947 0.276581
0.819153 0.599426 0.278259
0.839722 0.602692 0.279785
0.859131 0.605621 0.280975
0.877655 0.608063 0.283173
0.895813 0.610107 0.285492
0.913177 0.611664 0.287659
0.929077 0.612396 0.289642
0.944183 0.612610 0.291199
0.959564 0.612885 0.293030
0.972198 0.612885 0.295044
0.050934 0.467529 0.216858
0.061829 0.471985 0.218475
0.077454 0.478149 0.221680
0.113190 0.484680 0.226227
0.170624 0.492065 0.231476
0.218536 0.500702 0.235687
0.262573 0.509430 0.238037
0.299530 0.516418 0.236023
0.332123 0.523132 0.234314
0.358643 0.529236 0.234924
0.389648 0.537415 0.239075
0.437042 0.551788 0.251038
0.488434 0.566864 0.262726
0.536499 0.577454 0.266998
0.578339 0.585175 0.268738
0.612091 0.592163 0.271576
0.641693 0.597870 0.274963
0.669647 0.601471 0.277191
0.694641 0.604218 0.278900
0.720978 0.607758 0.281281
0.747009 0.611298 0.283722
0.772339 0.614349 0.286285
0.796631 0.617310 0.288666
0.819336 0.620392 0.290405
0.840454 0.623535 0.291626
0.860229 0.626404 0.292969
0.879059 0.628937 0.294495
0.897552 0.631042 0.295990
0.915222 0.632660 0.297516
0.931519 0.633301 0.298645
0.946747 0.633575 0.300171
0.962036 0.634033 0.302277
0.974274 0.634399 0.304504
0.059967 0.494110 0.228119
0.071899 0.498535 0.230377
0.093658 0.504730 0.234314
0.142273 0.511475 0.238739
0.198425 0.519012 0.243439
0.244446 0.527740 0.247223
0.285980 0.536346 0.248962
0.318909 0.542816 0.248260
0.347534 0.548950 0.247253
0.370728 0.554199 0.248444
0.398895 0.561340 0.252197
0.441986 0.574005 0.262878
0.490082 0.587982 0.273468
0.539490 0.599518 0.278656
0.583984 0.608856 0.281952
0.618317 0.616364 0.285126
0.647705 0.622223 0.287811
0.674103 0.625702 0.289642
0.699097 0.628204 0.291016
0.723297 0.630768 0.292389
0.747314 0.633209 0.293976
0.771942 0.635895 0.296051
0.796051 0.638611 0.298187
0.819153 0.641449 0.300415
0.840820 0.644379 0.302399
0.861023 0.647034 0.304199
0.880249 0.649414 0.305878
0.898956 0.651733 0.307861
0.916748 0.653564 0.309052
0.933136 0.654449 0.309814
0.948578 0.655060 0.310272
0.963745 0.655334 0.312042
0.975922 0.655518 0.313904
0.069977 0.519989 0.238586
0.086548 0.524597 0.241821
0.120789 0.530701 0.246338
0.177002 0.537567 0.250336
0.226746 0.545288 0.254120
0.268890 0.554108 0.257782
0.307922 0.562775 0.259644
0.336792 0.568878 0.260620
0.361145 0.574402 0.261475
0.383484 0.579437 0.262573
0.409454 0.585754 0.265869
0.447601 0.596436 0.274323
0.492004 0.608582 0.282837
0.542450 0.620972 0.289062
0.589600 0.632019 0.294373
0.624817 0.639984 0.297974
0.654297 0.645874 0.300385
0.680054 0.649689 0.302155
0.704132 0.652100 0.303436
0.726959 0.653748 0.304077
0.748901 0.655121 0.304352
0.772369 0.657379 0.305603
0.795898 0.659821 0.307190
0.819092 0.662384 0.309143
0.841095 0.665070 0.311554
0.861694 0.667572 0.313934
0.881134 0.669891 0.316162
0.899841 0.672241 0.318878
0.917786 0.674225 0.320740
0.934357 0.675568 0.321320
0.949829 0.676392 0.321594
0.965088 0.676605 0.322052
0.977325 0.676605 0.323547
0.081726 0.543549 0.247253
0.102051 0.548645 0.251221
0.152405 0.555176 0.256195
0.203094 0.562286 0.259430
0.247070 0.570221 0.262756
0.286316 0.578979 0.267426
0.322449 0.587280 0.271332
0.349487 0.593750 0.273499
0.373138 0.599457 0.275269
0.395874 0.604950 0.277161
0.421783 0.611176 0.279816
0.454285 0.619324 0.285278
0.493744 0.629211 0.291656
0.545258 0.642181 0.298676
0.594574 0.654572 0.306030
0.631073 0.662872 0.309601
0.660919 0.668884 0.311737
0.686646 0.673126 0.313568
0.709808 0.675842 0.315155
0.731781 0.677216 0.315277
0.753082 0.678101 0.315063
0.774536 0.679535 0.315155
0.796417 0.681091 0.315643
0.818909 0.683136 0.316742
0.840790 0.685486 0.318695
0.861694 0.688080 0.321686
0.881592 0.690674 0.325165
0.900238 0.693024 0.328400
0.917969 0.694946 0.331177
0.934875 0.696442 0.332367
0.950500 0.697449 0.332977
0.965942 0.698029 0.333710
0.978546 0.698212 0.334229
0.095306 0.566589 0.255768
0.127747 0.572052 0.259705
0.179779 0.579254 0.264496
0.225739 0.586639 0.267487
0.265320 0.594604 0.270905
0.301483 0.603424 0.276978
0.333893 0.611603 0.282990
0.360199 0.618103 0.286377
0.384125 0.624115 0.288696
0.408478 0.630249 0.290680
0.434113 0.636505 0.293213
0.462128 0.642578 0.296204
0.497498 0.650299 0.300537
0.549011 0.663300 0.307831
0.599274 0.676361 0.316437
0.636902 0.685242 0.320282
0.667542 0.691620 0.322174
0.693329 0.696198 0.324280
0.716339 0.699310 0.325592
0.737213 0.700592 0.325592
0.758026 0.701263 0.325012
0.777954 0.701843 0.324280
0.798096 0.702667 0.323547
0.819489 0.704071 0.324005
0.840729 0.706085 0.325409
0.861664 0.708557 0.328583
0.881805 0.711365 0.332550
0.900177 0.713684 0.336670
0.917755 0.715546 0.340149
0.934540 0.717102 0.342712
0.950592 0.718231 0.344788
0.966339 0.719025 0.346252
0.979401 0.719513 0.346741
0.110321 0.590302 0.264069
0.148621 0.596039 0.267395
0.203491 0.603485 0.271729
0.244873 0.611115 0.275879
0.281799 0.619354 0.281281
0.315094 0.628418 0.288696
0.345245 0.636841 0.295746
0.370697 0.643188 0.299164
0.394989 0.648804 0.301422
0.419220 0.654572 0.303314
0.444977 0.660370 0.304962
0.471558 0.665619 0.306824
0.505066 0.672424 0.310394
0.554169 0.684631 0.317444
0.602844 0.697388 0.325745
0.641998 0.707001 0.330170
0.674316 0.714111 0.332184
0.700012 0.718536 0.333557
0.722260 0.721252 0.334167
0.743042 0.722717 0.333801
0.762482 0.723389 0.333221
0.782471 0.723877 0.331970
0.802124 0.724335 0.330872
0.821930 0.725250 0.331055
0.841492 0.726593 0.332458
0.861725 0.728577 0.335236
0.881561 0.730896 0.338867
0.900024 0.733185 0.343201
0.917755 0.735352 0.347504
0.934723 0.737122 0.351166
0.950745 0.738617 0.354584
0.966736 0.739563 0.357117
0.979889 0.740143 0.358246
0.129059 0.614227 0.271851
0.173676 0.620117 0.274719
0.223236 0.627777 0.279175
0.261688 0.635773 0.285248
0.296478 0.644318 0.292542
0.327850 0.653564 0.300812
0.355927 0.661896 0.307861
0.381439 0.667877 0.311157
0.405853 0.673096 0.313049
0.430298 0.678467 0.314606
0.456451 0.683929 0.315918
0.484100 0.689209 0.317444
0.517029 0.695709 0.320709
0.561951 0.706573 0.327209
0.607147 0.718323 0.334534
0.647186 0.728333 0.338867
0.680878 0.736084 0.340851
0.706696 0.740051 0.341431
0.728363 0.742310 0.341003
0.749146 0.743927 0.340515
0.768524 0.744995 0.340179
0.787659 0.745392 0.339081
0.807220 0.745819 0.338104
0.825653 0.746246 0.338226
0.843445 0.746948 0.339600
0.862640 0.748291 0.341827
