nova/tdt-studio/app/Lut_mau/IWLTBAP/1 - LUTs by IWLTBAP (CUBE)/01 - Standard/GoPro & Drones/IWLTBAP Aructa.cube
# Copyright: (C) Copyright 2016 by IWLTBAP
TITLE "LUT created by IWLTBAP for GoPro Pack"
LUT_3D_SIZE 5
0.001343 0.003326 0.005188
0.262451 0.018341 0.000000
0.471344 0.027771 0.000000
0.584473 0.049591 0.003265
0.656799 0.071808 0.020111
0.177429 0.244751 0.136627
0.291199 0.203033 0.063782
0.580444 0.179504 0.000824
0.678192 0.191498 0.026703
0.746460 0.208557 0.061005
0.409973 0.485107 0.269287
0.449097 0.479095 0.257111
0.619629 0.399750 0.119995
0.753876 0.397980 0.089325
0.824371 0.408630 0.133057
0.530029 0.612122 0.363068
0.566864 0.609436 0.364441
0.731567 0.565460 0.172699
0.763885 0.539062 0.231415
0.854126 0.544830 0.243134
0.604980 0.695343 0.415741
0.633423 0.693665 0.421936
0.727509 0.686066 0.355682
0.834930 0.679810 0.349945
0.860504 0.639557 0.331543
0.061676 0.108429 0.189941
0.125092 0.020416 0.118317
0.377777 0.024078 0.082367
0.511902 0.031891 0.071289
0.581207 0.028320 0.060120
0.057007 0.242676 0.263916
0.310699 0.299835 0.292450
0.580994 0.306427 0.234924
0.695465 0.318909 0.247009
0.771088 0.331573 0.267944
0.344452 0.483307 0.327362
0.438477 0.508484 0.329865
0.594452 0.491608 0.348328
0.733673 0.489899 0.312592
0.823792 0.481873 0.309052
0.517334 0.601257 0.324951
0.561646 0.608856 0.350647
0.682953 0.598602 0.298767
0.729004 0.598022 0.428741
0.835632 0.616821 0.416626
0.605438 0.684052 0.359344
0.625824 0.692627 0.415283
0.690094 0.697418 0.428589
0.808655 0.712860 0.466675
0.842072 0.683563 0.471710
0.121979 0.267426 0.404724
0.118317 0.123291 0.322021
0.297272 0.051147 0.226562
0.440979 0.073578 0.237671
0.537903 0.068298 0.226685
0.158295 0.384888 0.472534
0.340546 0.431915 0.480927
0.474792 0.323120 0.413666
0.622833 0.325256 0.397736
0.705811 0.312195 0.377808
0.186127 0.496918 0.516815
0.372955 0.533875 0.534821
0.574554 0.553375 0.542145
0.701324 0.555664 0.523407
0.794128 0.567505 0.527252
0.324738 0.618469 0.553864
0.406219 0.628845 0.561981
0.622314 0.658264 0.562256
0.721283 0.650513 0.568298
0.819580 0.660767 0.552155
0.420685 0.687103 0.554749
0.447479 0.692200 0.558441
0.662720 0.729492 0.559937
0.782715 0.739929 0.569824
0.836365 0.724213 0.582733
0.173401 0.383881 0.556396
0.201965 0.321625 0.524841
0.302429 0.111481 0.354462
0.378265 0.082886 0.316254
0.475677 0.103210 0.341095
0.209076 0.480774 0.603149
0.375885 0.519043 0.604065
0.433197 0.377594 0.529816
0.538971 0.344330 0.491486
0.639557 0.350983 0.494568
0.214325 0.548462 0.628021
0.413422 0.592041 0.630981
0.577515 0.608521 0.632965
0.644226 0.557831 0.598206
0.738708 0.559204 0.597260
0.279999 0.625427 0.653931
0.422882 0.646393 0.655304
0.598938 0.673370 0.666840
0.713501 0.690308 0.671722
0.809357 0.692078 0.667755
0.329193 0.701691 0.671509
0.446472 0.719940 0.669037
0.606628 0.742554 0.676666
0.746490 0.763275 0.683624
0.823608 0.758270 0.688782
0.206818 0.460083 0.650757
0.242889 0.411438 0.624451
0.281311 0.156677 0.467102
0.373322 0.125244 0.428955
0.413025 0.084076 0.384247
0.238007 0.539337 0.688843
0.395538 0.573914 0.683838
0.383331 0.468567 0.642120
0.505280 0.374695 0.581085
0.569397 0.338928 0.544586
0.245331 0.589050 0.708984
0.420959 0.632874 0.713501
0.574738 0.651031 0.707794
0.613312 0.583405 0.671906
0.674500 0.561188 0.652740
0.264984 0.642334 0.730225
0.412506 0.678650 0.735779
0.583618 0.706146 0.739349
0.705963 0.717987 0.739929
0.749878 0.686279 0.721680
0.301849 0.700439 0.742767
0.412384 0.725555 0.745911
0.582855 0.756378 0.755005
0.718719 0.775146 0.768494
0.813019 0.781921 0.773102
