nova/tdt-studio/app/Lut_mau/IWLTBAP/1 - LUTs by IWLTBAP (CUBE)/01 - Standard/GoPro & Drones/IWLTBAP Batiog.cube
# Copyright: (C) Copyright 2016 by IWLTBAP
TITLE "LUT created by IWLTBAP for GoPro Pack"
LUT_3D_SIZE 32
0.041077 0.057007 0.064056
0.045622 0.058690 0.065333
0.057429 0.061476 0.067005
0.075739 0.065339 0.069003
0.094577 0.068848 0.070903
0.115250 0.072906 0.072430
0.139320 0.076915 0.073576
0.167573 0.081211 0.073346
0.207236 0.084145 0.070696
0.253094 0.085830 0.066976
0.300956 0.086627 0.063329
0.345044 0.086971 0.061126
0.384143 0.089209 0.063579
0.418147 0.092820 0.066385
0.455436 0.096508 0.069647
0.495195 0.100554 0.073306
0.531046 0.104552 0.077984
0.565940 0.108840 0.086261
0.598762 0.113385 0.095690
0.627685 0.117874 0.105200
0.652984 0.122003 0.113916
0.675221 0.125760 0.121405
0.695608 0.129242 0.128924
0.714254 0.132685 0.135890
0.732844 0.136133 0.141004
0.750529 0.139751 0.144934
0.767729 0.143596 0.148799
0.784840 0.148625 0.153136
0.801406 0.156522 0.158196
0.816521 0.166482 0.163523
0.831221 0.176835 0.168679
0.845337 0.187042 0.173767
0.041764 0.064065 0.063938
0.045205 0.064995 0.065164
0.056750 0.067316 0.066556
0.073691 0.071330 0.068877
0.092317 0.075046 0.071139
0.112914 0.078797 0.072810
0.137405 0.082106 0.073746
0.166796 0.085403 0.073351
0.206827 0.088285 0.070608
0.253905 0.090308 0.066794
0.301893 0.091542 0.063044
0.346170 0.092133 0.061152
0.384990 0.094821 0.063728
0.420861 0.097680 0.066725
0.457843 0.101270 0.069946
0.496974 0.105557 0.073968
0.533349 0.110133 0.079242
0.568840 0.114948 0.087573
0.601833 0.119798 0.096829
0.631346 0.125026 0.106348
0.656943 0.129730 0.115122
0.679903 0.134053 0.122893
0.700572 0.137717 0.130275
0.719452 0.141528 0.137349
0.738744 0.145528 0.142262
0.756557 0.149142 0.146303
0.773537 0.153010 0.150113
0.791083 0.158563 0.154444
0.807802 0.167237 0.159885
0.822564 0.177993 0.165433
0.836454 0.187913 0.170074
0.850046 0.198108 0.174819
0.042829 0.072357 0.063999
0.046149 0.073168 0.065170
0.053590 0.074742 0.066550
0.074590 0.077552 0.066770
0.094592 0.080857 0.069300
0.114155 0.085043 0.071648
0.138126 0.089219 0.072432
0.169240 0.092044 0.070587
0.209797 0.094497 0.068006
0.256877 0.096132 0.065033
0.305282 0.096884 0.062242
0.349752 0.097597 0.061175
0.389826 0.099824 0.064233
0.423811 0.103428 0.067147
0.462524 0.107379 0.070477
0.501967 0.112188 0.074779
0.538497 0.116957 0.080223
0.574481 0.122213 0.088734
0.607099 0.127497 0.098033
0.636784 0.133120 0.107688
0.662700 0.138298 0.116250
0.685947 0.142547 0.124023
0.707246 0.146904 0.131533
0.727006 0.151247 0.138495
0.746286 0.155254 0.143545
0.763849 0.159005 0.147581
0.780854 0.163381 0.151645
0.798170 0.170039 0.156242
0.814147 0.179439 0.161531
0.828446 0.189402 0.166374
0.842303 0.199607 0.171111
0.854709 0.210585 0.175723
0.043963 0.081253 0.064784
0.047267 0.082115 0.065721
0.053296 0.084693 0.067034
0.068831 0.087253 0.067698
0.096050 0.089530 0.067961
0.118716 0.091868 0.069328
0.144557 0.095272 0.067867
0.176752 0.098397 0.064295
0.215738 0.101832 0.061535
0.260881 0.104448 0.059881
0.309132 0.105222 0.058974
0.354008 0.106964 0.061352
0.395006 0.109418 0.064773
0.430621 0.113256 0.067737
0.470759 0.117091 0.071137
0.510511 0.121509 0.074725
0.546620 0.126150 0.080079
0.583185 0.131703 0.089086
0.615869 0.137206 0.098667
0.645274 0.143019 0.108443
0.671309 0.148347 0.117023
0.695019 0.152826 0.124479
0.716654 0.157555 0.132223
0.736199 0.162413 0.139510
0.755325 0.166383 0.144598
0.772266 0.170218 0.148528
0.789054 0.175496 0.152608
0.805899 0.183282 0.157585
0.821405 0.192639 0.162698
0.835544 0.202445 0.167324
0.849391 0.215094 0.172381
0.860258 0.227242 0.176522
0.046037 0.091463 0.065898
0.050044 0.093072 0.066189
0.056893 0.096516 0.065423
0.070523 0.098362 0.067122
0.087826 0.100340 0.068636
0.120894 0.102321 0.066127
0.150007 0.103020 0.063303
0.185690 0.105824 0.058099
0.226508 0.109009 0.055564
0.270963 0.112637 0.056030
0.316347 0.116388 0.058406
0.359371 0.119852 0.061334
0.400325 0.123541 0.065068
0.439232 0.127790 0.068517
0.477086 0.132612 0.071796
0.519089 0.136076 0.075669
0.557118 0.139453 0.080030
0.594096 0.144217 0.087308
0.627835 0.149990 0.097474
0.657087 0.155456 0.108051
0.683135 0.160143 0.116909
0.706329 0.164864 0.124766
0.727645 0.169616 0.132679
0.746889 0.174879 0.140327
0.765543 0.179507 0.145534
0.782378 0.184127 0.149619
0.799239 0.189779 0.153810
0.815782 0.198043 0.158740
0.830718 0.208046 0.163619
0.844624 0.220561 0.168259
0.858295 0.234067 0.173091
0.866964 0.246975 0.177324
0.049736 0.102346 0.064990
0.054333 0.105058 0.065004
0.060452 0.108628 0.064415
0.072713 0.110273 0.065735
0.091301 0.112910 0.068414
0.114191 0.114629 0.068083
0.154070 0.116286 0.059374
0.190947 0.115443 0.055416
0.236623 0.118223 0.053742
0.282102 0.122489 0.056170
0.330243 0.126202 0.058931
0.372669 0.130109 0.062087
0.411504 0.134848 0.065858
0.448303 0.140417 0.069355
0.486644 0.145986 0.073009
0.527437 0.150796 0.077051
0.566359 0.155401 0.081646
0.605095 0.158434 0.086645
0.639781 0.163336 0.095345
0.669155 0.168406 0.106255
0.695298 0.173624 0.115820
0.718566 0.178987 0.124196
0.740128 0.184243 0.132328
0.759641 0.189974 0.140418
0.777919 0.195638 0.146302
0.794711 0.200244 0.150426
0.811421 0.207098 0.154887
0.827928 0.218669 0.159556
0.842365 0.230564 0.164307
0.855691 0.243116 0.168802
0.868337 0.257711 0.173731
0.874519 0.269397 0.176065
0.052930 0.114303 0.065812
0.058172 0.117858 0.065239
0.064007 0.121596 0.064232
0.074865 0.123188 0.064931
0.094289 0.126294 0.067689
0.116726 0.128409 0.071564
0.151215 0.131749 0.064214
0.195800 0.130188 0.053809
0.240893 0.129484 0.054004
0.292350 0.132581 0.056266
0.344090 0.136697 0.059402
0.385977 0.141516 0.062941
0.423471 0.146538 0.066794
0.463461 0.152303 0.070765
0.504155 0.158027 0.074817
0.542721 0.163260 0.078982
0.581338 0.167260 0.083611
0.619208 0.170654 0.088658
0.651539 0.175791 0.094715
0.681301 0.182295 0.104597
0.707416 0.188678 0.113901
0.731572 0.195350 0.122433
0.753288 0.202110 0.130490
0.773514 0.209818 0.139239
0.791704 0.217508 0.146181
0.809197 0.223897 0.150498
0.826040 0.234515 0.155340
0.842037 0.246589 0.160067
0.856059 0.260362 0.164681
0.869086 0.275720 0.168709
0.878243 0.288909 0.171701
0.884121 0.299828 0.173631
0.056563 0.127300 0.066755
0.061820 0.130723 0.066287
0.067852 0.135008 0.065331
0.077752 0.137479 0.065248
0.097192 0.141274 0.067857
0.120696 0.143627 0.071791
0.149793 0.146917 0.074297
0.203212 0.150598 0.057184
0.250947 0.146480 0.054900
0.302091 0.145484 0.056599
0.353489 0.148204 0.059588
0.396609 0.153261 0.063526
0.438464 0.158553 0.068077
0.481164 0.164081 0.072402
0.522919 0.170261 0.076573
0.563190 0.175037 0.081216
0.602984 0.178856 0.086197
0.638210 0.182656 0.091132
0.669783 0.189132 0.098179
0.696913 0.195704 0.106478
0.721904 0.202986 0.115033
0.745354 0.211924 0.123236
0.766620 0.221852 0.130683
0.786871 0.231474 0.138775
0.805378 0.241476 0.146124
0.823146 0.251611 0.150736
0.841046 0.266626 0.154726
0.857833 0.283971 0.158681
0.872152 0.300162 0.162231
0.883971 0.314698 0.165806
0.889455 0.324687 0.168305
0.894646 0.334825 0.170944
0.060571 0.141131 0.068618
0.065806 0.144614 0.068148
0.071769 0.148977 0.066432
0.082576 0.153139 0.065887
0.101531 0.157111 0.068171
0.125052 0.160124 0.072091
0.157912 0.163652 0.076440
0.209420 0.171071 0.072401
0.266488 0.168342 0.056746
0.315078 0.162861 0.057573
0.363647 0.161834 0.059922
0.406368 0.165044 0.063901
0.450801 0.171080 0.068681
0.498692 0.177081 0.073363
0.543451 0.182537 0.078217
0.584863 0.186784 0.083544
0.624386 0.191038 0.088990
0.657514 0.196741 0.094192
0.687635 0.203385 0.101522
0.714141 0.211622 0.109737
0.738683 0.221863 0.118315
0.760907 0.231563 0.126141
0.782007 0.241332 0.134242
0.800950 0.251583 0.141559
0.818584 0.264536 0.147377
0.836876 0.279639 0.151162
0.854646 0.297780 0.154610
0.871326 0.318094 0.158164
0.884794 0.337907 0.162725
0.893129 0.352669 0.165584
0.899136 0.366430 0.168106
0.903514 0.373734 0.170624
0.064222 0.154918 0.070024
0.069426 0.158393 0.069416
0.076420 0.163475 0.068126
0.088140 0.170160 0.066973
0.107679 0.175253 0.068909
0.132529 0.179506 0.072943
0.166520 0.183641 0.078258
0.223320 0.190305 0.078409
0.289151 0.195543 0.063245
0.334112 0.187924 0.059837
0.378649 0.181875 0.061122
0.420546 0.181488 0.064166
0.463098 0.185224 0.068697
0.511188 0.190052 0.073519
0.558618 0.194804 0.079081
0.604242 0.199525 0.085343
0.645008 0.205454 0.091069
0.677866 0.213446 0.097792
0.707168 0.222996 0.105954
0.732553 0.233216 0.114229
0.755493 0.243381 0.122127
0.776763 0.252653 0.129669
0.796729 0.263885 0.137515
0.814792 0.277147 0.144446
0.832566 0.291594 0.148811
0.849786 0.306905 0.152107
0.866800 0.327131 0.156383
0.881863 0.350168 0.161899
0.893302 0.369184 0.165225
0.899247 0.384432 0.168729
0.904613 0.399420 0.173213
0.908613 0.404430 0.175164
0.068246 0.170093 0.072111
0.073665 0.173691 0.071515
0.081231 0.179193 0.070263
0.093571 0.186913 0.069280
0.114494 0.194997 0.070644
0.142406 0.201943 0.074591
0.179934 0.208517 0.081021
0.239722 0.217410 0.085797
0.315574 0.223373 0.069562
0.365136 0.223522 0.065145
0.399029 0.210326 0.064138
0.438133 0.204158 0.065642
0.479876 0.204299 0.069313
0.526317 0.206299 0.073970
0.573054 0.211159 0.079496
0.620109 0.217124 0.086111
0.661232 0.224773 0.092277
0.695854 0.234524 0.100848
0.725075 0.245336 0.110174
0.749931 0.256947 0.119046
0.771800 0.268357 0.126768
0.792239 0.279853 0.134568
0.811133 0.291924 0.141754
0.828077 0.304877 0.145816
0.845150 0.318167 0.149527
0.861188 0.336856 0.154954
0.877139 0.359648 0.160539
0.891141 0.381707 0.166431
0.897829 0.397484 0.171188
0.903102 0.412159 0.175554
0.908420 0.427489 0.179882
0.912024 0.430790 0.181582
0.073061 0.186848 0.074701
0.078449 0.189982 0.074169
0.086775 0.196804 0.073020
0.099961 0.205792 0.072037
0.123218 0.215701 0.074075
0.154962 0.228297 0.077494
0.199560 0.239336 0.084663
0.261211 0.250531 0.091759
0.339215 0.262072 0.086640
0.396312 0.261913 0.072891
0.439895 0.264553 0.074013
0.466126 0.244498 0.071206
0.505284 0.238567 0.072252
0.548456 0.235166 0.075163
0.592176 0.236390 0.079990
0.637217 0.240469 0.086707
0.675748 0.246989 0.093531
0.709421 0.259268 0.103384
0.738864 0.272957 0.113767
0.764564 0.285957 0.123207
0.787192 0.297113 0.131484
0.807406 0.308634 0.139385
0.824404 0.321150 0.144426
0.840259 0.334827 0.149196
0.855765 0.349754 0.153706
0.871351 0.370839 0.159864
0.885713 0.391989 0.167220
0.895857 0.409957 0.174010
0.901364 0.425495 0.178534
0.906559 0.439398 0.182976
0.911433 0.451635 0.187234
0.914857 0.453311 0.188212
0.079476 0.207188 0.078261
0.084570 0.209339 0.077865
0.093134 0.216052 0.075597
0.107388 0.225987 0.074024
0.132635 0.238459 0.076622
0.170607 0.257001 0.081663
0.227691 0.278546 0.090693
0.291112 0.292625 0.099589
0.361449 0.304161 0.103952
0.427608 0.307769 0.086037
0.470479 0.311444 0.086198
0.507284 0.313847 0.088062
0.533198 0.290364 0.082885
0.574493 0.282156 0.082965
0.615231 0.276312 0.085401
0.656289 0.274725 0.090474
0.692070 0.280385 0.097048
0.723674 0.292255 0.107427
0.751339 0.303658 0.117589
0.776312 0.315885 0.127267
0.798894 0.327640 0.137317
0.818414 0.340885 0.144363
0.835510 0.354815 0.150144
0.850918 0.368214 0.154663
0.865509 0.383118 0.159905
0.879390 0.403042 0.168312
0.892308 0.423058 0.176266
0.899504 0.437885 0.181690
0.904568 0.450110 0.186154
0.909660 0.462874 0.190492
0.914634 0.475024 0.194225
0.918073 0.476537 0.195006
0.086457 0.228424 0.081235
0.092021 0.230631 0.080700
0.101171 0.237606 0.078226
0.117669 0.249664 0.076585
0.145286 0.265094 0.079908
0.191122 0.287814 0.086511
0.257199 0.316277 0.097251
0.322989 0.332752 0.108315
0.389748 0.344879 0.116187
0.454380 0.355325 0.109505
0.497505 0.355021 0.099549
0.534344 0.364455 0.103442
0.566507 0.361689 0.103989
0.597940 0.339228 0.097843
0.639594 0.328720 0.096567
0.677590 0.322191 0.098632
0.708656 0.321644 0.103491
0.737375 0.329834 0.114414
0.763080 0.340666 0.126076
0.786733 0.351444 0.136376
0.808227 0.362174 0.143947
0.826915 0.374958 0.150351
0.843676 0.387729 0.156729
0.859183 0.399974 0.162662
0.873747 0.416324 0.170236
0.886735 0.433453 0.177489
0.896938 0.448359 0.184168
0.902607 0.461483 0.189222
0.907814 0.474086 0.193355
0.912966 0.486561 0.197313
0.917680 0.496161 0.200135
0.921175 0.497579 0.200936
0.095641 0.252550 0.084598
0.101972 0.255328 0.084009
0.111080 0.261457 0.081453
0.129036 0.274545 0.079436
0.164834 0.295821 0.084614
0.218605 0.323097 0.092971
0.287875 0.351994 0.104676
0.355790 0.370611 0.118085
0.417716 0.382847 0.127403
0.474366 0.395000 0.131532
0.518756 0.397001 0.115857
0.554283 0.401432 0.115870
0.593149 0.414153 0.121883
0.620567 0.404559 0.119605
0.658547 0.385889 0.114480
0.694446 0.376875 0.114625
0.724473 0.374888 0.120229
0.750404 0.376682 0.127833
0.774050 0.379779 0.135751
0.796491 0.388678 0.144059
0.816257 0.398476 0.152021
0.833650 0.407475 0.158757
0.849880 0.416962 0.164762
0.865006 0.429364 0.171054
0.879476 0.444445 0.178786
0.893109 0.459403 0.186251
0.899983 0.471988 0.191496
0.905490 0.483982 0.195675
0.911062 0.495628 0.199747
0.916143 0.507767 0.203508
0.920858 0.518074 0.206456
0.924187 0.519065 0.207206
0.106373 0.277562 0.089255
0.113495 0.281005 0.088847
0.125017 0.288792 0.085987
0.147948 0.305070 0.083917
0.190990 0.330461 0.090411
0.248244 0.358753 0.100267
0.318396 0.386214 0.113019
0.385806 0.404006 0.126778
0.443081 0.415576 0.137288
0.493899 0.427726 0.144243
0.537429 0.435828 0.138684
0.572257 0.435818 0.127498
0.605732 0.443460 0.131589
0.644108 0.454989 0.138313
0.673079 0.444854 0.137242
0.708136 0.430220 0.136911
0.737646 0.426193 0.142047
0.762316 0.424258 0.146593
0.784280 0.423714 0.149354
0.804486 0.424914 0.152834
0.823098 0.430590 0.158796
0.840382 0.438182 0.165906
0.855910 0.446133 0.172256
0.870381 0.455435 0.178922
0.884452 0.468055 0.186048
0.896671 0.481693 0.192516
0.902713 0.492956 0.197049
0.908336 0.504653 0.201529
0.913859 0.517137 0.206307
0.918587 0.528477 0.210628
0.923124 0.537028 0.214064
0.926496 0.538129 0.214742
0.120705 0.305350 0.095885
0.128691 0.309093 0.094623
0.143856 0.319486 0.088842
0.171094 0.337603 0.089394
0.218122 0.363761 0.097347
0.278512 0.392485 0.108456
0.347377 0.417556 0.120849
0.413026 0.433291 0.134289
0.465217 0.443962 0.145259
0.509090 0.454384 0.152432
0.551593 0.464509 0.152290
0.587816 0.467779 0.142679
0.622287 0.472463 0.141632
0.656272 0.483996 0.151518
0.694088 0.495559 0.165713
0.717805 0.483605 0.164348
0.747388 0.471708 0.163180
0.771626 0.466795 0.163181
0.793169 0.464713 0.164930
0.812423 0.464443 0.167810
0.830107 0.464031 0.170411
0.846326 0.466242 0.173709
0.861530 0.473745 0.179205
0.875766 0.482095 0.185091
0.889424 0.491750 0.191665
0.899325 0.501282 0.197560
0.905155 0.513139 0.202684
0.910833 0.525133 0.207907
0.916287 0.537760 0.214152
0.921160 0.549147 0.219001
0.925804 0.556741 0.223386
0.929146 0.557704 0.223998
0.136126 0.332005 0.100156
0.147815 0.339023 0.096897
0.167409 0.353326 0.093586
0.199052 0.372265 0.098171
0.245937 0.396044 0.104929
0.306341 0.422611 0.115740
0.373685 0.445277 0.127670
0.437250 0.459614 0.141038
0.483156 0.469061 0.152150
0.522376 0.478223 0.159286
0.562788 0.488178 0.162058
0.604907 0.498662 0.159709
0.634912 0.499290 0.153013
0.670399 0.510990 0.166309
0.704867 0.525501 0.181350
0.733383 0.531187 0.186468
0.752691 0.519478 0.184237
0.779345 0.508203 0.181611
0.801065 0.503419 0.181321
0.820453 0.501720 0.183498
0.837781 0.500967 0.186213
0.853137 0.500696 0.188541
0.866974 0.501994 0.191103
0.881263 0.508750 0.195899
0.894963 0.517535 0.201564
0.902924 0.526351 0.207564
0.908157 0.534490 0.211404
0.913720 0.546171 0.218309
0.919151 0.558207 0.223593
0.924106 0.569415 0.228856
0.928540 0.574703 0.232270
0.932024 0.575787 0.233029
0.157734 0.363298 0.102386
0.170895 0.371719 0.099888
0.193320 0.387355 0.102376
0.226399 0.404658 0.106950
0.273996 0.427113 0.113826
0.334287 0.451735 0.123290
0.398429 0.470947 0.133912
0.457023 0.482917 0.146916
0.498211 0.491626 0.158416
0.534870 0.500834 0.165481
0.577087 0.513454 0.170683
0.618853 0.525943 0.171673
0.650474 0.530581 0.171413
0.685402 0.539688 0.182796
0.711298 0.547540 0.190383
0.742766 0.562444 0.200627
0.765937 0.567641 0.205561
0.783059 0.555975 0.203497
0.808068 0.545306 0.202054
0.828539 0.540168 0.201469
0.845822 0.538518 0.203108
0.860528 0.537694 0.205235
0.874270 0.537154 0.207263
0.887401 0.537336 0.209329
0.900441 0.543494 0.213962
0.906716 0.551720 0.219607
0.911859 0.559708 0.223756
0.916749 0.567600 0.227599
0.921886 0.578093 0.232534
0.926970 0.589512 0.238172
0.930953 0.592831 0.239635
0.934029 0.593476 0.240652
0.180572 0.395218 0.106353
0.196162 0.405932 0.108090
0.219338 0.418861 0.111383
0.252709 0.435597 0.115796
0.302954 0.457990 0.123296
0.360427 0.479472 0.131671
0.421329 0.495808 0.139846
0.474454 0.506399 0.153281
0.511919 0.514931 0.165919
0.546402 0.523772 0.173200
0.589900 0.538456 0.180012
0.628852 0.550164 0.182678
0.667278 0.562281 0.188083
0.692965 0.563811 0.191939
0.724317 0.574106 0.201292
0.745555 0.582332 0.208616
0.773850 0.598288 0.219856
0.795546 0.603900 0.225551
0.811128 0.593197 0.223536
0.834341 0.583721 0.223123
0.852164 0.576993 0.221604
0.867911 0.574912 0.222132
0.882019 0.573833 0.223775
0.894501 0.572549 0.225532
0.904997 0.572363 0.227168
0.910186 0.576768 0.230776
0.915082 0.584360 0.234558
0.919806 0.592046 0.239060
0.924609 0.599935 0.243463
0.928851 0.608601 0.247136
0.932355 0.610850 0.248247
0.935364 0.611761 0.248448
0.205186 0.429206 0.115595
0.220357 0.439350 0.117855
0.242522 0.450949 0.120689
0.276641 0.467402 0.125297
0.326371 0.488923 0.132682
0.384723 0.507993 0.140605
0.441960 0.519764 0.147190
0.488991 0.529092 0.160265
0.524104 0.538046 0.173423
0.557971 0.547208 0.181873
0.600228 0.560724 0.188466
0.640587 0.574618 0.193331
0.678487 0.586660 0.196791
0.706206 0.592310 0.203291
0.731203 0.597397 0.209594
0.756420 0.606999 0.218989
0.775594 0.615923 0.227033
0.802249 0.632019 0.238852
0.821841 0.637742 0.244566
0.836682 0.629399 0.243485
0.857785 0.621005 0.243200
0.873155 0.612940 0.241178
0.887640 0.610594 0.241037
0.900635 0.609262 0.241966
0.909441 0.608064 0.243516
0.913456 0.605952 0.243615
0.917860 0.608587 0.245475
0.922440 0.614870 0.248673
0.926810 0.621507 0.252122
0.930422 0.628594 0.255362
0.933401 0.629127 0.255821
0.936389 0.630153 0.256491
0.228966 0.462005 0.125899
0.243925 0.471945 0.127898
0.264034 0.482065 0.129930
0.299243 0.497693 0.134536
0.348878 0.516074 0.141311
0.406731 0.531622 0.148276
0.460793 0.542359 0.154494
0.501205 0.551167 0.166870
0.534957 0.559801 0.180397
0.569987 0.569819 0.190406
0.609736 0.581215 0.196478
0.652456 0.597717 0.202286
0.686624 0.607078 0.204925
0.719916 0.619614 0.214236
0.739030 0.620000 0.217813
0.764179 0.629030 0.227280
0.785077 0.638059 0.236256
0.802838 0.646959 0.244820
0.827323 0.662700 0.256634
0.845694 0.668680 0.263073
0.859335 0.662917 0.263113
0.877204 0.654862 0.262242
0.891547 0.646472 0.260596
0.904798 0.643206 0.259604
0.913366 0.640184 0.258729
0.917100 0.637497 0.258765
0.920606 0.634592 0.257881
0.924520 0.636462 0.259334
0.928082 0.642364 0.261864
0.931389 0.648292 0.265149
0.934365 0.648604 0.264211
0.937362 0.649444 0.264635
0.251245 0.491307 0.135433
0.262837 0.495908 0.135511
0.283311 0.504941 0.136833
0.317228 0.519492 0.141228
0.366582 0.537857 0.148429
0.422589 0.551872 0.154896
0.476862 0.563479 0.161449
0.513568 0.572399 0.173759
0.546198 0.580777 0.187138
0.581294 0.590708 0.198166
0.620012 0.601687 0.204677
0.662014 0.617196 0.209945
0.696288 0.627183 0.212620
0.727901 0.638858 0.221288
0.752427 0.646267 0.229838
0.769638 0.648051 0.233743
0.792759 0.658404 0.244184
0.811183 0.666565 0.253010
0.827553 0.675860 0.261861
0.849963 0.690814 0.274498
0.866137 0.697300 0.281328
0.878561 0.693614 0.282076
0.894716 0.685765 0.280643
0.908468 0.677070 0.278836
0.916668 0.671652 0.276613
0.920180 0.667713 0.273665
0.923360 0.664263 0.271031
0.926241 0.660644 0.269010
0.929250 0.662012 0.269560
0.932475 0.667940 0.272421
0.935341 0.667424 0.272467
0.938317 0.668296 0.272944
0.269179 0.512770 0.141881
0.281022 0.517238 0.141811
0.303013 0.526184 0.143324
0.335706 0.539240 0.147740
0.384181 0.556815 0.154892
0.439728 0.571173 0.161370
0.490013 0.583174 0.168277
0.525592 0.592645 0.181052
0.557011 0.600429 0.193650
0.592539 0.610373 0.205382
0.629955 0.620922 0.212889
0.670954 0.635141 0.218190
0.706253 0.646642 0.221216
0.735238 0.656107 0.227536
0.762388 0.667611 0.239673
0.779619 0.670513 0.243951
0.797410 0.675534 0.250096
0.818754 0.685724 0.260859
0.835431 0.693885 0.269746
0.850597 0.702210 0.278746
0.869496 0.715535 0.290114
0.883313 0.721440 0.296197
0.894642 0.718778 0.297435
0.910072 0.712372 0.297126
0.919360 0.703432 0.293460
0.921998 0.697402 0.290863
0.924858 0.693336 0.287938
0.927615 0.689636 0.284688
0.930465 0.686991 0.282543
0.933459 0.687877 0.283063
0.936357 0.686728 0.282425
0.939305 0.687251 0.282739
0.287498 0.534100 0.151412
0.299471 0.536908 0.148812
0.321745 0.544932 0.149865
0.354810 0.557950 0.154193
0.403041 0.575295 0.161382
0.456995 0.589766 0.167578
0.502933 0.602149 0.176407
0.537241 0.611662 0.189700
0.568701 0.619368 0.201776
0.603978 0.628680 0.212878
0.639610 0.638644 0.222004
0.679680 0.652254 0.227945
0.716142 0.665167 0.231688
0.743612 0.673546 0.234715
0.769472 0.684352 0.246979
0.790932 0.692725 0.255757
0.805138 0.694386 0.258777
0.822969 0.701288 0.266447
0.842073 0.710539 0.277075
0.857372 0.718240 0.286027
0.869618 0.724846 0.292695
0.885871 0.736398 0.301375
0.899175 0.742851 0.307860
0.909375 0.740805 0.309992
0.920102 0.733788 0.308241
0.923395 0.725142 0.304930
0.926148 0.720325 0.303391
0.928966 0.716472 0.301747
0.931809 0.713401 0.299255
0.934588 0.710547 0.296840
0.937361 0.707665 0.295124
0.940329 0.708052 0.295372
0.306543 0.554654 0.162180
0.319195 0.557529 0.160002
0.342266 0.565820 0.161232
0.375840 0.578057 0.164415
0.423490 0.594101 0.168858
0.475143 0.608012 0.175289
0.516442 0.621305 0.186691
0.548194 0.629763 0.199527
0.580567 0.637300 0.210531
0.615292 0.646167 0.221468
0.651213 0.657582 0.230819
0.689066 0.670934 0.236628
0.725558 0.684913 0.239540
0.752225 0.693427 0.242833
0.776921 0.703253 0.254270
0.798407 0.711833 0.264834
0.816130 0.717851 0.272201
0.829121 0.720122 0.275243
0.844784 0.725785 0.282374
0.861899 0.734053 0.292012
0.875118 0.740313 0.298555
0.885305 0.745004 0.303571
0.900442 0.755295 0.311940
0.913823 0.761770 0.317629
0.920946 0.758976 0.317421
0.924715 0.751840 0.315473
0.927156 0.744252 0.313241
0.929960 0.740308 0.313604
0.932755 0.736881 0.312952
0.935585 0.733443 0.311145
0.938311 0.729341 0.308572
0.941238 0.729887 0.308933
0.324598 0.573997 0.173774
0.338650 0.577933 0.172891
0.362630 0.586817 0.174186
0.397745 0.599890 0.175426
0.446042 0.616418 0.177312
0.493437 0.632352 0.183449
0.529590 0.646295 0.190905
0.562342 0.657337 0.197025
0.594767 0.665416 0.201424
0.630433 0.674815 0.207028
0.665142 0.685253 0.214158
0.697871 0.694349 0.225063
0.733672 0.709505 0.243687
0.760933 0.718888 0.253992
0.783677 0.726071 0.262557
0.805056 0.733096 0.273293
0.823983 0.739645 0.283566
0.838833 0.743765 0.289616
0.849842 0.744719 0.291534
0.863319 0.748551 0.296024
0.878487 0.755092 0.303389
0.890790 0.760078 0.309726
0.899909 0.763181 0.313803
0.914340 0.772276 0.320505
0.923900 0.777177 0.322779
0.927127 0.774463 0.322174
0.929520 0.768490 0.320527
0.931701 0.761161 0.318797
0.934528 0.757707 0.318392
0.936973 0.753057 0.317930
0.939499 0.749292 0.317043
0.942412 0.749852 0.317364
0.358642 0.612536 0.173532
0.372017 0.617195 0.174238
0.393941 0.627027 0.176957
0.432590 0.643683 0.183828
0.475748 0.660726 0.191188
0.516063 0.673849 0.197963
0.549288 0.683310 0.203826
0.583214 0.690149 0.208701
0.609780 0.691160 0.210005
0.637910 0.694617 0.212361
0.670828 0.705910 0.219416
0.705790 0.718982 0.228318
0.737782 0.730719 0.237782
0.767270 0.741857 0.252399
0.789870 0.748287 0.269967
0.810413 0.754095 0.280992
0.828951 0.759062 0.290664
0.845774 0.763809 0.299200
0.859364 0.766763 0.304577
0.869092 0.767056 0.305776
0.879149 0.768188 0.307417
