nova/tdt-studio/app/Lut_mau/IWLTBAP/1 - LUTs by IWLTBAP (CUBE)/01 - Standard/GoPro & Drones/IWLTBAP Aructa.cube
# Copyright: (C) Copyright 2016 by IWLTBAP
TITLE "LUT created by IWLTBAP for GoPro Pack"
LUT_3D_SIZE 33
0.001343 0.003326 0.005188
0.009674 0.003632 0.004700
0.029327 0.004364 0.004150
0.055664 0.005920 0.003723
0.092072 0.007599 0.002441
0.139435 0.009064 0.000305
0.188019 0.011932 0.000000
0.227844 0.015442 0.000000
0.262451 0.018341 0.000000
0.295502 0.020142 0.000000
0.326111 0.020630 0.000000
0.353394 0.020844 0.000000
0.379364 0.022797 0.000000
0.406342 0.024963 0.000000
0.431244 0.023163 0.000000
0.452057 0.024384 0.000000
0.471344 0.027771 0.000000
0.488220 0.030273 0.000000
0.503235 0.030792 0.000000
0.518951 0.032288 0.000000
0.533356 0.034210 0.000183
0.546356 0.037445 0.000732
0.559082 0.041687 0.001434
0.571960 0.045929 0.002258
0.584473 0.049591 0.003265
0.595856 0.052490 0.004578
0.606812 0.055298 0.006012
0.617462 0.058685 0.008331
0.628784 0.062714 0.010986
0.639709 0.067017 0.013458
0.647156 0.068756 0.015594
0.651917 0.070312 0.017426
0.656799 0.071808 0.020111
0.004303 0.009796 0.009949
0.010071 0.011566 0.010712
0.026886 0.013062 0.008667
0.061432 0.018219 0.006134
0.106354 0.022125 0.005157
0.158966 0.026703 0.000488
0.209595 0.030212 0.000000
0.251678 0.034363 0.000000
0.284393 0.034760 0.000000
0.316925 0.036255 0.000000
0.346863 0.035828 0.000000
0.374146 0.037231 0.000000
0.397980 0.039307 0.000000
0.423065 0.039551 0.000000
0.448792 0.037415 0.000000
0.469543 0.037262 0.000000
0.486206 0.040283 0.000000
0.501099 0.042267 0.000000
0.516693 0.042542 0.000000
0.532043 0.044495 0.000061
0.544952 0.045807 0.000366
0.557312 0.047974 0.000885
0.569855 0.051605 0.001495
0.582886 0.056000 0.002441
0.595245 0.060883 0.003937
0.606537 0.064911 0.005432
0.618256 0.069244 0.007446
0.629669 0.073425 0.009857
0.641327 0.077393 0.012390
0.652405 0.082214 0.015991
0.659698 0.084412 0.019501
0.664337 0.085846 0.022247
0.669128 0.087799 0.025574
0.015228 0.029053 0.022888
0.019379 0.028351 0.021332
0.028015 0.027008 0.017792
0.048523 0.033234 0.016785
0.095459 0.040253 0.009613
0.154602 0.045624 0.005096
0.219086 0.046967 0.000214
0.262512 0.050751 0.000000
0.298981 0.053345 0.000000
0.333954 0.054352 0.000000
0.363495 0.053345 0.000000
0.389526 0.053070 0.000000
0.413910 0.054169 0.000000
0.438873 0.053436 0.000000
0.463562 0.052155 0.000000
0.482513 0.053467 0.000000
0.499084 0.056061 0.000000
0.514679 0.055573 0.000000
0.529633 0.054260 0.000000
0.544159 0.056274 0.000122
0.556946 0.058289 0.000549
0.568756 0.060974 0.001160
0.580627 0.064606 0.002106
0.593750 0.069550 0.003357
0.605927 0.074402 0.004608
0.617554 0.078705 0.006042
0.629517 0.084229 0.008972
0.640961 0.089417 0.012451
0.652679 0.094025 0.016388
0.663239 0.097992 0.020599
0.671295 0.101105 0.025452
0.676147 0.102844 0.028442
0.680634 0.104034 0.031555
0.036957 0.058838 0.041260
0.044098 0.059204 0.036621
0.049530 0.058319 0.032166
0.053070 0.056458 0.031708
0.071136 0.056915 0.025635
0.135406 0.066620 0.014252
0.206543 0.067993 0.005219
0.264313 0.072540 0.000000
0.305847 0.073456 0.000000
0.342651 0.074402 0.000000
0.374390 0.072845 0.000000
0.401825 0.070679 0.000000
0.426971 0.070435 0.000000
0.452972 0.068512 0.000000
0.477020 0.067078 0.000000
0.495270 0.069824 0.000000
0.512054 0.071991 0.000000
0.528351 0.070496 0.000031
0.543518 0.070129 0.000092
0.557007 0.070740 0.000214
0.569855 0.072632 0.000580
0.581512 0.075348 0.001160
0.593292 0.080078 0.002869
0.606354 0.086090 0.005035
0.618744 0.092194 0.007507
0.631256 0.098450 0.010193
0.643188 0.103729 0.012817
0.654022 0.108185 0.016205
0.664124 0.110962 0.020142
0.674438 0.114777 0.025024
0.682343 0.117462 0.030182
0.687195 0.119171 0.033661
0.691742 0.120514 0.037292
0.062103 0.095001 0.059570
0.071045 0.097992 0.056091
0.080292 0.097931 0.050507
0.083282 0.093597 0.046051
0.085480 0.087830 0.043457
0.113098 0.088196 0.034546
0.185974 0.095795 0.018921
0.253479 0.097137 0.007690
0.304657 0.096252 0.000977
0.346527 0.095001 0.000000
0.382019 0.093903 0.000061
0.412323 0.089752 0.000000
0.438904 0.088348 0.000000
0.464600 0.086426 0.000000
0.489410 0.085358 0.000000
0.508392 0.087372 0.000000
0.525238 0.088135 0.000000
0.542236 0.086823 0.000214
0.557556 0.087708 0.000458
0.570709 0.088562 0.000854
0.583557 0.091034 0.001740
0.596008 0.095306 0.003418
0.608337 0.100555 0.005402
0.621552 0.105957 0.006989
0.633331 0.110260 0.009033
0.644897 0.116119 0.012238
0.656036 0.121277 0.016022
0.665680 0.125427 0.020294
0.674591 0.127899 0.024780
0.684601 0.131226 0.029419
0.693512 0.134583 0.035065
0.697845 0.135437 0.038361
0.702240 0.136688 0.041931
0.083832 0.134644 0.082458
0.096191 0.137085 0.078339
0.107117 0.136749 0.070465
0.116119 0.133789 0.061005
0.118774 0.128845 0.055145
0.124603 0.120880 0.051514
0.167511 0.120392 0.040497
0.236389 0.123718 0.026825
0.295135 0.124023 0.010895
0.342804 0.120331 0.002716
0.385132 0.118927 0.000580
0.420807 0.112244 0.000000
0.449829 0.108673 0.000000
0.475525 0.106354 0.000000
0.502045 0.105255 0.000000
0.522675 0.106323 0.000000
0.538788 0.106140 0.000000
0.554047 0.106262 0.000214
0.569275 0.106995 0.000458
0.583344 0.107910 0.000854
0.596771 0.110962 0.002197
0.610138 0.115997 0.004486
0.623291 0.121307 0.006775
0.635773 0.126160 0.009125
0.646698 0.129669 0.011597
0.657806 0.134064 0.014740
0.668152 0.138855 0.019257
0.677307 0.143036 0.024628
0.685547 0.145966 0.029816
0.695557 0.149170 0.034760
0.702911 0.150330 0.038940
0.707458 0.151489 0.042267
0.711761 0.152466 0.045624
0.108734 0.170441 0.102173
0.121368 0.171570 0.096375
0.137390 0.172943 0.089539
0.147064 0.170258 0.080627
0.153320 0.168610 0.072601
0.159729 0.161072 0.064056
0.180359 0.149292 0.055237
0.230194 0.148376 0.044861
0.283051 0.152283 0.035370
0.338348 0.149506 0.018341
0.386627 0.147797 0.003815
0.426697 0.140411 0.000732
0.459625 0.135101 0.000000
0.485687 0.131348 0.000000
0.512573 0.128967 0.000000
0.537598 0.127106 0.000000
0.552521 0.126129 0.000031
0.566376 0.126831 0.000580
0.580658 0.127869 0.001129
0.594727 0.129730 0.002258
0.609924 0.134003 0.003784
0.624237 0.139191 0.005798
0.637329 0.144012 0.007965
0.648285 0.146271 0.011261
0.658295 0.148651 0.015106
0.668671 0.152283 0.019928
0.678284 0.157745 0.026428
0.687653 0.162262 0.032013
0.697083 0.164276 0.035980
0.706604 0.166870 0.040283
0.713867 0.168396 0.044220
0.718231 0.169250 0.047089
0.722321 0.170166 0.050232
0.140350 0.207397 0.121063
0.154297 0.208313 0.114746
0.169067 0.208130 0.106934
0.182343 0.206207 0.099792
0.189789 0.204254 0.093445
0.202911 0.201019 0.083466
0.221954 0.191803 0.064484
0.242737 0.178070 0.054962
0.281372 0.175140 0.052155
0.331635 0.178040 0.041107
0.384003 0.175720 0.024414
0.430725 0.174316 0.007446
0.468414 0.164429 0.002228
0.496765 0.158600 0.001862
0.524231 0.155823 0.000549
0.548737 0.152344 0.000214
0.566803 0.150787 0.000031
0.579956 0.150360 0.000702
0.593597 0.150970 0.001892
0.606720 0.151855 0.003876
0.620972 0.155945 0.006348
0.635071 0.160736 0.009186
0.646667 0.164032 0.012146
0.658173 0.166718 0.015747
0.668793 0.169220 0.020020
0.679688 0.173584 0.025482
0.689850 0.178223 0.031311
0.699554 0.182007 0.037231
0.709412 0.183990 0.041718
0.718628 0.186096 0.046204
0.725494 0.187164 0.049805
0.729767 0.188019 0.052673
0.733490 0.188385 0.055389
0.177429 0.244751 0.136627
0.190369 0.244385 0.130676
0.203766 0.243683 0.123596
0.216125 0.240967 0.116608
0.228241 0.239716 0.111816
0.236450 0.239594 0.105835
0.254150 0.234650 0.088898
0.279938 0.218811 0.066803
0.291199 0.203033 0.063782
0.328918 0.201508 0.059052
0.378754 0.203400 0.048248
0.428802 0.203613 0.031494
0.475067 0.200317 0.013855
0.507111 0.188843 0.005585
0.535614 0.185394 0.002991
0.560791 0.182465 0.001953
0.580444 0.179504 0.000824
0.596405 0.177582 0.001038
0.608978 0.176422 0.002686
0.621277 0.177704 0.005646
0.633636 0.180634 0.009277
0.645538 0.184143 0.013153
0.655426 0.186066 0.017120
0.666931 0.188446 0.021606
0.678192 0.191498 0.026703
0.689545 0.196228 0.032257
0.700531 0.200348 0.037537
0.711334 0.202606 0.042511
0.721893 0.204926 0.048248
0.730988 0.206390 0.053131
0.737976 0.207184 0.056427
0.742401 0.208160 0.059082
0.746460 0.208557 0.061005
0.213348 0.280182 0.151733
0.224548 0.278839 0.146515
0.238342 0.277802 0.141815
0.250061 0.276489 0.135742
0.261322 0.276398 0.131104
0.266724 0.276276 0.127747
0.275024 0.274994 0.117828
0.308075 0.265076 0.092468
0.330505 0.245453 0.070953
0.337646 0.229553 0.071564
0.373291 0.228210 0.067139
0.422913 0.230652 0.053772
0.473145 0.234222 0.040680
0.515778 0.223480 0.018250
0.545959 0.215424 0.009979
0.572235 0.213257 0.007721
0.591949 0.209076 0.006378
0.609436 0.205078 0.006531
0.623444 0.202698 0.008331
0.634430 0.203186 0.011841
0.644531 0.206085 0.015778
0.654602 0.208801 0.019653
0.664093 0.209167 0.022919
0.675354 0.209900 0.026764
0.687439 0.212921 0.031494
0.699005 0.216522 0.035950
0.710693 0.220123 0.040894
0.722443 0.223572 0.047577
0.734283 0.227051 0.055359
0.743256 0.227844 0.060791
0.750305 0.228638 0.063782
0.754944 0.229736 0.066376
0.759064 0.230133 0.068542
0.249725 0.313995 0.166748
0.259735 0.312500 0.161957
0.270721 0.312347 0.158783
0.281799 0.312408 0.153931
0.293335 0.312469 0.150604
0.300476 0.312225 0.147430
0.303802 0.311188 0.142975
0.318237 0.307129 0.126038
0.367554 0.288879 0.079620
0.376862 0.271729 0.080658
0.380188 0.256073 0.079651
0.422760 0.257324 0.070374
0.467926 0.255554 0.061249
0.515320 0.257690 0.045868
0.554962 0.246857 0.026367
0.582428 0.244324 0.019592
0.601044 0.239380 0.016113
0.618408 0.234436 0.015747
0.634308 0.232239 0.017090
0.647491 0.232971 0.020142
0.656921 0.235016 0.023651
0.666077 0.235870 0.026428
0.675598 0.234497 0.028473
0.686218 0.233673 0.031769
0.697845 0.235107 0.036255
0.708191 0.237793 0.041534
0.720032 0.241272 0.046661
0.732483 0.245605 0.054199
0.745056 0.249451 0.062439
0.755676 0.251587 0.069489
0.762390 0.251801 0.071747
0.766693 0.252716 0.074219
0.770721 0.253448 0.076904
0.282501 0.347626 0.184601
0.292419 0.347412 0.180756
0.302765 0.347656 0.177429
0.313171 0.346893 0.173065
0.323547 0.346649 0.169647
0.332092 0.346710 0.166962
0.334534 0.345917 0.164337
0.338684 0.342896 0.154449
0.383118 0.335876 0.120941
0.416687 0.314545 0.087891
0.419617 0.297821 0.088623
0.431793 0.284912 0.082581
0.468414 0.277435 0.076141
0.511993 0.278931 0.066193
0.554230 0.280701 0.055420
0.589020 0.272430 0.039734
0.609894 0.271393 0.031555
0.627838 0.267120 0.026337
0.644623 0.267120 0.026642
0.658630 0.268005 0.030426
0.669556 0.268585 0.034912
0.678986 0.267303 0.037262
0.688751 0.264404 0.038086
0.699432 0.261627 0.039001
0.709534 0.260986 0.042908
0.718292 0.262054 0.048279
0.728516 0.264893 0.054230
0.741425 0.270325 0.063202
0.754242 0.274933 0.072296
0.764862 0.277435 0.079620
0.771240 0.276917 0.081696
0.775513 0.277557 0.084015
0.779480 0.277954 0.086487
0.313812 0.381683 0.205627
0.323456 0.382385 0.201965
0.331635 0.381653 0.196625
0.339966 0.380707 0.191071
0.348969 0.379883 0.187103
0.358215 0.379486 0.184174
0.361298 0.379059 0.182190
0.362671 0.376801 0.176392
0.386932 0.372925 0.156067
0.436523 0.359253 0.116455
0.463776 0.338684 0.092346
0.463837 0.324158 0.095276
0.477692 0.304901 0.087799
0.513672 0.300995 0.081848
0.552551 0.302399 0.072479
0.588745 0.302795 0.067505
0.614716 0.302673 0.056671
0.635651 0.297943 0.043427
0.654236 0.297394 0.038544
0.668640 0.298676 0.041046
0.681091 0.301331 0.046112
0.692322 0.300903 0.049255
0.702972 0.298340 0.050934
0.713043 0.294159 0.051331
0.721069 0.290863 0.053162
0.728119 0.290314 0.057526
0.737122 0.291626 0.063507
0.750244 0.297821 0.073578
0.763580 0.302795 0.082947
0.773895 0.304169 0.089874
0.780701 0.303619 0.092560
0.784851 0.304230 0.094757
0.788757 0.304779 0.097015
0.342499 0.413574 0.222931
0.350555 0.412842 0.217926
0.358215 0.411713 0.212677
0.367401 0.410858 0.209106
0.376556 0.410034 0.206573
0.384369 0.409393 0.205475
0.386780 0.408997 0.204742
0.385773 0.408112 0.201904
0.396027 0.404480 0.188904
0.442566 0.397339 0.150726
0.490204 0.380585 0.110535
0.505829 0.367218 0.105164
0.507324 0.347992 0.102753
0.521393 0.329132 0.093994
0.553040 0.324432 0.085907
0.587616 0.324463 0.082794
0.613129 0.328247 0.079834
0.638275 0.328461 0.071411
0.659180 0.323853 0.056885
0.675934 0.326294 0.055359
0.689911 0.327911 0.056122
0.702423 0.329651 0.057922
0.713776 0.328552 0.060608
0.724213 0.326111 0.062561
0.732025 0.323212 0.064880
0.738220 0.321228 0.069122
0.746429 0.321198 0.074249
0.759247 0.325684 0.083069
0.772583 0.329834 0.092041
0.783020 0.330750 0.098785
0.790283 0.329163 0.101227
0.794495 0.329224 0.103241
0.798767 0.330170 0.105377
0.367676 0.440338 0.238342
0.376495 0.439728 0.234863
0.384644 0.438171 0.229950
0.393585 0.437347 0.227997
0.401886 0.436005 0.225983
0.408936 0.435638 0.225769
0.412231 0.435516 0.225586
0.409821 0.434662 0.224152
0.411102 0.432800 0.218262
0.444550 0.428131 0.187836
0.499176 0.416443 0.140961
0.532074 0.403809 0.111603
0.540344 0.388794 0.115936
0.545105 0.368805 0.107025
0.559723 0.351501 0.098450
0.586578 0.348389 0.094849
0.613129 0.348450 0.093903
0.636383 0.350342 0.091003
0.660858 0.350922 0.083954
0.679291 0.351257 0.076172
0.695679 0.354614 0.073425
0.709839 0.353302 0.067261
0.721954 0.353424 0.067139
0.732697 0.353302 0.070007
0.741730 0.353271 0.075836
0.748322 0.351898 0.080872
0.756561 0.351593 0.085724
0.768707 0.354614 0.092651
0.781250 0.357239 0.099854
0.791718 0.356934 0.105835
0.799713 0.355835 0.109039
0.804199 0.355713 0.111267
0.808716 0.356781 0.113983
0.390045 0.463715 0.253510
0.398376 0.462067 0.250092
0.406830 0.459686 0.245880
0.415588 0.459106 0.244659
0.424042 0.458435 0.243073
0.431427 0.458832 0.242767
0.436310 0.459229 0.242706
0.433838 0.458374 0.242249
0.429230 0.457336 0.239136
0.444489 0.454346 0.223419
0.496979 0.443115 0.172394
0.544586 0.431274 0.129822
0.566956 0.419128 0.121490
0.571075 0.407288 0.124084
0.576630 0.392090 0.114227
0.591736 0.377197 0.107666
0.614563 0.371429 0.106750
0.635895 0.370453 0.105560
0.659882 0.369293 0.101379
0.681244 0.373108 0.096527
0.696381 0.377045 0.092987
0.711914 0.376068 0.084351
0.727020 0.374359 0.075562
0.738586 0.375336 0.075867
0.748657 0.378235 0.083252
0.757538 0.380066 0.091003
0.766846 0.381073 0.097412
0.778168 0.382935 0.102997
0.789490 0.384125 0.108124
0.799316 0.383148 0.112640
0.807617 0.382141 0.116852
0.812775 0.382721 0.119873
0.817139 0.382812 0.122894
0.409973 0.485107 0.269287
0.418243 0.482208 0.265320
0.426178 0.479126 0.260986
0.435120 0.479126 0.259735
0.443909 0.479553 0.259155
0.452209 0.480713 0.258850
0.458038 0.481659 0.258301
0.456635 0.481140 0.258209
0.449097 0.479095 0.257111
0.459015 0.478943 0.246643
0.495667 0.469238 0.207031
0.549011 0.457825 0.155640
0.584473 0.446075 0.132843
0.599854 0.440094 0.134186
0.601379 0.428070 0.131714
0.608063 0.414703 0.125305
0.619629 0.399750 0.119995
0.638367 0.392792 0.118225
0.658997 0.388977 0.115967
0.680420 0.390625 0.112335
0.696716 0.396118 0.109772
0.711090 0.397278 0.105103
0.727814 0.395691 0.093018
0.742340 0.394226 0.084198
0.753876 0.397980 0.089325
0.764771 0.402313 0.096863
0.775330 0.404694 0.104126
0.786774 0.406830 0.110352
0.797638 0.408142 0.116455
0.807159 0.408722 0.121460
0.815155 0.408630 0.126678
0.820221 0.409119 0.130035
0.824371 0.408630 0.133057
0.425568 0.499298 0.279419
0.435638 0.499573 0.277527
0.444092 0.497955 0.273834
0.453003 0.499908 0.273895
0.461853 0.501617 0.274597
0.469574 0.502502 0.274750
0.475433 0.503540 0.274292
0.475830 0.503448 0.274048
0.468933 0.501617 0.273529
0.470032 0.500092 0.266541
0.498596 0.493011 0.238129
0.550049 0.482239 0.183105
0.593201 0.467621 0.142517
0.617004 0.462555 0.137085
0.625305 0.459747 0.148438
0.626740 0.446747 0.141998
0.633942 0.434601 0.137299
0.642578 0.418549 0.131073
0.660370 0.411316 0.128815
0.680267 0.408813 0.126770
0.697021 0.415344 0.125824
0.712189 0.418823 0.123749
0.727844 0.417572 0.118866
0.744446 0.415802 0.105011
0.757385 0.415588 0.098633
0.770325 0.420074 0.102325
0.782593 0.424591 0.109283
0.794373 0.428040 0.116577
0.805145 0.429993 0.123322
0.814880 0.432129 0.129242
0.823120 0.433258 0.135132
0.828003 0.434052 0.138794
0.831879 0.433838 0.142029
0.440826 0.516327 0.290680
0.450775 0.518677 0.290192
0.459869 0.519653 0.289001
0.468048 0.520996 0.289368
0.476807 0.522095 0.289795
0.484131 0.522491 0.289825
0.489868 0.523346 0.289612
0.491638 0.523163 0.289124
0.484406 0.522217 0.289642
0.476593 0.520111 0.286224
0.499969 0.515656 0.265167
0.549591 0.506226 0.219574
0.596680 0.488647 0.164795
0.626526 0.479797 0.140259
0.642578 0.481049 0.153931
0.645935 0.476898 0.160461
0.647522 0.464691 0.152771
0.655426 0.451202 0.148041
0.664337 0.437317 0.142639
0.681061 0.430573 0.141510
0.697479 0.433411 0.140961
0.714813 0.439850 0.141846
0.730957 0.441254 0.141541
0.746368 0.439911 0.135193
0.760162 0.434692 0.120941
0.774628 0.437286 0.112152
0.788330 0.440979 0.114288
0.800018 0.446381 0.121948
0.811157 0.449951 0.129852
0.821350 0.452667 0.136536
0.829681 0.453888 0.142456
0.835114 0.455353 0.146454
0.840088 0.455719 0.149292
0.455811 0.534790 0.303467
0.465393 0.536987 0.302826
0.475006 0.538879 0.302704
0.483002 0.539459 0.303040
0.490967 0.539154 0.303284
0.498383 0.539368 0.303223
0.503448 0.538666 0.302307
0.506042 0.538269 0.301697
0.500519 0.538818 0.302856
0.489502 0.537964 0.302124
0.503387 0.534637 0.287415
0.548706 0.524506 0.248169
0.599548 0.512207 0.193787
0.632172 0.497162 0.152344
0.654083 0.498810 0.157196
0.662262 0.500092 0.172852
0.665466 0.492981 0.172455
0.667877 0.480652 0.164673
0.675171 0.467865 0.159088
0.684692 0.453766 0.153900
0.699127 0.452698 0.156860
0.714386 0.455566 0.158112
0.731354 0.459473 0.159882
0.749054 0.462585 0.159607
0.763641 0.460968 0.154083
0.776794 0.455780 0.137451
0.791656 0.457733 0.127502
0.804901 0.461975 0.127594
0.815674 0.466614 0.134796
0.826294 0.470245 0.143066
0.834686 0.471893 0.149536
0.840179 0.472931 0.153809
0.845184 0.473022 0.156464
0.472015 0.553741 0.318756
0.481476 0.555054 0.317322
0.490906 0.556427 0.316528
0.498352 0.555237 0.315918
0.505737 0.553986 0.315582
0.512573 0.553223 0.315369
0.517700 0.552399 0.314270
0.520477 0.552002 0.313873
0.516876 0.552429 0.315033
0.505157 0.553406 0.316071
0.508820 0.550842 0.306183
0.547913 0.541565 0.274170
0.595734 0.533905 0.224365
0.635132 0.515350 0.169281
0.666595 0.515686 0.159088
0.675537 0.515472 0.173309
0.679688 0.515900 0.187683
0.683258 0.508392 0.185303
0.686279 0.496216 0.176666
0.693024 0.483490 0.171600
0.701691 0.473511 0.168182
0.714996 0.472687 0.172302
0.730164 0.474915 0.175659
0.747253 0.477051 0.176636
0.763855 0.478424 0.176117
0.778168 0.476074 0.169342
0.792267 0.475128 0.153839
0.806854 0.476196 0.143005
0.819000 0.479797 0.142670
0.830444 0.484497 0.149750
0.839020 0.486908 0.156555
0.844391 0.487946 0.160797
0.849365 0.488007 0.163300
0.488281 0.570343 0.331940
0.496765 0.570068 0.329407
0.505707 0.570862 0.328308
0.513428 0.569733 0.327454
0.520569 0.568451 0.326813
0.526794 0.567352 0.326508
0.532043 0.566437 0.325500
0.534668 0.565887 0.325226
0.532318 0.566101 0.326172
0.519287 0.568329 0.328949
0.513489 0.567352 0.324158
0.545746 0.558380 0.298584
0.594147 0.550110 0.254791
0.631439 0.537903 0.205231
0.673431 0.532532 0.170990
0.689026 0.532104 0.174255
0.692474 0.532928 0.193268
0.695953 0.531250 0.203552
0.699066 0.521729 0.199036
0.702118 0.509918 0.190338
0.708832 0.499146 0.185699
0.716858 0.489807 0.182983
0.730927 0.490021 0.188354
0.745819 0.491028 0.191315
0.762390 0.492096 0.193085
0.778839 0.492767 0.191498
0.792175 0.492981 0.183441
0.805756 0.493805 0.170685
0.820984 0.495209 0.159424
0.833710 0.497681 0.160461
0.842682 0.500793 0.165619
0.848083 0.502045 0.170044
0.852783 0.502075 0.172577
0.503448 0.586212 0.343292
0.511414 0.585541 0.340759
0.518646 0.583893 0.338562
0.526337 0.582703 0.337830
0.533508 0.581909 0.337891
0.539642 0.581116 0.337891
0.544434 0.580231 0.337311
0.546417 0.579926 0.337463
0.544739 0.579681 0.337769
0.534058 0.581757 0.340576
0.522491 0.582642 0.338623
0.545563 0.573639 0.319641
0.592529 0.566589 0.282715
0.630371 0.558685 0.235382
0.675079 0.548859 0.186798
0.702545 0.547119 0.175293
0.708160 0.546844 0.190033
0.707642 0.547363 0.209839
0.711151 0.542725 0.217957
0.713623 0.534668 0.212402
0.717468 0.524292 0.205475
0.723572 0.513763 0.201019
0.733337 0.507172 0.199188
0.745941 0.506317 0.204102
0.760895 0.505676 0.206848
0.776978 0.505280 0.207947
0.792023 0.507385 0.205444
0.805725 0.512085 0.199097
0.819519 0.512146 0.188416
0.833893 0.513458 0.179108
0.844391 0.514099 0.178741
0.849731 0.516113 0.184235
0.854340 0.517334 0.189240
0.517548 0.599884 0.353302
0.524353 0.598755 0.351288
0.531250 0.596802 0.348938
0.538361 0.595795 0.349335
0.544952 0.595612 0.350250
0.550659 0.594910 0.350128
0.554749 0.594666 0.350311
0.556946 0.594452 0.350616
0.555817 0.594269 0.351074
0.548615 0.594818 0.352142
0.535645 0.595886 0.351318
0.547028 0.590729 0.338928
0.586426 0.584808 0.312927
0.629486 0.576019 0.266296
0.669952 0.563843 0.214722
0.709991 0.558990 0.178009
0.721863 0.558044 0.183167
0.722992 0.560669 0.208282
0.723785 0.559845 0.225616
0.726685 0.554993 0.229858
0.728577 0.546844 0.225128
0.732147 0.537201 0.218872
0.739594 0.530792 0.218170
0.748535 0.523407 0.215576
0.761261 0.521973 0.219849
0.776093 0.520813 0.222198
0.791290 0.521484 0.223358
0.805420 0.524414 0.220398
0.818268 0.527588 0.214478
0.831909 0.527557 0.209259
0.843475 0.529053 0.206818
0.849609 0.530670 0.213074
0.855286 0.532227 0.217316
0.530029 0.612122 0.363068
0.535950 0.611450 0.361664
0.543304 0.610107 0.359955
0.549713 0.609650 0.360748
0.555969 0.609863 0.362457
0.561127 0.609619 0.363037
0.564972 0.609314 0.362976
0.567352 0.609344 0.363464
0.566864 0.609436 0.364441
0.560638 0.609619 0.365326
0.547394 0.610046 0.364563
0.546478 0.607330 0.356659
0.582458 0.600372 0.335907
0.629761 0.594543 0.299164
0.662140 0.584930 0.254700
0.708008 0.575348 0.203461
0.731567 0.565460 0.172699
0.737946 0.569885 0.194458
0.738586 0.575531 0.225494
0.740997 0.575195 0.242310
0.744415 0.571655 0.246765
0.745819 0.563263 0.241577
0.748566 0.553925 0.235596
0.755371 0.546722 0.233978
0.763885 0.539062 0.231415
0.776764 0.536835 0.235138
0.790863 0.537109 0.238068
0.804626 0.539948 0.238068
0.817810 0.543213 0.235352
0.830688 0.540405 0.229828
0.841003 0.541718 0.232544
0.847717 0.542358 0.237488
0.854126 0.544830 0.243134
0.541992 0.623840 0.371674
0.548157 0.623871 0.370636
0.554626 0.624298 0.371002
0.560425 0.623962 0.372040
0.566040 0.623688 0.372986
0.571289 0.623688 0.373962
0.575256 0.623383 0.373932
0.577393 0.623322 0.374115
0.576965 0.623444 0.375061
0.571411 0.623962 0.376495
0.559326 0.624786 0.376801
0.552429 0.623413 0.371826
0.578552 0.616364 0.354919
0.627350 0.612671 0.326538
0.661926 0.606995 0.291779
0.699310 0.595398 0.247314
0.733154 0.583710 0.193878
0.750610 0.577850 0.181183
0.754364 0.587250 0.214874
0.755219 0.593079 0.246033
0.759705 0.594543 0.262268
0.761871 0.590668 0.267120
0.761963 0.580719 0.259583
0.764557 0.570587 0.253052
0.770874 0.562378 0.251343
0.778748 0.554077 0.247559
0.791656 0.552490 0.251434
0.804382 0.555756 0.254089
0.817474 0.559387 0.253967
0.829834 0.557495 0.251068
0.839752 0.554199 0.248413
0.845856 0.554596 0.253784
0.852173 0.557373 0.259644
0.553680 0.637939 0.381287
0.559540 0.637054 0.379456
0.565094 0.636566 0.379486
0.570831 0.635742 0.379944
0.576233 0.635406 0.380981
0.581299 0.635406 0.381897
0.585480 0.635040 0.381866
0.587860 0.635284 0.382080
0.587585 0.635376 0.382721
0.582825 0.635559 0.384064
0.570862 0.637146 0.385498
0.560974 0.637054 0.383331
0.576721 0.629944 0.369049
0.620941 0.626312 0.345001
0.663635 0.627228 0.322784
0.690125 0.613464 0.283966
0.728149 0.606598 0.235657
0.757782 0.594360 0.188599
0.767609 0.595459 0.196228
0.770142 0.604950 0.235809
0.772430 0.610840 0.265594
0.775391 0.612152 0.281982
0.777679 0.607330 0.283783
0.778503 0.598145 0.276672
0.780945 0.587585 0.271057
0.786743 0.578278 0.268311
0.793579 0.570038 0.265564
