nova/tdt-studio/app/Lut_mau/IWLTBAP/1 - LUTs by IWLTBAP (CUBE)/01 - Standard/GoPro & Drones/IWLTBAP Aptira.cube
# Copyright: (C) Copyright 2010-2018 by IWLTBAP
TITLE "LUT created by IWLTBAP for GoPro Pack"
LUT_3D_SIZE 5
0.000031 0.000153 0.000397
0.183167 0.050140 0.029724
0.491791 0.115082 0.077942
0.700775 0.171539 0.133972
0.849274 0.206207 0.171875
0.017731 0.155579 0.075500
0.210785 0.194000 0.066467
0.595520 0.283264 0.117493
0.789429 0.337708 0.178345
0.912109 0.365845 0.216949
0.028717 0.363098 0.169800
0.272217 0.419342 0.182068
0.630829 0.499420 0.218475
0.835205 0.536316 0.245239
0.961823 0.549377 0.268402
0.095306 0.566589 0.255768
0.384125 0.624115 0.288696
0.667542 0.691620 0.322174
0.840729 0.706085 0.325409
0.979401 0.719513 0.346741
0.235809 0.757385 0.322235
0.496552 0.812256 0.361450
0.716949 0.850311 0.372162
0.868042 0.865784 0.390228
0.974487 0.874359 0.418274
0.010590 0.023590 0.116974
0.153870 0.049255 0.148193
0.473297 0.115082 0.191193
0.679443 0.170319 0.235016
0.823639 0.197540 0.256927
0.017365 0.170349 0.219727
0.165131 0.196136 0.216888
0.567627 0.305939 0.283813
0.772400 0.357422 0.319000
0.902710 0.365906 0.328400
0.025299 0.379944 0.331573
0.117523 0.410370 0.337250
0.582550 0.513977 0.394501
0.829285 0.563202 0.407104
0.962952 0.571838 0.409790
0.060852 0.569061 0.397156
0.277954 0.605225 0.407471
0.614258 0.690521 0.473297
0.824615 0.732117 0.489868
0.975189 0.754028 0.497375
0.115265 0.726410 0.415741
0.453461 0.807251 0.486176
0.690918 0.861237 0.528778
0.862823 0.889832 0.551483
0.973419 0.907257 0.577728
0.020599 0.047119 0.238007
0.131317 0.057190 0.259674
0.418152 0.110138 0.320190
0.648895 0.168060 0.357056
0.802094 0.196167 0.372681
0.023804 0.187866 0.355927
0.119781 0.216949 0.364410
0.459045 0.289642 0.411743
0.729950 0.355621 0.454315
0.875000 0.358887 0.447113
0.037537 0.387726 0.460327
0.103210 0.417999 0.476562
0.503723 0.516022 0.530304
0.789398 0.581024 0.572174
0.934235 0.579163 0.561584
0.059387 0.576721 0.537476
0.157654 0.605957 0.544861
0.558075 0.688324 0.595123
0.804626 0.749115 0.641418
0.970917 0.784210 0.664642
0.086121 0.725555 0.556091
0.306122 0.784027 0.582886
0.662445 0.872437 0.668121
0.850464 0.907471 0.696686
0.974487 0.932526 0.724762
0.030579 0.071838 0.374268
0.127167 0.079193 0.386963
0.360077 0.109161 0.437134
0.595825 0.161346 0.477112
0.762207 0.192017 0.486298
0.041595 0.215942 0.481964
0.114624 0.252411 0.503204
0.379364 0.297668 0.529449
0.667267 0.356812 0.573273
0.841217 0.355530 0.568115
0.053619 0.401245 0.581787
0.113831 0.435577 0.604675
0.436157 0.521057 0.649170
0.713318 0.570892 0.674286
0.905853 0.574493 0.679565
0.069214 0.576996 0.650299
0.138947 0.606262 0.665009
0.410492 0.663452 0.694733
0.762146 0.757202 0.763550
0.954010 0.798706 0.799866
0.085266 0.726379 0.683716
0.179382 0.779663 0.713745
0.563965 0.853851 0.763855
0.833221 0.921509 0.824829
0.972870 0.951324 0.853271
0.049713 0.107727 0.516693
0.135895 0.113953 0.522461
0.333832 0.133759 0.558716
0.545258 0.155029 0.586578
0.709839 0.181396 0.602478
0.059113 0.248596 0.607117
0.130066 0.292755 0.639435
0.333374 0.319550 0.651093
0.584717 0.352386 0.685303
0.791962 0.356781 0.689972
0.067780 0.411469 0.690735
0.129456 0.446259 0.713654
0.326996 0.521912 0.754913
0.538666 0.541779 0.773102
0.824951 0.571136 0.798096
0.081665 0.569824 0.752319
0.145020 0.596954 0.769836
0.247223 0.638092 0.793152
0.618134 0.730499 0.855072
0.894440 0.788574 0.890381
0.092896 0.719238 0.794800
0.173706 0.765564 0.821014
0.393188 0.823730 0.856445
0.778778 0.909637 0.916016
0.971161 0.961731 0.958191
