nova/tdt-studio/app/Lut_mau/IWLTBAP/2 - LUTs by IWLTBAP (3DL)/01 - Standard/Cinematic/C-6720-STD.3dl
# Copyright: (C) Copyright 2010-2019 by IWLTBAP SAS
# Cannot be resold, shared or otherwise redistributed
# Website: https://luts.iwltbap.com
0 256 512 768 1023
3 8 3
218 651 858
170 1266 1868
360 1771 2647
894 2171 3205
96 803 162
432 1221 1248
519 1688 2105
717 2106 2807
954 2440 3333
343 1764 294
859 2015 1484
1033 2341 2338
1061 2572 2890
626 2823 3454
910 2646 316
1070 2762 1386
1221 3045 2474
970 3194 3107
188 3134 3399
966 3755 261
897 3828 1114
785 3914 2272
199 3848 3084
189 3820 3599
461 45 22
610 402 669
604 1158 1672
669 1723 2564
991 2166 3191
830 801 94
878 1136 1044
926 1702 2033
1048 2135 2794
1154 2446 3312
1035 1702 191
1159 1997 1346
1390 2411 2363
1478 2637 2911
1284 2796 3389
1258 2729 286
1286 2845 1306
1537 3058 2433
1515 3231 3127
752 3330 3614
1424 3826 234
1392 3876 1227
1370 3926 2257
736 4080 3252
321 4043 3826
1200 97 14
1165 133 436
1505 854 1437
1481 1543 2410
1410 2087 3033
1785 960 73
1728 987 783
1798 1511 1770
1654 2053 2610
1540 2406 3220
1960 1938 142
2012 2029 1065
2088 2406 2250
1957 2720 2932
1726 2830 3457
2071 2810 228
2071 2922 1174
2097 3085 2291
2063 3308 3167
1727 3338 3657
2137 3924 218
2144 3963 1178
2123 3990 2152
1982 4064 3146
1678 4095 3894
2031 187 0
1946 188 447
2214 644 1452
2390 1568 2412
2404 2049 3197
2587 959 73
2548 998 725
2612 1434 1793
2598 2112 2659
2447 2444 3319
2954 2075 128
2964 2088 1054
2908 2230 2048
2780 2807 2976
2496 2915 3549
2956 3061 178
2970 3088 1099
2977 3141 2124
2890 3392 3148
2693 3413 3756
3056 4068 316
3050 4066 1316
3044 4079 2229
3036 4095 3151
2998 4095 3931
2915 302 0
2883 279 495
3063 506 1550
3195 1534 2672
3086 2335 3294
3442 987 70
3420 1020 706
3494 1399 1875
3367 2120 2852
3171 2693 3397
3899 2099 137
3896 2113 1029
3811 2226 2039
3581 2709 3020
3314 3118 3563
3966 3103 181
3979 3116 1101
3984 3121 2082
3869 3269 3079
3631 3508 3829
3965 4095 474
3964 4095 1444
3970 4095 2420
3985 4095 3381
4095 4095 4095
