nova/tdt-studio/app/Lut_mau/IWLTBAP/2 - LUTs by IWLTBAP (3DL)/01 - Standard/Cinematic/C-6720-STD.3dl
# Copyright: (C) Copyright 2010-2019 by IWLTBAP SAS
# Cannot be resold, shared or otherwise redistributed
# Website: https://luts.iwltbap.com
0 128 256 384 512 640 768 896 1023
3 8 3
133 324 380
218 651 858
219 968 1384
170 1266 1868
178 1542 2294
360 1771 2647
631 1972 2941
894 2171 3205
62 364 103
193 615 590
282 894 1065
299 1183 1550
298 1460 2002
366 1709 2402
537 1922 2736
744 2115 3020
948 2297 3274
96 803 162
313 991 762
432 1221 1248
482 1456 1694
519 1688 2105
600 1907 2483
717 2106 2807
846 2281 3083
954 2440 3333
146 1287 237
475 1412 881
649 1617 1397
737 1813 1844
786 1983 2207
838 2156 2549
894 2326 2855
920 2479 3129
855 2615 3391
343 1764 294
625 1842 934
859 2015 1484
975 2211 1981
1033 2341 2338
1061 2451 2620
1061 2572 2890
969 2692 3158
626 2823 3454
649 2203 294
741 2265 887
997 2379 1481
1123 2565 2016
1183 2716 2464
1203 2788 2736
1163 2851 2959
935 2933 3211
238 3058 3529
910 2646 316
905 2694 783
1070 2762 1386
1224 2887 1955
1221 3045 2474
1125 3152 2866
970 3194 3107
533 3242 3340
188 3134 3399
1059 3146 311
1054 3190 652
1070 3232 1229
1187 3291 1830
1122 3400 2363
702 3554 2895
267 3581 3236
209 3456 3350
186 3410 3448
966 3755 261
941 3797 547
897 3828 1114
884 3857 1714
785 3914 2272
302 4021 2823
199 3848 3084
189 3808 3378
189 3820 3599
170 26 16
273 234 330
339 590 796
343 929 1302
327 1234 1804
343 1519 2257
481 1764 2636
697 1980 2946
932 2183 3215
326 348 63
382 559 492
429 868 993
460 1172 1496
479 1458 1973
535 1718 2397
662 1943 2749
829 2139 3036
999 2319 3291
409 747 108
495 957 656
580 1215 1194
642 1474 1673
696 1715 2105
768 1939 2494
859 2137 2821
955 2308 3093
1028 2459 3339
482 1231 169
614 1401 789
788 1620 1363
894 1839 1842
960 2018 2216
1019 2188 2554
1070 2350 2855
1087 2492 3117
1035 2610 3366
627 1743 239
747 1860 869
977 2027 1461
1119 2230 1978
1201 2373 2352
1250 2483 2632
1265 2597 2893
1207 2701 3143
1001 2792 3401
834 2237 287
866 2310 872
1085 2416 1469
1238 2587 2015
1333 2738 2472
1382 2820 2758
1367 2884 2979
1217 2950 3213
760 3031 3493
1041 2716 317
1027 2763 813
1148 2826 1395
1311 2932 1967
1348 3067 2476
1340 3158 2864
1253 3207 3112
910 3252 3345
248 3288 3564
1192 3224 313
1188 3265 689
1187 3303 1258
1293 3353 1849
1261 3441 2375
1042 3543 2866
700 3604 3247
279 3601 3493
218 3494 3544
1185 3795 246
1166 3832 588
1127 3856 1164
1119 3877 1742
1063 3917 2278
654 4033 2829
280 4005 3213
250 3916 3472
252 3922 3703
461 45 22
496 104 221
610 402 669
640 807 1194
604 1158 1672
604 1459 2141
669 1723 2564
811 1956 2908
991 2166 3191
728 398 54
714 453 347
734 727 832
738 1088 1362
732 1406 1854
763 1682 2312
839 1920 2701
952 2123 3007
1078 2303 3266
830 801 94
873 918 482
878 1136 1044
888 1435 1568
926 1702 2033
984 1936 2449
1048 2135 2794
1110 2302 3068
1154 2446 3312
930 1205 138
959 1356 613
1041 1571 1243
1107 1835 1789
1170 2042 2199
1232 2216 2545
1278 2371 2848
1287 2501 3104
1236 2606 3341
1035 1702 191
1038 1834 724
1159 1997 1346
1301 2222 1932
1390 2411 2363
1451 2531 2654
1478 2637 2911
1435 2727 3148
1284 2796 3389
1131 2219 241
1123 2306 764
1219 2407 1346
1399 2564 1945
1509 2752 2461
1570 2862 2788
1576 2926 3008
1476 2978 3229
1186 3023 3477
1258 2729 286
1252 2785 756
1286 2845 1306
1450 2929 1892
1537 3058 2433
1561 3173 2861
1515 3231 3127
1279 3271 3358
752 3330 3614
1382 3272 293
1386 3316 683
1366 3349 1240
1442 3387 1802
1487 3444 2331
1409 3524 2815
1197 3593 3218
729 3635 3523
290 3665 3729
1424 3826 234
1425 3859 655
1392 3876 1227
1379 3897 1751
1370 3926 2257
1193 3994 2748
736 4080 3252
331 4073 3612
321 4043 3826
816 68 20
782 76 155
870 190 499
1031 590 1028
1070 997 1578
994 1355 2026
973 1658 2430
1029 1910 2812
1127 2132 3133
1070 391 48
1034 399 246
1079 530 638
1157 906 1178
1159 1270 1710
1102 1596 2162
1100 1864 2575
1146 2083 2928
1211 2272 3215
1358 950 75
1378 979 452
1327 1026 877
1315 1308 1392
1294 1621 1894
1270 1891 2328
1279 2108 2710
1300 2281 3020
1311 2427 3276
1404 1360 123
1437 1424 493
1477 1526 1051
1499 1771 1654
1478 2031 2127
1482 2228 2500
1499 2386 2823
1491 2509 3093
1432 2605 3329
1504 1755 171
1536 1847 591
1570 1975 1185
1628 2189 1826
1649 2430 2336
1678 2578 2666
1697 2679 2929
1656 2756 3165
1516 2811 3402
1582 2234 212
1581 2320 673
1567 2415 1229
1650 2555 1841
1741 2756 2418
1786 2904 2806
1797 2969 3039
1720 3011 3254
1480 3040 3502
1613 2746 256
1615 2812 667
1593 2869 1213
1656 2941 1774
1771 3057 2364
1803 3194 2850
1777 3264 3146
1620 3292 3374
1275 3325 3622
1692 3295 260
1702 3344 609
1680 3373 1172
1685 3408 1695
1758 3453 2248
1745 3530 2766
1623 3602 3199
1301 3647 3529
928 3700 3778
1754 3864 218
1762 3897 615
1742 3910 1194
1716 3928 1694
1713 3952 2182
1650 3995 2678
1412 4060 3191
992 4093 3615
838 4090 3877
1200 97 14
1151 100 154
1165 133 436
1318 385 887
1505 854 1437
1568 1209 1980
1481 1543 2410
1407 1840 2735
1410 2087 3033
1431 395 39
1390 399 224
1404 452 539
1527 742 1040
1637 1138 1572
1645 1468 2087
1549 1773 2493
1481 2028 2820
1464 2235 3124
1785 960 73
1773 968 405
1728 987 783
1762 1179 1266
1798 1511 1770
1756 1799 2238
1654 2053 2610
1585 2251 2929
1540 2406 3220
1931 1510 97
1946 1530 513
1962 1552 1013
1958 1654 1500
1971 1969 2031
1889 2203 2441
1800 2384 2768
1735 2515 3060
1636 2607 3333
1960 1938 142
1983 1976 518
2012 2029 1065
2057 2135 1635
2088 2406 2250
2016 2607 2648
1957 2720 2932
1888 2790 3187
1726 2830 3457
2030 2331 187
2056 2389 561
2071 2458 1139
2092 2565 1719
2122 2756 2337
2094 2942 2797
2054 3023 3069
1967 3057 3298
1774 3069 3557
2071 2810 228
2087 2871 597
2071 2922 1174
2053 2989 1708
2097 3085 2291
2111 3221 2819
2063 3308 3167
1934 3329 3414
1727 3338 3657
2091 3359 231
2104 3405 572
2088 3431 1151
2062 3461 1661
2081 3498 2185
2096 3559 2719
2014 3629 3185
1812 3665 3538
1615 3696 3789
2137 3924 218
2155 3954 598
2144 3963 1178
2130 3973 1683
2123 3990 2152
2099 4019 2638
1982 4064 3146
1753 4095 3602
1678 4095 3894
1609 135 9
1563 138 172
1531 148 432
1640 291 868
1835 736 1396
1972 1182 1907
2039 1488 2398
1974 1769 2821
1848 2042 3124
1817 423 37
1782 427 233
1767 451 527
1892 678 1032
2009 1066 1541
2089 1449 2029
2108 1726 2498
2013 1983 2878
1883 2214 3142
2181 955 73
2166 965 374
2132 987 744
2162 1148 1248
2204 1449 1735
2227 1784 2199
2191 2024 2627
2062 2236 2951
1917 2411 3205
2415 1541 101
2419 1550 513
2411 1559 985
2372 1631 1452
2393 1881 1963
2374 2196 2426
2277 2384 2786
2124 2532 3067
1952 2626 3368
2454 2051 125
2465 2065 544
2475 2075 1051
2484 2091 1547
2496 2268 2095
2477 2613 2625
2351 2755 2947
2203 2833 3224
2048 2857 3519
2461 2499 149
2476 2524 526
2489 2553 1074
2506 2598 1609
2533 2706 2166
2520 2959 2742
2402 3082 3089
2277 3116 3359
2162 3108 3605
2495 2930 187
2515 2968 534
2526 3004 1119
2530 3048 1664
2536 3123 2208
2518 3252 2761
2425 3359 3176
2316 3378 3465
2212 3369 3702
2540 3450 204
2557 3484 589
2552 3503 1166
2536 3525 1679
2522 3557 2176
2511 3604 2685
2445 3668 3165
2318 3697 3552
2216 3710 3815
2585 4005 224
2597 4016 692
2587 4019 1237
2581 4026 1730
2578 4036 2186
2564 4055 2643
2504 4085 3124
2403 4095 3587
2365 4095 3905
2031 187 0
2000 187 190
1946 188 447
2017 267 890
2214 644 1452
2327 1148 1965
2390 1568 2412
2438 1827 2825
2404 2049 3197
2236 466 35
2202 469 252
2171 476 542
2285 656 1062
2412 1031 1615
2460 1454 2096
2488 1819 2522
2502 2041 2914
2436 2231 3260
2587 959 73
2576 973 364
2548 998 725
2573 1147 1262
2612 1434 1793
2608 1795 2256
2598 2112 2659
2566 2291 3022
2447 2444 3319
2862 1546 105
2861 1555 492
2844 1565 942
2801 1633 1437
2792 1847 1961
2762 2172 2442
2702 2452 2823
2609 2582 3142
2445 2677 3429
2954 2075 128
2963 2084 558
2964 2088 1054
2954 2102 1542
2908 2230 2048
2875 2530 2581
2780 2807 2976
2645 2887 3271
2496 2915 3549
2957 2578 151
2969 2591 564
2974 2594 1076
2981 2600 1570
2985 2615 2060
2942 2827 2615
2837 3129 3092
2701 3178 3390
2589 3162 3647
2956 3061 178
2966 3076 564
2970 3088 1099
2973 3106 1617
2977 3141 2124
2970 3224 2647
2890 3392 3148
2786 3429 3489
2693 3413 3756
3003 3556 236
3003 3562 679
3004 3573 1194
3004 3587 1692
3002 3607 2181
2989 3644 2672
2942 3703 3148
2855 3736 3558
2773 3746 3857
3056 4068 316
3052 4062 839
3050 4066 1316
3048 4071 1777
3044 4079 2229
3037 4091 2681
3036 4095 3151
3011 4095 3594
2998 4095 3931
2466 245 0
2466 235 203
2399 233 469
2439 273 912
2634 574 1521
2758 1092 2093
2760 1590 2531
2764 1972 2888
2790 2173 3209
2687 518 32
2654 518 270
2608 516 562
2706 640 1082
2851 1000 1694
2887 1433 2219
2856 1863 2637
2836 2187 2970
2842 2348 3272
3008 970 72
3002 986 362
2980 1010 711
3006 1143 1263
3047 1422 1849
3024 1778 2351
2960 2154 2755
2909 2427 3065
2882 2547 3342
3304 1551 108
3303 1562 475
3282 1573 899
3249 1638 1421
3218 1829 1971
3164 2126 2480
3065 2464 2881
2977 2695 3170
2912 2769 3430
3432 2087 133
3439 2097 553
3433 2100 1041
3417 2117 1533
3352 2221 2038
3281 2465 2564
3165 2777 2994
3045 2979 3283
2945 3010 3539
3463 2591 154
3474 2602 576
3476 2602 1083
3478 2606 1573
3467 2622 2060
3381 2779 2579
3273 3053 3070
3134 3237 3398
3034 3225 3672
3463 3099 178
3475 3111 586
3476 3110 1100
3481 3113 1593
3484 3119 2080
3484 3132 2567
3389 3303 3085
3256 3472 3492
3172 3460 3800
3479 3612 214
3476 3611 696
3476 3614 1181
3478 3621 1664
3475 3632 2148
3469 3654 2634
3446 3698 3114
3376 3767 3556
3316 3778 3900
3510 4095 420
3505 4095 889
3507 4095 1363
3509 4095 1831
3514 4095 2304
3523 4095 2777
3541 4095 3238
3564 4095 3652
3590 4095 3980
2915 302 0
2955 281 211
2883 279 495
2893 293 921
3063 506 1550
3219 1024 2201
3195 1534 2672
3122 2001 3012
3086 2335 3294
3166 570 27
3134 571 285
3074 560 587
3136 628 1076
3297 952 1734
3340 1391 2315
3278 1828 2762
3185 2229 3084
3129 2506 3343
3442 987 70
3439 1001 364
3420 1020 706
3450 1127 1241
3494 1399 1875
3463 1743 2418
3367 2120 2852
3247 2469 3161
3171 2693 3397
3748 1556 109
3750 1569 466
3729 1582 874
3705 1644 1399
3665 1817 1976
3595 2083 2507
3467 2413 2942
3322 2723 3245
3227 2906 3466
3899 2099 137
3906 2109 550
3896 2113 1029
3878 2134 1524
3811 2226 2039
3717 2430 2565
3581 2709 3020
3421 2984 3337
3314 3118 3563
3951 2602 159
3962 2614 577
3961 2615 1085
3960 2620 1576
3941 2641 2066
3850 2763 2581
3724 2975 3071
3571 3197 3434
3459 3292 3693
3966 3103 181
3979 3117 583
3979 3116 1101
3982 3118 1594
3984 3121 2082
3974 3137 2569
3869 3269 3079
3741 3434 3511
3631 3508 3829
3970 3613 204
3983 3626 603
3982 3623 1126
3986 3625 1618
3987 3628 2105
3987 3635 2590
3985 3645 3075
3898 3737 3557
3825 3801 3940
3965 4095 474
3964 4095 954
3964 4095 1444
3967 4095 1931
3970 4095 2420
3974 4095 2908
3985 4095 3381
4016 4095 3812
4095 4095 4095
