nova/tdt-studio/app/Lut_mau/IWLTBAP/2 - LUTs by IWLTBAP (3DL)/01 - Standard/Cinematic/C-6720-STD.3dl
# Copyright: (C) Copyright 2010-2019 by IWLTBAP SAS
# Cannot be resold, shared or otherwise redistributed
# Website: https://luts.iwltbap.com
0 64 128 192 256 320 384 448 512 576 640 704 768 832 896 960 1023
3 8 3
71 162 179
133 324 380
179 490 607
218 651 858
230 811 1121
219 968 1384
194 1120 1635
170 1266 1868
158 1407 2088
178 1542 2294
245 1663 2481
360 1771 2647
496 1873 2799
631 1972 2941
766 2072 3075
894 2171 3205
38 177 61
97 315 268
162 459 486
210 611 717
246 765 962
257 919 1217
249 1071 1470
235 1219 1713
221 1362 1939
223 1500 2155
266 1624 2351
341 1739 2531
448 1844 2693
567 1944 2843
689 2041 2982
807 2138 3114
925 2233 3241
62 364 103
131 486 350
193 615 590
252 751 822
282 894 1065
298 1040 1309
299 1183 1550
295 1324 1782
298 1460 2002
316 1591 2210
366 1709 2402
442 1820 2578
537 1922 2736
637 2021 2883
744 2115 3020
847 2207 3149
948 2297 3274
84 574 135
166 681 424
245 795 683
307 917 922
349 1045 1158
368 1178 1394
377 1311 1624
388 1440 1844
401 1567 2055
428 1689 2257
479 1803 2445
548 1910 2618
625 2010 2775
711 2104 2919
796 2195 3054
879 2281 3181
961 2365 3303
96 803 162
210 894 486
313 991 762
381 1104 1009
432 1221 1248
460 1340 1476
482 1456 1694
500 1573 1903
519 1688 2105
553 1800 2300
600 1907 2483
654 2010 2653
717 2106 2807
781 2196 2949
846 2281 3083
902 2362 3209
954 2440 3333
121 1039 195
263 1114 539
391 1199 828
475 1303 1082
536 1413 1327
575 1522 1557
602 1625 1766
626 1726 1963
652 1826 2154
683 1927 2340
720 2025 2517
763 2120 2682
807 2211 2834
851 2297 2975
888 2377 3108
911 2452 3237
922 2524 3362
146 1287 237
321 1341 584
475 1412 881
577 1509 1143
649 1617 1397
700 1721 1635
737 1813 1844
762 1900 2032
786 1983 2207
812 2069 2381
838 2156 2549
867 2242 2707
894 2326 2855
914 2405 2995
920 2479 3129
895 2549 3261
855 2615 3391
203 1536 275
385 1570 614
555 1627 919
676 1715 1190
760 1821 1451
821 1925 1701
866 2013 1920
895 2089 2105
916 2157 2269
935 2226 2428
953 2299 2582
971 2373 2730
980 2447 2873
975 2518 3010
945 2585 3146
873 2649 3281
756 2713 3420
343 1764 294
462 1797 624
625 1842 934
765 1917 1218
859 2015 1484
925 2119 1744
975 2211 1981
1010 2284 2178
1033 2341 2338
1050 2395 2483
1061 2451 2620
1067 2511 2756
1061 2572 2890
1033 2632 3024
969 2692 3158
830 2753 3301
626 2823 3454
501 1986 297
560 2017 613
684 2056 923
832 2114 1219
938 2199 1495
1006 2299 1760
1060 2396 2015
1100 2475 2236
1127 2531 2408
1143 2574 2548
1152 2614 2671
1150 2658 2793
1131 2705 2916
1082 2755 3043
980 2805 3176
771 2866 3325
421 2958 3511
649 2203 294
658 2234 588
741 2265 887
876 2310 1193
997 2379 1481
1073 2469 1752
1123 2565 2016
1160 2652 2262
1183 2716 2464
1198 2758 2616
1203 2788 2736
1196 2818 2846
1163 2851 2959
1086 2890 3080
935 2933 3211
648 2986 3359
238 3058 3529
783 2423 301
776 2448 560
808 2478 839
913 2513 1142
1038 2564 1444
1128 2637 1725
1175 2725 1994
1202 2813 2254
1210 2886 2486
1209 2938 2670
1200 2968 2804
1180 2989 2915
1127 3013 3022
1011 3043 3139
801 3078 3266
439 3123 3407
203 3081 3458
910 2646 316
900 2668 528
905 2694 783
961 2723 1077
1070 2762 1386
1171 2815 1681
1224 2887 1955
1238 2968 2220
1221 3045 2474
1183 3109 2694
1125 3152 2866
1066 3176 2995
970 3194 3107
804 3216 3220
533 3242 3340
253 3240 3426
188 3134 3399
1019 2880 322
1017 2901 492
1011 2924 720
1026 2949 1004
1095 2978 1312
1189 3016 1618
1247 3068 1902
1254 3134 2168
1206 3207 2430
1111 3281 2680
958 3343 2898
796 3381 3070
627 3399 3201
373 3427 3335
255 3380 3387
215 3308 3399
184 3246 3404
1059 3146 311
1061 3169 448
1054 3190 652
1047 3210 927
1070 3232 1229
1131 3257 1537
1187 3291 1830
1191 3338 2100
1122 3400 2363
971 3475 2631
702 3554 2895
324 3642 3150
267 3581 3236
234 3513 3296
209 3456 3350
194 3423 3399
186 3410 3448
1040 3440 288
1039 3462 404
1031 3483 590
1016 3501 857
1008 3517 1159
1028 3536 1464
1064 3556 1761
1066 3588 2038
985 3636 2305
794 3707 2584
373 3823 2906
261 3763 3045
219 3682 3146
201 3631 3253
192 3604 3351
189 3598 3439
188 3604 3516
966 3755 261
955 3777 369
941 3797 547
923 3814 809
897 3828 1114
877 3843 1419
884 3857 1714
878 3875 1998
785 3914 2272
543 3993 2573
302 4021 2823
236 3931 2955
199 3848 3084
190 3814 3235
189 3808 3378
189 3811 3495
189 3820 3599
76 16 7
133 138 169
189 290 363
225 463 587
257 632 829
274 795 1087
269 954 1349
253 1107 1605
232 1257 1847
223 1402 2075
247 1537 2286
311 1660 2476
415 1771 2647
535 1878 2804
662 1979 2948
789 2080 3083
912 2180 3213
140 171 46
181 290 238
231 434 455
267 594 688
296 753 933
312 910 1188
315 1063 1443
306 1213 1691
299 1358 1925
305 1497 2146
343 1626 2349
412 1744 2533
503 1853 2700
611 1956 2852
725 2053 2992
835 2151 3125
947 2246 3252
173 351 78
223 465 308
271 597 550
311 741 792
343 889 1036
364 1036 1286
372 1182 1532
375 1326 1771
381 1464 1996
401 1596 2209
445 1719 2407
514 1832 2586
595 1938 2748
687 2037 2896
783 2131 3033
877 2223 3162
973 2312 3286
205 553 107
265 662 373
323 782 639
376 909 891
410 1047 1136
438 1182 1377
453 1318 1614
467 1451 1841
484 1579 2057
513 1703 2264
558 1819 2455
617 1929 2631
687 2029 2788
763 2123 2932
841 2213 3066
914 2298 3193
986 2381 3315
226 779 131
307 876 433
387 982 720
450 1100 982
495 1224 1230
530 1349 1466
558 1470 1690
580 1589 1905
605 1705 2111
637 1819 2309
679 1928 2495
728 2030 2665
784 2126 2819
840 2215 2960
896 2299 3092
942 2378 3218
986 2454 3341
252 1019 164
348 1103 489
455 1195 789
541 1303 1060
601 1419 1314
645 1533 1551
679 1640 1767
706 1744 1969
735 1845 2162
766 1948 2350
801 2046 2526
840 2141 2691
881 2230 2841
919 2313 2980
948 2391 3111
964 2463 3238
970 2532 3362
288 1268 201
405 1334 537
530 1415 849
636 1514 1127
714 1624 1388
770 1733 1633
812 1829 1847
843 1917 2037
870 2001 2214
898 2087 2388
925 2173 2554
952 2259 2711
977 2340 2857
995 2416 2993
1000 2487 3125
979 2552 3253
942 2614 3379
360 1518 238
469 1572 577
610 1637 893
732 1725 1178
822 1831 1447
889 1936 1701
939 2028 1924
975 2104 2111
1001 2173 2275
1024 2242 2432
1045 2313 2584
1063 2386 2731
1074 2457 2871
1072 2524 3005
1048 2587 3135
989 2646 3266
897 2702 3396
473 1761 274
545 1807 602
679 1859 917
814 1933 1211
915 2028 1484
985 2132 1746
1044 2224 1984
1085 2298 2183
1116 2356 2344
1137 2410 2488
1154 2465 2624
1164 2524 2759
1162 2583 2890
1142 2639 3019
1091 2694 3149
984 2746 3282
832 2801 3421
605 1997 291
638 2036 606
739 2078 916
877 2137 1217
988 2218 1498
1062 2315 1765
1121 2410 2019
1170 2488 2240
1205 2545 2415
1229 2589 2556
1243 2630 2680
1247 2673 2800
1234 2719 2921
1195 2765 3043
1113 2810 3171
953 2858 3308
707 2917 3461
732 2228 300
734 2259 594
795 2295 893
917 2339 1196
1039 2404 1487
1120 2490 1760
1176 2582 2023
1221 2665 2267
1256 2728 2470
1280 2771 2624
1292 2802 2746
1291 2833 2856
1266 2866 2967
1204 2901 3084
1080 2940 3210
850 2983 3350
481 3054 3520
853 2456 306
841 2482 575
865 2511 852
955 2547 1151
1076 2594 1453
1168 2664 1735
1221 2747 2004
1254 2830 2262
1276 2898 2492
1289 2947 2675
1294 2977 2811
1281 3001 2923
1239 3025 3030
1142 3053 3144
965 3084 3268
664 3119 3400
250 3166 3544
969 2685 318
959 2707 547
960 2732 804
1006 2760 1093
1106 2797 1398
1207 2847 1693
1263 2915 1968
1282 2990 2231
1277 3060 2480
1261 3117 2695
1234 3154 2864
1196 3178 2994
1117 3199 3108
969 3222 3222
726 3244 3340
335 3291 3479
212 3203 3474
1075 2921 328
1072 2942 509
1063 2964 743
1074 2988 1025
1133 3016 1327
1226 3051 1631
1286 3099 1915
1296 3161 2181
1260 3228 2438
1190 3292 2681
1093 3341 2890
982 3373 3057
843 3392 3190
634 3409 3313
294 3453 3459
241 3369 3462
198 3292 3456
1122 3185 315
1125 3208 461
1118 3228 671
1109 3246 947
1127 3268 1246
1183 3291 1550
1238 3323 1843
1245 3367 2112
1186 3423 2373
1062 3488 2634
867 3551 2884
640 3598 3099
368 3641 3291
277 3593 3373
240 3524 3417
215 3474 3453
201 3447 3491
1125 3471 286
1123 3494 412
1116 3514 606
1101 3529 878
1090 3546 1178
1108 3563 1480
1143 3581 1775
1147 3610 2052
1076 3653 2315
916 3715 2586
621 3793 2871
308 3840 3114
262 3764 3219
235 3702 3316
219 3661 3404
213 3646 3487
210 3646 3561
1077 3777 253
1067 3797 371
1054 3816 561
1037 3831 829
1012 3844 1133
994 3857 1434
1002 3867 1726
998 3883 2008
926 3914 2274
742 3972 2554
344 4082 2882
278 4005 3022
236 3919 3143
221 3872 3283
219 3858 3423
219 3860 3542
220 3869 3650
170 26 16
220 105 147
273 234 330
313 409 555
339 590 796
345 764 1046
343 929 1302
336 1084 1557
327 1234 1804
323 1381 2039
343 1519 2257
396 1647 2456
481 1764 2636
584 1875 2799
697 1980 2946
815 2082 3084
932 2183 3215
277 178 43
298 259 205
327 387 408
361 549 647
378 722 893
391 887 1145
396 1045 1400
394 1198 1652
396 1343 1891
404 1484 2120
436 1616 2330
493 1738 2522
570 1851 2695
663 1957 2851
764 2058 2994
866 2155 3127
971 2251 3255
326 348 63
360 442 256
382 559 492
409 710 741
429 868 993
445 1023 1245
460 1172 1496
466 1318 1741
479 1458 1973
499 1592 2193
535 1718 2397
590 1835 2583
662 1943 2749
743 2043 2898
829 2139 3036
914 2230 3166
999 2319 3291
371 534 84
402 636 316
437 752 576
471 887 840
498 1031 1095
521 1175 1343
541 1315 1587
560 1450 1821
579 1581 2043
608 1707 2255
648 1824 2451
698 1936 2631
758 2038 2791
824 2133 2936
891 2222 3069
955 2306 3196
1018 2388 3318
409 747 108
443 849 370
495 957 656
542 1083 934
580 1215 1194
613 1347 1440
642 1474 1673
670 1596 1894
696 1715 2105
730 1830 2307
768 1939 2494
811 2042 2666
859 2137 2821
908 2225 2962
955 2308 3093
994 2385 3217
1028 2459 3339
442 981 139
485 1075 424
550 1176 728
624 1289 1017
681 1413 1285
727 1535 1533
763 1649 1757
796 1756 1964
827 1859 2160
859 1962 2349
894 2059 2527
929 2153 2692
964 2241 2841
996 2322 2978
1020 2397 3107
1031 2467 3232
1033 2533 3354
482 1231 169
529 1313 475
614 1401 789
710 1504 1086
788 1620 1363
849 1735 1618
894 1839 1842
930 1931 2038
960 2018 2216
990 2104 2389
1019 2188 2554
1047 2271 2710
1070 2350 2855
1085 2424 2989
1087 2492 3117
1068 2553 3242
1035 2610 3366
539 1488 205
586 1557 520
681 1631 838
796 1720 1140
892 1827 1424
964 1938 1687
1019 2037 1920
1059 2118 2113
1090 2190 2280
1117 2259 2436
1141 2329 2587
1161 2400 2732
1174 2468 2870
1174 2533 3000
1153 2592 3127
1103 2646 3253
1029 2695 3379
627 1743 239
660 1799 553
747 1860 869
870 1934 1174
977 2027 1461
1055 2132 1732
1119 2230 1978
1166 2310 2185
1201 2373 2352
1228 2429 2497
1250 2483 2632
1264 2541 2765
1265 2597 2893
1249 2651 3019
1207 2701 3143
1120 2747 3271
1001 2792 3401
730 1993 268
743 2038 574
807 2087 880
926 2145 1185
1040 2223 1477
1124 2317 1751
1191 2413 2010
1245 2497 2239
1287 2559 2422
1315 2608 2567
1335 2650 2692
1343 2693 2811
1337 2736 2929
1306 2779 3048
1238 2820 3170
1112 2858 3299
929 2901 3438
834 2237 287
828 2271 579
866 2310 872
966 2355 1172
1085 2416 1469
1175 2496 1748
1238 2587 2015
1291 2671 2263
1333 2738 2472
1364 2786 2633
1382 2820 2758
1386 2852 2869
1367 2884 2979
1318 2917 3092
1217 2950 3213
1029 2985 3345
760 3031 3493
937 2477 301
924 2504 572
936 2535 849
1007 2570 1141
1118 2616 1442
1216 2679 1728
1276 2757 1998
1317 2837 2257
1349 2905 2490
1373 2955 2678
1386 2990 2819
1381 3016 2934
1349 3040 3040
1271 3065 3151
1122 3093 3272
863 3125 3402
468 3183 3562
1041 2716 317
1030 2739 554
1027 2763 813
1060 2792 1095
1148 2826 1395
1249 2871 1691
1311 2932 1967
1338 3002 2229
1348 3067 2476
1350 3121 2692
1340 3158 2864
1317 3185 2996
1253 3207 3112
1126 3230 3227
910 3252 3345
585 3280 3468
248 3288 3564
1139 2959 325
1136 2981 519
1125 3002 760
1131 3025 1037
1178 3051 1332
1266 3083 1634
1330 3125 1919
1348 3182 2183
1325 3240 2436
1286 3295 2673
1227 3338 2879
1153 3369 3047
1037 3391 3184
845 3410 3311
562 3433 3438
277 3442 3538
219 3355 3527
1192 3224 313
1194 3246 469
1188 3265 689
1175 3283 965
1187 3303 1258
1237 3325 1557
1293 3353 1849
1306 3392 2118
1261 3441 2375
1172 3494 2627
1042 3543 2866
889 3581 3074
700 3604 3247
413 3641 3416
279 3601 3493
241 3536 3518
218 3494 3544
1208 3503 285
1208 3526 418
1203 3544 627
1187 3559 903
1175 3573 1198
1189 3589 1494
1221 3606 1785
1230 3631 2061
1173 3668 2320
1050 3719 2581
843 3777 2845
568 3833 3097
317 3855 3299
278 3785 3390
251 3728 3468
239 3700 3542
233 3691 3610
1185 3795 246
1177 3815 379
1166 3832 588
1151 3845 864
1127 3856 1164
1112 3867 1455
1119 3877 1742
1121 3890 2018
1063 3917 2278
925 3962 2543
654 4033 2829
330 4088 3093
280 4005 3213
256 3943 3340
250 3916 3472
251 3914 3593
252 3922 3703
307 34 20
328 74 120
379 159 280
433 319 499
467 511 747
474 704 998
464 883 1247
453 1048 1495
447 1204 1741
449 1351 1981
463 1492 2209
500 1624 2419
562 1747 2609
647 1862 2780
745 1971 2933
849 2075 3073
955 2177 3207
428 180 42
434 223 164
458 316 343
491 472 576
514 655 833
520 837 1087
515 1008 1340
512 1168 1590
517 1317 1834
525 1460 2070
546 1596 2291
588 1723 2493
650 1839 2674
727 1948 2836
814 2052 2983
904 2150 3118
