nova/tdt-studio/app/Lut_mau/Buttery LUTs/BMPCC4K_6K_Tobacco.cube
TITLE "Generated by Resolve"
LUT_3D_SIZE 33
0 0 0
0 0 0
0 0 0
0 0 0
0 0 0
0.00613413 0 0
0.0168154 0 0
0.0658579 0 0
0.112215 0 0
0.152697 0 0
0.193347 0 0
0.236957 0 0
0.28394 0 0
0.335088 0 0
0.38735 0 0
0.442344 0 0
0.498451 0 0
0.549432 0 0
0.597711 0 0
0.642557 0 0
0.68481 0 0
0.72604 0 0
0.765881 0 0
0.804074 0 0
0.844938 0 0
0.882902 0 0
0.917952 0 0
0.952575 0 0
0.984085 0 0
1 0 0
1 0 0
1 0 0
1 0 0
0 0 0
0 0 0
0 0 0
0 0 0
0 0 0
0.00943008 0 0
0.0328985 0 0
0.0837415 0 0
0.126223 0 0
0.167224 0 0
0.208377 0 0
0.253559 0 0
0.30251 0 0
0.354025 0 0
0.407279 0 0
0.46453 0 0
0.518334 0 0
0.568933 0 0
0.617319 0 0
0.661082 0 0
0.703151 0 0
0.74377 0 0
0.783169 0 0
0.822477 0 0
0.863722 0 0
0.899779 0 0
0.934173 0 0
0.969192 0 0
0.992126 0 0
1 0 0
1 0 0
1 0 0
1 0 0
0 0 0
0 0 0
0 0 0
0 0 0
0.00146487 0 0
0.0109102 0 0
0.0434119 0 0
0.0929732 0 0
0.133349 0 0
0.173739 0 0
0.214847 0 0
0.257664 0 0
0.305592 0 0
0.356649 0 0
0.410437 0 0
0.468254 0 0
0.521553 0 0
0.572305 0 0
0.621256 0 0
0.668482 0 0
0.713024 0 0
0.754574 0 0
0.793957 0 0
0.832502 0 0
0.86949 0 0
0.904448 0 0
0.93904 0 0
0.973312 0 0
0.997574 0 0
1 0 0
1 0 0
1 0 0
1 0 0
0 0 0
0 0 0
0 0 0
0 0 0
0.00320439 0 0
0.0120699 0 0
0.0503395 0 0
0.0959335 0 0
0.139376 0 0
0.179828 0 0
0.220325 0 0
0.262043 0 0
0.309438 0 0
0.360571 0 0
0.416785 0 0
0.475914 0 0
0.530648 0 0
0.58114 0 0
0.629389 0 0
0.675212 0 0
0.718563 0 0
0.75993 0 0
0.798672 0 0
0.835325 0 0
0.870436 0 0
0.904967 0 0
0.939193 0 0
0.971923 0 0
0.99646 0 0
1 0 0
1 0 0
1 0 0
1 0 0
0 0 0
0 0 0
0 0 0
0 0 0
0.004654 0.00077821 0
0.0132448 0.00129702 0
0.0539254 0.00146487 0
0.0973831 0.00161746 0
0.141878 0.00177005 0
0.181094 0.00178531 0
0.221195 0.00167849 0
0.264561 0.00135805 0
0.312352 0.000701915 0
0.364477 0.00015259 0
0.423819 0 0
0.482918 0 0
0.538003 0 0
0.58909 0 0
0.634165 0 0
0.677241 0 0
0.718929 0 0
0.758633 0 0
0.796735 0 0
0.832761 0 0
0.867399 0 0
0.901701 0 0
0.93547 0 0
0.969329 0 0
0.992432 0 0
1 0 0
1 0 0
1 0 0
1 0 0
0 0.0157168 0
0 0.0172885 0
0 0.0180056 0
0 0.0175784 0
0.00430304 0.0175937 0
0.0175174 0.0171511 0
0.0587778 0.0146792 0
0.0945602 0.01355 0
0.12932 0.0129091 0
0.167895 0.01178 0
0.215427 0.0100252 0
0.265827 0.00698863 0
0.317754 0.00334173 0
0.369833 4.57771e-05 0
0.425406 0 0
0.481041 0 0
0.534966 0 0
0.585199 0 0
0.630503 0 0
0.672786 0 0
0.713573 0 0
0.752697 0 0
0.78999 0 0
0.825422 0 0
0.860166 0 0
0.894102 0 0
0.928038 0 0
0.961166 0 0
0.991028 0 0
1 0 0
1 0 0
1 0 0
1 0 0
0 0.0416724 0
0 0.0447547 0
0 0.0457923 0
0 0.0457923 0
0.00251774 0.0464485 0
0.0178531 0.0467842 0
0.0513771 0.0471199 0
0.0890516 0.0453803 0
0.12755 0.0441596 0
0.16611 0.0436713 0
0.205615 0.043122 0
0.245396 0.0421759 0
0.289326 0.0406348 0
0.339757 0.0380865 0
0.395544 0.03505 0
0.454978 0.0309758 0
0.510353 0.0274662 0
0.560464 0.0241855 0
0.605859 0.0211032 0
0.647684 0.0184176 0
0.687572 0.0160678 0
0.725795 0.014023 0
0.762524 0.0122377 0
0.797726 0.0108186 0
0.832502 0.00955215 0
0.86659 0.00862135 0
0.90071 0.00793469 0
0.933974 0.00758373 0
0.966369 0.00729381 0
0.98967 0.00698863 0
0.99852 0.00709544 0
1 0.00733959 0
1 0.00775158 0
0 0.0801251 0
0 0.0828717 0
0 0.0834363 0
0 0.0834516 0
0 0.0833753 0
0.0150607 0.0850843 0
0.0424506 0.087068 0
0.0842908 0.0846265 0
0.124788 0.0825666 0
0.163165 0.0809339 0
0.197787 0.0805524 0
0.233204 0.0800946 0
0.27454 0.0789349 0
0.321218 0.0766766 0
0.373404 0.0732128 0
0.430411 0.0684367 0
0.486183 0.0635233 0
0.537575 0.0582589 0
0.58526 0.053193 0
0.62974 0.0486305 0
0.671275 0.04477 0
0.710719 0.0415045 0
0.747677 0.0391089 0
0.782834 0.0373541 0
0.817151 0.0359197 0
0.851011 0.0352636 0
0.884627 0.0346838 0
0.917601 0.0345617 0
0.950103 0.0344701 0
0.980987 0.0347448 0
1 0.0352178 0
1 0.0359045 0
1 0.03682 0
0 0.116808 0
0 0.119799 0
0 0.12108 0
0 0.121324 0
0 0.119738 0
0.0166629 0.121584 0
0.0408637 0.123751 0
0.0716564 0.124636 0
0.118349 0.119326 0
0.161379 0.115892 0
0.201297 0.11397 0
0.24033 0.11194 0
0.277577 0.111269 0
0.31812 0.110796 0
0.363317 0.109575 0
0.413062 0.107256 0
0.469978 0.103075 0
0.522316 0.097673 0
0.572519 0.0922103 0
0.619501 0.0869917 0
0.663325 0.082536 0
0.704295 0.0790112 0
0.742535 0.0764782 0
0.778637 0.0747082 0
0.813062 0.0737011 0
0.847135 0.0733349 0
0.880613 0.073579 0
0.913237 0.0739757 0
0.944976 0.0747234 0
0.976501 0.0755627 0
0.998413 0.0769207 0
1 0.0784314 0
1 0.0797284 0
0 0.152972 0
0 0.155581 0
0 0.156634 0
0 0.155795 0
0 0.153292 0
0.022858 0.152789 0
0.046128 0.154818 0
0.0704967 0.158648 0
0.105898 0.15761 0
0.153277 0.152422 0
0.200366 0.147539 0
0.241459 0.145541 0
0.286992 0.142809 0
0.329152 0.1411 0
0.370001 0.141039 0
0.41355 0.141405 0
0.462547 0.140291 0
0.510399 0.137728 0
0.558038 0.133562 0
0.605264 0.128817 0
0.651255 0.124056 0
0.695369 0.119677 0
0.736782 0.116289 0
0.775326 0.114031 0
0.812055 0.11252 0
0.847517 0.112016 0
0.881346 0.112291 0
0.914092 0.1131 0
0.94583 0.114153 0
0.977569 0.115511 0
0.99588 0.117174 0
1 0.118853 0
1 0.120836 0
0 0.188754 0
0 0.19057 0
0 0.191302 0
0 0.189502 0
0.00410468 0.186877 0
0.0263523 0.184604 0
0.050309 0.186572 0
0.0757 0.189883 0
0.100496 0.193469 0
0.141314 0.191012 0
0.190188 0.185794 0
0.241459 0.180072 0
0.28716 0.177279 0
0.335973 0.174411 0
0.382315 0.172686 0
0.426596 0.172671 0
0.469551 0.173648 0
0.512139 0.173663 0
0.554894 0.172213 0
0.597879 0.170001 0
0.640253 0.167239 0
0.681773 0.16434 0
0.722988 0.161257 0
0.763684 0.158389 0
0.803357 0.156191 0
0.841962 0.154818 0
0.878706 0.154208 0
0.913664 0.154452 0
0.946914 0.1552 0
0.980011 0.156558 0
0.996857 0.158206 0
1 0.160113 0
1 0.162234 0
0 0.223468 0
0 0.224872 0
0 0.225559 0
0 0.223362 0
0.00735485 0.220508 0
0.026978 0.217273 0
0.0544747 0.218692 0
0.0800946 0.222065 0
0.103899 0.226444 0
0.133059 0.228656 0
0.178698 0.22501 0
0.23093 0.219471 0
0.286534 0.213504 0
0.338079 0.210391 0
0.388617 0.20766 0
0.438254 0.206561 0
0.482582 0.206912 0
0.521965 0.208164 0
0.560327 0.209049 0
0.599619 0.209079 0
0.638392 0.208362 0
0.677058 0.207202 0
0.715312 0.206043 0
0.753399 0.204685 0
0.791516 0.203632 0
0.829633 0.202579 0
0.867201 0.201678 0
0.903792 0.201389 0
0.939452 0.201358 0
0.974441 0.201831 0
1 0.202655 0
1 0.204089 0
1 0.205661 0
0 0.257755 0
0 0.259144 0
0 0.259739 0
0 0.258076 0
0.00933852 0.255039 0
0.0272526 0.251148 0
0.0560616 0.25275 0
0.0837873 0.255543 0
0.109911 0.259174 0
0.132555 0.264668 0
0.167178 0.265827 0
0.218326 0.261219 0
0.276875 0.254734 0
0.336583 0.248631 0
0.390921 0.245289 0
0.445716 0.242878 0
0.492988 0.242252 0
0.53463 0.242969 0
0.572412 0.244572 0
0.608042 0.246143 0
0.643381 0.247501 0
0.678737 0.248432 0
0.714122 0.249119 0
0.749752 0.249546 0
0.785641 0.249729 0
0.821561 0.250111 0
0.857237 0.250263 0
0.892531 0.250401 0
0.927749 0.250309 0
0.96286 0.250584 0
0.99089 0.250904 0
1 0.251148 0
1 0.251987 0
0 0.294499 0
0 0.295949 0
0 0.296361 0
0 0.295048 0
0.0104677 0.290532 0
0.027863 0.287114 0
0.0544442 0.289738 0
0.0860609 0.291371 0
0.114595 0.294759 0
0.140108 0.299763 0
0.164263 0.305547 0
0.203693 0.305959 0
0.262028 0.299794 0
0.327016 0.292042 0
0.389517 0.286351 0
0.447272 0.283101 0
0.49955 0.281331 0
0.544854 0.280751 0
0.584817 0.281773 0
0.621149 0.283696 0
0.654597 0.28603 0
0.686976 0.288426 0
0.719402 0.290852 0
0.752117 0.293095 0
0.785504 0.294972 0
0.818647 0.296651 0
0.852018 0.297978 0
0.885084 0.299046 0
0.918303 0.299855 0
0.952178 0.300496 0
0.982269 0.300999 0
0.99823 0.301167 0
1 0.30135 0
0 0.332738 0
0 0.334493 0
0 0.335012 0
0 0.333928 0
0.00929274 0.328374 0
0.0263371 0.326452 0
0.0522774 0.329824 0
0.0848554 0.331609 0
0.117647 0.333654 0
0.147326 0.337362 0
0.171038 0.343999 0
0.19939 0.348943 0
0.242802 0.348714 0
0.308766 0.34136 0
0.381491 0.33257 0
0.444556 0.327611 0
0.500313 0.324926 0
0.549065 0.323171 0
0.594217 0.322301 0
0.633555 0.323186 0
0.668315 0.325032 0
0.700191 0.328038 0
0.730724 0.331395 0
0.760754 0.334844 0
0.791287 0.338308 0
0.821729 0.341329 0
0.852476 0.344076 0
0.88304 0.346502 0
0.913558 0.348348 0
0.945022 0.349889 0
0.977081 0.351064 0
0.995621 0.351904 0
1 0.352483 0
0 0.372595 0
0 0.374533 0
0 0.374899 0
0.000656138 0.373663 0
0.00624094 0.367422 0
0.0243534 0.367758 0
0.0514076 0.371328 0
0.0833295 0.373816 0
0.117769 0.375708 0
0.15108 0.378317 0
0.181247 0.382452 0
0.204517 0.390188 0
0.237354 0.393942 0
0.286931 0.393057 0
0.359213 0.384924 0
0.43653 0.375433 0
0.498451 0.370886 0
0.548806 0.368536 0
0.59585 0.366674 0
0.639582 0.365591 0
0.679316 0.365942 0
0.714229 0.367834 0
0.745434 0.370977 0
0.774365 0.374868 0
0.802686 0.379187 0
0.830472 0.383413 0
0.858488 0.387259 0
0.886839 0.390982 0
0.91458 0.393851 0
0.943954 0.396658 0
0.973968 0.398871 0
0.995941 0.400885 0
1 0.402335 0
0 0.414282 0
0 0.416663 0
0 0.417334 0
0.000595102 0.415427 0
0.00242618 0.408911 0
0.0234836 0.411276 0
0.0514687 0.415106 0
0.0825513 0.418524 0
0.117556 0.420706 0
0.153933 0.422766 0
0.187747 0.426139 0
0.217151 0.431724 0
0.241337 0.44007 0
0.282032 0.442634 0
0.337957 0.440162 0
0.413001 0.430823 0
0.490654 0.419608 0
0.548272 0.414618 0
0.595071 0.41294 0
0.639277 0.411292 0
0.681224 0.410117 0
0.720928 0.409995 0
0.757153 0.41149 0
0.789609 0.414374 0
0.818341 0.418189 0
0.844816 0.422797 0
0.870405 0.427604 0
0.896147 0.432227 0
0.92137 0.436301 0
0.948516 0.440085 0
0.976287 0.443519 0
1 0.446418 0
1 0.449226 0
0 0.459632 0
0 0.462119 0
0 0.462516 0
0 0.459663 0
0 0.452613 0
0.0246281 0.457069 0
0.0525521 0.461311 0
0.0835584 0.464927 0
0.118456 0.467643 0
0.156191 0.469535 0
0.193606 0.47187 0
0.227085 0.475868 0
0.254368 0.482841 0
0.284581 0.489647 0
0.33109 0.490745 0
0.391012 0.486824 0
0.465705 0.477424 0
0.539818 0.46685 0
0.59469 0.46157 0
0.638682 0.459754 0
0.680583 0.458503 0
0.720562 0.457328 0
0.75935 0.457008 0
0.796613 0.457893 0
0.830671 0.460105 0
0.860639 0.463172 0
0.887144 0.467338 0
0.911376 0.472419 0
0.93492 0.477791 0
0.959564 0.482795 0
0.98352 0.487373 0
1 0.491493 0
1 0.495216 0
0 0.506142 0
0 0.508461 0
0 0.50901 0
0 0.504738 0
0.00343328 0.499504 0
0.0276036 0.503288 0
0.054963 0.507576 0
0.0857862 0.511635 0
0.120607 0.514366 0
0.158373 0.516258 0
0.198428 0.517617 0
0.235233 0.520165 0
0.267567 0.524834 0
0.296315 0.532158 0
0.331655 0.536721 0
0.381186 0.536522 0
0.445274 0.531502 0
0.518181 0.521874 0
0.58613 0.511833 0
0.63827 0.506645 0
0.679881 0.505028 0
0.71989 0.504097 0
0.758724 0.503349 0
0.796399 0.503471 0
0.832792 0.504326 0
0.86688 0.506325 0
0.898787 0.509026 0
0.926787 0.512612 0
0.952544 0.517143 0
0.976715 0.522499 0
0.993988 0.528283 0
1 0.533822 0
1 0.538933 0.000137331
0 0.551476 0
0 0.553353 0
0 0.553887 0
0 0.548745 0
0.0074464 0.545037 0
0.0317845 0.548119 0
0.0583963 0.552789 0
0.0891127 0.556741 0
0.123812 0.559564 0
0.161181 0.56141 0
0.20174 0.562524 0
0.241993 0.563638 0
0.278614 0.566567 0
0.310674 0.572305 0
0.340185 0.578958 0
0.379202 0.581842 0
0.433082 0.580545 0
0.497398 0.574487 0
0.566949 0.564218 0
0.629923 0.554925 0
0.679011 0.550027 0
0.719402 0.548943 0
0.758221 0.548379 0
0.796323 0.548394 0
0.832471 0.548867 0
0.86717 0.550118 0
0.900572 0.551751 0
0.931762 0.554299 0
0.960922 0.557427 0
0.987228 0.561044 0
0.998398 0.565988 0
1 0.572076 0.00106813
1 0.578302 0.00660716
0 0.59649 0
0 0.598093 0
0 0.598337 0
0 0.592126 0
0.0113222 0.589395 0
0.0356146 0.591974 0
0.0618296 0.597009 0
0.0928206 0.600397 0
0.12726 0.602991 0
0.164385 0.60499 0
0.204623 0.606012 0
0.246586 0.606378 0
0.287831 0.607645 0
0.323796 0.611368 0
0.353872 0.61738 0
0.384985 0.622461 0
0.428992 0.623774 0
0.484657 0.621469 0
0.546639 0.614816 0
0.612024 0.605386 0
0.671489 0.596979 0
0.718807 0.592828 0
0.758297 0.592081 0
0.795972 0.592004 0
0.831861 0.592432 0
0.865705 0.593103 0
0.897414 0.594232 0
0.926513 0.595636 0
0.953109 0.597925 0
0.977111 0.60058 0
0.993545 0.603723 0
0.996078 0.60911 0.0327611
0.997971 0.615808 0.0748608
0 0.639292 0
0 0.640085 0
0 0.639582 0
0 0.633082 0
0.0150149 0.631861 0
0.0393378 0.634211 0
0.0658579 0.638819 0
0.0968338 0.641947 0
0.13109 0.644251 0
0.168276 0.645945 0
0.208194 0.646815 0
0.250065 0.646998 0
0.295506 0.646891 0
0.3355 0.648692 0
0.368215 0.653239 0
0.397284 0.658793 0
0.43299 0.66247 0
0.480659 0.662882 0
0.533013 0.660182 0
0.592676 0.653284 0
0.655863 0.643656 0
0.712276 0.635966 0
0.757397 0.63241 0
0.794537 0.631739 0
0.828367 0.631388 0
0.859327 0.631586 0
0.887587 0.632013 0
0.91249 0.632563 0.00105287
0.93286 0.632364 0.0103304
0.950454 0.633051 0.0235142
0.966995 0.636194 0.0509804
0.98172 0.641932 0.0854353
0.994949 0.648615 0.118624
0 0.679271 0
0 0.679622 0
0 0.67776 0
0 0.670985 0
0.0188449 0.670466 0
0.0436103 0.672816 0
0.0706493 0.677058 0
0.101122 0.680156 0
0.135485 0.682445 0
0.172763 0.684001 0
0.212589 0.684932 0
0.253941 0.685161 0
0.301411 0.684489 0
0.346227 0.684855 0
0.382422 0.687861 0
0.412711 0.693049 0
0.444297 0.698177 0
0.483513 0.70045 0
0.529046 0.69987 0
0.57966 0.696056 0
0.638437 0.687449 0
0.699336 0.67689 0
0.750439 0.669429 0
0.789319 0.665888 0
0.819821 0.664149 0.00109865
0.84564 0.661707 0.00537118
0.868879 0.659876 0.0106355
0.892424 0.660822 0.0323644
0.914794 0.662791 0.0545357
0.936202 0.665446 0.0745861
0.957458 0.668925 0.0910201
0.977951 0.672648 0.107286
0.994888 0.677394 0.124697
0 0.717693 0
0 0.717586 0
0 0.714321 0
0 0.707591 0
0.0229801 0.708064 0
0.0487984 0.710491 0
0.0768444 0.71429 0
0.106401 0.717586 0
0.140917 0.719814 0
0.178439 0.72134 0
0.21825 0.722377 0
0.260227 0.72256 0
0.307012 0.722179 0
0.355581 0.721172 0
0.396582 0.722271 0
0.430564 0.726146 0
0.46186 0.730648 0
0.49572 0.733455 0
0.535653 0.732723 0
0.580911 0.729046 0
0.629923 0.722805 0
0.68777 0.710475 0
0.739498 0.698238 0.00207523
0.777569 0.690822 0.00665293
0.809018 0.689677 0.0306401
0.836423 0.690242 0.0510872
0.862089 0.691524 0.06804
0.886961 0.693507 0.0802319
0.911147 0.695796 0.090486
0.934783 0.698207 0.09897
0.958083 0.700999 0.106813
0.981903 0.704189 0.113909
0.996277 0.707118 0.117144
0 0.755123 0
0 0.754788 0
0 0.750317 0
0.00375372 0.744869 0
0.0283055 0.744884 0
0.0560311 0.747723 0
0.0848096 0.751308 0
0.113695 0.75491 0
0.148165 0.757137 0
0.185809 0.758785 0
0.22536 0.759579 0
0.26862 0.759457 0
0.316732 0.758297 0
0.36788 0.756207 0
0.416907 0.753735 0
0.457359 0.754116 0
0.488655 0.756542 0
0.519402 0.757778 0
0.554696 0.754971 0
0.593637 0.749187 0
0.635493 0.742 0.000534066
0.682521 0.734737 0.0125734
0.736248 0.725826 0.0383917
0.776593 0.721904 0.0612345
0.8094 0.721263 0.0764477
0.83801 0.722148 0.0869306
0.864332 0.723918 0.0941024
0.88983 0.726177 0.0998398
0.914794 0.728374 0.103304
0.940642 0.730922 0.100694
0.96936 0.733471 0.0889754
0.994202 0.735851 0.064622
1 0.738293 0.0239261
0 0.792203 0
0 0.791897 0
0 0.786267 0
0.00860609 0.781994 0
0.035584 0.781949 0
0.0657359 0.785 0
0.0943465 0.788617 0
0.123323 0.792203 0
0.158373 0.794095 0
0.198032 0.794659 0
0.240314 0.793896 0
0.287633 0.791852 0
0.33962 0.788342 0
0.393133 0.78352 0
0.446479 0.778225 0
0.491112 0.773526 0.00337224
0.525704 0.769406 0.0031281
0.554345 0.767849 0.00274662
0.580362 0.769177 0
0.609781 0.768643 0
0.645441 0.767269 0.00531014
0.685496 0.765209 0.0289158
0.730953 0.760937 0.0561379
0.778088 0.75552 0.0804456
0.813321 0.75407 0.0928969
0.843137 0.754864 0.0976425
0.871397 0.756939 0.0930648
0.900053 0.760021 0.0773938
0.931334 0.763455 0.0455634
0.96611 0.7673 0.00323491
0.995865 0.773816 0.00120546
1 0.777401 0
1 0.778088 0
0 0.829541 0
0 0.828779 0
0 0.821942 0
0.0151217 0.818692 0
0.0460212 0.818708 0
0.0791333 0.820829 0
0.108202 0.823728 0
0.141848 0.825208 0
0.181537 0.824704 0
0.225208 0.82269 0
0.272709 0.818723 0
0.325536 0.813107 0
0.379156 0.805844 0.00679026
0.431449 0.797467 0.0170291
0.482841 0.790478 0.0268406
0.526436 0.787045 0.0415351
0.560082 0.78584 0.045182
0.582177 0.78851 0.0273899
0.603952 0.791836 0.0218357
0.628153 0.794766 0.0206149
0.656382 0.796536 0.0246128
0.690089 0.79733 0.0330663
0.727535 0.796826 0.0488136
0.769467 0.79472 0.057847
0.811643 0.793271 0.0522164
0.850828 0.794751 0.0254368
0.888212 0.799878 0.000549325
0.925155 0.806012 0.000122072
0.957397 0.808927 0
0.987839 0.809796 0
0.99855 0.80972 0
1 0.809506 0
1 0.80911 0
0 0.865995 0
0 0.86334 0
0 0.85388 0
0.030808 0.851072 0
0.0685588 0.850187 0
0.103487 0.850553 0
0.137453 0.850813 0
0.178103 0.848356 0
0.223865 0.843961 0
