nova/tdt-studio/app/Lut_mau/Buttery LUTs/BMPCC4K_6K_Tobacco.cube
TITLE "Generated by Resolve"
LUT_3D_SIZE 9
0 0 0
0 0 0
0.112215 0 0
0.28394 0 0
0.498451 0 0
0.68481 0 0
0.844938 0 0
0.984085 0 0
1 0 0
0 0 0
0.004654 0.00077821 0
0.141878 0.00177005 0
0.312352 0.000701915 0
0.538003 0 0
0.718929 0 0
0.867399 0 0
0.992432 0 0
1 0 0
0 0.116808 0
0 0.119738 0
0.118349 0.119326 0
0.277577 0.111269 0
0.469978 0.103075 0
0.663325 0.082536 0
0.813062 0.0737011 0
0.944976 0.0747234 0
1 0.0797284 0
0 0.257755 0
0.00933852 0.255039 0
0.109911 0.259174 0
0.276875 0.254734 0
0.492988 0.242252 0
0.643381 0.247501 0
0.785641 0.249729 0
0.927749 0.250309 0
1 0.251987 0
0 0.414282 0
0.00242618 0.408911 0
0.117556 0.420706 0
0.241337 0.44007 0
0.490654 0.419608 0
0.681224 0.410117 0
0.818341 0.418189 0
0.92137 0.436301 0
1 0.449226 0
0 0.59649 0
0.0113222 0.589395 0
0.12726 0.602991 0
0.287831 0.607645 0
0.428992 0.623774 0
0.671489 0.596979 0
0.831861 0.592432 0
0.953109 0.597925 0
0.997971 0.615808 0.0748608
0 0.755123 0
0.0283055 0.744884 0
0.148165 0.757137 0
0.316732 0.758297 0
0.488655 0.756542 0
0.635493 0.742 0.000534066
0.8094 0.721263 0.0764477
0.914794 0.728374 0.103304
1 0.738293 0.0239261
0 0.896681 0
0.109239 0.871672 0
0.274342 0.851865 0.0421454
0.458289 0.842084 0.0944228
0.595483 0.842985 0.0896315
0.649287 0.891142 0
0.7841 0.895842 0
0.958938 0.870665 0
1 0.866499 0
0.153918 0.937667 0.0922866
0.223362 0.961639 0.0885176
0.255039 0.999878 0
0.403555 0.998276 0
0.578759 0.999313 0
0.692454 0.995758 0
0.782925 0.998352 0
0.915938 0.989776 0
1 0.967422 0
0 0 0.00132753
0 0 0.00151064
0.127413 0 0.00134279
0.308324 0 0.00146487
0.526757 0 0
0.712795 0 0
0.874083 0 0
0.996765 0 0
1 0 0
0 0 0.000823987
0.00798047 0.00129702 0.00102235
0.156527 0.00172427 0
0.338308 0.000503548 0
0.566171 0 0
0.744503 0 0
0.890806 0 0
0.999023 0 0
1 0 0
0 0.11696 0
0.00665293 0.11809 0
0.134722 0.115831 0
0.285481 0.111589 0.000457771
0.499626 0.0948348 0
0.673182 0.080766 0
0.817227 0.0755627 0
0.949493 0.0768902 0
1 0.0821088 0
0 0.257237 0
0.016083 0.251774 0
0.125872 0.256657 0
0.298466 0.250584 0
0.49723 0.246433 0.000411994
0.660349 0.24625 0
0.816495 0.240116 0
0.956573 0.241169 0
1 0.248646 0
0 0.414939 0
0.00920119 0.408148 0
0.130831 0.420874 0
0.268833 0.434516 0
0.510918 0.4168 0
0.689357 0.411795 0
0.80911 0.425864 0.0129091
0.925719 0.437263 0.0396429
1 0.440589 0.0478828
0 0.597284 0
0.022385 0.589487 0
0.140993 0.602792 0
0.309041 0.604776 0
0.457435 0.61735 0
0.687373 0.591455 0.00376898
0.836378 0.588937 0.00857557
0.937453 0.598047 0.0676585
0.9935 0.626902 0.186938
0 0.753964 0
0.0398108 0.744137 0
0.161868 0.756146 0
0.334432 0.75314 0.0075227
0.520806 0.739391 0.0173037
0.658091 0.736324 0.0536812
0.821317 0.724269 0.136507
0.926085 0.73286 0.147219
1 0.740444 0.0682994
1.5259e-05 0.885618 0
0.129595 0.859037 0.045594
0.30367 0.848692 0.125689
0.47892 0.843519 0.150454
0.60296 0.849531 0.132509
0.663554 0.884474 0.0009308
0.797635 0.883085 0.00239567
0.9608 0.861479 0.0269474
1 0.858549 0.0347753
0.167208 0.940673 0.151995
0.203479 0.976074 0.118212
0.255055 0.997772 0.0369726
0.409537 0.99826 0.044419
0.581445 0.989425 0.038819
0.71165 0.983078 0.0197604
0.79559 0.990372 0
0.927825 0.981262 0.00767529
1 0.960266 0.0454566
0 0 0.0409857
0.00415045 0 0.0427863
0.142916 0 0.0501411
0.325841 0 0.0589151
0.542916 0 0.0491188
0.728237 0 0.0290684
0.891112 0 0.0128786
0.999664 0 0.0130922
1 0 0.0128939
0 0 0.0551308
0.0132143 0.00111391 0.0707866
0.176684 0.00123598 0.0809339
0.368322 0 0.0787213
0.594781 0 0.0711986
0.76997 0 0.0610513
0.91487 0 0.0585489
1 0 0.0585184
1 0 0.0608377
0 0.114031 0.04654
0.0180972 0.112993 0.0508278
0.143572 0.11104 0.0601663
0.306523 0.103166 0.0628214
0.508949 0.0886702 0.0575113
0.681651 0.0757 0.0525826
0.828473 0.0702068 0.0534981
0.962539 0.0719921 0.0601511
1 0.076524 0.0696422
0 0.251423 0.0381933
0.0218509 0.241642 0.0500038
0.143969 0.247211 0.0619211
0.311833 0.243626 0.0691081
0.509667 0.242176 0.084123
0.687663 0.230945 0.0719463
0.829313 0.232151 0.0820172
0.957 0.240467 0.097322
1 0.249851 0.11249
0 0.407904 0.0336309
0.0195926 0.400839 0.0398108
0.14226 0.414008 0.0567025
0.295338 0.420829 0.0413062
0.525368 0.409476 0.071046
0.678645 0.417182 0.121584
0.816968 0.426246 0.141344
0.954757 0.425025 0.133104
1 0.425116 0.132525
0 0.5879 0.0268406
0.0310063 0.580438 0.0379034
0.151827 0.595117 0.0613413
0.3234 0.596994 0.07364
0.485527 0.603204 0.0261845
0.696941 0.585138 0.0795758
0.840375 0.586694 0.101732
0.928588 0.610788 0.19205
0.994034 0.636667 0.254124
0 0.744137 0.0331579
0.0504311 0.735622 0.0461128
0.173144 0.748012 0.0731518
0.353841 0.745098 0.0973373
0.547768 0.733959 0.103441
0.684169 0.734554 0.127428
0.833585 0.728054 0.187152
0.941176 0.736721 0.181415
1 0.742565 0.15053
0.00132753 0.862898 0.0773327
0.159854 0.854215 0.143023
0.334203 0.84773 0.184695
0.499306 0.845487 0.198505
0.603326 0.858656 0.169146
0.680522 0.877577 0.0489052
0.817044 0.874662 0.0734112
0.968261 0.8589 0.125292
1 0.856214 0.129702
0.177111 0.945571 0.19939
0.182513 0.989044 0.159976
0.265492 0.996323 0.142016
0.424903 0.998932 0.146395
0.593133 0.985504 0.140795
0.72784 0.976684 0.115999
0.808438 0.984817 0.036347
0.944823 0.973754 0.103014
1 0.957687 0.139956
0 0 0.184588
0.00790417 0 0.186755
0.157259 0 0.18294
0.339986 0 0.183505
0.556939 0 0.170733
0.740627 0 0.155856
0.897627 0 0.15082
1 0 0.146334
1 0 0.142947
0 0 0.190707
0.0308843 0.00062562 0.19704
0.192142 0.00077821 0.199313
0.388342 0 0.19884
0.609461 0 0.190814
0.780987 0 0.181476
0.924666 0 0.177569
1 0 0.1776
1 0 0.180819
0 0.111147 0.156909
0.0285496 0.108934 0.154177
0.160708 0.107607 0.155032
0.334096 0.097734 0.149767
0.541909 0.0816815 0.140063
0.713191 0.0688182 0.134356
0.859098 0.0641642 0.136278
0.987243 0.0665141 0.143938
1 0.0713359 0.154162
0 0.248432 0.137163
0.0350958 0.240986 0.134447
0.159869 0.247196 0.142458
0.331075 0.244099 0.15172
0.533501 0.237201 0.14905
0.696971 0.232639 0.150301
0.839673 0.235859 0.158648
0.968841 0.243885 0.171328
1 0.252689 0.185092
0 0.406241 0.113237
0.0352178 0.401984 0.117891
0.160601 0.415457 0.134432
0.323827 0.419806 0.118853
0.542779 0.411948 0.149203
0.693431 0.423316 0.193484
0.843961 0.42118 0.186603
0.975067 0.4206 0.186343
1 0.426474 0.199008
0 0.587121 0.106233
0.0465858 0.582422 0.116487
0.171527 0.596521 0.13637
0.346899 0.597757 0.144808
0.51194 0.602411 0.102403
0.713237 0.58674 0.151186
0.843885 0.592309 0.191104
0.928893 0.622126 0.275715
0.997223 0.642634 0.32253
0 0.740917 0.114107
0.0693065 0.736233 0.126146
0.193698 0.748623 0.149081
0.383978 0.743145 0.17142
0.57319 0.732082 0.179294
0.710567 0.731563 0.213687
0.844633 0.730343 0.256718
0.958679 0.738964 0.228428
1 0.750683 0.23624
0.0344854 0.85565 0.155032
0.194156 0.850828 0.21619
0.360174 0.846967 0.252628
0.513909 0.847608 0.260349
0.602152 0.867124 0.207965
0.698299 0.875273 0.121965
0.838743 0.870344 0.159258
0.977874 0.858595 0.195743
1 0.855909 0.1991
0.176822 0.95285 0.251667
0.176761 0.991989 0.206577
0.28275 0.996506 0.215259
0.444465 0.996933 0.219303
0.60763 0.983795 0.214267
0.743481 0.973724 0.195529
0.824002 0.981048 0.117388
0.963165 0.968444 0.189212
1 0.956664 0.213428
0 0 0.324987
0.0108644 0 0.327718
0.174716 0 0.320592
0.355779 0 0.312261
0.57203 0 0.297139
0.756939 0 0.287068
0.907042 0 0.280751
1 0 0.275471
1 0 0.272541
0 0 0.333577
0.051194 0.000228885 0.337469
0.20882 0.000213626 0.336767
0.408835 0 0.334981
0.623392 0 0.322286
0.791745 0 0.310811
0.933486 0 0.306493
1 0 0.306981
1 0 0.31107
0 0.107271 0.280659
0.0389105 0.104219 0.271
0.173785 0.103441 0.271885
0.352255 0.0928817 0.265385
0.559487 0.0767681 0.254841
0.730251 0.0644541 0.24831
0.876051 0.0605936 0.249912
0.999008 0.0629587 0.257176
1 0.0674449 0.267567
0 0.244053 0.249256
0.0460059 0.239017 0.246357
0.17615 0.244236 0.254704
0.35555 0.240085 0.253971
0.557122 0.232715 0.25008
0.723278 0.228153 0.250004
0.867506 0.231128 0.25864
0.993988 0.238712 0.270939
1 0.246723 0.284001
0 0.402914 0.220661
0.0495613 0.401495 0.223499
0.178149 0.414572 0.238422
0.354116 0.416907 0.237507
0.55259 0.415625 0.26659
0.719524 0.413779 0.266026
0.859541 0.412924 0.269001
0.980682 0.420203 0.28336
1 0.429221 0.298802
0 0.583734 0.208026
0.0614786 0.583047 0.215824
0.189731 0.596323 0.234073
0.368673 0.596765 0.241764
0.542794 0.597498 0.213947
0.727169 0.586786 0.247959
0.843839 0.607935 0.323217
0.936629 0.627634 0.371908
1 0.635325 0.391455
0 0.735119 0.20531
0.0846418 0.737179 0.218173
0.21561 0.747265 0.242405
0.414725 0.7393 0.265797
0.596475 0.728191 0.278782
0.733013 0.728664 0.320424
0.855253 0.731441 0.347677
0.973373 0.740551 0.307591
1 0.760967 0.357565
0.0725872 0.848219 0.249607
0.223651 0.846693 0.31194
0.381506 0.845747 0.344396
0.517937 0.851423 0.341741
0.606088 0.870527 0.278492
0.717678 0.871412 0.211887
0.859434 0.86569 0.252033
0.987045 0.85745 0.275822
1 0.855344 0.283803
0.163546 0.962463 0.313817
0.180728 0.993179 0.278538
0.299779 0.996796 0.292042
0.463905 0.993851 0.294377
0.621637 0.98201 0.289204
0.75845 0.971008 0.275166
0.838575 0.977584 0.197864
0.98175 0.963241 0.273747
1 0.955917 0.289357
0 0 0.50132
0.0166781 0 0.504463
0.189654 0 0.494667
0.37116 0 0.482322
0.587137 0 0.465766
0.769802 0 0.457282
0.91519 0 0.447349
1 0 0.438941
1 0 0.433555
0 0 0.514412
0.0695048 0 0.513512
0.226764 0 0.517983
0.427939 0 0.511543
0.637003 0 0.495689
0.801633 0 0.483162
0.941894 0 0.477409
1 0 0.476265
1 0 0.479652
0 0.10132 0.446677
0.0497292 0.0982528 0.433997
0.186069 0.0972915 0.432959
0.368383 0.0864576 0.423117
0.5738 0.0708476 0.410742
0.741741 0.0596017 0.40412
0.886442 0.0571756 0.4056
0.999969 0.0600443 0.412909
1 0.0651865 0.423438
0 0.237522 0.402396
0.0554971 0.23508 0.398825
0.189715 0.240101 0.407034
0.37499 0.235386 0.405081
0.57789 0.227405 0.400458
0.74406 0.222904 0.399573
0.88864 0.226123 0.406088
1 0.233173 0.416541
1 0.240696 0.428199
0 0.39765 0.363516
0.0613565 0.399466 0.367788
0.194629 0.411536 0.384497
0.378439 0.412222 0.386267
0.575662 0.407782 0.392218
0.735866 0.405158 0.393622
0.875151 0.409049 0.402655
0.994049 0.416464 0.415351
1 0.424811 0.429541
0 0.575586 0.338293
0.075349 0.58146 0.351019
0.206088 0.593774 0.37113
0.388861 0.593637 0.37734
0.570871 0.591943 0.362722
0.730007 0.590387 0.40824
0.859113 0.605173 0.436454
0.949004 0.611902 0.455772
1 0.624109 0.478828
0 0.727413 0.325048
0.0969558 0.736248 0.346242
0.237339 0.743679 0.373617
0.446876 0.733333 0.398306
0.619562 0.724422 0.414481
0.749447 0.726268 0.43827
0.865217 0.734127 0.455268
0.979278 0.755505 0.463752
1 0.762875 0.479149
0.106249 0.841093 0.374441
0.248707 0.842863 0.429541
0.399298 0.844129 0.452659
0.510796 0.857511 0.435233
0.614145 0.86894 0.392874
0.735668 0.865293 0.33373
0.877165 0.858839 0.381857
0.989822 0.854139 0.396124
1 0.85658 0.419196
0.138628 0.973465 0.398825
0.190036 0.992462 0.393423
0.314504 0.996841 0.409796
0.479988 0.988983 0.410071
0.633249 0.977737 0.403616
0.770275 0.966323 0.394553
0.853391 0.971283 0.310735
0.99469 0.956497 0.397864
1 0.953216 0.403861
0 0 0.652628
0.038529 0 0.657908
0.202838 0 0.649653
0.386603 0 0.639506
0.604913 0 0.629404
0.780789 0 0.622293
0.924056 0 0.6159
1 0 0.611521
1 0 0.609918
0 0 0.670405
0.0851911 0 0.665583
0.244205 0 0.67245
0.446555 0 0.663767
0.650629 0 0.650416
0.812039 0 0.640681
0.9514 0 0.637293
1 0 0.638498
1 0 0.644007
0 0.0939193 0.601328
0.0605325 0.092134 0.587976
0.1991 0.0909743 0.584161
0.38529 0.0795911 0.574777
0.588861 0.0648203 0.565148
0.753628 0.054551 0.560464
0.897658 0.0532387 0.563226
0.99968 0.0567788 0.571252
1 0.0625467 0.581933
0 0.230915 0.560174
0.0668345 0.230411 0.55462
0.204395 0.235279 0.558984
0.394278 0.230655 0.555505
0.593591 0.223301 0.550683
0.75639 0.219776 0.549798
0.899626 0.223774 0.556283
1 0.231052 0.566323
1 0.238529 0.577249
0 0.388861 0.521385
0.0719768 0.396994 0.526497
0.210529 0.40798 0.536873
0.400259 0.407401 0.538216
0.59556 0.402548 0.537179
0.756481 0.399603 0.537881
0.897383 0.40325 0.545159
1 0.41001 0.555749
1 0.419089 0.566201
0 0.566125 0.492592
0.0873579 0.57879 0.506981
0.222263 0.590265 0.521675
0.407858 0.589593 0.524468
0.593225 0.585718 0.52015
0.746059 0.584405 0.529732
0.862135 0.59324 0.541268
0.948318 0.609613 0.558724
1 0.625376 0.575082
0.00802625 0.722103 0.478172
0.10985 0.7337 0.49955
0.261997 0.738277 0.5178
0.476478 0.727413 0.526268
0.63798 0.721721 0.530907
0.76434 0.725017 0.545815
0.871794 0.741466 0.572213
0.988983 0.751263 0.572869
1 0.738857 0.553277
0.13344 0.835233 0.510704
0.271366 0.839506 0.541314
0.413901 0.843336 0.553048
0.497658 0.863645 0.539147
0.625071 0.864378 0.524269
0.755123 0.857282 0.490944
0.890913 0.852033 0.519463
0.994812 0.853422 0.530449
1 0.868147 0.584634
0.118044 0.980102 0.51722
0.200381 0.990982 0.531289
0.328298 0.99527 0.542092
0.495094 0.98378 0.538369
0.643839 0.972213 0.529809
0.780835 0.960922 0.522911
0.867216 0.962997 0.456504
0.995148 0.951125 0.522301
1 0.949416 0.52517
0 0 0.790372
0.0580606 0 0.792508
0.216815 0 0.785138
0.405051 0 0.776623
0.62295 0 0.771344
0.792615 0 0.76289
0.933928 0 0.757168
1 0 0.753948
1 0 0.753643
0.000976577 0 0.806882
0.101701 0 0.804623
0.26305 0 0.808743
0.466636 0 0.798856
0.665019 0 0.786221
0.824018 0 0.77792
0.962432 0 0.775906
1 0 0.778576
1 0 0.78526
0 0.0873274 0.736706
0.0723278 0.086717 0.722957
0.213184 0.0852064 0.717983
0.404089 0.0733501 0.707759
0.603891 0.0591592 0.699413
0.766598 0.0499886 0.69633
0.909178 0.0497444 0.700542
1 0.0538796 0.709377
1 0.0601816 0.720058
0.00233463 0.223682 0.693523
0.0787213 0.22652 0.689052
0.219852 0.231083 0.692103
0.413718 0.226246 0.687877
0.609369 0.219471 0.68336
0.769528 0.216953 0.68275
0.910674 0.221592 0.689281
1 0.229023 0.699199
1 0.236637 0.709926
0 0.380148 0.652094
0.0852979 0.39411 0.660914
0.227771 0.404288 0.669566
0.421103 0.403296 0.66862
0.611826 0.39881 0.665843
0.769833 0.396536 0.666377
0.908492 0.400732 0.673777
0.999985 0.407828 0.684428
1 0.419471 0.690028
0.00445563 0.559014 0.624689
0.0990768 0.576532 0.640238
0.238361 0.586801 0.65005
0.42768 0.58555 0.650156
0.612406 0.58053 0.646998
0.764721 0.579538 0.642725
0.879072 0.590509 0.642084
0.965957 0.607691 0.648936
1 0.621424 0.660883
0.0172122 0.717723 0.611109
0.125185 0.730709 0.627283
0.289784 0.73283 0.634104
0.504173 0.722576 0.628931
0.655467 0.719768 0.629511
0.774792 0.725338 0.640589
0.885908 0.732494 0.650858
0.992294 0.731472 0.651347
1 0.732998 0.657374
0.155779 0.831724 0.61738
0.290898 0.837552 0.63566
0.417639 0.845258 0.644358
0.492622 0.865858 0.642618
0.637064 0.859571 0.634562
0.771786 0.851896 0.616526
0.899016 0.848051 0.629648
0.999115 0.861006 0.669963
1 0.867674 0.685145
0.113207 0.980499 0.632486
0.209964 0.98999 0.649409
0.34229 0.990448 0.654582
0.50869 0.979049 0.646799
0.654597 0.966842 0.636912
0.789715 0.956207 0.628672
0.880796 0.955245 0.581918
0.999115 0.94699 0.625925
1 0.947021 0.631449
0 0 0.911665
0.0771954 0 0.907973
0.231846 0 0.902556
0.425147 0 0.896315
0.639841 0 0.892592
0.805371 0 0.884535
0.944305 0 0.880522
1 0 0.879042
1 0 0.880308
0.00408942 0 0.924758
0.120073 0 0.924895
0.281682 0 0.924453
0.488655 0 0.914153
0.680858 0 0.902617
0.836561 0 0.895979
0.974441 0 0.895766
1 0 0.899702
1 0 0.907485
0 0.0820783 0.854093
0.0861982 0.082414 0.839811
0.229679 0.0804913 0.834272
0.425238 0.0682078 0.825345
0.620844 0.0546273 0.818021
0.780636 0.0471962 0.816388
0.922148 0.0475624 0.821759
1 0.0523995 0.831174
1 0.0588998 0.842084
0.00605783 0.216281 0.809049
0.0922408 0.223819 0.80856
0.237156 0.228077 0.810162
0.435111 0.223087 0.805325
0.626169 0.2168 0.801358
0.784039 0.21503 0.801984
0.923018 0.220462 0.80914
1 0.228244 0.819104
1 0.235752 0.82945
0.000457771 0.372442 0.771557
0.100298 0.39202 0.783261
0.246357 0.401419 0.789136
0.443259 0.400137 0.78764
0.628351 0.39585 0.784894
0.784344 0.394354 0.785672
0.920226 0.399237 0.793256
1 0.406958 0.802335
1 0.422354 0.800717
0.0154269 0.555795 0.750042
0.113008 0.574868 0.763577
0.25745 0.583795 0.77084
0.449256 0.5823 0.769375
0.628717 0.577661 0.76379
0.776226 0.578958 0.752071
0.885313 0.592371 0.740566
0.975006 0.60885 0.741833
1 0.619883 0.752728
0.0259709 0.713649 0.734905
0.142763 0.728222 0.747982
0.322896 0.72755 0.741268
0.528603 0.71931 0.725383
0.66981 0.71899 0.722164
0.786648 0.72343 0.730968
0.904967 0.724376 0.751202
0.998932 0.725322 0.757671
1 0.725719 0.761563
0.180789 0.828519 0.716838
0.310002 0.836286 0.728542
0.407279 0.850416 0.743511
0.499168 0.864485 0.755276
0.649592 0.855344 0.747936
0.788357 0.847395 0.740444
0.905501 0.848096 0.750546
0.998703 0.848508 0.754391
1 0.843778 0.752514
0.121294 0.979095 0.749874
0.22089 0.987655 0.764828
0.356786 0.985595 0.767117
0.522286 0.974166 0.757992
0.665904 0.961776 0.746838
0.798917 0.95169 0.738537
0.898741 0.948592 0.710018
1 0.944289 0.737789
1 0.950484 0.758099
