nova/tdt-studio/app/Lut_mau/Buttery LUTs/BMPCC4K_New_Creative_1.cube
TITLE "Generated by Resolve"
LUT_3D_SIZE 33
0 0 0
0 0 0
0 0 0
0 0 0
0 0 0
0 0 0
0 0 0
0.0399329 0 0
0.0958114 0 0
0.152895 0 0
0.210727 0 0
0.269642 0 0
0.32958 0 0
0.389578 0 0
0.449592 0 0
0.50927 0 0
0.568658 0 0
0.628611 0 0
0.690394 0 0
0.753964 0 0
0.81709 0 0
0.878553 0 0
0.936233 0 0
0.989868 0 0
1 0 0
1 0 0
1 0 0
1 0 0
1 0 0
1 0 0
1 0 0
1 0 0
1 0 0
0 0 0
0 0 0
0 0 0
0 0 0
0 0 0
0 0 0
0 0 0
0.045182 0 0
0.0996719 0 0
0.155138 0 0
0.212131 0 0
0.269993 0 0
0.328618 0 0
0.38793 0 0
0.446784 0 0
0.504952 0 0
0.563607 0 0
0.623789 0 0
0.686473 0 0
0.75111 0 0
0.814588 0 0
0.876249 0 0
0.934096 0 0
0.988113 0 0
1 0 0
1 0 0
1 0 0
1 0 0
1 0 0
1 0 0
1 0 0
1 0 0
1 0 0
0 0 0
0 0 0
0 0 0
0 0 0
0 0 0
0 0 0
0 0 0
0.0368505 0 0
0.0948196 0 0
0.150896 0 0
0.207416 0 0
0.264256 0 0
0.322316 0 0
0.381079 0 0
0.440238 0 0
0.499519 0 0
0.558618 0 0
0.618799 0 0
0.68188 0 0
0.745892 0 0
0.809613 0 0
0.871519 0 0
0.930053 0 0
0.984054 0 0
1 0 0
1 0 0
1 0 0
1 0 0
1 0 0
1 0 0
1 0 0
1 0 0
1 0 0
0 0 0
0 0 0
0 0 0
0 0 0
0 0 0
0 0 0
0 0 0
0.0350958 0 0
0.0872358 0 0
0.141344 0 0
0.201755 0 0
0.262196 0 0
0.321599 0 0
0.381201 0 0
0.441016 0 0
0.500847 0 0
0.560388 0 0
0.620951 0 0
0.684306 0 0
0.748623 0 0
0.812528 0 0
0.874723 0 0
0.933333 0 0
0.987793 0 0
1 0 0
1 0 0
1 0 0
1 0 0
1 0 0
1 0 0
1 0 0
1 0 0
1 0 0
0 0 0
0 0 0
0 0 0
0 0 0
0 0 0
0 0 0
0 0 0
0.038529 0 0
0.0918746 0 0
0.146624 0 0
0.203174 0 0
0.262272 0 0
0.326787 0 0
0.389334 0 0
0.449775 0 0
0.510018 0 0
0.570199 0 0
0.631724 0 0
0.695216 0 0
0.760159 0 0
0.824125 0 0
0.886793 0 0
0.945449 0 0
1 0 0
1 0 0
1 0 0
1 0 0
1 0 0
1 0 0
1 0 0
1 0 0
1 0 0
1 0 0
0 0.0184482 0
0 0.0145571 0
0 0.00956741 0
0 0.00602731 0
0 0.00343328 0
0 0.00224308 0
0 0.000701915 0
0.040528 0 0
0.0940719 0 0
0.149523 0 0
0.206241 0 0
0.264775 0 0
0.324086 0 0
0.387106 0 0
0.453758 0 0
0.516625 0 0
0.577508 0 0
0.640101 0 0
0.704814 0 0
0.77055 0 0
0.83592 0 0
0.898589 0 0
0.9579 0 0
1 0 0
1 0 0
1 0 0
1 0 0
1 0 0
1 0 0
1 0 0
1 0 0
1 0 0
1 0.00549325 0
0 0.0603799 0
0 0.0574807 0
0 0.0532387 0
0 0.0500801 0
0 0.0480049 0
0 0.0471351 0
0 0.0458686 0
0.0409705 0.0442969 0
0.0950332 0.0424048 0
0.150896 0.0401617 0
0.208042 0.037705 0
0.266743 0.0349432 0
0.326802 0.0319371 0
0.387289 0.0289311 0
0.448386 0.025864 0
0.513176 0.0213321 0
0.580377 0.0158236 0
0.645792 0.0113832 0
0.711742 0.00726329 0
0.778637 0.00302129 0
0.844038 0 0
0.907103 0 0
0.966552 0 0
1 0 0
1 0 0
1 0 0
1 0.00306706 0
1 0.0117189 0
1 0.0215152 0
1 0.031693 0
1 0.0405127 0
1 0.0491951 0
1 0.0579843 0
0 0.105165 0
0 0.102678 0
0 0.0986648 0
0 0.0958724 0
0 0.0939651 0
0 0.09337 0
0 0.0924239 0
0.0406806 0.0912642 0
0.0951858 0.0895399 0
0.151141 0.0876783 0
0.208988 0.08542 0
0.26804 0.0829633 0
0.328191 0.0803388 0
0.389181 0.0775921 0
0.450614 0.0748608 0
0.511849 0.072282 0
0.573495 0.0696422 0
0.641184 0.0648966 0
0.713573 0.0585184 0
0.783856 0.053254 0
0.850599 0.049485 0
0.914397 0.0466926 0
0.97377 0.0452125 0
1 0.0450904 0
1 0.0461738 0
1 0.0490883 0
1 0.0555276 0
1 0.0647288 0
1 0.0748608 0
1 0.085008 0
1 0.0940261 0
1 0.103044 0
1 0.112154 0
0 0.152026 0
0 0.149905 0
0 0.146075 0
0 0.143603 0
0 0.142077 0
0 0.141863 0
0 0.141238 0
0.0397192 0.140185 0
0.0945449 0.138888 0
0.151171 0.13724 0
0.209079 0.135363 0
0.268818 0.133104 0
0.329366 0.13077 0
0.390616 0.128344 0
0.452232 0.125948 0
0.514092 0.123583 0
0.575784 0.121386 0
0.639185 0.118502 0
0.706127 0.1149 0
0.77821 0.109407 0
0.850858 0.103456 0
0.9178 0.0995193 0
0.978363 0.0977646 0
1 0.0978103 0
1 0.0993362 0
1 0.102922 0
1 0.110018 0
1 0.119463 0
1 0.129625 0
1 0.139666 0
1 0.148867 0
1 0.157946 0
1 0.167117 0
0 0.200626 0
0 0.19881 0
0 0.195285 0
0 0.193118 0
0 0.191897 0
0 0.19205 0
0 0.191684 0
0.0378119 0.190829 0
0.0930495 0.189975 0
0.149783 0.188403 0
0.208087 0.186755 0
0.268055 0.184802 0
0.328969 0.182742 0
0.39089 0.180514 0
0.452857 0.178378 0
0.514794 0.176349 0
0.576837 0.17438 0
0.64126 0.171847 0
0.707988 0.168765 0
0.775113 0.165652 0
0.842008 0.162341 0
0.909545 0.158145 0
0.973816 0.154925 0
1 0.153582 0
1 0.154391 0
1 0.158083 0
1 0.165652 0
1 0.175479 0
1 0.185946 0
1 0.195773 0
1 0.204913 0
1 0.213794 0
1 0.222934 0
0 0.250797 0
0 0.249332 0
0 0.246098 0
0 0.244175 0
0 0.24329 0
0 0.243595 0
0 0.243534 0
0.0352483 0.243229 0
0.0909133 0.242481 0
0.14789 0.24152 0
0.206806 0.240131 0
0.267063 0.238483 0
0.328389 0.236606 0
0.390173 0.234607 0
0.452125 0.232471 0
0.514641 0.230533 0
0.577005 0.228717 0
0.641688 0.226322 0
0.708583 0.223377 0
0.776257 0.220279 0
0.84213 0.217685 0
0.904768 0.215991 0
0.963836 0.215076 0
1 0.214878 0
1 0.215213 0
1 0.218418 0
1 0.22594 0
1 0.235874 0
1 0.24625 0
1 0.255756 0
1 0.264591 0
1 0.273289 0
1 0.282139 0
0 0.302861 0
0 0.301701 0
0 0.298756 0
0 0.297108 0
0 0.296574 0
0 0.297124 0
0 0.297215 0
0.0320592 0.297032 0
0.0879225 0.29659 0
0.145251 0.295842 0
0.204089 0.294789 0
0.264729 0.293278 0
0.326467 0.291569 0
0.388556 0.289845 0
0.45095 0.288075 0
0.513298 0.286366 0
0.57586 0.284596 0
0.640909 0.28188 0
0.708064 0.278996 0
0.775448 0.276081 0
0.841627 0.273457 0
0.904082 0.27187 0
0.961898 0.27155 0
1 0.272465 0
1 0.274754 0
1 0.27953 0
1 0.287648 0
1 0.297765 0
1 0.308293 0
1 0.317769 0
1 0.326802 0
1 0.33579 0
1 0.344854 0
0 0.35613 0
0 0.35523 0
0 0.35259 0
0 0.351308 0
0 0.351003 0
0 0.351873 0
0 0.352377 0
0.028809 0.352514 0
0.0846265 0.352346 0
0.142382 0.35172 0
0.201175 0.350454 0
0.261845 0.349157 0
0.323415 0.347677 0
0.385916 0.345983 0
0.448493 0.344305 0
0.510948 0.342687 0
0.573739 0.340993 0
0.639017 0.338659 0
0.706661 0.335653 0
0.773678 0.332464 0
0.839475 0.329961 0
0.901976 0.328344 0
0.959518 0.328054 0
1 0.329015 0
1 0.331411 0
1 0.336599 0
1 0.345205 0
1 0.355428 0
1 0.366003 0
1 0.375616 0
1 0.38471 0
1 0.394156 0
1 0.403738 0
0 0.411078 0
0 0.410391 0
0 0.40798 0
0 0.406668 0
0 0.406592 0
0 0.40763 0
0 0.408331 0
0.0245975 0.408728 0
0.0808728 0.408637 0
0.138445 0.40824 0
0.197971 0.407355 0
0.258808 0.406134 0
0.320089 0.404395 0
0.382391 0.402838 0
0.444984 0.401221 0
0.507622 0.399603 0
0.570703 0.397848 0
0.636194 0.395453 0
0.703532 0.392538 0
0.771221 0.389517 0
0.836866 0.386984 0
0.898726 0.385458 0
0.956054 0.384878 0
1 0.385763 0
1 0.38822 0
1 0.393576 0
1 0.402487 0
1 0.41297 0
1 0.423896 0
1 0.433768 0
1 0.443488 0
1 0.453346 0
1 0.463478 0
0 0.466773 0
0 0.466316 0
0 0.464164 0
0 0.463233 0
0 0.463386 0
0 0.46421 0
0 0.465049 0
0.0205997 0.465522 0
0.0768749 0.465553 0
0.134585 0.465217 0
0.194064 0.464378 0
0.254704 0.463294 0
0.316701 0.46183 0
0.379034 0.460288 0
0.441596 0.458656 0
0.503716 0.456748 0
0.566659 0.454948 0
0.632593 0.452369 0
0.699916 0.449363 0
0.767285 0.446296 0
0.832929 0.443687 0
0.894621 0.442206 0
0.951934 0.441932 0
1 0.443168 0
1 0.445914 0
1 0.451804 0
1 0.461082 0
1 0.471763 0
1 0.483177 0
1 0.493446 0
1 0.5037 0
1 0.51397 0
1 0.524392 0
0 0.523201 0
0 0.522957 0
0 0.520867 0
0 0.520104 0
0 0.520226 0
0 0.521477 0
0 0.522484 0
0.016968 0.522988 0
0.072694 0.522789 0
0.130831 0.522332 0
0.190127 0.521584 0
0.250736 0.520485 0
0.312367 0.519081 0
0.374884 0.517433 0
0.437491 0.515724 0
0.499855 0.514031 0
0.562844 0.512154 0
0.628611 0.509529 0
0.696269 0.506462 0
0.763378 0.503166 0
0.828626 0.500801 0
0.890761 0.49955 0
0.947921 0.499748 0
1 0.501274 0
1 0.50454 0
1 0.511131 0
1 0.521248 0
1 0.532708 0
1 0.544533 0
1 0.555001 0
1 0.56556 0
1 0.575891 0
1 0.58645 0
0 0.58056 0
0 0.580118 0
0 0.578042 0
0 0.577356 0
0 0.577478 0
0 0.578897 0
0 0.579889 0
0.0121004 0.580499 0
0.0683757 0.58056 0
0.126223 0.580133 0
0.185428 0.57937 0
0.245945 0.577996 0
0.307271 0.576364 0
0.369406 0.574701 0
0.431861 0.572992 0
0.494545 0.571283 0
0.557763 0.569451 0
0.623743 0.567025 0
0.691432 0.564309 0
0.759304 0.5617 0
0.824903 0.559686 0
0.88687 0.558907 0
0.944518 0.559609 0
0.996826 0.561578 0
1 0.565393 0
1 0.572595 0
1 0.583154 0
1 0.59498 0
1 0.606912 0
1 0.617411 0
1 0.628 0
1 0.638544 0
1 0.648814 0
0 0.638834 0
0 0.638773 0
0 0.636774 0
0 0.636011 0
0 0.636011 0
0 0.637232 0
0 0.638346 0
0.004654 0.638865 0
0.0603952 0.639002 0
0.118074 0.638544 0
0.177279 0.637659 0
0.237964 0.636454 0
0.29955 0.635035 0
0.361761 0.633524 0
0.424384 0.632059 0
0.487037 0.630671 0
0.550729 0.62884 0
0.617151 0.626703 0
0.685298 0.624384 0
0.753201 0.62237 0
0.819471 0.620844 0
0.881636 0.620539 0
0.939239 0.621622 0
0.991409 0.624231 0
1 0.628534 0
1 0.636133 0
1 0.646769 0
1 0.658579 0
1 0.670359 0
1 0.680644 0
1 0.690883 0
1 0.700893 0
1 0.710719 0
0 0.698131 0
0 0.698009 0
0 0.695964 0
0 0.695262 0
0 0.695354 0
0 0.696559 0
0 0.697612 0
0 0.698131 0
0.0507057 0.698039 0
0.108125 0.697658 0
0.16759 0.696895 0
0.22826 0.696056 0
0.290089 0.695018 0
0.352865 0.693767 0
0.4159 0.692622 0
0.479103 0.691752 0
0.54345 0.69073 0
0.610605 0.688991 0
0.679347 0.686992 0
0.747478 0.685283 0
0.813153 0.68394 0
0.875547 0.683558 0
0.932708 0.684794 0
0.984863 0.687373 0
1 0.691768 0
1 0.699489 0
1 0.70985 0
1 0.721294 0
1 0.732601 0
1 0.742565 0
1 0.752087 0
1 0.761578 0
1 0.770871 0
0 0.757702 0
0 0.757229 0
0 0.755093 0
0 0.754269 0
0 0.754406 0
0 0.755398 0
0 0.75668 0
0 0.757488 0
0.0417639 0.757916 0
0.0993973 0.758022 0
0.159335 0.757534 0
0.220401 0.757046 0
0.282521 0.756298 0
0.345418 0.755459 0
0.408835 0.754772 0
0.47277 0.754116 0
0.537575 0.753307 0
0.604944 0.751812 0
0.67364 0.749935 0
0.742107 0.748119 0
0.807752 0.747036 0
0.869871 0.746822 0
0.926833 0.747829 0
0.978592 0.750118 0
1 0.754284 0
1 0.7617 0
1 0.77171 0
1 0.782406 0
1 0.792935 0
1 0.802121 0
1 0.811032 0
1 0.819608 0
1 0.827924 0
0 0.816312 0
0 0.816068 0
0 0.813977 0
0 0.813138 0
0 0.813504 0
0 0.814282 0
0 0.816159 0
0 0.817212 0
0.0352636 0.818097 0
0.0937819 0.818631 0
0.153811 0.818784 0
0.215396 0.818601 0
0.278386 0.818235 0
0.341756 0.817807 0
0.405432 0.817304 0
0.469169 0.816754 0
0.534524 0.815763 0
0.601953 0.814099 0
0.670314 0.811856 0
0.738293 0.810056 0
0.803647 0.808362 0
0.864759 0.807874 0
0.921263 0.808515 0
0.972442 0.81033 0
1 0.813794 0
1 0.820584 0
1 0.829908 0
1 0.839994 0
1 0.849622 0
1 0.857801 0
1 0.865934 0
1 0.873945 0
1 0.881376 0
0 0.873854 0
0 0.873777 0
0 0.871992 0
0 0.871595 0
0 0.872312 0
0 0.873854 0
0 0.876081 0
0 0.877668 0
0.0344396 0.878752 0
0.0927901 0.879347 0
0.15317 0.87953 0
0.214847 0.879545 0
0.277577 0.879255 0
0.341024 0.878767 0
0.405097 0.878035 0
0.468925 0.877241 0
0.533913 0.87599 0
0.601358 0.873915 0
0.669779 0.871473 0
0.737087 0.869093 0
0.801938 0.867094 0
0.862318 0.866026 0
0.918013 0.866041 0
0.968414 0.867185 0
1 0.870115 0
1 0.876112 0
1 0.884535 0
1 0.893645 0
1 0.902373 0
1 0.909667 0
1 0.916793 0
1 0.923766 0
1 0.930556 0
0 0.931014 0
0 0.931197 0
0 0.929732 0
0 0.929808 0
0 0.930861 0
0 0.932906 0
0 0.935149 0
0 0.936751 0
0.0382849 0.937972 0
0.0973373 0.938659 0
0.15761 0.939025 0
0.219455 0.938857 0
0.2822 0.938308 0
0.345327 0.937499 0
0.408606 0.936507 0
0.472328 0.935271 0
0.537087 0.933455 0
0.60383 0.930816 0
0.671519 0.927687 0
0.738338 0.92462 0
0.801953 0.922072 0
0.861662 0.920165 0
0.916411 0.919387 0
0.965835 0.919814 0
1 0.921981 0
1 0.927199 0
1 0.934707 0
1 0.942977 0
1 0.950866 0
1 0.957275 0
1 0.963333 0
1 0.969314 0
1 0.97528 0
0 0.987579 0
0 0.987991 0
0 0.987076 0
0 0.987366 0
0 0.988617 0
0 0.990936 0
0 0.992859 0
0 0.99411 0
0.047364 0.994949 0
0.105989 0.995438 0
0.166354 0.9953 0
0.22768 0.994797 0
0.289906 0.993851 0
0.35285 0.992416 0
0.415488 0.990784 0
0.478386 0.988922 0
0.54258 0.98645 0
0.609064 0.982986 0
0.675761 0.97911 0
0.741665 0.97525 0
0.804334 0.97203 0
0.863386 0.969741 0
0.916762 0.968261 0
0.965316 0.967788 0
1 0.96936 0
1 0.973907 0
1 0.98056 0
1 0.987839 0
1 0.994781 0
1 1 0
1 1 0
1 1 0
1 1 0
0 1 0
0 1 0
0 1 0
0 1 0
0 1 0
0 1 0
0 1 0
0.00650034 1 0
0.0636912 1 0
0.122454 1 0
0.182071 1 0
0.242832 1 0
0.304723 1 0
0.366613 1 0
0.428428 1 0
0.490822 1 0
0.554345 1 0
0.619699 1 0
0.685832 1 0
0.750149 1 0
0.811978 1 0
0.869337 1 0
0.92221 1 0
0.969848 1 0
1 1 0
1 1 0
1 1 0
1 1 0
1 1 0
1 1 0
1 1 0
1 1 0
1 1 0
0 1 0
0 1 0
0 1 0
0 1 0
0 1 0
0 1 0
0 1 0
0.0353246 1 0
0.0924544 1 0
0.150454 1 0
0.209674 1 0
0.26981 1 0
0.330419 1 0
0.391714 1 0
0.452583 1 0
0.513649 1 0
0.576562 1 0
0.640925 1 0
0.705837 1 0
0.769055 1 0
0.829267 1 0
0.885466 1 0
0.937072 1 0
0.983886 1 0
1 1 0
1 1 0
1 1 0
1 1 0
1 1 0
1 1 0
1 1 0
1 1 0
1 1 0
0 1 0
0 1 0
0 1 0
0 1 0
0 1 0
0 1 0
0.0151369 1 0
0.0703746 1 0
0.126848 1 0
0.184085 1 0
0.242649 1 0
0.301808 1 0
0.361807 1 0
0.421805 1 0
0.481743 1 0
0.542351 1 0
0.604059 1 0
0.66772 1 0
0.731228 1 0
0.793561 1 0
0.85243 1 0
0.9075 1 0
0.958053 1 0
1 1 0
1 1 0
1 1 0
1 1 0
1 1 0
1 1 0
1 1 0
1 1 0
1 1 0
1 1 0
0 1 0
0 1 0
0 1 0
0 1 0
0 1 0
0 1 0
0.0508736 1 0
0.105776 1 0
0.161105 1 0
