nova/tdt-studio/app/Lut_mau/Buttery LUTs/BMPCC4K_6K_Tobacco.cube
TITLE "Generated by Resolve"
LUT_3D_SIZE 5
0 0 0
0.112215 0 0
0.498451 0 0
0.844938 0 0
1 0 0
0 0.116808 0
0.118349 0.119326 0
0.469978 0.103075 0
0.813062 0.0737011 0
1 0.0797284 0
0 0.414282 0
0.117556 0.420706 0
0.490654 0.419608 0
0.818341 0.418189 0
1 0.449226 0
0 0.755123 0
0.148165 0.757137 0
0.488655 0.756542 0
0.8094 0.721263 0.0764477
1 0.738293 0.0239261
0.153918 0.937667 0.0922866
0.255039 0.999878 0
0.578759 0.999313 0
0.782925 0.998352 0
1 0.967422 0
0 0 0.0409857
0.142916 0 0.0501411
0.542916 0 0.0491188
0.891112 0 0.0128786
1 0 0.0128939
0 0.114031 0.04654
0.143572 0.11104 0.0601663
0.508949 0.0886702 0.0575113
0.828473 0.0702068 0.0534981
1 0.076524 0.0696422
0 0.407904 0.0336309
0.14226 0.414008 0.0567025
0.525368 0.409476 0.071046
0.816968 0.426246 0.141344
1 0.425116 0.132525
0 0.744137 0.0331579
0.173144 0.748012 0.0731518
0.547768 0.733959 0.103441
0.833585 0.728054 0.187152
1 0.742565 0.15053
0.177111 0.945571 0.19939
0.265492 0.996323 0.142016
0.593133 0.985504 0.140795
0.808438 0.984817 0.036347
1 0.957687 0.139956
0 0 0.324987
0.174716 0 0.320592
0.57203 0 0.297139
0.907042 0 0.280751
1 0 0.272541
0 0.107271 0.280659
0.173785 0.103441 0.271885
0.559487 0.0767681 0.254841
0.876051 0.0605936 0.249912
1 0.0674449 0.267567
0 0.402914 0.220661
0.178149 0.414572 0.238422
0.55259 0.415625 0.26659
0.859541 0.412924 0.269001
1 0.429221 0.298802
0 0.735119 0.20531
0.21561 0.747265 0.242405
0.596475 0.728191 0.278782
0.855253 0.731441 0.347677
1 0.760967 0.357565
0.163546 0.962463 0.313817
0.299779 0.996796 0.292042
0.621637 0.98201 0.289204
0.838575 0.977584 0.197864
1 0.955917 0.289357
0 0 0.652628
0.202838 0 0.649653
0.604913 0 0.629404
0.924056 0 0.6159
1 0 0.609918
0 0.0939193 0.601328
0.1991 0.0909743 0.584161
0.588861 0.0648203 0.565148
0.897658 0.0532387 0.563226
1 0.0625467 0.581933
0 0.388861 0.521385
0.210529 0.40798 0.536873
0.59556 0.402548 0.537179
0.897383 0.40325 0.545159
1 0.419089 0.566201
0.00802625 0.722103 0.478172
0.261997 0.738277 0.5178
0.63798 0.721721 0.530907
0.871794 0.741466 0.572213
1 0.738857 0.553277
0.118044 0.980102 0.51722
0.328298 0.99527 0.542092
0.643839 0.972213 0.529809
0.867216 0.962997 0.456504
1 0.949416 0.52517
0 0 0.911665
0.231846 0 0.902556
0.639841 0 0.892592
0.944305 0 0.880522
1 0 0.880308
0 0.0820783 0.854093
0.229679 0.0804913 0.834272
0.620844 0.0546273 0.818021
0.922148 0.0475624 0.821759
1 0.0588998 0.842084
0.000457771 0.372442 0.771557
0.246357 0.401419 0.789136
0.628351 0.39585 0.784894
0.920226 0.399237 0.793256
1 0.422354 0.800717
0.0259709 0.713649 0.734905
0.322896 0.72755 0.741268
0.66981 0.71899 0.722164
0.904967 0.724376 0.751202
1 0.725719 0.761563
0.121294 0.979095 0.749874
0.356786 0.985595 0.767117
0.665904 0.961776 0.746838
0.898741 0.948592 0.710018
1 0.950484 0.758099
