nova/tdt-studio/app/Lut_mau/Buttery LUTs/BMPCC4K_New_Creative_1.cube
TITLE "Generated by Resolve"
LUT_3D_SIZE 9
0 0 0
0 0 0
0.0958114 0 0
0.32958 0 0
0.568658 0 0
0.81709 0 0
1 0 0
1 0 0
1 0 0
0 0 0
0 0 0
0.0918746 0 0
0.326787 0 0
0.570199 0 0
0.824125 0 0
1 0 0
1 0 0
1 0 0
0 0.152026 0
0 0.142077 0
0.0945449 0.138888 0
0.329366 0.13077 0
0.575784 0.121386 0
0.850858 0.103456 0
1 0.0993362 0
1 0.129625 0
1 0.167117 0
0 0.35613 0
0 0.351003 0
0.0846265 0.352346 0
0.323415 0.347677 0
0.573739 0.340993 0
0.839475 0.329961 0
1 0.331411 0
1 0.366003 0
1 0.403738 0
0 0.58056 0
0 0.577478 0
0.0683757 0.58056 0
0.307271 0.576364 0
0.557763 0.569451 0
0.824903 0.559686 0
1 0.565393 0
1 0.606912 0
1 0.648814 0
0 0.816312 0
0 0.813504 0
0.0352636 0.818097 0
0.278386 0.818235 0
0.534524 0.815763 0
0.803647 0.808362 0
1 0.813794 0
1 0.849622 0
1 0.881376 0
0 1 0
0 1 0
0.0636912 1 0
0.304723 1 0
0.554345 1 0
0.811978 1 0
1 1 0
1 1 0
1 1 0
0 1 0
0 1 0
0.18851 1 0
0.416251 1 0
0.652583 1 0
0.890105 1 0
1 1 0
1 1 0
1 1 0
0 1 0
0.0585031 1 0
0.255848 1 0
0.459495 1 0
0.672099 1 0
0.889403 1 0
1 1 0
1 1 0
1 1 0
0 0 0
0 0 0
0.0995346 0 0
0.331289 0 0
0.568673 0 0
0.817334 0 0
1 0 0
1 0 0
1 0 0
0 0 0
0 0 0
0.0941634 0 0
0.322621 0 0
0.562737 0 0
0.817349 0 0
1 0 0
1 0 0
1 0 0
0 0.149752 0
0 0.140276 0
0.098497 0.137591 0
0.333471 0.129595 0
0.590051 0.11635 0
0.855039 0.103471 0
1 0.102525 0
1 0.134096 0
1 0.171511 0
0 0.355505 0
0 0.350652 0
0.0896773 0.352102 0
0.329076 0.347967 0
0.579202 0.340993 0
0.84538 0.330205 0
1 0.328862 0
1 0.36173 0
1 0.398733 0
0 0.580591 0
0 0.577966 0
0.0738537 0.580423 0
0.312688 0.576562 0
0.563592 0.569894 0
0.831113 0.560327 0
1 0.567254 0
1 0.608988 0
1 0.650507 0
0 0.816159 0
0 0.813748 0
0.0417945 0.819471 0
0.284825 0.819608 0
0.540917 0.817044 0
0.810025 0.809323 0
1 0.813855 0
1 0.848447 0
1 0.878553 0
0 1 0
0 1 0
0.0700084 1 0
0.309743 1 0
0.557839 1 0
0.813947 1 0
1 1 0
1 1 0
1 1 0
0 1 0.0646372
0 1 0.054139
0.189593 1 0.0426795
0.415824 1 0.0205386
0.650095 1 0
0.88455 1 0
1 1 0
1 1 0
1 1 0
0 1 0.147753
0.0541695 1 0.122438
0.2486 1 0.0924086
0.450675 1 0.0495918
0.662013 1 1.5259e-05
0.87921 1 0
1 1 0
1 1 0
1 1 0
0 0 0.139712
0 0 0.130266
0.103838 0 0.125368
0.333974 0 0.108705
0.569802 0 0.0845502
0.820188 0 0.0582284
1 0 0.0422522
1 0 0.0577554
1 0 0.0892958
0 0 0.157382
0 0 0.136187
0.0965744 0 0.124285
0.325567 0 0.10663
0.566018 0 0.0873121
0.821714 0 0.0647135
1 0 0.0545205
1 0 0.0808423
1 0 0.11957
0 0.147662 0.155398
0 0.138705 0.141497
0.102617 0.136492 0.134905
0.338933 0.129061 0.123888
0.586511 0.12047 0.110369
0.850568 0.108385 0.09308
1 0.10811 0.0885176
1 0.139864 0.118502
1 0.177157 0.154131
0 0.355108 0.146456
0 0.350713 0.137514
0.0957656 0.352544 0.134722
0.334752 0.348333 0.125048
0.585595 0.341665 0.113237
0.862196 0.325765 0.111528
1 0.326055 0.113588
1 0.36141 0.145815
1 0.39968 0.180819
0 0.581384 0.136965
0 0.5785 0.128771
0.0793011 0.581323 0.126513
0.318242 0.577111 0.117052
0.569665 0.570718 0.10544
0.838407 0.56231 0.0910506
1 0.569528 0.0920424
1 0.611063 0.125963
1 0.651759 0.159319
0 0.817197 0.113222
0 0.815167 0.106218
0.0488136 0.821225 0.106645
0.292134 0.822126 0.101747
0.548257 0.819226 0.0928664
0.816648 0.810773 0.0790112
1 0.814313 0.0772717
1 0.847395 0.103426
1 0.875975 0.126192
0 1 0.137392
0 1 0.133684
0.076112 1 0.134447
0.314519 1 0.124254
0.561349 1 0.106691
0.816068 1 0.0826276
1 1 0.0705882
1 1 0.0864729
1 1 0.095201
0 1 0.258854
0 1 0.246647
0.190753 1 0.233417
0.415518 1 0.209476
0.646738 1 0.17644
0.878309 1 0.133806
1 1 0.101778
1 1 0.0985733
1 1 0.0941024
0 1 0.340093
0.0500496 1 0.311223
0.241108 1 0.277684
0.441703 1 0.232502
0.652476 1 0.180941
0.869673 1 0.127581
1 1 0.0962997
1 1 0.0969406
1 1 0.0964218
0 0 0.349966
0 0 0.341512
0.105943 0 0.334676
0.334813 0 0.316533
0.570138 0 0.291783
0.821302 0 0.26598
1 0 0.25069
1 0 0.267445
1 0 0.300679
0 0 0.365026
0 0 0.344167
0.0973678 0 0.332387
0.326986 0 0.31516
0.568109 0 0.296254
0.824353 0 0.274098
1 0 0.264622
1 0 0.293004
1 0 0.333135
0 0.143969 0.365438
0 0.135531 0.35169
0.105699 0.133776 0.345922
0.341695 0.126986 0.333623
0.589914 0.118563 0.320119
0.854078 0.107286 0.302739
1 0.106996 0.29807
1 0.139483 0.329274
1 0.176211 0.365591
0 0.352987 0.358083
0 0.348806 0.348974
0.0997787 0.350744 0.34638
0.339254 0.346929 0.337469
0.591226 0.339223 0.328252
0.857221 0.328374 0.311635
1 0.329961 0.308675
1 0.365728 0.341741
1 0.405066 0.37821
0 0.579736 0.348653
0 0.577157 0.340917
0.0832074 0.579538 0.338338
0.322286 0.575708 0.328969
0.574685 0.569848 0.31783
0.843442 0.561883 0.30396
1 0.568261 0.309499
1 0.608103 0.349722
1 0.646403 0.38822
0 0.815732 0.324987
0 0.814664 0.31812
0.0546426 0.821408 0.31957
0.298054 0.822293 0.314565
0.553445 0.81854 0.305287
0.820874 0.809171 0.290639
1 0.811505 0.287861
1 0.843412 0.314305
1 0.870542 0.336629
0 1 0.351385
0 1 0.347433
0.0804303 1 0.347356
0.317372 1 0.335775
0.562432 1 0.316487
0.815747 1 0.290761
1 0.995453 0.277043
1 1 0.291081
1 1 0.297597
0 1 0.472801
0 1 0.459266
0.189456 1 0.444373
0.412802 1 0.418875
0.64036 1 0.38233
0.868589 1 0.335866
1 1 0.301656
1 1 0.297704
1 1 0.293263
0 1 0.550774
0.043534 1 0.519158
0.231586 1 0.4822
0.430426 1 0.435203
0.640589 1 0.382422
0.858579 1 0.328389
1 1 0.296971
1 1 0.297429
1 1 0.297093
0 0 0.57258
0 0 0.563455
0.106477 0 0.555291
0.333883 0 0.535637
0.569665 0 0.511376
0.821393 0 0.485954
1 0 0.471107
1 0 0.489036
1 0 0.523903
0 0 0.583703
0 0 0.564172
0.0978714 0 0.552911
0.328069 0 0.536141
0.569833 0 0.517723
0.826719 0 0.495933
1 0 0.487511
1 0 0.517098
1 0 0.559182
0 0.139406 0.587518
0 0.131304 0.57409
0.107836 0.129885 0.568673
0.344533 0.123705 0.557137
0.593347 0.115724 0.544167
0.857466 0.104326 0.526925
1 0.104631 0.523201
1 0.136873 0.555886
1 0.173587 0.594003
0 0.349676 0.581979
0 0.345983 0.573098
0.10309 0.348272 0.571221
0.342626 0.344121 0.562203
0.593469 0.337469 0.550393
0.858839 0.326177 0.533715
1 0.327886 0.531243
1 0.364599 0.566644
1 0.404044 0.60502
0 0.577249 0.573312
0 0.574334 0.565469
0.0866407 0.576898 0.5635
0.325902 0.573358 0.554925
0.578836 0.567773 0.544015
0.851682 0.559213 0.536904
1 0.567132 0.539513
1 0.607599 0.57644
1 0.646006 0.611337
0 0.813611 0.550317
0 0.813367 0.544533
0.0593423 0.819989 0.546761
0.302724 0.820783 0.541878
0.557916 0.816754 0.532525
0.824277 0.806363 0.516991
1 0.807294 0.513664
1 0.837339 0.539361
1 0.863218 0.561746
0 1 0.580301
0 1 0.575708
0.0831159 1 0.574868
0.318608 1 0.561913
0.562066 1 0.540887
0.813642 0.998199 0.513283
1 0.987091 0.498207
1 0.999969 0.509392
1 1 0.513329
0 1 0.702739
0 1 0.687221
0.186481 1 0.670802
0.407691 1 0.642847
0.632136 1 0.602564
0.857252 1 0.552392
1 1 0.515496
1 1 0.511452
1 1 0.507683
0 1 0.777905
0.0345159 1 0.742626
0.220066 1 0.703624
0.417838 1 0.654063
0.627451 1 0.599619
0.847349 1 0.545846
1 1 0.512871
1 1 0.513558
1 1 0.513726
0 0 0.810925
0 0 0.800519
0.105898 0 0.791165
0.331395 0 0.769848
0.568704 0 0.74667
0.820935 0 0.721645
1 0 0.708003
1 0 0.727993
1 0 0.764904
0 0 0.81828
0 0 0.79942
0.0973373 0 0.789349
0.328176 0 0.773297
0.570443 0 0.755383
0.827314 0 0.73373
1 0 0.726864
1 0 0.75906
1 0 0.801923
0 0.133333 0.825498
0 0.125795 0.813382
0.109377 0.124987 0.808637
0.346716 0.119127 0.798352
0.595331 0.111177 0.78529
0.860121 0.100267 0.768536
1 0.10045 0.765179
1 0.133089 0.799741
1 0.169589 0.837537
0 0.345235 0.822766
0 0.341711 0.814633
0.105287 0.343893 0.813291
0.345205 0.340108 0.804852
0.595697 0.333043 0.792752
0.861341 0.321981 0.775906
1 0.324117 0.774258
1 0.361288 0.81004
1 0.401648 0.849104
0 0.573022 0.815442
0 0.570214 0.807675
0.0887312 0.572473 0.805417
0.32874 0.569268 0.797574
0.582605 0.564858 0.787732
0.852354 0.557855 0.774548
1 0.565698 0.777478
1 0.605982 0.813596
1 0.643565 0.846815
0 0.809979 0.792737
0 0.810224 0.787808
0.0634165 0.817517 0.790173
0.306569 0.818021 0.785367
0.561059 0.81323 0.775265
0.82623 0.80174 0.758618
1 0.799527 0.759609
1 0.827832 0.785733
1 0.85185 0.807614
0 1 0.823484
0 1 0.817807
0.0842451 1 0.815122
0.318181 1 0.801083
0.560311 1 0.77908
0.810483 0.989471 0.749889
1 0.976425 0.732586
1 0.986267 0.741558
1 0.986862 0.742626
0 1 0.941009
0 1 0.924208
0.18265 1 0.906615
0.400839 1 0.876005
0.621881 1 0.83357
0.845182 1 0.781231
1 1 0.743145
1 1 0.738567
1 1 0.735805
0 1 1
0.0239109 1 0.970672
0.207828 1 0.930556
0.404883 1 0.88098
0.614023 1 0.826825
0.835889 1 0.774319
0.999268 1 0.74107
1 1 0.741497
1 1 0.741054
0 0 1
0 0 1
0.107118 0 0.995651
0.332113 0 0.973678
0.569986 0 0.951553
0.823133 0 0.926833
1 0 0.912734
1 0 0.93135
1 0 0.965454
0 0 1
0 0 1
0.0992752 0 0.994598
0.330755 0 0.978424
0.573693 0 0.960662
0.831846 0 0.939025
1 0 0.930983
1 0 0.960082
1 0 0.999832
0 0.130709 1
0 0.123751 1
0.113359 0.123262 1
0.351385 0.11783 0.99913
0.600809 0.110582 0.985153
0.86595 0.0994736 0.967086
1 0.100481 0.961898
1 0.133745 0.991791
1 0.170657 1
0 0.344152 1
0 0.340993 1
0.11075 0.343832 1
0.3505 0.339834 1
0.601526 0.333089 0.987427
0.867475 0.321874 0.969131
1 0.324956 0.964553
1 0.363851 0.996277
1 0.405188 1
0 0.573083 1
0 0.56994 1
0.0941634 0.572839 0.998779
0.334813 0.57023 0.989441
0.589471 0.566308 0.978469
0.860243 0.560006 0.964492
1 0.568261 0.964126
1 0.608316 0.994995
1 0.645167 1
0 0.811368 0.985702
0 0.812268 0.979767
0.0701762 0.81973 0.978729
0.313222 0.819669 0.971908
0.566964 0.813931 0.960616
0.830854 0.801266 0.942763
1 0.800031 0.936065
1 0.827619 0.957107
1 0.850767 0.974121
0 1 1
0 1 0.999496
0.0895552 1 0.994232
0.321874 1 0.979217
0.562249 1 0.957656
0.810803 0.985214 0.92929
1 0.969268 0.910292
1 0.97644 0.915496
1 0.975128 0.913024
0 1 1
0 1 1
0.183322 1 1
0.398077 1 1
0.615152 1 1
0.836988 1 0.949462
1 1 0.912032
1 1 0.906462
1 1 0.904189
0 1 1
0.0183261 1 1
0.200626 1 1
0.397162 1 1
0.606424 1 0.986496
0.82916 1 0.938354
0.992798 1 0.906355
1 1 0.905913
1 1 0.904189
0 0 1
0 0 1
0.114214 0 1
0.340169 0 1
0.578607 0 1
0.832807 0 1
1 0 1
1 0 1
1 0 1
0 0 1
0 0 1
0.109911 0 1
0.34255 0 1
0.586557 0 1
0.846433 0 1
1 0 1
1 0 1
1 0 1
0 0.137316 1
0 0.131228 1
0.125612 0.131838 1
0.36405 0.126986 1
0.614313 0.119844 1
0.880247 0.109545 1
1 0.111055 1
1 0.146029 1
1 0.183169 1
0 0.353628 1
0 0.351263 1
0.123781 0.354131 1
0.364294 0.350759 1
0.61561 0.343572 1
0.881895 0.332891 1
1 0.337499 1
1 0.377646 1
1 0.419669 1
0 0.583505 1
0 0.581109 1
0.107271 0.584451 1
0.348913 0.582666 1
0.605097 0.579583 1
0.876127 0.57348 1
1 0.581552 1
1 0.62118 1
1 0.657008 1
0 0.824262 1
0 0.825528 1
0.0848554 0.833448 1
0.327855 0.832807 1
0.581231 0.825849 1
0.843427 0.812009 1
1 0.809537 0.992737
1 0.836149 1
1 0.858061 1
0 1 1
0 1 1
0.102266 1 1
0.333364 1 1
0.572015 1 1
0.819287 0.99144 0.984314
1 0.972396 0.963027
1 0.976379 0.964889
1 0.973571 0.960998
0 1 1
0 1 1
0.19086 1 1
0.402686 1 1
0.616739 1 1
0.837049 1 0.995163
1 1 0.958495
1 1 0.953277
1 1 0.950835
0 1 1
0.0195621 1 1
0.200916 1 1
0.397147 1 1
0.608164 1 1
0.830854 1 0.982483
0.994171 1 0.951385
1 1 0.950545
1 1 0.948043
0 0 1
0 0 1
0.124926 0 1
0.352651 0 1
0.591852 0 1
0.846708 0 1
1 0 1
1 0 1
1 0 1
0 0 1
0 0 1
0.124727 0 1
0.357977 0 1
0.602914 0 1
0.863935 0 1
1 0 1
1 0 1
1 0 1
0 0.148333 1
0 0.143069 1
0.140169 0.143481 1
0.379507 0.138659 1
0.630243 0.131868 1
0.896452 0.12108 1
1 0.123323 1
1 0.158419 1
1 0.195499 1
0 0.365728 1
0 0.363958 1
0.138247 0.366629 1
0.378653 0.362676 1
0.630426 0.355596 1
0.897292 0.345052 1
1 0.350469 1
1 0.391897 1
1 0.433845 1
0 0.596155 1
0 0.593591 1
0.121187 0.597253 1
0.364065 0.596185 1
0.620676 0.59295 1
0.891112 0.586786 1
1 0.594965 1
1 0.633753 1
1 0.668193 1
0 0.837827 1
0 0.839811 1
0.099733 0.846983 1
0.341939 0.845579 1
0.594293 0.837415 1
0.855451 0.822217 1
1 0.818723 1
1 0.843717 1
1 0.864683 1
0 1 1
0 1 1
0.113588 1 1
0.343694 1 1
0.581476 1 1
0.826658 0.996368 1
1 0.974807 1
1 0.97554 1
1 0.97171 1
0 1 1
0 1 1
0.19675 1 1
0.405646 1 1
0.617945 1 1
0.836927 1 1
0.999695 1 1
1 1 1
1 1 1
0 1 1
0.0200198 1 1
0.200961 1 1
0.397131 1 1
0.609918 1 1
0.832258 1 1
0.995285 1 1
1 1 1
1 1 0.999405
