nova/tdt-studio/app/Lut_mau/Buttery LUTs/BMPCC4K_New_Creative_1.cube
TITLE "Generated by Resolve"
LUT_3D_SIZE 5
0 0 0
0.0958114 0 0
0.568658 0 0
1 0 0
1 0 0
0 0.152026 0
0.0945449 0.138888 0
0.575784 0.121386 0
1 0.0993362 0
1 0.167117 0
0 0.58056 0
0.0683757 0.58056 0
0.557763 0.569451 0
1 0.565393 0
1 0.648814 0
0 1 0
0.0636912 1 0
0.554345 1 0
1 1 0
1 1 0
0 1 0
0.255848 1 0
0.672099 1 0
1 1 0
1 1 0
0 0 0.139712
0.103838 0 0.125368
0.569802 0 0.0845502
1 0 0.0422522
1 0 0.0892958
0 0.147662 0.155398
0.102617 0.136492 0.134905
0.586511 0.12047 0.110369
1 0.10811 0.0885176
1 0.177157 0.154131
0 0.581384 0.136965
0.0793011 0.581323 0.126513
0.569665 0.570718 0.10544
1 0.569528 0.0920424
1 0.651759 0.159319
0 1 0.137392
0.076112 1 0.134447
0.561349 1 0.106691
1 1 0.0705882
1 1 0.095201
0 1 0.340093
0.241108 1 0.277684
0.652476 1 0.180941
1 1 0.0962997
1 1 0.0964218
0 0 0.57258
0.106477 0 0.555291
0.569665 0 0.511376
1 0 0.471107
1 0 0.523903
0 0.139406 0.587518
0.107836 0.129885 0.568673
0.593347 0.115724 0.544167
1 0.104631 0.523201
1 0.173587 0.594003
0 0.577249 0.573312
0.0866407 0.576898 0.5635
0.578836 0.567773 0.544015
1 0.567132 0.539513
1 0.646006 0.611337
0 1 0.580301
0.0831159 1 0.574868
0.562066 1 0.540887
1 0.987091 0.498207
1 1 0.513329
0 1 0.777905
0.220066 1 0.703624
0.627451 1 0.599619
1 1 0.512871
1 1 0.513726
0 0 1
0.107118 0 0.995651
0.569986 0 0.951553
1 0 0.912734
1 0 0.965454
0 0.130709 1
0.113359 0.123262 1
0.600809 0.110582 0.985153
1 0.100481 0.961898
1 0.170657 1
0 0.573083 1
0.0941634 0.572839 0.998779
0.589471 0.566308 0.978469
1 0.568261 0.964126
1 0.645167 1
0 1 1
0.0895552 1 0.994232
0.562249 1 0.957656
1 0.969268 0.910292
1 0.975128 0.913024
0 1 1
0.200626 1 1
0.606424 1 0.986496
0.992798 1 0.906355
1 1 0.904189
0 0 1
0.124926 0 1
0.591852 0 1
1 0 1
1 0 1
0 0.148333 1
0.140169 0.143481 1
0.630243 0.131868 1
1 0.123323 1
1 0.195499 1
0 0.596155 1
0.121187 0.597253 1
0.620676 0.59295 1
1 0.594965 1
1 0.668193 1
0 1 1
0.113588 1 1
0.581476 1 1
1 0.974807 1
1 0.97171 1
0 1 1
0.200961 1 1
0.609918 1 1
0.995285 1 1
1 1 0.999405
