nova/tdt-studio/app/Lut_mau/Buttery LUTs/GH5_New_Creative_1.cube
TITLE "Generated by Resolve"
LUT_3D_SIZE 33
0 0 0
0 0 0
0 0 0
0 0 0
0 0 0
0 0 0
0 0 0
0 0 0
0 0 0
0.0431067 0 0
0.0947738 0 0
0.150378 0 0
0.208423 0 0
0.269123 0 0
0.332235 0 0
0.396674 0 0
0.461631 0 0
0.527337 0 0
0.594583 0 0
0.664714 0 0
0.73756 0 0
0.810117 0 0
0.879591 0 0
0.944549 0 0
1 0 0
1 0 0
1 0 0
1 0 0
1 0 0
1 0 0
1 0 0
1 0 0
1 0 0
0 0 0
0 0 0
0 0 0
0 0 0
0 0 0
0 0 0
0 0 0
0 0 0
0 0 0
0.0432593 0 0
0.0957961 0 0
0.151446 0 0
0.209781 0 0
0.271015 0 0
0.33402 0 0
0.398383 0 0
0.463569 0 0
0.52929 0 0
0.596613 0 0
0.666636 0 0
0.738628 0 0
0.810987 0 0
0.880812 0 0
0.946258 0 0
1 0 0
1 0 0
1 0 0
1 0 0
1 0 0
1 0 0
1 0 0
1 0 0
1 0 0
0 0 0
0 0 0
0 0 0
0 0 0
0 0 0
0 0 0
0 0 0
0 0 0
0.00120546 0 0
0.0517433 0 0
0.104829 0 0
0.160983 0 0
0.219806 0 0
0.280919 0 0
0.343343 0 0
0.407553 0 0
0.472328 0 0
0.537438 0 0
0.60502 0 0
0.675975 0 0
0.749615 0 0
0.822828 0 0
0.892912 0 0
0.958144 0 0
1 0 0
1 0 0
1 0 0
1 0 0
1 0 0
1 0 0
1 0 0
1 0 0
1 0 0
0 0 0
0 0 0
0 0 0
0 0 0
0 0 0
0 0 0
0 0 0
0 0 0
0.00241093 0 0
0.0544747 0 0
0.111269 0 0
0.167636 0 0
0.226551 0 0
0.287373 0 0
0.349859 0 0
0.414313 0 0
0.479912 0 0
0.546365 0 0
0.615091 0 0
0.687221 0 0
0.761746 0 0
0.83537 0 0
0.905303 0 0
0.970245 0 0
1 0 0
1 0 0
1 0 0
1 0 0
1 0 0
1 0 0
1 0 0
1 0 0
1 0 0
0 0 0
0 0 0
0 0 0
0 0 0
0 0 0
0 0 0
0 0 0
0 0 0
0.00596628 0 0
0.0561685 0 0
0.108797 0 0
0.169741 0 0
0.230411 0 0
0.292607 0 0
0.356497 0 0
0.422034 0 0
0.488136 0 0
0.5552 0 0
0.624628 0 0
0.698177 0 0
0.773129 0 0
0.847105 0 0
0.917113 0 0
0.98175 0 0
1 0 0
1 0 0
1 0 0
1 0 0
1 0 0
1 0 0
1 0 0
1 0 0
1 0 0
0 0 0
0 0 0
0 0 0
0 0 0
0 0 0
0 0 0
0 0 0
0 0 0
0.0116121 0 0
0.0624399 0 0
0.11635 0 0
0.172976 0 0
0.236713 0 0
0.302266 0 0
0.366903 0 0
0.433021 0 0
0.49984 0 0
0.567025 0 0
0.637507 0 0
0.711482 0 0
0.78677 0 0
0.860945 0 0
0.931044 0 0
0.995773 0 0
1 0 0
1 0 0
1 0 0
1 0 0
1 0 0
1 0 0
1 0 0
1 0 0
1 0 0
0 0 0
0 0 0
0 0 0
0 0 0
0 0 0
0 0 0
0 0 0
0 0 0
0.0153658 0 0
0.0671397 0 0
0.121767 0 0
0.179751 0 0
0.240421 0 0
0.306218 0 0
0.377478 0 0
0.445518 0 0
0.513771 0 0
0.582834 0 0
0.654704 0 0
0.730388 0 0
0.806912 0 0
0.881392 0 0
0.951644 0 0
1 0 0
1 0 0
1 0 0
1 0 0
1 0 0
1 0 0
1 0 0
1 0 0
1 0 0
1 0 0
0 0.0295262 0
0 0.0284123 0
0 0.0294499 0
0 0.0295872 0
0 0.0291295 0
0 0.028336 0
0 0.0278019 0
0 0.0270542 0
0.016846 0.0255436 0
0.0693675 0.0236973 0
0.125093 0.0209659 0
0.183551 0.0176699 0
0.245014 0.0137636 0
0.309239 0.00950637 0
0.376059 0.00457771 0
0.44979 0 0
0.522393 0 0
0.593332 0 0
0.667063 0 0
0.74403 0 0
0.821851 0 0
0.897169 0 0
0.967956 0 0
1 0 0
1 0 0
1 0 0
1 0 0
1 0 0
1 0 0
1 0 0
1 0 0
1 0.00639353 0
1 0.0150454 0
0 0.0692607 0
0 0.0690471 0
0 0.0706951 0
0 0.0716869 0
0 0.0717327 0
0 0.0715648 0
0 0.0716716 0
0 0.0713359 0
0.0175021 0.0703746 0
0.0707561 0.0687724 0
0.126879 0.0666209 0
0.186389 0.063798 0
0.248646 0.0604562 0
0.313558 0.056611 0
0.38027 0.0525368 0
0.448859 0.0481575 0
0.521019 0.042649 0
0.598291 0.0351873 0
0.676539 0.0281682 0
0.755245 0.0216983 0
0.834058 0.0150607 0
0.910094 0.00982681 0
0.981048 0.00619516 0
1 0.00450141 0
1 0.00477607 0
1 0.00901808 0
1 0.0175174 0
1 0.027924 0
1 0.0374914 0
1 0.0463417 0
1 0.0550546 0
1 0.0640879 0
1 0.0732586 0
0 0.112688 0
0 0.112978 0
0 0.115358 0
0 0.116854 0
0 0.117464 0
0 0.117784 0
0 0.118502 0
0 0.118837 0
0.0170901 0.11841 0
0.0710155 0.117372 0
0.128023 0.115694 0
0.188006 0.113466 0
0.25098 0.110658 0
0.316396 0.107164 0
0.384131 0.103502 0
0.452918 0.0996872 0
0.523125 0.0958267 0
0.594873 0.091722 0
0.675807 0.0845655 0
0.762051 0.0757305 0
0.844038 0.0688029 0
0.920424 0.063798 0
0.991592 0.0606546 0
1 0.0594644 0
1 0.0606394 0
1 0.0664378 0
1 0.0759899 0
1 0.0869612 0
1 0.0964981 0
1 0.105837 0
1 0.114977 0
1 0.124361 0
1 0.133837 0
0 0.158877 0
0 0.159823 0
0 0.162829 0
0 0.165011 0
0 0.16611 0
0 0.166979 0
0 0.168154 0
0 0.16907 0
0.0154726 0.169207 0
0.0697337 0.168811 0
0.127489 0.167681 0
0.188312 0.165942 0
0.252003 0.163668 0
0.318242 0.160922 0
0.386481 0.15787 0
0.456336 0.154406 0
0.526818 0.150958 0
0.599329 0.147387 0
0.67599 0.142885 0
0.757748 0.136919 0
0.844266 0.128618 0
0.926497 0.121798 0
0.999237 0.118456 0
1 0.117754 0
1 0.119875 0
1 0.126619 0
1 0.137163 0
1 0.148592 0
1 0.158221 0
1 0.167575 0
1 0.177127 0
1 0.186831 0
1 0.196368 0
0 0.208545 0
0 0.209979 0
0 0.213596 0
0 0.216129 0
0 0.21799 0
0 0.219501 0
0 0.221241 0
0 0.222736 0
0.0128176 0.223545 0
0.0677806 0.223423 0
0.126009 0.222721 0
0.187213 0.221622 0
0.251514 0.219913 0
0.318486 0.21767 0
0.387594 0.215076 0
0.457801 0.212222 0
0.529137 0.209094 0
0.602121 0.205951 0
0.68011 0.201663 0
0.760388 0.196872 0
0.839658 0.192065 0
0.9187 0.187488 0
0.994904 0.183108 0
1 0.180743 0
1 0.1823 0
1 0.190127 0
1 0.201221 0
1 0.212451 0
1 0.221851 0
1 0.231662 0
1 0.241428 0
1 0.25095 0
1 0.260594 0
0 0.261265 0
0 0.263264 0
0 0.267308 0
0 0.270283 0
0 0.27274 0
0 0.274815 0
0 0.277089 0
0 0.279255 0
0.0090486 0.280568 0
0.0649882 0.281147 0
0.1234 0.280858 0
0.185153 0.280278 0
0.250034 0.279072 0
0.317433 0.277363 0
0.386862 0.275242 0
0.457664 0.272496 0
0.529595 0.269963 0
0.603769 0.266987 0
0.6822 0.263005 0
0.76257 0.258198 0
0.842634 0.254002 0
0.918273 0.251102 0
0.987991 0.249836 0
1 0.249683 0
1 0.252491 0
1 0.260792 0
1 0.272129 0
1 0.282918 0
1 0.292195 0
1 0.301732 0
1 0.31107 0
1 0.320333 0
1 0.329885 0
0 0.316609 0
0 0.319203 0
0 0.32401 0
0 0.327703 0
0 0.330739 0
0 0.333028 0
0 0.335897 0
0 0.338598 0
0.00479133 0.340352 0
0.0607004 0.341573 0
0.119493 0.341833 0
0.182361 0.341512 0
0.247318 0.34078 0
0.315267 0.339391 0
0.38526 0.33756 0
0.456168 0.335271 0
0.528618 0.333028 0
0.603037 0.330373 0
0.681773 0.326375 0
0.763241 0.321828 0
0.843122 0.317922 0
0.918624 0.315282 0
0.987381 0.314061 0
1 0.31516 0
1 0.31989 0
1 0.329656 0
1 0.341115 0
1 0.352529 0
1 0.362905 0
1 0.372961 0
1 0.383581 0
1 0.394324 0
1 0.404974 0
0 0.374594 0
0 0.37789 0
0 0.383154 0
0 0.387533 0
0 0.390997 0
0 0.393912 0
0 0.397055 0
0 0.400351 0
0 0.402686 0
0.0561227 0.404105 0
0.115404 0.404837 0
0.177996 0.405081 0
0.243656 0.404608 0
0.311986 0.40322 0
0.381872 0.401648 0
0.453696 0.399786 0
0.526131 0.397864 0
0.601251 0.395102 0
0.680415 0.391241 0
0.761685 0.387121 0
0.841718 0.383352 0
0.916564 0.380575 0
0.985473 0.379797 0
1 0.38114 0
1 0.386465 0
1 0.396658 0
1 0.408972 0
1 0.420768 0
1 0.43151 0
1 0.442725 0
1 0.454261 0
1 0.465705 0
1 0.477607 0
0 0.435218 0
0 0.438941 0
0 0.444831 0
0 0.449577 0
0 0.453605 0
0 0.45684 0
0 0.460441 0
0 0.464088 0
0 0.466896 0
0.0507515 0.468452 0
0.110796 0.469627 0
0.173632 0.47013 0
0.239414 0.46981 0
0.307317 0.468803 0
0.378164 0.467338 0
0.449866 0.465782 0
0.522484 0.463554 0
0.597772 0.461051 0
0.67747 0.457404 0
0.759091 0.453254 0
0.838392 0.449378 0
0.913741 0.447135 0
0.982071 0.446891 0
1 0.448692 0
1 0.454856 0
1 0.466331 0
1 0.479622 0
1 0.491691 0
1 0.503639 0
1 0.51577 0
1 0.52755 0
1 0.539879 0
1 0.552193 0
0 0.49781 0
0 0.502098 0
0 0.508293 0
0 0.513588 0
0 0.51754 0
0 0.521447 0
0 0.525338 0
0 0.529442 0
0 0.532097 0
0.0452888 0.534371 0
0.105669 0.535683 0
0.168566 0.5364 0
0.23415 0.536065 0
0.302754 0.535378 0
0.37319 0.534203 0
0.444831 0.532265 0
0.517815 0.530419 0
0.59382 0.527916 0
0.673823 0.524468 0
0.755108 0.520394 0
0.835492 0.517311 0
0.910719 0.515877 0
0.979034 0.516014 0
1 0.518883 0
1 0.526757 0
1 0.539101 0
1 0.553155 0
1 0.566018 0
1 0.578439 0
1 0.590677 0
1 0.603021 0
1 0.615427 0
1 0.627375 0
0 0.562295 0
0 0.567041 0
0 0.573449 0
0 0.578866 0
0 0.58352 0
0 0.587884 0
0 0.591882 0
0 0.596048 0
0 0.599298 0
0.0383459 0.601724 0
0.0981308 0.603418 0
0.160998 0.603861 0
0.226902 0.603922 0
0.29546 0.603342 0
0.365484 0.60209 0
0.437552 0.600793 0
0.511162 0.599313 0
0.58764 0.597406 0
0.66836 0.594064 0
0.750652 0.591058 0
0.831281 0.588968 0
0.906767 0.588052 0
0.975494 0.589578 0
1 0.593378 0
1 0.602045 0
1 0.615396 0
1 0.629938 0
1 0.642603 0
1 0.654978 0
1 0.667399 0
1 0.6795 0
1 0.691096 0
1 0.702739 0
0 0.62916 0
0 0.634287 0
0 0.640894 0
0 0.646906 0
0 0.651896 0
0 0.65655 0
0 0.660426 0
0 0.665156 0
0 0.668589 0
0.0268559 0.670909 0
0.0864576 0.672709 0
0.149706 0.673701 0
0.215717 0.674144 0
0.284001 0.673808 0
0.355215 0.673411 0
0.42768 0.672831 0
0.501854 0.672007 0
0.5794 0.670558 0
0.661097 0.668467 0
0.744396 0.666194 0
0.825071 0.664393 0
0.900679 0.664561 0
0.96968 0.666529 0
1 0.670542 0
1 0.679988 0
1 0.693416 0
1 0.707515 0
1 0.719692 0
1 0.731731 0
1 0.743435 0
1 0.754437 0
1 0.765362 0
1 0.775921 0
0 0.69836 0
0 0.703441 0
0 0.710689 0
0 0.716808 0
0 0.721935 0
0 0.726314 0
0 0.730541 0
0 0.735515 0
0 0.73901 0
0.0139162 0.741909 0
0.0740978 0.74432 0
0.137682 0.745998 0
0.20412 0.7467 0
0.273808 0.747448 0
0.345525 0.747982 0
0.418769 0.747753 0
0.493751 0.747814 0
0.572366 0.747082 0
0.654459 0.745007 0
0.737804 0.743114 0
0.818845 0.741878 0
0.894179 0.741939 0
0.962112 0.743664 0
1 0.747906 0
1 0.757198 0
1 0.769924 0
1 0.783276 0
1 0.794675 0
1 0.805554 0
1 0.815976 0
1 0.825956 0
1 0.835782 0
1 0.84506 0
0 0.768109 0
0 0.773648 0
0 0.78085 0
0 0.787091 0
0 0.792081 0
0 0.796933 0
0 0.801526 0
0 0.806409 0
0 0.810803 0
0.00462348 0.814481 0
0.0655375 0.817639 0
0.129946 0.819806 0
0.197513 0.821668 0
0.267704 0.823117 0
0.33994 0.823636 0
0.413779 0.824292 0
0.489403 0.824506 0
0.567895 0.823392 0
0.650629 0.821546 0
0.733898 0.819379 0
0.814038 0.817731 0
0.88864 0.817227 0
0.956054 0.81857 0
1 0.822217 0
1 0.830564 0
1 0.842268 0
1 0.854566 0
1 0.864759 0
1 0.874525 0
1 0.883345 0
1 0.89218 0
1 0.900694 0
1 0.908629 0
0 0.837598 0
0 0.843244 0
0 0.850309 0
0 0.856718 0
0 0.862562 0
0 0.867872 0
0 0.872724 0
0 0.878706 0
0 0.883925 0
0.0018616 0.887968 0
0.0640116 0.891493 0
0.12903 0.894423 0
0.197299 0.896529 0
0.267765 0.897627 0
0.340291 0.898619 0
0.414496 0.899001 0
0.489311 0.898558 0
0.568353 0.897292 0
0.650629 0.894865 0
0.732937 0.891997 0
0.812146 0.889281 0
0.885649 0.888197 0
0.951995 0.888518 0
1 0.891234 0
1 0.898543 0
1 0.909163 0
1 0.919951 0
1 0.928832 0
1 0.937255 0
1 0.944991 0
1 0.952316 0
1 0.959487 0
1 0.966125 0
0 0.906188 0
0 0.91194 0
0 0.919615 0
0 0.926863 0
0 0.933196 0
0 0.938811 0
0 0.944656 0
0 0.951034 0
0 0.956085 0
0.00770581 0.960464 0
0.0701305 0.964187 0
0.13518 0.966628 0
0.203723 0.968399 0
0.274098 0.969558 0
0.3467 0.96994 0
0.419776 0.96936 0
0.494759 0.968383 0
0.5729 0.966323 0
0.654459 0.962844 0
0.735241 0.958602 0
0.813199 0.955291 0
0.885573 0.953063 0
0.950423 0.952224 0
1 0.953857 0
1 0.959991 0
1 0.969299 0
1 0.978775 0
1 0.986297 0
1 0.993393 0
1 0.999954 0
1 1 0
1 1 0
1 1 0
0 0.974258 0
0 0.98085 0
0 0.989151 0
0 0.996414 0
0 1 0
0 1 0
0 1 0
0 1 0
0 1 0
0.0213779 1 0
0.0841077 1 0
0.149828 1 0
0.218082 1 0
0.288533 1 0
0.360098 1 0
0.432975 1 0
0.506935 1 0
0.58471 1 0
0.66479 1 0
0.744518 1 0
0.820813 1 0
0.891737 1 0
0.954757 1 0
1 1 0
1 1 0
1 1 0
1 1 0
1 1 0
1 1 0
1 1 0
1 1 0
1 1 0
1 1 0
0 1 0
0 1 0
0 1 0
0 1 0
0 1 0
0 1 0
0 1 0
0 1 0
0 1 0
0.0527657 1 0
0.116487 1 0
0.182177 1 0
0.249882 1 0
0.319112 1 0
0.390173 1 0
0.461723 1 0
0.535088 1 0
0.611521 1 0
0.690608 1 0
0.768307 1 0
0.843229 1 0
0.912047 1 0
0.973693 1 0
1 1 0
1 1 0
1 1 0
1 1 0
1 1 0
1 1 0
1 1 0
1 1 0
1 1 0
1 1 0
0 1 0
0 1 0
0 1 0
0 1 0
0 1 0
0 1 0
0 1 0
0 1 0
0.0358892 1 0
0.0963302 1 0
0.158984 1 0
0.223728 1 0
0.290455 1 0
0.358679 1 0
0.428183 1 0
0.498726 1 0
0.570581 1 0
0.646128 1 0
0.7234 1 0
0.800153 1 0
0.872694 1 0
0.939834 1 0
0.998672 1 0
1 1 0
1 1 0
1 1 0
1 1 0
1 1 0
1 1 0
1 1 0
1 1 0
1 1 0
1 1 0
0 1 0
0 1 0
0 1 0
0 1 0
0 1 0
0 1 0
0 1 0
0.0215152 1 0
0.0784161 1 0
0.137209 1 0
0.198337 1 0
0.26157 1 0
0.326787 1 0
0.39379 1 0
0.461997 1 0
0.530861 1 0
0.601984 1 0
0.676158 1 0
0.751858 1 0
0.825681 1 0
0.895277 1 0
0.95903 1 0
1 1 0
1 1 0
1 1 0
1 1 0
1 1 0
1 1 0
1 1 0
1 1 0
1 1 0
1 1 0
1 1 0
0 1 0
0 1 0
0 1 0
0 1 0
0 1 0
0 1 0
3.0518e-05 1 0
0.0543374 1 0
0.11014 1 0
