nova/tdt-studio/app/Lut_mau/Buttery LUTs/GH5_New_Creative_1.cube
TITLE "Generated by Resolve"
LUT_3D_SIZE 5
0 0 0
0 0 0
0.461631 0 0
1 0 0
1 0 0
0 0.0692607 0
0.0175021 0.0703746 0
0.521019 0.042649 0
1 0.00477607 0
1 0.0732586 0
0 0.49781 0
0 0.532097 0
0.517815 0.530419 0
1 0.526757 0
1 0.627375 0
0 1 0
0 1 0
0.535088 1 0
1 1 0
1 1 0
0 1 0
0.164736 1 0
0.617761 1 0
1 1 0
1 1 0
0 0 0.0648203
0 0 0.0360723
0.466499 0 0
1 0 0
1 0 0
0 0.0691844 0.0752422
0.0300908 0.0741131 0.0730602
0.536202 0.0504311 0.0398566
1 0.0230564 0.00108339
1 0.0958267 0.0711681
0 0.509789 0.0446937
0.00965896 0.546029 0.0677806
0.541283 0.544945 0.0544137
1 0.548684 0.0437018
1 0.648859 0.126375
0 1 0.0362707
0.0261387 1 0.0939498
0.562631 1 0.0808881
1 1 0.0383764
1 1 0.0401007
0 1 0.245457
0.161196 1 0.212146
0.620371 1 0.128466
1 1 0.0525521
1 1 0.0554208
0 0 0.50956
0 0 0.480842
0.460731 0 0.420462
1 0 0.342184
1 0 0.364538
0 0.0563363 0.527962
0.032639 0.0645457 0.530373
0.541848 0.0447242 0.498787
1 0.0208286 0.461692
1 0.0955367 0.538811
0 0.507683 0.507027
0.0213016 0.544747 0.534356
0.554849 0.545388 0.523278
1 0.553246 0.524956
1 0.649287 0.612253
0 1 0.508293
0.0409552 1 0.56759
0.568399 1 0.547585
1 1 0.489509
1 1 0.484062
0 1 0.698375
0.14258 1 0.665125
0.605219 1 0.582223
1 1 0.503624
1 1 0.508339
0 0 1
0 0 1
0.448829 0 0.944106
1 0 0.870909
1 0 0.897581
0 0.0382544 1
0.0321965 0.0505531 1
0.545556 0.0344701 1
1 0.0135805 0.984512
1 0.0907149 1
0 0.500099 1
0.0301366 0.540291 1
0.569177 0.545815 1
1 0.558434 1
1 0.65095 1
0 1 1
0.0506294 1 1
0.569024 1 1
1 0.999252 0.937285
1 0.986984 0.922988
0 1 1
0.127367 1 1
0.58996 1 1
1 1 0.92607
1 1 0.920729
0 0 1
0 0 1
0.461662 0 1
1 0 1
1 0 1
0 0.0516823 1
0.0582437 0.0691691 1
0.576822 0.0560922 1
1 0.0383917 1
1 0.117845 1
0 0.525856 1
0.0618906 0.56817 1
0.606806 0.577813 1
1 0.591821 1
1 0.67689 1
0 1 1
0.0791485 1 1
0.585428 1 1
1 0.994995 1
1 0.986313 1
0 1 1
0.132296 1 1
0.59559 1 1
1 1 1
1 1 1
