nova/tdt-studio/app/Lut_mau/Buttery LUTs/GH5_GH5S_Tobacco.cube
TITLE "Generated by Resolve"
LUT_3D_SIZE 9
0 0 0
0.00360113 0.000274662 0.00030518
0.15053 0.00502022 0.00605783
0.340124 0.00842298 0.0107729
0.548943 0.0108797 0.0146792
0.749569 0.0124514 0.0176699
0.922896 0.0133822 0.019791
1 0.0137484 0.0208591
1 0.0137484 0.0208591
0.00120546 0.00862135 0.00120546
0.00564584 0.00582895 0.00120546
0.116289 0.00671397 0.00512703
0.284596 0.00759899 0.00955215
0.51104 0.0105287 0.0140536
0.724117 0.0122988 0.017319
0.905745 0.0133059 0.0196078
1 0.0137484 0.0208591
1 0.0137484 0.0208591
0.0123903 0.130419 0.0121157
0.0129854 0.121859 0.0116121
0.118273 0.126574 0.0134737
0.294987 0.117082 0.0153048
0.480629 0.105196 0.0168154
0.676646 0.0945449 0.0182193
0.880873 0.0861219 0.0194705
1 0.0805066 0.0201877
1 0.0770275 0.0200809
0.0197147 0.282094 0.018967
0.0197452 0.282994 0.0189975
0.132692 0.26569 0.0193637
0.275059 0.28867 0.0209964
0.499352 0.277775 0.021912
0.728206 0.268254 0.0225986
0.893584 0.274296 0.0230869
1 0.284108 0.0234073
1 0.288396 0.0234379
0.0248569 0.466102 0.0235142
0.0250095 0.474052 0.0236362
0.0828717 0.481956 0.0239109
0.293843 0.466178 0.0241703
0.473716 0.488319 0.024567
0.707118 0.479347 0.0245212
0.914199 0.477821 0.0243229
1 0.480964 0.024155
1 0.492241 0.0241398
0.0276036 0.672328 0.0255283
0.0276799 0.682811 0.0255741
0.0544289 0.70042 0.0255894
0.312184 0.662974 0.0252537
0.471916 0.684337 0.0250553
0.682445 0.693263 0.0242771
0.88661 0.688075 0.0235752
0.999466 0.689494 0.0230106
1 0.69749 0.0229191
0.0281987 0.873426 0.0253758
0.0281834 0.884153 0.0253147
0.0678111 0.898878 0.0250706
0.286458 0.881636 0.0243839
0.594842 0.819959 0.127169
0.723415 0.852552 0.0240482
0.887358 0.855283 0.0217594
1 0.864012 0.0208591
1 0.867933 0.0207675
0.0277104 0.997299 0.0243839
0.0629129 0.998032 0.0242466
0.224399 0.997635 0.0234684
0.392935 0.994339 0.023331
0.585229 0.986755 0.0603342
0.754864 0.99411 0.0861372
0.862318 0.99736 0.0196689
1 0.995758 0.0185855
1 0.995743 0.0185702
0.0276951 1 0.0243534
0.0276951 1 0.0243534
0.072221 1 0.024155
0.21886 1 0.0234379
0.445121 1 0.0222324
0.775311 0.998016 0.0838483
0.902968 0.996841 0.0561532
0.993164 0.995895 0.018677
1 0.995743 0.0185702
0.000122072 0.000137331 0.00517281
0.0181735 0.000976577 0.00494392
0.1682 0.00544747 0.0104524
0.361669 0.00880446 0.013962
0.569833 0.0110781 0.0150301
0.76846 0.0125887 0.0179141
0.94081 0.0134585 0.0200046
1 0.0137484 0.0208591
1 0.0137484 0.0208591
0.000915541 0.00619516 0.000900282
0.00590524 0.00460822 0.00263981
0.138552 0.00476081 0.00569161
0.322499 0.00817884 0.0103914
0.536721 0.0107729 0.0144808
0.74464 0.0124208 0.0175937
0.924514 0.0133822 0.0198062
1 0.0137484 0.0208591
1 0.0137484 0.0208591
0.0119936 0.124193 0.0117189
0.0149538 0.121889 0.0116579
0.135348 0.121355 0.0142977
0.301564 0.115023 0.0153201
0.510903 0.0996567 0.016907
0.743053 0.0814984 0.0183261
0.941741 0.0750896 0.0195621
1 0.0730602 0.0200046
1 0.0727703 0.0199893
0.0195163 0.276844 0.0187839
0.0196231 0.279835 0.0188907
0.131075 0.277638 0.0260777
0.30074 0.284779 0.0210422
0.527474 0.274067 0.0219577
0.724941 0.272251 0.0226444
0.903548 0.277333 0.0231479
1 0.279347 0.0233616
1 0.277272 0.0233463
0.0247959 0.46302 0.0234684
0.024979 0.472938 0.0236057
0.0896468 0.488197 0.0240024
0.319722 0.466667 0.0607919
0.502327 0.484947 0.0245518
0.735393 0.47602 0.0244907
0.937285 0.47599 0.0242924
1 0.486351 0.0241398
1 0.498054 0.0241093
0.0275883 0.670253 0.0255131
0.0276646 0.681422 0.0255589
0.0714275 0.69926 0.0255741
0.284047 0.689509 0.0330358
0.509957 0.677684 0.0578012
0.709941 0.689723 0.0242161
0.907561 0.68603 0.0235142
0.999893 0.690913 0.0229801
1 0.701747 0.0439307
0.0281987 0.871855 0.025391
0.0281834 0.883055 0.0253147
0.0933242 0.894957 0.0250095
0.308431 0.882994 0.0242771
0.622278 0.8206 0.21297
0.751583 0.851942 0.0479896
0.908537 0.857679 0.0263523
1 0.866041 0.020798
1 0.863432 0.0208438
0.0277256 0.994934 0.0244297
0.0941176 0.998734 0.024094
0.248905 0.997604 0.0428168
0.391897 0.998566 0.0338445
0.530617 0.996475 0.0404669
0.774365 0.993637 0.186175
0.883833 0.997147 0.0215763
1 0.995758 0.0185855
1 0.995743 0.0185702
0.0276951 1 0.0243534
0.0276951 1 0.0243534
0.0865492 1 0.0240787
0.237156 1 0.0233616
0.439002 1 0.0222782
0.772351 0.997909 0.128389
0.926635 0.996201 0.176669
1 0.995743 0.0185702
1 0.995743 0.0185702
0.00166323 0.00202945 0.12224
0.0331121 0.00314336 0.130083
0.185183 0.00674449 0.131884
0.381338 0.00967422 0.116854
0.5897 0.0117952 0.0921187
0.784985 0.0131991 0.0710613
0.957732 0.0140536 0.059617
1 0.014313 0.047715
1 0.0140993 0.0394446
0.00196841 0.00602731 0.101335
0.0156558 0.00436408 0.0976272
0.154452 0.00584421 0.0944076
0.343786 0.00900282 0.081651
0.558541 0.0114137 0.062562
0.764065 0.0130007 0.0473487
0.942931 0.0139925 0.0393378
1 0.0139925 0.0383764
1 0.0141299 0.0370642
0.0117342 0.119814 0.0793317
0.016556 0.119234 0.0826581
0.151125 0.118868 0.0880903
0.340078 0.107713 0.0790112
0.562097 0.0900282 0.0641337
0.777554 0.0768444 0.0552377
0.966995 0.0736248 0.0562753
1 0.0727398 0.059205
1 0.0729076 0.062501
0.0193637 0.273991 0.0444953
0.0205692 0.279072 0.0522316
0.138659 0.284581 0.0708324
0.328618 0.28307 0.0655985
0.538628 0.276631 0.0779126
0.753033 0.272099 0.0798962
0.965805 0.269566 0.0761883
1 0.268894 0.0779431
1 0.269184 0.0840162
0.0247959 0.462745 0.0234531
0.0250095 0.474632 0.0263066
0.112139 0.489647 0.0367132
0.342199 0.47071 0.140642
0.533867 0.483818 0.0462806
0.763882 0.475837 0.0446021
0.941375 0.481086 0.0725872
1 0.49192 0.102739
1 0.496834 0.10901
0.0275883 0.670863 0.0255131
0.0276799 0.683528 0.0255741
0.0946059 0.700435 0.0277256
0.287663 0.701869 0.0388037
0.537896 0.678904 0.130144
0.740307 0.688197 0.0375677
0.929168 0.686656 0.0633402
1 0.693736 0.112505
1 0.707546 0.167041
0.0281987 0.872679 0.0253758
0.0281682 0.883604 0.02533
0.124956 0.892546 0.0370184
0.348455 0.878813 0.0749218
0.643595 0.823529 0.292973
0.774853 0.85275 0.133455
0.927596 0.860029 0.105226
1 0.866529 0.0365301
1 0.861006 0.0279088
0.027512 0.994568 0.0623636
0.122759 0.999084 0.112322
0.271336 0.997055 0.130648
0.377188 1 0.0896162
0.502937 0.999969 0.0422217
0.791867 0.992538 0.287251
0.904768 0.996872 0.0399481
1 0.995743 0.0191348
1 0.995743 0.0185702
0.0276493 1 0.0326696
0.0276951 1 0.0243534
0.102876 1 0.0240024
0.258427 1 0.024094
0.461387 1 0.0248722
0.753292 0.998032 0.145022
0.944228 0.995651 0.293675
1 0.995743 0.0185702
1 0.995743 0.0186007
0.00300603 0.00395209 0.296529
0.0441138 0.00503548 0.30547
0.199817 0.00802625 0.304417
0.396887 0.0105745 0.283864
0.606622 0.0124361 0.256092
0.799542 0.0136416 0.234379
0.971908 0.0143893 0.221485
1 0.0145418 0.208042
1 0.0145266 0.1953
0.00296025 0.00526436 0.262028
0.0251316 0.00419623 0.258335
0.167407 0.007187 0.252918
0.361547 0.0099794 0.237858
0.577432 0.0120851 0.21799
0.779965 0.0134737 0.201129
0.959091 0.0142977 0.193118
1 0.0145113 0.186969
1 0.0145113 0.182269
0.00352483 0.115923 0.222797
0.0149386 0.116609 0.228305
0.167941 0.112566 0.238209
0.362829 0.100328 0.229328
0.584863 0.0836194 0.215274
0.798138 0.0721904 0.205798
0.986923 0.0701915 0.207706
1 0.0699168 0.210101
1 0.0705577 0.212726
0.0189212 0.268818 0.188006
0.0209049 0.275837 0.199527
0.154391 0.28278 0.21146
0.352255 0.278935 0.214527
0.584726 0.26862 0.208301
0.808667 0.262013 0.207263
0.988388 0.263264 0.213794
1 0.2654 0.220447
1 0.266758 0.226566
0.0243534 0.460472 0.14023
0.0245365 0.473991 0.157961
0.134096 0.488014 0.176486
0.342535 0.481773 0.220417
0.562509 0.48043 0.182544
0.775525 0.476387 0.197986
0.954635 0.482063 0.219562
1 0.483085 0.214221
1 0.485283 0.220081
0.0272068 0.670237 0.107164
0.0272068 0.684108 0.12607
0.115816 0.700252 0.147356
0.306371 0.703746 0.156771
0.571191 0.671641 0.293706
0.767178 0.685389 0.166842
0.946654 0.68542 0.202365
1 0.696712 0.268849
1 0.710781 0.317632
0.0277714 0.872938 0.10338
0.0276188 0.88333 0.126207
0.158328 0.887984 0.166293
0.390204 0.871183 0.204913
0.649683 0.831495 0.367376
0.795682 0.85005 0.262608
0.944625 0.861387 0.200458
1 0.86389 0.139406
1 0.857649 0.133944
0.0267491 0.994324 0.189395
0.144945 0.997879 0.231739
0.282948 0.996567 0.23975
0.354376 1 0.175631
0.514382 0.999924 0.13637
0.802792 0.994919 0.378714
0.9252 0.996323 0.142962
1 0.995438 0.110964
1 0.995071 0.108522
0.0271458 1 0.113375
0.0272526 1 0.107958
0.120409 1 0.119753
0.280964 1 0.121279
0.487236 1 0.110353
0.741711 0.998047 0.176043
0.960327 0.995041 0.424964
1 0.995468 0.101732
1 0.995529 0.0865339
0.00410468 0.00575265 0.508934
0.0527962 0.00677501 0.516182
0.210758 0.00929274 0.512337
0.410086 0.0114748 0.489158
0.619532 0.013077 0.460075
0.810575 0.0140841 0.439307
0.975921 0.0146944 0.426078
1 0.014786 0.412589
1 0.0147707 0.399649
0.00390631 0.00540169 0.464912
0.028687 0.0059205 0.46186
0.178485 0.00854505 0.456245
0.376226 0.010956 0.439368
0.592538 0.0127718 0.418067
0.792294 0.0139315 0.402258
0.971969 0.0146334 0.395087
1 0.0147707 0.388663
1 0.0147555 0.383246
0.0108339 0.102617 0.430777
0.0325628 0.104356 0.43682
0.179751 0.1028 0.438437
0.379751 0.0900435 0.428794
0.603449 0.07393 0.414969
0.814404 0.0641337 0.407416
0.989792 0.0630655 0.40882
1 0.0634775 0.410376
1 0.0644541 0.412467
0.0087129 0.264118 0.372778
0.0149691 0.272557 0.388128
0.166293 0.277043 0.405371
0.376043 0.270619 0.410895
0.608209 0.260639 0.406104
0.829511 0.255085 0.404822
0.994293 0.256901 0.411124
1 0.259098 0.416968
1 0.260731 0.422629
0.0235752 0.454658 0.331197
0.0237583 0.469612 0.351537
0.152102 0.482307 0.369924
0.354406 0.481956 0.374899
0.582223 0.474434 0.376303
0.804715 0.468772 0.379355
0.995407 0.46891 0.379858
1 0.472023 0.387915
1 0.480552 0.399649
0.0263218 0.665782 0.288594
0.0263828 0.680888 0.308736
0.134371 0.695949 0.329091
0.330694 0.697765 0.336645
0.579049 0.677378 0.403998
0.789151 0.679393 0.346654
0.944961 0.684245 0.397696
1 0.696544 0.44036
1 0.705043 0.446006
0.0268254 0.869688 0.271351
0.0266423 0.878767 0.299092
0.193332 0.878401 0.339239
0.425483 0.861936 0.368078
0.644221 0.845304 0.417151
0.812467 0.845472 0.418524
0.958251 0.859144 0.331777
1 0.857313 0.299458
1 0.85362 0.331151
0.0365148 0.992111 0.346456
0.162371 0.994888 0.379171
0.276967 0.997391 0.37464
0.341772 1 0.310002
0.535363 0.999649 0.287068
0.791897 0.994659 0.434669
0.943542 0.995575 0.316335
1 0.994949 0.263096
1 0.992447 0.259312
0.0263371 1 0.246723
0.0263066 1 0.252537
0.134874 1 0.265385
0.299992 1 0.266453
0.509636 0.999954 0.254841
0.732036 0.997909 0.252232
0.973892 0.9944 0.56965
1 0.99501 0.241505
1 0.995056 0.229984
0.00486763 0.00723278 0.722316
0.0606241 0.00820935 0.728756
0.221378 0.0103609 0.721645
0.423285 0.0122683 0.698054
0.632319 0.0136263 0.669596
0.820981 0.0144656 0.651102
0.986099 0.0149538 0.638972
1 0.0149996 0.625864
1 0.0149844 0.613779
0.0047303 0.0069276 0.676478
0.0351568 0.00746166 0.674113
0.188724 0.00972 0.667842
0.390173 0.011841 0.650477
0.606546 0.0133974 0.629191
0.804181 0.0143587 0.615488
0.978576 0.0149081 0.609476
1 0.0149844 0.60415
1 0.0149844 0.599878
0.0104067 0.0915236 0.644663
0.0366064 0.0942702 0.651865
0.191211 0.0920577 0.653071
0.395987 0.0789807 0.643091
0.620432 0.0634165 0.630289
0.828946 0.0552987 0.624262
0.992264 0.0551919 0.626459
1 0.0563516 0.628916
1 0.0570993 0.631251
0.00425727 0.256336 0.588373
0.020798 0.265782 0.60473
0.185855 0.266468 0.629206
0.396399 0.260975 0.629313
0.629419 0.251453 0.624857
0.847959 0.246647 0.624384
1 0.249042 0.631083
1 0.251118 0.636515
1 0.253178 0.641657
0.0226444 0.44686 0.551003
0.0228275 0.463142 0.572824
0.16463 0.476173 0.584924
0.372152 0.474189 0.589746
0.609537 0.464073 0.590173
0.832883 0.458595 0.590433
0.996094 0.460914 0.597925
1 0.465507 0.603891
1 0.478141 0.606668
0.0252384 0.658579 0.505928
0.0252232 0.674998 0.527535
0.15024 0.688594 0.547082
0.352132 0.688899 0.552499
0.589273 0.678721 0.548699
0.802945 0.672602 0.555062
0.960983 0.679667 0.571786
1 0.688518 0.576852
1 0.693233 0.581506
0.0256352 0.861967 0.484138
0.0388647 0.870146 0.508995
0.228244 0.866621 0.53312
0.455344 0.852979 0.543038
0.655528 0.845014 0.551781
0.823621 0.841962 0.580911
0.971222 0.852338 0.511437
1 0.849012 0.522362
1 0.847807 0.552453
0.0464027 0.988479 0.520867
0.174487 0.991714 0.543465
0.250568 1 0.532265
0.342596 1 0.499916
0.553384 0.998932 0.485466
0.772183 0.996521 0.482582
0.955352 0.994812 0.49691
1 0.993957 0.461601
1 0.986816 0.457801
0.0251621 1 0.437659
0.0295262 1 0.447501
0.146181 1 0.46006
0.316884 1 0.45893
0.528557 0.999283 0.446571
0.744701 0.997223 0.432822
0.971496 0.994079 0.658854
1 0.994339 0.446845
1 0.99443 0.420966
0.00534066 0.00831617 0.904982
0.0711528 0.009308 0.908751
0.234531 0.0112001 0.899443
0.438331 0.0128939 0.877409
0.647868 0.0140688 0.85124
0.833783 0.0147555 0.83505
0.997711 0.0151369 0.824231
1 0.0151522 0.813611
1 0.0151522 0.803784
0.0052491 0.00807202 0.861128
0.0433661 0.00866712 0.860761
0.201221 0.0106813 0.854719
0.405921 0.0125277 0.837461
0.621927 0.0138705 0.817639
0.817624 0.0146792 0.8065
0.984588 0.0151064 0.803113
1 0.0151369 0.799786
1 0.0151369 0.797208
0.00993362 0.0823072 0.83888
0.0461585 0.0855573 0.846403
0.205417 0.0828717 0.847074
0.413962 0.0696727 0.837339
0.63946 0.0547341 0.826032
0.845228 0.0479591 0.823346
1 0.0501411 0.827085
1 0.0505531 0.830427
1 0.0509651 0.833951
0.0137026 0.243 0.805142
0.0381933 0.254063 0.821332
0.202991 0.258686 0.834516
0.417823 0.252888 0.834516
0.651392 0.243412 0.830793
0.866316 0.239597 0.831815
1 0.241794 0.838743
1 0.24419 0.84535
1 0.246265 0.851942
0.000564584 0.452796 0.727886
0.00872816 0.470207 0.748821
0.162768 0.476448 0.779706
0.396704 0.464561 0.804364
0.632532 0.455222 0.802197
0.852689 0.450828 0.803601
0.999695 0.453407 0.811688
1 0.460197 0.812345
1 0.478019 0.800229
0.0241398 0.651469 0.725002
0.0241093 0.668803 0.746654
0.16614 0.681437 0.764385
0.373175 0.680598 0.764324
0.611353 0.670619 0.750561
0.825833 0.665782 0.737224
0.98407 0.674037 0.734051
1 0.683268 0.73991
1 0.684062 0.750118
0.0244297 0.853223 0.700816
0.0560922 0.860792 0.715557
0.263005 0.855528 0.717998
0.481483 0.84535 0.713497
0.672053 0.840391 0.712688
0.830014 0.840101 0.735027
0.982651 0.843397 0.720821
1 0.839734 0.730526
1 0.830533 0.712215
0.0624704 0.984237 0.692775
0.177386 0.990127 0.711009
0.217517 1 0.715938
0.355047 0.999908 0.709133
0.570413 0.996765 0.695445
0.782818 0.995651 0.682322
0.970184 0.991562 0.730388
1 0.987106 0.672358
1 0.982544 0.690394
0.0238499 1 0.650233
0.0335699 1 0.660761
0.156207 1 0.671611
0.332235 1 0.669261
0.545617 0.998474 0.655955
0.760388 0.996384 0.64268
0.968688 0.993912 0.732555
1 0.993652 0.65005
1 0.993713 0.631083
0.00556954 0.00895705 1
0.0817578 0.0099794 1
0.249134 0.0117952 1
0.454398 0.0133516 0.999573
0.66392 0.0144045 0.99176
0.847852 0.0149844 0.996139
0.995865 0.015259 0.98262
1 0.015259 0.973602
1 0.015259 0.9729
0.00556954 0.00894179 1
0.0539559 0.00956741 0.999817
0.216541 0.0114137 0.993347
0.423056 0.0131075 0.989258
0.639719 0.0142672 0.983734
0.833127 0.0149233 0.969268
0.998489 0.015259 0.970642
1 0.015259 0.97052
1 0.015259 0.969085
0.00953689 0.0751965 0.988037
0.057557 0.0791028 0.991104
0.221286 0.0760357 0.996765
0.434409 0.0623789 0.997238
0.660044 0.0483864 0.982498
0.863478 0.0444648 0.983261
1 0.0467689 0.992676
1 0.0469062 0.998093
1 0.0471351 0.991089
0.0158846 0.236225 0.983139
0.0547341 0.248096 0.993164
0.223667 0.253239 0.99263
0.441764 0.246921 0.988205
0.675792 0.237629 0.989441
0.887343 0.234928 0.998917
1 0.237308 0.999512
1 0.239612 0.997665
1 0.24181 0.995636
6.10361e-05 0.45005 0.911604
0.0117952 0.466835 0.934752
0.19791 0.465354 0.973983
0.422568 0.457984 0.985428
0.657679 0.449073 0.979034
0.87454 0.445533 0.975891
1 0.448707 0.978927
1 0.459007 0.973556
1 0.481773 0.953048
0.0220188 0.647334 0.910384
0.0309453 0.665629 0.931991
0.175586 0.680919 0.936522
0.379599 0.681987 0.921218
0.642908 0.66273 0.921767
0.8448 0.66273 0.892332
0.987137 0.672129 0.882765
1 0.680385 0.887388
1 0.670878 0.915221
0.0233921 0.845716 0.886625
0.0881056 0.852445 0.887236
0.298436 0.847242 0.873549
0.505898 0.840192 0.863203
0.687114 0.836896 0.863722
0.830915 0.839521 0.89099
0.989639 0.834211 0.900969
1 0.82797 0.898116
1 0.820645 0.894102
0.0755932 0.981613 0.849088
0.165469 0.992416 0.871397
0.201328 1 0.900206
0.372976 0.99939 0.898039
0.589319 0.994522 0.884123
0.798856 0.994644 0.870985
0.982712 0.988754 0.877562
1 0.981689 0.871138
1 0.976883 0.878065
0.0226139 1 0.849378
0.0335088 1 0.860166
0.16762 1 0.868955
0.349096 0.99971 0.864698
0.564019 0.997681 0.850507
0.776852 0.995575 0.837476
0.95903 0.993606 0.843153
1 0.992981 0.84892
1 0.993057 0.828031
0.00556954 0.00895705 1
0.0921187 0.0101167 1
0.264729 0.0119326 1
0.47126 0.0134737 1
0.680262 0.0144961 1
0.862074 0.0150454 1
0.998428 0.0153048 1
1 0.0153048 1
1 0.0153048 1
0.00556954 0.00895705 1
0.0640879 0.00976577 1
0.231083 0.0116274 1
0.44065 0.0132906 1
0.657374 0.0144045 1
0.848798 0.0150149 1
1 0.0152895 1
1 0.0153048 1
1 0.0153048 1
0.00914015 0.0677195 1
0.0695659 0.0720073 1
0.239261 0.0681926 1
0.454948 0.0549477 1
0.680751 0.0420233 1
0.882063 0.0416419 1
1 0.0435187 1
1 0.0432136 1
1 0.0429999 1
0.0158846 0.230716 1
0.0708476 0.243198 1
0.244388 0.247745 1
0.466392 0.24123 1
0.700298 0.232273 1
0.908415 0.230259 1
1 0.232837 1
1 0.235584 1
1 0.237812 1
0.000381476 0.442908 1
0.0308537 0.459724 0.999634
0.225452 0.458381 1
0.448493 0.452201 1
0.683818 0.443671 1
0.897246 0.440803 1
1 0.445747 1
1 0.460578 1
1 0.487129 1
0.00767529 0.654704 0.990127
0.0274815 0.670512 0.993133
0.171771 0.687022 0.993545
0.41735 0.672557 1
0.672557 0.658381 1
0.864515 0.661494 0.994995
0.991272 0.671183 0.994324
1 0.677043 1
1 0.654643 1
0.0225528 0.839582 1
0.124224 0.845884 0.994781
0.330983 0.841901 0.986221
0.525429 0.838361 0.983276
0.687968 0.838788 0.989395
0.84271 0.83389 1
0.992935 0.827161 1
1 0.820706 1
1 0.813275 1
0.0885176 0.980377 0.977218
0.138094 0.998917 1
0.202914 1 1
0.392966 0.998154 1
0.610178 0.992554 1
0.816709 0.993698 0.996902
0.989578 0.983551 0.999619
1 0.975265 1
1 0.97113 0.997879
0.0215763 1 1
0.0434424 1 1
0.182559 1 1
0.368978 0.999054 0.995773
0.584726 0.996948 0.996399
0.794995 0.994827 0.996155
0.974487 0.993027 0.986786
1 0.992447 0.9879
1 0.992462 0.987243
