nova/tdt-studio/app/Lut_mau/Buttery LUTs/GH5_GH5S_Tobacco.cube
TITLE "Generated by Resolve"
LUT_3D_SIZE 33
0 0 0
0 0 0
0 0 0
0.000518807 4.57771e-05 4.57771e-05
0.00360113 0.000274662 0.00030518
0.0368353 0.00173953 0.00198367
0.0728771 0.00297551 0.0034638
0.110491 0.00404364 0.00479133
0.15053 0.00502022 0.00605783
0.193088 0.00595102 0.00727855
0.23978 0.00683604 0.00846876
0.289708 0.00766003 0.00965896
0.340124 0.00842298 0.0107729
0.39205 0.00914015 0.011841
0.444007 0.00979629 0.0128481
0.496284 0.0103609 0.0137942
0.548943 0.0108797 0.0146792
0.601068 0.0113527 0.0155184
0.652476 0.01178 0.0162966
0.702174 0.0121462 0.0170138
0.749569 0.0124514 0.0176699
0.794736 0.012726 0.0182498
0.838056 0.0129702 0.0187991
0.880537 0.0131991 0.0193179
0.922896 0.0133822 0.019791
0.965026 0.01355 0.0202792
0.993515 0.0136721 0.0206455
1 0.0137484 0.0208591
1 0.0137484 0.0208591
1 0.0137484 0.0208591
1 0.0137484 0.0208591
1 0.0137484 0.0208591
1 0.0137484 0.0208591
0 0 0
0 0 0
0 0 0
0.000411994 3.0518e-05 3.0518e-05
0.0047303 0.000259403 0.000289921
0.0343938 0.00166323 0.00189212
0.0689708 0.00285344 0.00332647
0.105272 0.00390631 0.00462348
0.143786 0.00486763 0.00584421
0.184619 0.00576791 0.00703441
0.228702 0.00663767 0.00820935
0.27599 0.0074464 0.00933852
0.325261 0.00820935 0.0104524
0.376303 0.00894179 0.0115358
0.428107 0.00959792 0.0125582
0.480674 0.010193 0.0135195
0.533791 0.0107424 0.0144198
0.586343 0.0112306 0.0152895
0.638346 0.0116579 0.016083
0.68893 0.0120546 0.0168307
0.73724 0.0123903 0.0175021
0.783383 0.012665 0.0181125
0.827939 0.0129244 0.018677
0.871107 0.013138 0.0191958
0.913802 0.0133364 0.0196994
0.956924 0.0135195 0.0201724
0.986526 0.0136568 0.0205844
1 0.0137484 0.0208591
1 0.0137484 0.0208591
1 0.0137484 0.0208591
1 0.0137484 0.0208591
1 0.0137484 0.0208591
1 0.0137484 0.0208591
0 0 0
0 0 0
0 0 0
0 0 0
0.00529488 0.000274662 0.000320439
0.0250706 0.00131228 0.00146487
0.0577859 0.00250248 0.00288396
0.0942702 0.00360113 0.00422675
0.132967 0.00459297 0.00550851
0.173709 0.00552377 0.00671397
0.217044 0.00642405 0.00790417
0.263844 0.00724804 0.00906386
0.313268 0.00802625 0.010193
0.36405 0.00877394 0.0112764
0.415473 0.00944533 0.0122988
0.467857 0.010071 0.0132906
0.521721 0.0106203 0.0142214
0.575326 0.0111238 0.0151064
0.628321 0.0115816 0.0159457
0.680079 0.0119936 0.0167086
0.729412 0.0123293 0.0173953
0.776089 0.0126192 0.0180056
0.82089 0.0128786 0.0185855
0.864775 0.0131075 0.0191196
0.90779 0.0133211 0.0196231
0.951415 0.013489 0.0201114
0.983093 0.0136416 0.0205692
1 0.0137484 0.0208438
1 0.0137484 0.0208591
1 0.0137484 0.0208591
1 0.0137484 0.0208591
1 0.0137484 0.0208591
1 0.0137484 0.0208591
0 0 0
0 0 0
0 0 0
0 0 0
0.00543221 0.000320439 0.000350958
0.0218357 0.00114443 0.00129702
0.053254 0.00238041 0.00273136
0.0843214 0.00332647 0.00389105
0.119356 0.00425727 0.00508125
0.158526 0.00518807 0.00627146
0.201663 0.00610361 0.00749218
0.249454 0.00700389 0.0087129
0.301198 0.0078584 0.00991836
0.354086 0.00863661 0.0110628
0.407462 0.00933852 0.0121462
0.460807 0.0099794 0.0131533
0.514977 0.0105592 0.0141146
0.569192 0.0110781 0.0150149
0.62269 0.0115358 0.0158541
0.674998 0.0119478 0.0166323
0.725032 0.012314 0.0173342
0.772137 0.012604 0.0179599
0.817533 0.0128634 0.0185397
0.861723 0.0130922 0.019089
0.905104 0.0133059 0.0195926
0.948913 0.013489 0.0200961
0.983612 0.0136568 0.0205692
1 0.0137331 0.0208133
1 0.0137484 0.0208591
1 0.0137484 0.0208591
1 0.0137484 0.0208591
1 0.0137484 0.0208591
1 0.0137484 0.0208591
0.00120546 0.00862135 0.00120546
0.00117494 0.00807202 0.00115969
0.00109865 0.00723278 0.00109865
0.000869764 0.00527962 0.000854505
0.00564584 0.00582895 0.00120546
0.0217746 0.00764477 0.00213626
0.0521248 0.00769055 0.00328069
0.0832074 0.00724804 0.00421149
0.116289 0.00671397 0.00512703
0.150973 0.00607309 0.00610361
0.189319 0.00587472 0.00717174
0.233509 0.00671397 0.00831617
0.284596 0.00759899 0.00955215
0.340047 0.00842298 0.0107729
0.396918 0.00920119 0.0119478
0.454261 0.0099031 0.0130465
0.51104 0.0105287 0.0140536
0.566857 0.0110475 0.0149844
0.621286 0.0115206 0.0158236
0.673793 0.0119478 0.0166018
0.724117 0.0122988 0.017319
0.772122 0.012604 0.0179751
0.817624 0.0128634 0.0185397
0.862058 0.0130922 0.019089
0.905745 0.0133059 0.0196078
0.949798 0.013489 0.0200961
0.987579 0.0136568 0.0205844
1 0.0137331 0.020798
1 0.0137484 0.0208591
1 0.0137484 0.0208591
1 0.0137484 0.0208591
1 0.0137484 0.0208591
1 0.0137484 0.0208591
0.00494392 0.0369421 0.00488289
0.00450141 0.0329595 0.00445563
0.00407416 0.029221 0.00402838
0.00317388 0.021973 0.00314336
0.00531014 0.0234226 0.00341802
0.0223545 0.0258793 0.00421149
0.0525521 0.0268711 0.00515755
0.0861677 0.0261234 0.0059968
0.119142 0.0251774 0.00671397
0.154482 0.0240635 0.00753796
0.191165 0.0236515 0.00836194
0.229618 0.0235447 0.00918593
0.273152 0.0226749 0.0100099
0.323598 0.0201267 0.0107729
0.376822 0.0161593 0.011429
0.433326 0.0122683 0.0123903
0.492103 0.0103151 0.0137179
0.552087 0.0109255 0.0147402
0.610971 0.0114443 0.015671
0.667521 0.0118868 0.0165103
0.721279 0.0122835 0.0172885
0.771038 0.012604 0.0179599
0.817273 0.0128634 0.0185397
0.862577 0.0130922 0.019089
0.907729 0.0133059 0.0196231
0.952117 0.0135042 0.0201267
0.993362 0.0136721 0.0206149
0.999954 0.0137331 0.020798
1 0.0137484 0.0208591
1 0.0137484 0.0208591
1 0.0137484 0.0208591
1 0.0137484 0.0208591
1 0.0137484 0.0208591
0.00773632 0.0664836 0.00761425
0.00740063 0.0625925 0.00727855
0.00708019 0.0591745 0.00697337
0.00646983 0.0527199 0.00637827
0.00753796 0.0509041 0.0062562
0.0247959 0.05449 0.00698863
0.0526741 0.057969 0.00790417
0.085832 0.0585336 0.00865187
0.122179 0.0573892 0.00929274
0.160678 0.0557259 0.00991836
0.198245 0.0538949 0.0104677
0.237583 0.0517739 0.011017
0.27921 0.049012 0.0115358
0.32047 0.0464332 0.0120546
0.368429 0.0426184 0.0125887
0.419883 0.0391546 0.0133059
0.473823 0.0357824 0.0140078
0.530312 0.0320897 0.0145724
0.5888 0.0270848 0.0150301
0.647166 0.0213321 0.0154116
0.704524 0.0159609 0.0163424
0.759411 0.0125429 0.0178225
0.811154 0.0128328 0.0184634
0.859632 0.0136416 0.0190433
0.907057 0.0149844 0.0195621
0.953231 0.0160983 0.0200046
0.997681 0.016846 0.0204013
0.999435 0.0170748 0.0204776
1 0.0170748 0.0204013
1 0.0167391 0.0202945
1 0.0162509 0.0201724
1 0.0155184 0.0200351
1 0.0144656 0.0206149
0.0101625 0.0970626 0.00996414
0.00996414 0.0943618 0.00976577
0.00978103 0.0921035 0.00959792
0.00975052 0.0894331 0.00939956
0.0105287 0.0823835 0.00888075
0.0293126 0.0840467 0.0093843
0.0546883 0.0881666 0.0101625
0.0847486 0.0915999 0.0109255
0.120394 0.0915694 0.0115206
0.159564 0.090013 0.0120546
0.202365 0.0874952 0.0125734
0.246326 0.0845655 0.0130617
0.289723 0.0817731 0.0135195
0.333089 0.0788586 0.013962
0.377417 0.0759594 0.0144045
0.421759 0.0730755 0.0148165
0.469047 0.0699168 0.0152285
0.520058 0.0659495 0.0156558
0.574258 0.0615702 0.0160678
0.629969 0.0568856 0.0164492
0.685588 0.052903 0.0170443
0.74052 0.0495766 0.0175631
0.794369 0.0465858 0.0178988
0.845609 0.044007 0.0181582
0.896162 0.0413214 0.0184024
0.946029 0.0386358 0.018616
0.988312 0.0364691 0.0188449
0.998871 0.0348363 0.0189822
1 0.0335851 0.0189517
1 0.0323186 0.0189059
1 0.0314336 0.0188602
1 0.0304875 0.0187533
1 0.0295872 0.0203861
0.0123903 0.130419 0.0121157
0.012253 0.128008 0.0119631
0.0121614 0.126513 0.0118868
0.0120546 0.124681 0.01178
0.0129854 0.121859 0.0116121
0.0373236 0.113634 0.0115053
0.0582284 0.118441 0.0121309
0.0852674 0.123766 0.0128481
0.118273 0.126574 0.0134737
0.156847 0.12575 0.0139773
0.199649 0.123644 0.014435
0.245945 0.120684 0.0148775
0.294987 0.117082 0.0153048
0.344625 0.113252 0.0157168
0.391104 0.110216 0.0160983
0.435767 0.107637 0.0164645
0.480629 0.105196 0.0168154
0.525902 0.103014 0.0171817
0.573327 0.100465 0.0175326
0.624384 0.0975967 0.0178836
0.676646 0.0945449 0.0182193
0.728801 0.0917678 0.018555
0.780255 0.0895705 0.0188754
0.830671 0.0876631 0.0191806
0.880873 0.0861219 0.0194705
0.931167 0.0848707 0.0197604
0.973816 0.0833753 0.0200198
1 0.0818189 0.0202182
1 0.0805066 0.0201877
1 0.0792859 0.0201572
1 0.078294 0.0201267
1 0.0776989 0.0201114
1 0.0770275 0.0200809
0.0144503 0.165499 0.0140536
0.0143282 0.163394 0.0139467
0.0142672 0.162036 0.0138857
0.0142214 0.161135 0.0138399
0.0167849 0.159564 0.0137942
0.0276188 0.153567 0.0136416
0.0650187 0.147692 0.0138705
0.0896925 0.154574 0.0145266
0.116579 0.161486 0.015198
0.153582 0.162997 0.0157168
0.195758 0.161608 0.0161288
0.242298 0.159106 0.0165255
0.29221 0.15584 0.016907
0.344747 0.152026 0.0172885
0.398459 0.147982 0.0176394
0.449775 0.144533 0.0179751
0.49688 0.14226 0.0182956
0.542901 0.140246 0.018616
0.588312 0.138552 0.0189059
0.633173 0.137255 0.0191958
0.679759 0.136004 0.019501
0.727489 0.135012 0.019791
0.775814 0.133989 0.0200656
0.823758 0.133288 0.020325
0.871519 0.132967 0.0205844
0.919478 0.132738 0.0208286
0.965728 0.132555 0.0210574
1 0.131975 0.0212253
1 0.131182 0.0212711
1 0.130175 0.0212711
1 0.129381 0.0212558
1 0.128374 0.0212406
1 0.12752 0.02121
0.0163272 0.202213 0.0158389
0.0162509 0.200519 0.0157626
0.0162051 0.199481 0.0157168
0.0161898 0.199161 0.0157015
0.016907 0.198962 0.0157015
0.0234836 0.197238 0.0157015
0.0665599 0.184955 0.015671
0.0969863 0.184955 0.016022
0.121721 0.193088 0.0166476
0.14931 0.201831 0.0172885
0.190799 0.201938 0.0176852
0.237522 0.199863 0.0180514
0.287922 0.197116 0.0183871
0.340719 0.193835 0.0187228
0.395621 0.190234 0.0190433
0.451148 0.186587 0.0193484
0.506966 0.183001 0.0196384
0.559136 0.180255 0.019913
0.607233 0.1785 0.0201724
0.652384 0.177615 0.0204166
0.695964 0.177432 0.0206607
0.738888 0.177951 0.0209049
0.781796 0.178561 0.0211337
0.825696 0.179309 0.0213474
0.870237 0.180148 0.021561
0.915816 0.181003 0.0217746
0.961944 0.18172 0.0219577
0.992859 0.182254 0.0220951
1 0.182528 0.0221561
1 0.182467 0.0221714
1 0.182391 0.0221714
1 0.181888 0.0221561
1 0.181201 0.0221561
0.0180972 0.241245 0.0174716
0.0180209 0.239643 0.0174105
0.0179904 0.238941 0.01738
0.0179904 0.239002 0.0173953
0.0180514 0.240146 0.0174411
0.0250095 0.239536 0.0174868
0.0478676 0.233387 0.0174716
0.0982986 0.22327 0.0175937
0.128695 0.22652 0.0180056
0.154696 0.235508 0.018555
0.185245 0.244572 0.0191196
0.231174 0.243778 0.0194705
0.282139 0.24126 0.0197757
0.335744 0.238499 0.0200504
0.39089 0.235447 0.020325
0.447105 0.232273 0.0205997
0.504128 0.229099 0.0208438
0.562188 0.225635 0.0210727
0.618296 0.222873 0.0213016
0.670588 0.221042 0.0215152
0.717006 0.220615 0.0216983
0.757977 0.221698 0.0218967
0.798077 0.223224 0.0220645
0.837964 0.225116 0.0222477
0.877852 0.227207 0.0224002
0.919341 0.229221 0.0225681
0.962463 0.230961 0.0227054
0.9897 0.232395 0.0228122
1 0.23357 0.0228733
1 0.234455 0.0228733
1 0.234989 0.0228885
1 0.235248 0.0228885
1 0.235218 0.0229038
0.0197147 0.282094 0.018967
0.0196689 0.281117 0.0189364
0.0196536 0.280766 0.0189212
0.0196689 0.281254 0.0189364
0.0197452 0.282994 0.0189975
0.0224765 0.284153 0.0190585
0.0369726 0.281773 0.019089
0.0900893 0.269871 0.0191501
0.132692 0.26569 0.0193637
0.161852 0.271824 0.0197757
0.188876 0.282109 0.020264
0.224308 0.290105 0.0207218
0.275059 0.28867 0.0209964
0.329046 0.286137 0.0212406
0.385061 0.283467 0.0214847
0.441917 0.28069 0.0217136
0.499352 0.277775 0.021912
0.557717 0.274952 0.0220951
0.616297 0.272236 0.0222782
0.673579 0.269917 0.022446
0.728206 0.268254 0.0225986
0.777188 0.26772 0.0227359
0.81825 0.269245 0.022858
0.856382 0.27158 0.0229801
0.893584 0.274296 0.0230869
0.930846 0.277165 0.0231937
0.969726 0.27982 0.0233005
0.99144 0.282139 0.0233616
1 0.284108 0.0234073
1 0.28574 0.0234226
1 0.286976 0.0234379
1 0.287922 0.0234379
1 0.288396 0.0234379
0.02121 0.325292 0.020325
0.0211795 0.324636 0.0202945
0.0211795 0.324773 0.0203098
0.02121 0.325704 0.020325
0.0213016 0.328145 0.0204013
0.0213779 0.330907 0.0204776
0.0340276 0.330236 0.0205386
0.0704204 0.323705 0.0206149
0.130236 0.311711 0.020676
0.168933 0.311925 0.0209354
0.19762 0.320516 0.0213169
0.225971 0.332067 0.0217441
0.267491 0.338399 0.0220798
0.321843 0.33637 0.0222782
0.378271 0.334173 0.0224765
0.435523 0.331594 0.0226596
0.493339 0.329183 0.0228122
0.55198 0.326604 0.0229648
0.61117 0.323812 0.0230869
0.669093 0.321645 0.023209
0.725261 0.319966 0.023331
0.779706 0.318608 0.0234073
0.82919 0.318624 0.0234836
0.872938 0.319829 0.0235599
0.912169 0.322026 0.023621
0.94815 0.324712 0.023682
0.982742 0.32784 0.0237278
0.995819 0.33077 0.0237583
1 0.333455 0.0237888
1 0.335882 0.0238041
1 0.337972 0.0238041
1 0.339437 0.0238193
1 0.340917 0.0238193
0.0225681 0.370352 0.0215305
0.0225681 0.370459 0.0215305
0.0225834 0.370916 0.0215457
0.0226139 0.372244 0.0215763
0.0226902 0.375067 0.0216373
0.0227817 0.378515 0.0217288
0.0298161 0.380407 0.0218051
0.0546731 0.37763 0.0218662
0.117205 0.365698 0.0219272
0.17142 0.357946 0.022034
0.207904 0.361471 0.0222782
0.2365 0.371893 0.0226139
0.266667 0.384573 0.0229496
0.315389 0.387793 0.0231785
0.371557 0.386221 0.0233158
0.428901 0.384192 0.0234531
0.486763 0.381811 0.0235599
0.545693 0.379477 0.0236667
0.604852 0.376852 0.023743
0.663096 0.374746 0.0238193
0.71989 0.372808 0.0238804
0.77438 0.371679 0.0239261
0.826627 0.371176 0.0239567
0.875944 0.371145 0.0239872
0.922011 0.371954 0.0240024
0.963226 0.37348 0.0240024
0.997635 0.375555 0.0240177
0.999451 0.378744 0.0240177
1 0.38201 0.0240177
1 0.385168 0.024033
1 0.3879 0.024033
1 0.390494 0.0240482
1 0.392752 0.0240482
0.0237888 0.417456 0.0225986
0.0237888 0.417914 0.0225986
0.0238193 0.418936 0.0226139
0.0238651 0.420813 0.0226596
0.0239261 0.423621 0.0227207
0.0240177 0.427909 0.022797
0.0253605 0.431418 0.0228733
0.046067 0.431144 0.0229496
0.0975052 0.424704 0.0230259
0.166537 0.410376 0.0230259
0.215167 0.407004 0.0231479
0.249653 0.413397 0.0233616
0.278264 0.425376 0.023621
0.312184 0.437568 0.0238804
0.365713 0.438468 0.0239872
0.422354 0.437324 0.0240787
0.480629 0.435035 0.0241398
0.539254 0.432593 0.0242008
0.598733 0.430228 0.0242313
0.657191 0.427817 0.0242466
0.713664 0.426078 0.0242771
0.768551 0.424598 0.0242771
0.820966 0.423957 0.0242771
0.870787 0.423865 0.0242618
0.919402 0.424353 0.0242313
0.964843 0.424842 0.0242008
0.999756 0.42591 0.024155
0.999954 0.427741 0.0241398
1 0.430335 0.0241398
1 0.4336 0.0241398
1 0.437064 0.0241398
1 0.440436 0.0241398
1 0.443412 0.024155
0.0248569 0.466102 0.0235142
0.0248722 0.467094 0.0235294
0.0249027 0.46862 0.0235447
0.0249485 0.47097 0.0235752
0.0250095 0.474052 0.0236362
0.0250858 0.478614 0.0236973
0.0251774 0.483192 0.0237736
0.0422522 0.485115 0.0238499
0.0828717 0.481956 0.0239109
0.150332 0.469581 0.0238956
0.215991 0.458015 0.0239109
0.261433 0.457511 0.0240177
0.293843 0.466178 0.0241703
0.321736 0.479942 0.0243687
0.361639 0.489586 0.0244907
0.41622 0.489952 0.0245518
0.473716 0.488319 0.024567
0.532143 0.486137 0.024567
0.591623 0.483528 0.024567
0.65037 0.481071 0.0245365
0.707118 0.479347 0.0245212
0.76231 0.477928 0.0244755
0.815091 0.477348 0.024445
0.865614 0.477226 0.0243839
0.914199 0.477821 0.0243229
0.96228 0.478294 0.0242618
0.996139 0.479118 0.0241855
1 0.479728 0.024155
1 0.480964 0.024155
1 0.482948 0.0241398
1 0.48539 0.0241398
1 0.48867 0.0241398
1 0.492241 0.0241398
0.0257725 0.516762 0.0242466
0.025803 0.518166 0.0242771
0.0258335 0.520043 0.0243076
0.0258946 0.522698 0.0243381
0.0259403 0.526131 0.0243687
0.0260014 0.530816 0.0244297
0.0260777 0.535561 0.0244907
0.0379339 0.539284 0.0245518
0.0713664 0.538415 0.0245975
0.129488 0.531456 0.0246128
0.207996 0.513787 0.0245365
0.266545 0.506584 0.0245518
0.308263 0.508934 0.0246128
0.338613 0.519371 0.0247196
0.365576 0.534829 0.0248264
0.411978 0.541024 0.0248569
0.466743 0.541405 0.0248569
0.524742 0.539773 0.0248112
0.583902 0.537301 0.0247654
0.643 0.53489 0.0247044
0.700465 0.532967 0.0246433
0.755596 0.531868 0.024567
0.808698 0.531106 0.0244755
0.859724 0.530922 0.0243839
0.90869 0.531533 0.0242924
0.956954 0.532036 0.0241855
0.988754 0.532799 0.024094
1 0.533318 0.0240177
1 0.534173 0.0240024
1 0.535058 0.0240177
1 0.536248 0.0240177
1 0.53817 0.0240177
1 0.54139 0.0240024
0.0265354 0.568597 0.0248264
0.026566 0.570077 0.0248417
0.0265965 0.572457 0.0248722
0.0266423 0.575128 0.0249027
0.026688 0.578759 0.0249332
0.0267491 0.583322 0.024979
0.0268101 0.588403 0.0250248
0.0328679 0.592462 0.0250706
0.0611582 0.594308 0.0251011
0.113954 0.590158 0.0251011
0.185779 0.576623 0.0250401
0.263554 0.560143 0.0249638
0.317845 0.555413 0.0249485
0.354955 0.560906 0.0252689
0.382528 0.573419 0.0252689
0.412314 0.588937 0.0250706
0.462226 0.593088 0.0249943
0.517968 0.59324 0.0249332
0.576867 0.591211 0.0248417
0.636072 0.588861 0.0247501
0.693614 0.587167 0.0246281
0.749264 0.585794 0.0245212
0.802518 0.585016 0.0243992
0.853483 0.584772 0.0242771
0.902693 0.58526 0.0241398
0.950805 0.585702 0.0240024
0.983398 0.586374 0.0238651
1 0.586801 0.0237736
1 0.587518 0.0237736
1 0.588464 0.0237583
1 0.589731 0.0237583
1 0.591516 0.023743
1 0.594003 0.023743
0.0271458 0.620676 0.0252537
0.0271611 0.622309 0.0252689
0.0271916 0.624613 0.0252842
0.0272221 0.627619 0.0252995
0.0272526 0.631006 0.02533
0.0272984 0.635355 0.0253605
0.0273594 0.640482 0.0253758
0.028275 0.644984 0.0254063
0.055436 0.648005 0.0254215
0.101671 0.646693 0.0254063
0.163073 0.638849 0.0253605
0.250278 0.618418 0.0252537
0.318853 0.607156 0.0251621
0.368429 0.605646 0.0260166
0.402335 0.613611 0.0269932
0.426535 0.628931 0.0253452
0.462211 0.641917 0.0250858
0.513695 0.64535 0.024918
0.570703 0.644892 0.0247807
0.629404 0.642771 0.0246586
0.687633 0.640909 0.024506
0.743114 0.63946 0.0243687
0.796429 0.63856 0.0242161
0.847166 0.638163 0.0240482
0.895659 0.63798 0.0238956
0.941833 0.638315 0.023743
0.977691 0.638621 0.0235752
1 0.63917 0.0234379
1 0.640055 0.0234226
1 0.641123 0.0234073
1 0.642725 0.0233921
1 0.645029 0.0233768
1 0.647745 0.0233616
0.0276036 0.672328 0.0255283
0.0276188 0.67425 0.0255436
0.0276341 0.676539 0.0255436
0.0276646 0.679271 0.0255436
0.0276799 0.682811 0.0255741
0.0277104 0.687129 0.0255894
0.0277562 0.692195 0.0255894
0.0277867 0.69688 0.0256046
0.0544289 0.70042 0.0255894
0.0944381 0.701534 0.0255589
0.150103 0.696681 0.0254978
0.225086 0.68275 0.0253758
0.312184 0.662974 0.0252537
0.374182 0.655589 0.0271611
0.419226 0.656962 0.0284276
0.450309 0.6663 0.0273136
0.471916 0.684337 0.0250553
0.513924 0.694331 0.0247807
0.566369 0.697124 0.0246128
0.624186 0.695689 0.024445
0.682445 0.693263 0.0242771
0.737957 0.691325 0.0241093
0.790509 0.689754 0.0239261
0.84004 0.688701 0.0237583
0.88661 0.688075 0.0235752
0.930236 0.687984 0.0234073
0.968368 0.688121 0.0232395
0.998611 0.688548 0.0230869
0.999466 0.689494 0.0230106
1 0.690944 0.0229801
1 0.692805 0.0229496
1 0.695033 0.0229343
1 0.69749 0.0229191
0.0279393 0.723537 0.0256657
0.0279393 0.725277 0.0256657
0.0279545 0.72755 0.0256657
0.0279545 0.730327 0.0256657
0.027985 0.733898 0.0256657
0.0280003 0.73814 0.0256809
0.0280156 0.743236 0.0256809
0.0282902 0.748241 0.0256809
0.0542611 0.751949 0.0256352
0.0915541 0.754543 0.0255741
0.142153 0.752377 0.0254826
0.207797 0.743358 0.0253605
0.295705 0.723522 0.0252079
0.372854 0.709194 0.0257115
0.429541 0.704311 0.0297704
0.469429 0.708446 0.0319524
0.49839 0.719158 0.0247196
0.524178 0.736416 0.0245518
0.569345 0.743847 0.0243534
0.623499 0.744793 0.024155
0.680964 0.741711 0.0239719
0.736385 0.738521 0.0237736
0.787381 0.736309 0.0235752
0.834714 0.734386 0.0234073
0.87895 0.733516 0.0232242
0.919692 0.733196 0.0230564
0.958358 0.733455 0.0228733
0.993591 0.734142 0.0226902
0.997299 0.735485 0.0225834
1 0.737041 0.0225071
1 0.738949 0.0224765
1 0.740703 0.0224613
1 0.742565 0.0224308
0.0281224 0.773907 0.0256657
0.0281376 0.775769 0.0256657
0.0281376 0.778195 0.0256657
0.0281376 0.781033 0.0256657
0.0281529 0.784451 0.0256657
0.0281529 0.788815 0.0256504
0.0281682 0.793912 0.0256504
0.0319066 0.798947 0.0256199
0.0547799 0.802915 0.0255589
0.0925002 0.806027 0.0254673
0.13843 0.806134 0.0253452
0.197574 0.800046 0.0252079
0.274907 0.785565 0.0250401
0.366842 0.764202 0.0248875
0.435935 0.753414 0.0325322
0.48748 0.750988 0.040238
0.524529 0.756466 0.0396582
0.553658 0.767681 0.0277714
0.58613 0.780819 0.0250553
0.635248 0.78378 0.0237888
0.688579 0.7823 0.0235904
0.741665 0.778973 0.0233768
0.790921 0.776318 0.0231937
0.835447 0.775051 0.0229953
0.877211 0.774517 0.0228122
0.916655 0.774945 0.0226139
0.95436 0.776135 0.0224155
0.984649 0.777508 0.0222324
0.995666 0.778881 0.0220645
1 0.780377 0.0219883
1 0.782086 0.0219577
1 0.783383 0.0219425
1 0.784833 0.0219272
0.0282139 0.823819 0.0255741
0.0282139 0.825833 0.0255741
0.0282139 0.828367 0.0255589
0.0282139 0.831022 0.0255436
0.0282139 0.834638 0.0255436
0.0282139 0.838926 0.0255283
0.0281987 0.843748 0.0254978
0.0347906 0.848722 0.025452
0.057023 0.852903 0.0253758
0.0961624 0.855604 0.0252384
0.140093 0.856596 0.0251011
0.196628 0.851667 0.0249332
0.270985 0.838743 0.0247654
0.36228 0.817685 0.0260319
0.452705 0.796857 0.0353704
0.511833 0.789731 0.0674601
0.555886 0.790295 0.0728771
0.588815 0.798138 0.0590982
0.621027 0.807858 0.0377966
0.657862 0.816281 0.023621
0.706538 0.816831 0.0233463
0.754025 0.815656 0.0229496
0.799527 0.814603 0.0227359
0.841825 0.81442 0.0225223
0.881392 0.814832 0.0223087
0.919844 0.815961 0.0220951
0.957 0.817182 0.0218814
0.982025 0.818738 0.0216678
1 0.820172 0.0214694
1 0.821836 0.0214389
1 0.823621 0.0214237
1 0.824735 0.0214084
1 0.825269 0.0213931
0.0281987 0.873426 0.0253758
0.0281834 0.875486 0.0253605
0.0281834 0.87805 0.0253452
0.0281834 0.880903 0.02533
0.0281834 0.884153 0.0253147
0.0281682 0.888182 0.0252842
0.0281529 0.892378 0.0252537
0.0394446 0.896269 0.0251926
0.0678111 0.898878 0.0250706
0.110048 0.899733 0.024918
0.1561 0.899214 0.0247501
0.21004 0.895506 0.024567
0.286458 0.881636 0.0243839
0.384298 0.857877 0.0241855
0.474479 0.836606 0.0588083
0.54551 0.823545 0.102388
0.594842 0.819959 0.127169
0.630442 0.823728 0.119982
0.654108 0.836988 0.0551308
0.686946 0.846036 0.0354467
0.723415 0.852552 0.0240482
0.766918 0.85333 0.0230564
0.808331 0.853925 0.0222171
0.849012 0.854368 0.0219883
0.887358 0.855283 0.0217594
0.924666 0.856718 0.0215152
0.961608 0.858732 0.0212863
0.987213 0.861189 0.0210269
1 0.864012 0.0208591
1 0.866819 0.0207828
1 0.868406 0.0207675
1 0.868711 0.0207675
1 0.867933 0.0207675
0.0280766 0.922881 0.0250553
0.0280766 0.92488 0.0250553
0.0280613 0.92694 0.0250401
0.0280461 0.928908 0.0250248
0.0280461 0.930892 0.0250095
0.0280308 0.932738 0.0249943
0.0283207 0.935393 0.024979
0.0514534 0.936797 0.0248722
0.0945602 0.936278 0.0246891
0.142718 0.934096 0.0245212
0.19498 0.930434 0.0243229
0.255802 0.92343 0.0241245
0.332631 0.90927 0.0239261
0.422599 0.888884 0.0369268
0.508354 0.869429 0.0745556
0.581842 0.854246 0.139544
0.626719 0.851789 0.163699
0.659922 0.856214 0.151461
0.687877 0.864286 0.122362
0.710658 0.877287 0.0623331
0.741711 0.88574 0.036408
0.775296 0.892683 0.0218814
0.814511 0.894255 0.0216678
0.851637 0.897078 0.0213779
0.887984 0.900587 0.0211032
0.924727 0.905043 0.0208133
0.961975 0.9093 0.0204929
0.999588 0.912169 0.0201724
1 0.913359 0.0200656
1 0.913115 0.0200504
1 0.912108 0.0200656
1 0.910552 0.0200961
1 0.908873 0.0201114
0.027863 0.970153 0.0246738
0.027863 0.970062 0.0246738
0.027863 0.96968 0.0246738
0.0278782 0.96907 0.0246891
0.0278782 0.968322 0.0246891
0.027863 0.968627 0.0246891
0.0488441 0.9682 0.0245975
0.0934768 0.965927 0.0244297
0.142794 0.962692 0.0242466
0.194324 0.959045 0.0240482
0.247745 0.954894 0.0238499
0.306767 0.948608 0.0236362
0.37499 0.938155 0.0234684
0.451575 0.923568 0.0347143
0.535561 0.90425 0.0929427
0.597421 0.893477 0.14226
0.650019 0.886656 0.181628
0.685084 0.888106 0.188922
0.710887 0.896239 0.156847
0.732815 0.906737 0.114595
0.752651 0.920577 0.060502
0.77203 0.935256 0.0216983
0.801389 0.945098 0.0216983
0.834577 0.953124 0.0205997
0.87364 0.957336 0.0202945
0.915648 0.95877 0.0199893
0.958618 0.958343 0.0196994
0.99443 0.957183 0.0194553
0.999268 0.955459 0.0193332
1 0.953918 0.0193332
