nova/tdt-studio/app/Lut_mau/Buttery LUTs/GH5_New_Creative_1.cube
TITLE "Generated by Resolve"
LUT_3D_SIZE 9
0 0 0
0 0 0
0 0 0
0.208423 0 0
0.461631 0 0
0.73756 0 0
1 0 0
1 0 0
1 0 0
0 0 0
0 0 0
0.00596628 0 0
0.230411 0 0
0.488136 0 0
0.773129 0 0
1 0 0
1 0 0
1 0 0
0 0.0692607 0
0 0.0717327 0
0.0175021 0.0703746 0
0.248646 0.0604562 0
0.521019 0.042649 0
0.834058 0.0150607 0
1 0.00477607 0
1 0.0374914 0
1 0.0732586 0
0 0.261265 0
0 0.27274 0
0.0090486 0.280568 0
0.250034 0.279072 0
0.529595 0.269963 0
0.842634 0.254002 0
1 0.252491 0
1 0.292195 0
1 0.329885 0
0 0.49781 0
0 0.51754 0
0 0.532097 0
0.23415 0.536065 0
0.517815 0.530419 0
0.835492 0.517311 0
1 0.526757 0
1 0.578439 0
1 0.627375 0
0 0.768109 0
0 0.792081 0
0 0.810803 0
0.197513 0.821668 0
0.489403 0.824506 0
0.814038 0.817731 0
1 0.830564 0
1 0.874525 0
1 0.908629 0
0 1 0
0 1 0
0 1 0
0.249882 1 0
0.535088 1 0
0.843229 1 0
1 1 0
1 1 0
1 1 0
0 1 0
0 1 0
0.136828 1 0
0.373556 1 0
0.629328 1 0
0.899214 1 0
1 1 0
1 1 0
1 1 0
0 1 0
0 1 0
0.164736 1 0
0.371572 1 0
0.617761 1 0
0.890089 1 0
1 1 0
1 1 0
1 1 0
0 0 0
0 0 0
0 0 0
0.210956 0 0
0.464546 0 0
0.740017 0 0
1 0 0
1 0 0
1 0 0
0 0 0
0 0 0
0.0102541 0 0
0.229068 0 0
0.487221 0 0
0.774075 0 0
1 0 0
1 0 0
1 0 0
0 0.0703899 0
0 0.0740063 0
0.0248112 0.073518 0
0.25687 0.0644999 0
0.536339 0.0443275 0
0.839658 0.0227817 0
1 0.0147097 0
1 0.049485 0
1 0.0860914 0
0 0.265232 0
0 0.278035 0
0.0189822 0.286641 0
0.261051 0.285847 0
0.541604 0.277592 0
0.856428 0.261265 0
1 0.255695 0
1 0.298009 0
1 0.338598 0
0 0.505028 0
0 0.525444 0
0.000320439 0.54049 0
0.246403 0.544701 0
0.530388 0.538903 0
0.849226 0.526452 0
1 0.5393 0
1 0.591928 0
1 0.64065 0
0 0.776776 0
0 0.800946 0
0 0.820798 0
0.211643 0.832715 0
0.504311 0.835569 0
0.828412 0.828153 0
1 0.841428 0
1 0.883238 0
1 0.915373 0
0 1 0
0 1 0
0.0112612 1 0
0.267613 1 0
0.551156 1 0
0.856764 1 0
1 1 0
1 1 0
1 1 0
0 1 0.00315862
0 1 0.0274662
0.148409 1 0.0325322
0.381079 1 0.0150759
0.632456 1 0
0.900008 1 0
1 1 0
1 1 0
1 1 0
0 1 0.0777142
0 1 0.0718547
0.165103 1 0.0477607
0.373037 1 0.00999466
0.621195 1 0
0.893034 1 0
1 1 0
1 1 0
1 1 0
0 0 0.0648203
0 0 0.0551308
0 0 0.0360723
0.212421 0 0.0111849
0.466499 0 0
0.741787 0 0
1 0 0
1 0 0
1 0 0
0 0 0.0700389
0 0 0.0654917
0.0109865 0 0.0518044
0.231647 0 0.0286717
0.49099 0 0
0.778927 0 0
1 0 0
1 0 0
1 0 0
0 0.0691844 0.0752422
0 0.073579 0.0763714
0.0300908 0.0741131 0.0730602
0.263844 0.0655222 0.060502
0.536202 0.0504311 0.0398566
0.840253 0.0299229 0.0130617
1 0.0230564 0.00108339
1 0.0589151 0.0358587
1 0.0958267 0.0711681
0 0.267491 0.0629129
0 0.280812 0.0715953
0.0277409 0.290303 0.0767071
0.27042 0.290211 0.0711833
0.551827 0.282109 0.0569314
0.878279 0.261448 0.0527199
1 0.26392 0.05449
1 0.306722 0.093431
1 0.348013 0.130831
0 0.509789 0.0446937
0 0.530587 0.058854
0.00965896 0.546029 0.0677806
0.256641 0.550072 0.0658274
0.541283 0.544945 0.0544137
0.861479 0.533639 0.0365911
1 0.548684 0.0437018
1 0.601083 0.0873579
1 0.648859 0.126375
0 0.782971 0.0151064
0 0.807904 0.0295872
0 0.829221 0.0421607
0.224002 0.841352 0.0463874
0.517327 0.843778 0.0414282
0.840192 0.835264 0.0263676
1 0.847959 0.0316625
1 0.887358 0.0629587
1 0.917571 0.0864424
0 1 0.0362707
0 1 0.0696574
0.0261387 1 0.0939498
0.280476 1 0.0972305
0.562631 1 0.0808881
0.865263 1 0.0504616
1 1 0.0383764
1 1 0.0445258
1 1 0.0401007
0 1 0.178866
0 1 0.202075
0.155138 1 0.205386
0.382864 1 0.183673
0.630228 1 0.136263
0.896025 1 0.0764019
1 1 0.0456855
1 1 0.0482032
1 1 0.0479286
0 1 0.245457
0 1 0.237186
0.161196 1 0.212146
0.37145 1 0.17554
0.620371 1 0.128466
0.891539 1 0.0746929
1 1 0.0525521
1 1 0.0553292
1 1 0.0554208
0 0 0.267964
0 0 0.25449
0 0 0.23856
0.210666 0 0.213382
0.465049 0 0.178912
0.739528 0 0.136568
1 0 0.10045
1 0 0.0988174
1 0 0.119783
0 0 0.27396
0 0 0.269291
0.00941482 0 0.256031
0.231205 0 0.233356
0.491997 0 0.202914
0.781262 0 0.167636
1 0 0.142107
1 0 0.164904
1 0 0.19913
0 0.064332 0.281773
0 0.0694285 0.284382
0.0324102 0.0707866 0.282032
0.267018 0.0634623 0.26952
0.53959 0.0491493 0.248753
0.84564 0.0297398 0.22182
1 0.0240177 0.210208
1 0.0605783 0.247181
1 0.0978866 0.28397
0 0.265324 0.272206
0 0.279805 0.282719
0.0327764 0.289845 0.288472
0.276539 0.290288 0.283635
0.559442 0.282124 0.272465
0.875303 0.266911 0.250767
1 0.271199 0.250111
1 0.314443 0.290517
1 0.357122 0.329824
0 0.510323 0.255451
0 0.531472 0.27097
0.0167391 0.547021 0.281025
0.263279 0.551354 0.279057
0.549187 0.546792 0.268528
0.870878 0.536889 0.251408
1 0.551186 0.267735
1 0.601572 0.31812
1 0.64622 0.363455
0 0.784695 0.225452
0 0.810437 0.241794
0 0.832975 0.256321
0.234531 0.845747 0.262013
0.527001 0.847318 0.256229
0.848432 0.837568 0.240391
1 0.849424 0.245365
1 0.886412 0.276387
1 0.914168 0.298405
0 1 0.252384
0 1 0.287861
0.0358892 1 0.311284
0.288319 1 0.312795
0.567819 1 0.294392
0.868177 1 0.26128
1 1 0.244984
1 1 0.248005
1 1 0.242069
0 1 0.395727
0 1 0.417792
0.155718 1 0.418296
0.37821 1 0.391348
0.62266 1 0.340398
0.887739 1 0.279011
1 1 0.249912
1 1 0.252293
1 1 0.252216
0 1 0.453132
0 1 0.443488
0.153353 1 0.417868
0.36585 1 0.382269
0.614984 1 0.334173
0.885893 1 0.279362
1 1 0.257038
1 1 0.260029
1 1 0.260319
0 0 0.50956
0 0 0.495796
0 0 0.480842
0.206577 0 0.455863
0.460731 0 0.420462
0.735546 0 0.378088
1 0 0.342184
1 0 0.341573
1 0 0.364538
0 0 0.516854
0 0 0.512184
0.00578317 0 0.499931
0.228794 0 0.478233
0.490043 0 0.448218
0.780301 0 0.413413
1 0 0.388952
1 0 0.413001
1 0 0.449928
0 0.0563363 0.527962
0 0.0623331 0.531777
0.032639 0.0645457 0.530373
0.267857 0.0578317 0.518471
0.541848 0.0447242 0.498787
0.848554 0.0257877 0.472053
1 0.0208286 0.461692
1 0.057969 0.50045
1 0.0955367 0.538811
0 0.260319 0.52137
0 0.275319 0.533028
0.0358434 0.286046 0.540246
0.280293 0.287098 0.536355
0.56286 0.27982 0.52314
0.878553 0.265019 0.501625
1 0.26978 0.501198
1 0.31371 0.543572
1 0.357763 0.585367
0 0.507683 0.507027
0 0.529 0.523507
0.0213016 0.544747 0.534356
0.267933 0.549096 0.53315
0.554849 0.545388 0.523278
0.880354 0.535332 0.513237
1 0.553246 0.524956
1 0.604608 0.57203
1 0.649287 0.612253
0 0.783001 0.476707
0 0.80975 0.495567
0 0.83331 0.512062
0.241794 0.846189 0.518517
0.534371 0.847089 0.513436
0.853712 0.835828 0.495628
1 0.845487 0.499779
1 0.880369 0.530022
1 0.90631 0.551843
0 1 0.508293
0 1 0.54435
0.0409552 1 0.56759
0.291112 1 0.5682
0.568399 1 0.547585
0.864759 1 0.510704
1 1 0.489509
1 1 0.489906
1 1 0.484062
0 1 0.650584
0 1 0.672251
0.15082 1 0.669841
0.368002 1 0.638773
0.610559 1 0.585306
0.875425 1 0.522026
1 1 0.494545
1 1 0.497704
1 1 0.498177
0 1 0.698375
0 1 0.689281
0.14258 1 0.665125
0.356161 1 0.631113
0.605219 1 0.582223
0.876158 1 0.52607
1 1 0.503624
1 1 0.507378
1 1 0.508339
0 0 0.777813
0 0 0.765286
0 0 0.750607
0.200473 0 0.725185
0.454475 0 0.68748
0.730007 0 0.644388
1 0 0.608103
1 0 0.607416
1 0 0.632136
0 0 0.788571
0 0 0.784726
0.000106813 0 0.774594
0.224201 0 0.753948
0.486625 0 0.723934
0.778012 0 0.688991
1 0 0.665156
1 0 0.691295
1 0 0.730434
0 0.0457008 0.804761
0 0.0523995 0.811261
0.0305791 0.0554055 0.812146
0.267033 0.0498817 0.801999
0.54165 0.0373388 0.782879
0.849226 0.0191501 0.756786
1 0.0151522 0.748043
1 0.0525826 0.788937
1 0.0901198 0.828779
0 0.252476 0.802808
0 0.268406 0.818265
0.0372778 0.279744 0.827359
0.282185 0.281239 0.824689
0.565209 0.274311 0.812497
0.881071 0.2598 0.790875
1 0.264698 0.791562
1 0.309392 0.83537
1 0.354681 0.878447
0 0.501976 0.791806
0 0.523598 0.811505
0.0237888 0.539361 0.823804
0.270893 0.544213 0.823178
0.558709 0.541268 0.814298
0.882856 0.533745 0.799741
1 0.552193 0.811963
1 0.602914 0.857572
1 0.646174 0.895735
0 0.778912 0.76376
0 0.8065 0.785595
0 0.830549 0.80383
0.246525 0.843305 0.810254
0.538323 0.843046 0.803571
0.85594 0.830167 0.784451
1 0.836103 0.792798
1 0.868772 0.823072
1 0.890898 0.843137
0 1 0.79942
0 1 0.835737
0.042771 1 0.856779
0.290715 1 0.854734
0.565408 1 0.831662
0.857511 1 0.790768
1 1 0.764584
1 1 0.763195
1 0.997696 0.756893
0 1 0.938598
0 1 0.957214
0.142428 1 0.949645
0.355184 1 0.913802
0.596017 1 0.858732
0.861769 1 0.795758
1 1 0.768872
1 1 0.771878
1 1 0.771817
0 1 0.975586
0 1 0.964157
0.131044 1 0.94049
0.344503 1 0.905333
0.593362 1 0.856062
0.864363 1 0.799619
1 1 0.776684
1 1 0.779477
1 1 0.780133
0 0 1
0 0 1
0 0 1
0.195682 0 0.979507
0.448829 0 0.944106
0.725734 0 0.90547
1 0 0.870909
1 0 0.871351
1 0 0.897581
0 0 1
0 0 1
0 0 1
0.221775 0 1
0.485618 0 0.973983
0.777661 0 0.941451
1 0 0.918929
1 0 0.944808
1 0 0.983597
0 0.0382544 1
0 0.0462806 1
0.0321965 0.0505531 1
0.26949 0.0458228 1
0.545556 0.0344701 1
0.8542 0.016968 0.995377
1 0.0135805 0.984512
1 0.0522164 1
1 0.0907149 1
0 0.248371 1
0 0.265568 1
0.0423285 0.278447 1
0.288319 0.280995 1
0.572076 0.274723 1
0.888426 0.260578 1
1 0.267048 1
1 0.313893 1
1 0.36083 1
0 0.500099 1
0 0.523232 1
0.0301366 0.540291 1
0.279408 0.546563 1
0.569177 0.545815 1
0.894026 0.538994 1
1 0.558434 1
1 0.608637 1
1 0.65095 1
0 0.779217 1
0 0.809781 1
0.00267033 0.835737 1
0.257053 0.848646 1
0.547707 0.847486 0.994492
0.863966 0.832944 0.972381
1 0.839231 0.970871
1 0.870298 0.992859
1 0.889036 1
0 1 1
0 1 1
0.0506294 1 1
0.296483 1 1
0.569024 1 1
0.855863 1 0.966903
1 0.999252 0.937285
1 0.99469 0.931716
1 0.986984 0.922988
0 1 1
0 1 1
0.138979 1 1
0.349142 1 1
0.589303 1 1
0.857191 1 0.958114
1 1 0.931075
1 1 0.92987
1 1 0.926055
0 1 1
0 1 1
0.127367 1 1
0.3411 1 1
0.58996 1 1
0.860822 1 0.94966
1 1 0.92607
1 1 0.924498
1 1 0.920729
0 0 1
0 0 1
0 0 1
0.199756 0 1
0.452796 0 1
0.730114 0 1
1 0 1
1 0 1
1 0 1
0 0 1
0 0 1
0.00621042 0 1
0.23209 0 1
0.496651 0 1
0.789914 0 1
1 0 1
1 0 1
1 0 1
0 0.044358 1
0 0.0541695 1
0.0448768 0.0595712 1
0.284184 0.0561379 1
0.561151 0.0452888 1
0.871107 0.0283513 1
1 0.026154 1
1 0.0657816 1
1 0.104753 1
0 0.258167 1
0 0.277241 1
0.0580148 0.291112 1
0.304753 0.294362 1
0.588922 0.288457 1
0.906279 0.274159 1
1 0.282383 1
1 0.330465 1
1 0.378241 1
0 0.512795 1
0 0.53698 1
0.0464332 0.55462 1
0.296437 0.561913 1
0.58822 0.562203 1
0.914092 0.556283 1
1 0.575708 1
1 0.624475 1
1 0.664988 1
0 0.794614 1
0 0.826917 1
0.0209659 0.853208 1
0.275639 0.865248 1
0.564736 0.862318 1
0.878752 0.84567 1
1 0.850187 1
1 0.879515 1
1 0.893324 1
0 1 1
0 1 1
0.0656748 1 1
0.309712 1 1
0.578347 1 1
0.859693 1 1
1 0.997803 0.993439
1 0.992569 0.987701
1 0.985916 0.985443
0 1 1
0 1 1
0.141314 1 1
0.349691 1 1
0.589914 1 1
0.860105 1 1
1 1 0.990188
1 1 0.989593
1 1 0.986328
0 1 1
0 1 1
0.130159 1 1
0.343969 1 1
0.593103 1 1
0.863828 1 1
1 1 0.987213
1 1 0.986313
1 1 0.983276
0 0 1
0 0 1
0 0 1
0.207309 0 1
0.461662 0 1
0.7402 0 1
1 0 1
1 0 1
1 0 1
0 0 1
0 0 1
0.0169833 0 1
0.244388 0 1
0.510185 0 1
0.804273 0 1
1 0 1
1 0 1
1 0 1
0 0.0516823 1
0 0.0625467 1
0.0582437 0.0691691 1
0.298299 0.0663615 1
0.576822 0.0560922 1
0.887953 0.0397498 1
1 0.0383917 1
1 0.0786908 1
1 0.117845 1
0 0.269017 1
0 0.289235 1
0.0733654 0.303624 1
0.32079 0.307042 1
0.605798 0.301183 1
0.922896 0.286992 1
1 0.296742 1
1 0.346197 1
1 0.394797 1
0 0.525856 1
0 0.550408 1
0.0618906 0.56817 1
0.313436 0.576486 1
0.606806 0.577813 1
0.932692 0.572076 1
1 0.591821 1
1 0.638804 1
1 0.67689 1
0 0.809995 1
0 0.843076 1
0.0381933 0.869123 1
0.291859 0.879957 1
0.580301 0.875059 1
0.892042 0.85658 1
1 0.85977 1
1 0.88542 1
1 0.894179 1
0 1 1
0 1 1
0.0791485 1 1
0.320821 1 1
0.585428 1 1
0.861402 1 1
1 0.994995 1
1 0.989364 1
1 0.986313 1
0 1 1
0 1 1
0.142367 1 1
0.349432 1 1
0.590707 1 1
0.862226 1 1
1 1 1
1 1 1
1 1 1
0 1 1
0 1 1
0.132296 1 1
0.346212 1 1
0.59559 1 1
0.866178 1 1
1 1 1
1 1 1
1 1 1
