nova/tdt-studio/app/Lut_mau/Buttery LUTs/GH5_GH5S_Tobacco.cube
TITLE "Generated by Resolve"
LUT_3D_SIZE 5
0 0 0
0.15053 0.00502022 0.00605783
0.548943 0.0108797 0.0146792
0.922896 0.0133822 0.019791
1 0.0137484 0.0208591
0.0123903 0.130419 0.0121157
0.118273 0.126574 0.0134737
0.480629 0.105196 0.0168154
0.880873 0.0861219 0.0194705
1 0.0770275 0.0200809
0.0248569 0.466102 0.0235142
0.0828717 0.481956 0.0239109
0.473716 0.488319 0.024567
0.914199 0.477821 0.0243229
1 0.492241 0.0241398
0.0281987 0.873426 0.0253758
0.0678111 0.898878 0.0250706
0.594842 0.819959 0.127169
0.887358 0.855283 0.0217594
1 0.867933 0.0207675
0.0276951 1 0.0243534
0.072221 1 0.024155
0.445121 1 0.0222324
0.902968 0.996841 0.0561532
1 0.995743 0.0185702
0.00166323 0.00202945 0.12224
0.185183 0.00674449 0.131884
0.5897 0.0117952 0.0921187
0.957732 0.0140536 0.059617
1 0.0140993 0.0394446
0.0117342 0.119814 0.0793317
0.151125 0.118868 0.0880903
0.562097 0.0900282 0.0641337
0.966995 0.0736248 0.0562753
1 0.0729076 0.062501
0.0247959 0.462745 0.0234531
0.112139 0.489647 0.0367132
0.533867 0.483818 0.0462806
0.941375 0.481086 0.0725872
1 0.496834 0.10901
0.0281987 0.872679 0.0253758
0.124956 0.892546 0.0370184
0.643595 0.823529 0.292973
0.927596 0.860029 0.105226
1 0.861006 0.0279088
0.0276493 1 0.0326696
0.102876 1 0.0240024
0.461387 1 0.0248722
0.944228 0.995651 0.293675
1 0.995743 0.0186007
0.00410468 0.00575265 0.508934
0.210758 0.00929274 0.512337
0.619532 0.013077 0.460075
0.975921 0.0146944 0.426078
1 0.0147707 0.399649
0.0108339 0.102617 0.430777
0.179751 0.1028 0.438437
0.603449 0.07393 0.414969
0.989792 0.0630655 0.40882
1 0.0644541 0.412467
0.0235752 0.454658 0.331197
0.152102 0.482307 0.369924
0.582223 0.474434 0.376303
0.995407 0.46891 0.379858
1 0.480552 0.399649
0.0268254 0.869688 0.271351
0.193332 0.878401 0.339239
0.644221 0.845304 0.417151
0.958251 0.859144 0.331777
1 0.85362 0.331151
0.0263371 1 0.246723
0.134874 1 0.265385
0.509636 0.999954 0.254841
0.973892 0.9944 0.56965
1 0.995056 0.229984
0.00534066 0.00831617 0.904982
0.234531 0.0112001 0.899443
0.647868 0.0140688 0.85124
0.997711 0.0151369 0.824231
1 0.0151522 0.803784
0.00993362 0.0823072 0.83888
0.205417 0.0828717 0.847074
0.63946 0.0547341 0.826032
1 0.0501411 0.827085
1 0.0509651 0.833951
0.000564584 0.452796 0.727886
0.162768 0.476448 0.779706
0.632532 0.455222 0.802197
0.999695 0.453407 0.811688
1 0.478019 0.800229
0.0244297 0.853223 0.700816
0.263005 0.855528 0.717998
0.672053 0.840391 0.712688
0.982651 0.843397 0.720821
1 0.830533 0.712215
0.0238499 1 0.650233
0.156207 1 0.671611
0.545617 0.998474 0.655955
0.968688 0.993912 0.732555
1 0.993713 0.631083
0.00556954 0.00895705 1
0.264729 0.0119326 1
0.680262 0.0144961 1
0.998428 0.0153048 1
1 0.0153048 1
0.00914015 0.0677195 1
0.239261 0.0681926 1
0.680751 0.0420233 1
1 0.0435187 1
1 0.0429999 1
0.000381476 0.442908 1
0.225452 0.458381 1
0.683818 0.443671 1
1 0.445747 1
1 0.487129 1
0.0225528 0.839582 1
0.330983 0.841901 0.986221
0.687968 0.838788 0.989395
0.992935 0.827161 1
1 0.813275 1
0.0215763 1 1
0.182559 1 1
0.584726 0.996948 0.996399
0.974487 0.993027 0.986786
1 0.992462 0.987243
