nova/tdt-studio/app/Lut_mau/Buttery LUTs/Sony_Tobacco.cube
TITLE "Generated by Resolve"
LUT_3D_SIZE 5
0 0 0
0.19498 0 0
0.608606 0 0
0.978729 0 0
1 0 0
0 0.162997 0
0.1523 0.159792 0
0.54374 0.135531 0
0.956481 0.119081 0
1 0.111467 0
0 0.52134 0
0.0829175 0.549599 0
0.51667 0.534722 0
0.966079 0.530907 0
1 0.539834 0
0 0.940475 0
0.0787823 0.966094 0
0.552254 0.925582 0
0.923827 0.905211 0.00164797
1 0.921614 0
0.00347906 1 0
0.0837568 1 0
0.47509 1 0
0.905196 1 0
1 1 0
0 0 0.163851
0.227878 0 0.150546
0.650919 0 0.0988479
0.99855 0 0.0661784
1 0 0.0465705
0 0.154604 0.0996719
0.194308 0.153445 0.107698
0.638544 0.119326 0.0803693
1 0.107408 0.075288
1 0.107485 0.083238
0 0.520699 0.0118868
0.131304 0.548806 0.0366064
0.584237 0.534813 0.0514229
0.989837 0.535134 0.0732433
1 0.549294 0.10811
0 0.940536 0.000595102
0.139345 0.958434 0.0328679
0.62797 0.915496 0.0961776
0.958862 0.909712 0.134844
1 0.916899 0.00669871
0 1 0.025803
0.120287 1 0.011429
0.529366 1 0.00579843
0.940185 1 0.00807202
1 1 0.0573739
0 0 0.560388
0.24892 0 0.539483
0.6795 0 0.48777
0.999649 0 0.451087
1 0 0.43241
0 0.135576 0.477623
0.228092 0.134005 0.48394
0.681163 0.101915 0.456443
1 0.0947433 0.45127
1 0.0965591 0.4589
0 0.511574 0.357336
0.173968 0.538369 0.393591
0.635996 0.524269 0.396399
0.999725 0.519478 0.396521
1 0.530175 0.415305
0 0.935866 0.292409
0.212833 0.939834 0.355917
0.681056 0.903502 0.388708
0.987762 0.908446 0.350561
1 0.90721 0.309026
0 1 0.273106
0.155535 1 0.295933
0.581018 1 0.278386
0.967422 1 0.27985
1 1 0.358495
0 0 0.938888
0.274586 0 0.918486
0.707881 0 0.873411
1 0 0.84564
1 0 0.835981
0 0.116228 0.883375
0.261067 0.113497 0.888884
0.720012 0.0836347 0.867796
1 0.0794537 0.870146
1 0.0822156 0.881575
0 0.496925 0.796353
0.213535 0.52108 0.830091
0.690883 0.50428 0.825971
1 0.50164 0.834745
1 0.526925 0.82266
0 0.917967 0.734585
0.290761 0.912902 0.743358
0.719448 0.890227 0.72842
0.992721 0.892576 0.740887
1 0.890974 0.758144
0 1 0.702388
0.181552 1 0.726299
0.620493 1 0.705318
0.982391 1 0.698024
1 1 0.738567
0 0 1
0.305608 0 1
0.739101 0 1
1 0 1
1 0 1
0 0.101701 1
0.300999 0.0975357 1
0.762585 0.0709392 1
1 0.069276 1
1 0.0735485 1
0 0.48835 1
0.262272 0.509133 1
0.744152 0.491463 1
1 0.492515 1
1 0.535775 1
0 0.904448 1
0.365209 0.89688 0.998749
0.745312 0.884749 0.999268
1 0.877623 1
1 0.875944 0.999969
0 1 0.999146
0.216678 1 1
0.666667 1 0.99472
0.992493 1 0.9944
1 1 0.991409
