nova/tdt-studio/app/Lut_mau/Buttery LUTs/Sony_Tobacco.cube
TITLE "Generated by Resolve"
LUT_3D_SIZE 33
0 0 0
0 0 0
0.00209049 0 0
0.0185397 0 0
0.0475471 0 0
0.080705 0 0
0.115724 0 0
0.152926 0 0
0.19498 0 0
0.240299 0 0
0.288991 0 0
0.340566 0 0
0.393317 0 0
0.446494 0 0
0.500511 0 0
0.554879 0 0
0.608606 0 0
0.660822 0 0
0.711009 0 0
0.759365 0 0
0.805539 0 0
0.85005 0 0
0.894728 0 0
0.939437 0 0
0.978729 0 0
0.998856 0 0
1 0 0
1 0 0
1 0 0
1 0 0
1 0 0
1 0 0
1 0 0
0 0 0
0 0 0
0.00341802 0 0
0.0142672 0 0
0.0457923 0 0
0.0787823 0 0
0.113191 0 0
0.149996 0 0
0.190326 0 0
0.234546 0 0
0.282292 0 0
0.332753 0 0
0.384573 0 0
0.43743 0 0
0.491386 0 0
0.545861 0 0
0.600153 0 0
0.653056 0 0
0.703853 0 0
0.752361 0 0
0.799008 0 0
0.844312 0 0
0.888838 0 0
0.934005 0 0
0.97319 0 0
1 0 0
1 0 0
1 0 0
1 0 0
1 0 0
1 0 0
1 0 0
1 0 0
0 0.00190738 0
0 0.00172427 0
0.0016022 0.00129702 0
0.00952163 0.000808728 0
0.0400244 0.000106813 0
0.0702983 0 0
0.103014 0 0
0.139742 0 0
0.180606 0 0
0.226474 0 0
0.275715 0 0
0.327169 0 0
0.379705 0 0
0.433036 0 0
0.487449 0 0
0.542138 0 0
0.596597 0 0
0.649989 0 0
0.700679 0 0
0.749111 0 0
0.795941 0 0
0.841184 0 0
0.886061 0 0
0.931441 0 0
0.972793 0 0
1 0 0
1 0 0
1 0 0
1 0 0
1 0 0
1 0 0
1 0 0
1 0 0
0 0.0112154 0
0 0.00987259 0
0.000228885 0.00888075 0
0.00944533 0.00791943 0
0.0354772 0.0068513 0
0.0634775 0.00749218 0
0.0964523 0.00761425 0
0.132555 0.00769055 0
0.171374 0.00743114 0
0.215793 0.00624094 0
0.265278 0.00375372 0
0.317586 0.00140383 0
0.37232 0 0
0.427726 0 0
0.483497 0 0
0.539162 0 0
0.594171 0 0
0.648402 0 0
0.699977 0 0
0.748943 0 0
0.796277 0 0
0.842206 0 0
0.887495 0 0
0.933272 0 0
0.97702 0 0
1 0 0
1 0 0
1 0 0
1 0 0
1 0 0
1 0 0
1 0 0
1 0 0
0 0.0369116 0
0 0.0352941 0
0 0.0348821 0
0.00959792 0.0342107 0
0.0312657 0.0333104 0
0.0643168 0.0323033 0
0.0974441 0.030869 0
0.12961 0.0293431 0
0.164981 0.0272526 0
0.205783 0.0238651 0
0.252399 0.0192264 0
0.303914 0.0155795 0
0.358038 0.0131685 0
0.414282 0.0108186 0
0.471656 0.00762951 0
0.529854 0.00354009 0
0.587594 0.000915541 0
0.644327 0 0
0.698528 0 0
0.749477 0 0
0.797726 0 0
0.84448 0 0
0.890455 0 0
0.936721 0 0
0.982986 0 0
0.999435 0 0
1 0 0
1 0 0
1 0 0
1 0 0
1 0 0
1 0 0
1 0 0
0 0.0657054 0
0 0.0642405 0
0 0.064271 0
0.0080415 0.0642557 0
0.0268559 0.0634623 0
0.0581979 0.0617838 0
0.0942092 0.0610971 0
0.131884 0.0589914 0
0.169055 0.0568246 0
0.20531 0.0545052 0
0.244572 0.0518196 0
0.290791 0.0476692 0
0.341497 0.0423896 0
0.395819 0.0364996 0
0.452796 0.0299382 0
0.512001 0.0231327 0
0.571496 0.0191348 0
0.630594 0.0163577 0
0.688167 0.0135348 0
0.742657 0.0106661 0
0.793332 0.00814832 0
0.842481 0.00563058 0
0.890532 0.0031281 0
0.938216 0.00077821 0
0.986221 0.000106813 0
0.997864 0 0
1 0 0
1 0 0
1 0 0
1 0 0
1 0 0
1 0 0
1 0 0
0 0.0963912 0
0 0.0952316 0
0 0.0953536 0
0.00331121 0.0957961 0
0.022034 0.0952773 0
0.0540475 0.0940871 0
0.0872053 0.0923629 0
0.125994 0.0913252 0
0.167376 0.0890669 0
0.210773 0.0858473 0
0.255482 0.0820935 0
0.294347 0.0796063 0
0.338201 0.0763714 0
0.385657 0.0723735 0
0.435966 0.0680247 0
0.490608 0.0627451 0
0.549905 0.056672 0
0.610117 0.0504158 0
0.669047 0.0448157 0
0.726192 0.0397192 0
0.780682 0.035584 0
0.832532 0.0325017 0
0.883314 0.0297093 0
0.933501 0.0276493 0
0.983017 0.0265965 0
0.996643 0.0257877 0
1 0.0248569 0
1 0.0238956 0
1 0.0229343 0
1 0.021973 0
1 0.0210727 0
1 0.0201877 0
1 0.0192416 0
0 0.128786 0
0 0.128023 0
0 0.127871 0
0.000671397 0.128725 0
0.0191196 0.128954 0
0.0482032 0.128252 0
0.0828717 0.12636 0
0.118654 0.124865 0
0.16022 0.123598 0
0.205142 0.12105 0
0.253178 0.117311 0
0.304891 0.112642 0
0.353338 0.1084 0
0.394965 0.106065 0
0.437552 0.103685 0
0.486107 0.100557 0
0.538506 0.0965896 0
0.593774 0.0923629 0
0.650706 0.0878309 0
0.707729 0.0836957 0
0.763775 0.0798505 0
0.817441 0.0768902 0
0.87013 0.0744182 0
0.922194 0.0722515 0
0.969497 0.0704051 0
0.998276 0.0683909 0
1 0.0666056 0
1 0.0651408 0
1 0.0639353 0
1 0.0628367 0
1 0.062211 0
1 0.0618601 0
1 0.061738 0
0 0.162997 0
0 0.162448 0
0 0.1626 0
0 0.163775 0
0.0142519 0.164614 0
0.0407874 0.164385 0
0.0760052 0.163317 0
0.113008 0.161105 0
0.1523 0.159792 0
0.196979 0.158083 0
0.246128 0.15555 0
0.298833 0.151553 0
0.352834 0.146853 0
0.407324 0.142397 0
0.457359 0.138933 0
0.501717 0.13666 0
0.54374 0.135531 0
0.593454 0.133059 0
0.645258 0.130388 0
0.697704 0.128023 0
0.750317 0.125689 0
0.80293 0.123674 0
0.855131 0.122057 0
0.907271 0.120577 0
0.956481 0.119081 0
0.99556 0.117754 0
0.99942 0.116213 0
1 0.114916 0
1 0.113817 0
1 0.112917 0
1 0.112016 0
1 0.111635 0
1 0.111467 0
0 0.199405 0
0 0.199145 0
0 0.199664 0
0.000167849 0.201144 0
0.00636301 0.202518 0
0.0322728 0.203143 0
0.0674449 0.202823 0
0.105241 0.201419 0
0.14548 0.198993 0
0.188891 0.197574 0
0.236957 0.19588 0
0.28986 0.19321 0
0.346609 0.189303 0
0.403296 0.184863 0
0.459342 0.18088 0
0.514794 0.176989 0
0.567102 0.174044 0
0.611536 0.172793 0
0.654353 0.172595 0
0.700526 0.172 0
0.748714 0.171298 0
0.797559 0.170748 0
0.846174 0.170718 0
0.895476 0.170504 0
0.946151 0.170092 0
0.986496 0.169421 0
1 0.168521 0
1 0.167575 0
1 0.16672 0
1 0.165972 0
1 0.165393 0
1 0.164965 0
1 0.164797 0
0 0.238285 0
0 0.238361 0
0 0.239353 0
0 0.241169 0
0 0.243168 0
0.024506 0.244129 0
0.0574655 0.244785 0
0.0958114 0.244511 0
0.137087 0.242863 0
0.180896 0.240406 0
0.228336 0.238621 0
0.280049 0.236927 0
0.336355 0.234592 0
0.39585 0.230884 0
0.454322 0.227176 0
0.51313 0.223255 0
0.571084 0.219852 0
0.627268 0.216785 0
0.676753 0.215335 0
0.719631 0.215793 0
0.760311 0.216831 0
0.802136 0.218036 0
0.846311 0.219074 0
0.892302 0.220203 0
0.939315 0.220966 0
0.977569 0.221485 0
1 0.221683 0
1 0.221592 0
1 0.221332 0
1 0.221042 0
1 0.220706 0
1 0.220432 0
1 0.220295 0
0 0.279606 0
0 0.28011 0
0 0.28159 0
0 0.283787 0
0.000701915 0.286366 0
0.0154726 0.288243 0
0.0468605 0.289555 0
0.085481 0.290074 0
0.126802 0.289876 0
0.17261 0.287419 0
0.219989 0.285084 0
0.270939 0.283177 0
0.325826 0.281651 0
0.384649 0.279438 0
0.445716 0.276539 0
0.506279 0.272999 0
0.566766 0.269642 0
0.626551 0.266346 0
0.683436 0.264012 0
0.734707 0.262913 0
0.77998 0.263188 0
0.820508 0.264698 0
0.858137 0.267262 0
0.897322 0.269596 0
0.939956 0.271397 0
0.977646 0.27277 0
1 0.273777 0
1 0.27454 0
1 0.275105 0
1 0.275471 0
1 0.275761 0
1 0.276051 0
1 0.276341 0
0 0.323552 0
0 0.324376 0
0 0.326131 0
0 0.32874 0
0.000717174 0.331899 0
0.00415045 0.334722 0
0.0368505 0.336645 0
0.0749828 0.338109 0
0.116548 0.338842 0
0.161685 0.338491 0
0.212024 0.335012 0
0.263096 0.332616 0
0.316884 0.330892 0
0.373434 0.329488 0
0.434028 0.327901 0
0.49662 0.325078 0
0.558724 0.321889 0
0.62002 0.318929 0
0.679576 0.316121 0
0.736019 0.314183 0
0.78735 0.313726 0
0.834043 0.314046 0
0.876524 0.315373 0
0.914702 0.317662 0
0.951003 0.320699 0
0.984268 0.323095 0
1 0.325017 0
1 0.326513 0
1 0.327733 0
1 0.328847 0
1 0.329885 0
1 0.330892 0
1 0.331899 0
0 0.36997 0
0 0.371191 0
0 0.373358 0
0 0.376486 0
3.0518e-05 0.380102 0
0.0015259 0.383581 0
0.0286259 0.38613 0
0.0652934 0.388205 0
0.107027 0.389715 0
0.151965 0.390295 0
0.201877 0.388754 0
0.255955 0.385046 0
0.309895 0.382177 0
0.365164 0.38056 0
0.422797 0.379446 0
0.484993 0.377997 0
0.548684 0.375402 0
0.611032 0.372808 0
0.671824 0.370062 0
0.729854 0.367819 0
0.784726 0.366476 0
0.835904 0.366217 0
0.883635 0.366506 0
0.928283 0.367529 0
0.969268 0.369284 0
0.992859 0.371847 0
1 0.374807 0
1 0.377401 0
1 0.37966 0
1 0.381582 0
1 0.383261 0
1 0.384833 0
1 0.386343 0
0 0.418555 0
0 0.420249 0
0 0.422797 0
0 0.42652 0
0 0.43061 0
0.00328069 0.434501 0
0.0195773 0.437613 0
0.0571756 0.439872 0
0.0989242 0.441825 0
0.143618 0.443091 0
0.191943 0.443076 0
0.247059 0.440192 0
0.303471 0.436286 0
0.359487 0.433127 0
0.415381 0.431357 0
0.47306 0.430701 0
0.537026 0.428931 0
0.600351 0.426825 0
0.662486 0.424338 0
0.721874 0.42211 0
0.777768 0.420829 0
0.8309 0.420096 0
0.882109 0.419898 0
0.931304 0.420188 0
0.976028 0.420951 0
0.996674 0.422644 0
1 0.424689 0
1 0.427115 0
1 0.42977 0
1 0.432471 0
1 0.434943 0
1 0.437171 0
1 0.439246 0
0 0.469169 0
0 0.471321 0
0 0.474113 0
0 0.478279 0
0 0.482643 0
0.00218204 0.48661 0
0.00981155 0.490394 0
0.0489662 0.493263 0
0.0907912 0.495521 0
0.135378 0.496818 0
0.18352 0.497429 0
0.236011 0.496544 0
0.294926 0.49218 0
0.353109 0.487694 0
0.409842 0.484565 0
0.465568 0.482872 0
0.524605 0.482033 0
0.588327 0.480476 0
0.651255 0.478645 0
0.712215 0.477058 0
0.769818 0.475624 0
0.823835 0.474952 0
0.875792 0.474815 0
0.926955 0.474922 0
0.971832 0.475425 0
0.999863 0.475883 0
1 0.47689 0
1 0.478386 0
1 0.480247 0
1 0.482414 0
1 0.485054 0
1 0.487572 0
1 0.490028 0
0 0.52134 0
0 0.523842 0
0 0.526864 0
0 0.531044 0
0 0.535454 0
0.000610361 0.540032 0
0.00825513 0.544137 0
0.0417182 0.547356 0
0.0829175 0.549599 0
0.127092 0.551308 0
0.174838 0.551888 0
0.22623 0.551598 0
0.28304 0.549142 0
0.343557 0.544213 0
0.403113 0.539391 0
0.460151 0.536355 0
0.51667 0.534722 0
0.576318 0.533898 0
0.638987 0.533196 0
0.701183 0.532128 0
0.760754 0.53109 0
0.816114 0.530694 0
0.868391 0.530617 0
0.920012 0.530739 0
0.966079 0.530907 0
1 0.53106 0
1 0.531533 0
1 0.532097 0
1 0.532982 0
1 0.534203 0
1 0.535744 0
1 0.537606 0
1 0.539834 0
0 0.574472 0
0 0.577188 0
0 0.580392 0
0 0.58436 0
0 0.589044 0
0 0.593805 0
0.00856031 0.598016 0
0.0344396 0.601144 0
0.0752728 0.603784 0
0.119219 0.605661 0
0.166567 0.606455 0
0.217517 0.6065 0
0.272572 0.605219 0
0.332906 0.601877 0
0.394095 0.596796 0
0.45449 0.591943 0
0.512367 0.588952 0
0.569345 0.587503 0
0.628183 0.586938 0
0.688899 0.586877 0
0.749401 0.586633 0
0.807324 0.586313 0
0.860899 0.586221 0
0.912398 0.586572 0
0.961761 0.586679 0
0.996597 0.586755 0
1 0.586801 0
1 0.586892 0
1 0.58735 0
1 0.587793 0
1 0.588693 0
1 0.590158 0
1 0.592187 0
0 0.627878 0
0 0.630655 0
0 0.633875 0
0 0.637659 0
0 0.642451 0
0 0.647288 0
0.00784314 0.651545 0
0.0288701 0.654871 0
0.069276 0.657847 0
0.112902 0.660014 0
0.15993 0.661082 0
0.210513 0.661479 0
0.264866 0.660639 0
0.323674 0.658488 0
0.385321 0.654582 0
0.447227 0.649485 0
0.507607 0.644862 0
0.565774 0.641733 0
0.622766 0.640513 0
0.67985 0.640223 0
0.737774 0.640772 0
0.796124 0.641245 0
0.852186 0.641489 0
0.904631 0.64155 0
0.95462 0.641779 0
0.988174 0.641733 0
1 0.641642 0
1 0.641566 0
1 0.641794 0
1 0.642359 0
1 0.64329 0
1 0.644968 0
1 0.647135 0
0 0.681132 0
0 0.68368 0
0 0.68687 0
0 0.690669 0
0 0.695628 0
0 0.700267 0
0.00575265 0.704738 0
0.0253758 0.708644 0
0.065507 0.711681 0
0.108553 0.714183 0
0.155169 0.715526 0
0.205585 0.716136 0
0.259419 0.715557 0
0.316991 0.714015 0
0.377752 0.711315 0
0.439933 0.706767 0
0.502068 0.701518 0
0.562814 0.696727 0
0.620188 0.693935 0
0.675639 0.692912 0
0.730892 0.692851 0
0.78587 0.693767 0
0.841459 0.69482 0
0.895521 0.695415 0
0.945403 0.69514 0
0.980774 0.694926 0
1 0.694652 0
1 0.694621 0
1 0.694942 0
1 0.695811 0
1 0.697063 0
1 0.699199 0
1 0.701869 0
0 0.733425 0
0 0.736278 0
0 0.73959 0
0 0.743328 0
0 0.748165 0
0 0.753155 0
0.00320439 0.757702 0
0.0242924 0.761868 0
0.06421 0.765057 0
0.106661 0.767849 0
0.152743 0.76936 0
0.202655 0.770123 0
0.256229 0.769635 0
0.313161 0.7682 0
0.372747 0.766186 0
0.434089 0.762631 0
0.496635 0.757626 0
0.558862 0.75198 0
0.618738 0.747173 0
0.674586 0.744564 0
0.727977 0.743679 0
0.780346 0.743374 0
0.832395 0.743725 0
0.884153 0.74464 0
0.93283 0.744579 0
0.972641 0.744335 0
1 0.744045 0
1 0.744213 0
1 0.744884 0
1 0.745846 0
1 0.747677 0
1 0.749798 0
1 0.752163 0
0 0.785733 0
0 0.788724 0
0 0.791913 0
0 0.79588 0
0 0.800519 0
0 0.805554 0
0.000991836 0.810513 0
0.0253452 0.814496 0
0.0650492 0.817761 0
0.106981 0.820645 0
0.152087 0.822354 0
0.201389 0.823148 0
0.254383 0.82266 0
0.310643 0.821225 0
0.369467 0.819043 0
0.429618 0.816419 0
0.492256 0.811749 0
0.555764 0.8056 0
0.618173 0.79884 0
0.676692 0.793378 0
0.729946 0.790311 0
0.780346 0.788815 0
0.829129 0.788266 0
0.876463 0.78822 0
0.921645 0.788327 0
0.961791 0.788571 0
0.99382 0.788907 0
0.998154 0.789532 0
1 0.790616 0
1 0.791897 0
1 0.793774 0
1 0.795727 0
1 0.797726 0
0 0.837964 0
0 0.840726 0
0 0.844129 0
0 0.847822 0
0 0.852399 0
0 0.857466 0
0 0.86247 0
0.028336 0.866377 0
0.0672313 0.869642 0
0.108751 0.872465 0
0.152865 0.874296 0
0.20148 0.874784 0
0.254078 0.874189 0
0.310903 0.872068 0
0.370932 0.868849 0
0.432563 0.864881 0
0.496223 0.859541 0
0.561303 0.852247 0
0.625284 0.844053 0
0.685481 0.836576 0
0.739864 0.831113 0
0.788251 0.828717 0
0.833783 0.827634 0
0.876768 0.827665 0
0.918044 0.82855 0
0.956374 0.829648 0
0.984817 0.830701 0
0.997192 0.831907 0
1 0.833387 0
1 0.835035 0
1 0.83653 0
1 0.838529 0
1 0.840299 0
0 0.889799 0
0 0.89247 0
0 0.895781 0
0 0.899321 0
0 0.903807 0
0 0.908675 0
0 0.913527 0
0.0319066 0.917418 0
0.0700389 0.920607 0
0.111711 0.922759 0
0.156664 0.923674 0
0.206638 0.923171 0
0.262348 0.920424 0
0.322835 0.915984 0
0.386435 0.91046 0
0.450996 0.904265 0
0.516533 0.897139 0
0.581888 0.889494 0
0.646677 0.880446 0
0.70486 0.872847 0
0.756588 0.867872 0
0.802487 0.865324 0
0.843778 0.865202 0
0.882612 0.866056 0
0.919753 0.86746 0.000198367
0.955642 0.869261 0.000106813
0.981155 0.870741 0
1 0.87245 0
1 0.874067 0
1 0.875822 0
1 0.87747 0
1 0.879072 0
1 0.880766 0
0 0.940475 0
0 0.943175 0
0 0.945968 0
0 0.949218 0
0 0.953475 0
0 0.9579 0
0.00291447 0.9617 0
0.0373693 0.964553 0
0.0787823 0.966094 0
0.124147 0.965881 0
0.174121 0.964309 0
0.229496 0.960678 0
0.290578 0.955062 0
0.356023 0.948119 0
0.422721 0.940261 0
0.488228 0.932769 0
0.552254 0.925582 0
0.613458 0.918868 0
0.671244 0.912779 0
0.725353 0.907469 0
0.772732 0.903853 0
0.815229 0.902296 0.000823987
0.854459 0.902113 0.00234989
0.890089 0.903502 0.00254826
0.923827 0.905211 0.00164797
0.956222 0.907271 0
0.985443 0.909606 0
0.998337 0.912291 0
1 0.915053 0
1 0.917678 0
1 0.919814 0
1 0.921111 0
1 0.921614 0
0 0.980972 0
0 0.98262 0
0 0.98407 0
0 0.985321 0
0 0.986709 0
0 0.987762 0
0.0180667 0.988418 0
0.0576944 0.98851 0
0.105104 0.987778 0
0.157046 0.986221 0
0.214069 0.98349 0
0.27599 0.979568 0
0.341131 0.974807 0
0.406027 0.969741 0
0.467781 0.964675 0
0.527016 0.959396 0
0.583413 0.954635 0
0.637263 0.950652 0
0.689296 0.946731 0
0.737499 0.943236 0
0.783551 0.9402 0.000106813
0.824094 0.938674 0.000885023
0.860777 0.938949 0.000915541
0.894591 0.940871 0.000488289
0.924712 0.944518 0
0.955169 0.948165 0
0.986725 0.951736 0
0.996368 0.954711 0
1 0.956527 0
1 0.957565 0
1 0.957778 0
1 0.957748 0
1 0.957717 0
0 1 0
0 1 0
0 1 0
0 1 0
0 1 0
0.0112306 1 0
0.0514382 1 0
0.101808 1 0
0.155154 1 0
0.211536 0.998886 0
0.27039 0.997711 0
0.329641 0.996918 0
0.388556 0.996811 0
0.444877 0.995621 0
0.498589 0.993439 0
0.550652 0.988647 0
0.601419 0.984298 0
0.650172 0.98088 0
0.697185 0.978637 0
0.740169 0.977676 0
0.779004 0.978698 0
0.81416 0.981231 0
0.846586 0.984848 0
0.879988 0.987472 0
0.913252 0.986755 0
0.947921 0.986297 0
0.980575 0.985962 0
0.997055 0.985748 0
1 0.985641 0
1 0.985718 0
1 0.985916 0
1 0.986191 0
1 0.986557 0
0 1 0
0 1 0
0 1 0
0 1 0
0.0158236 1 0
0.0579843 1 0
0.107591 1 0
0.157717 1 0
0.208667 1 0
