nova/tdt-studio/app/Lut_mau/Buttery LUTs/Sony_New_Creative_1.cube
TITLE "Generated by Resolve"
LUT_3D_SIZE 33
0 0 0
0 0 0
0 0 0
0 0 0
0 0 0
0 0 0
0.00189212 0 0
0.0467689 0 0
0.0935378 0 0
0.141817 0 0
0.191333 0 0
0.242542 0 0
0.295079 0 0
0.348104 0 0
0.401724 0 0
0.456184 0 0
0.511482 0 0
0.566979 0 0
0.624949 0 0
0.685542 0 0
0.747845 0 0
0.809979 0 0
0.870298 0 0
0.927108 0 0
0.979965 0 0
1 0 0
1 0 0
1 0 0
1 0 0
1 0 0
1 0 0
1 0 0
1 0 0
0 0 0
0 0 0
0 0 0
0 0 0
0 0 0
0 0 0
0.00517281 0 0
0.0502174 0 0
0.0967117 0 0
0.144106 0 0
0.192889 0 0
0.243259 0 0
0.295262 0 0
0.348898 0 0
0.403174 0 0
0.458442 0 0
0.513619 0 0
0.569726 0 0
0.627832 0 0
0.689189 0 0
0.751659 0 0
0.814176 0 0
0.87425 0 0
0.931579 0 0
0.984344 0 0
1 0 0
1 0 0
1 0 0
1 0 0
1 0 0
1 0 0
1 0 0
1 0 0
0 0 0
0 0 0
0 0 0
0 0 0
0 0 0
0 0 0
0.00367742 0 0
0.0480659 0 0
0.0971084 0 0
0.145281 0 0
0.195056 0 0
0.246403 0 0
0.298924 0 0
0.352819 0 0
0.407218 0 0
0.462425 0 0
0.518044 0 0
0.574044 0 0
0.6327 0 0
0.69398 0 0
0.756985 0 0
0.819272 0 0
0.879774 0 0
0.936568 0 0
0.989578 0 0
1 0 0
1 0 0
1 0 0
1 0 0
1 0 0
1 0 0
1 0 0
1 0 0
0 0 0
0 0 0
0 0 0
0 0 0
0 0 0
0 0 0
0.00781262 0 0
0.0526589 0 0
0.0991073 0 0
0.150362 0 0
0.202701 0 0
0.254505 0 0
0.307866 0 0
0.36199 0 0
0.417151 0 0
0.472282 0 0
0.527962 0 0
0.584131 0 0
0.642817 0 0
0.704509 0 0
0.767056 0 0
0.829587 0 0
0.889647 0 0
0.946517 0 0
0.999176 0 0
1 0 0
1 0 0
1 0 0
1 0 0
1 0 0
1 0 0
1 0 0
1 0 0
0 0 0
0 0 0
0 0 0
0 0 0
0 0 0
0 0 0
0.010132 0 0
0.0552834 0 0
0.102205 0 0
0.150851 0 0
0.201328 0 0
0.258137 0 0
0.313649 0 0
0.369162 0 0
0.425101 0 0
0.481468 0 0
0.53782 0 0
0.595315 0 0
0.655146 0 0
0.717632 0 0
0.781567 0 0
0.84445 0 0
0.905196 0 0
0.961852 0 0
1 0 0
1 0 0
1 0 0
1 0 0
1 0 0
1 0 0
1 0 0
1 0 0
1 0 0
0 0.0314946 0
0 0.0299992 0
0 0.0281224 0
0 0.0265354 0
0 0.0257115 0
0 0.0251011 0
0.0107729 0.0237736 0
0.0563363 0.0221103 0
0.103593 0.0201114 0
0.152651 0.0177462 0
0.203479 0.0150149 0
0.255955 0.0119631 0
0.311299 0.00805676 0
0.371695 0.00222782 0
0.430213 0 0
0.487419 0 0
0.545052 0 0
0.603235 0 0
0.664149 0 0
0.728023 0 0
0.792477 0 0
0.856367 0 0
0.917128 0 0
0.974166 0 0
1 0 0
1 0 0
1 0 0
1 0 0
1 0 0
1 0 0
1 0 0
1 0 0
1 0.00387579 0
0 0.069276 0
0 0.0680705 0
0 0.0665599 0
0 0.0651865 0
0 0.064744 0
0 0.0642863 0
0.0109712 0.0632639 0
0.0568704 0.0618906 0
0.104524 0.0601663 0
0.153994 0.0580758 0
0.205188 0.0556649 0
0.257984 0.0529488 0
0.312566 0.0498817 0
0.368063 0.0466926 0
0.427359 0.0421607 0
0.490288 0.0362554 0
0.549859 0.0318914 0
0.609094 0.0280003 0
0.671382 0.0234531 0
0.735988 0.0184482 0
0.801678 0.0133059 0
0.865766 0.00874342 0
0.926879 0.00511177 0
0.984039 0.00273136 0
1 0.00169375 0
1 0.00198367 0
1 0.00480659 0
1 0.0109255 0
1 0.0191348 0
1 0.0279545 0
1 0.0361791 0
1 0.0438849 0
1 0.051606 0
0 0.108721 0
0 0.107759 0
0 0.106508 0
0 0.105562 0
0 0.105379 0
0 0.105135 0
0.0105592 0.104509 0
0.0568246 0.103441 0
0.104891 0.102022 0
0.154559 0.100298 0
0.206134 0.0982071 0
0.259586 0.0957198 0
0.31429 0.0930343 0
0.37052 0.0900587 0
0.42739 0.0870527 0
0.48513 0.0838941 0
0.547143 0.079118 0
0.612039 0.0733196 0
0.677134 0.0680552 0
0.743328 0.0629435 0
0.809598 0.057969 0
0.874372 0.0535592 0
0.93608 0.0501259 0
0.992981 0.0480964 0
1 0.0474098 0
1 0.0481575 0
1 0.0517433 0
1 0.0586709 0
1 0.0673381 0
1 0.0764172 0
1 0.0845655 0
1 0.0924697 0
1 0.100435 0
0 0.149798 0
0 0.149111 0
0 0.148226 0
0 0.147616 0
0 0.147784 0
0 0.147753 0
0.00894179 0.147295 0
0.0558022 0.146532 0
0.104448 0.145663 0
0.154711 0.144213 0
0.206775 0.142397 0
0.260319 0.140307 0
0.315755 0.137835 0
0.372122 0.135256 0
0.429419 0.13254 0
0.487648 0.129702 0
0.545892 0.12697 0
0.606394 0.123674 0
0.674937 0.117464 0
0.746624 0.11017 0
0.815396 0.104677 0
0.880903 0.100206 0
0.942489 0.0970779 0
0.999939 0.09514 0
1 0.0948196 0
1 0.096025 0
1 0.100359 0
1 0.108064 0
1 0.117159 0
1 0.126772 0
1 0.134829 0
1 0.142901 0
1 0.151034 0
0 0.192676 0
0 0.19234 0
0 0.191791 0
0 0.191546 0
0 0.191943 0
0 0.192172 0
0.0071107 0.192081 0
0.0541238 0.191669 0
0.102922 0.190875 0
0.153536 0.189731 0
0.205676 0.188312 0
0.259937 0.18645 0
0.31548 0.18436 0
0.372656 0.181964 0
0.430488 0.179522 0
0.488884 0.177035 0
0.547723 0.174548 0
0.608316 0.17171 0
0.672312 0.168063 0
0.740215 0.16318 0
0.813184 0.156268 0
0.883619 0.150088 0
0.947204 0.146349 0
1 0.144549 0
1 0.144442 0
1 0.145922 0
1 0.15079 0
1 0.15903 0
1 0.168429 0
1 0.177951 0
1 0.18616 0
1 0.19443 0
1 0.202594 0
0 0.237415 0
0 0.23743 0
0 0.23711 0
0 0.237156 0
0 0.237888 0
0 0.238544 0
0.00448615 0.238773 0
0.0521096 0.238575 0
0.101259 0.238117 0
0.151934 0.237369 0
0.204761 0.236194 0
0.259388 0.234668 0
0.315312 0.232914 0
0.372457 0.230915 0
0.430686 0.228733 0
0.489525 0.226474 0
0.548455 0.224109 0
0.609522 0.221515 0
0.674311 0.217624 0
0.741085 0.213565 0
0.807752 0.209598 0
0.874968 0.205173 0
0.941878 0.200336 0
1 0.197055 0
1 0.196109 0
1 0.19765 0
1 0.203143 0
1 0.211749 0
1 0.221424 0
1 0.23064 0
1 0.238712 0
1 0.247074 0
1 0.255253 0
0 0.283711 0
0 0.284077 0
0 0.284352 0
0 0.284657 0
0 0.285542 0
0 0.286412 0
0.00137331 0.287144 0
0.0488899 0.287221 0
0.0979477 0.287068 0
0.149462 0.286503 0
0.202686 0.285588 0
0.257343 0.284398 0
0.313863 0.282811 0
0.371298 0.281041 0
0.429664 0.279133 0
0.48864 0.277134 0
0.548379 0.274998 0
0.609918 0.27245 0
0.674968 0.269032 0
0.742016 0.265156 0
0.809262 0.261234 0
0.873793 0.258106 0
0.934371 0.255756 0
0.991974 0.254185 0
1 0.253285 0
1 0.254475 0
1 0.259724 0
1 0.268284 0
1 0.277974 0
1 0.287007 0
1 0.295018 0
1 0.30312 0
1 0.311223 0
0 0.331823 0
0 0.332464 0
0 0.332876 0
0 0.333593 0
0 0.334936 0
0 0.336187 0
0 0.337041 0
0.045182 0.337636 0
0.0949416 0.337804 0
0.146517 0.337545 0
0.199908 0.336873 0
0.2551 0.335836 0
0.311559 0.334539 0
0.369177 0.33283 0
0.428046 0.33109 0
0.487022 0.329046 0
0.546746 0.327138 0
0.608942 0.324605 0
0.674434 0.321248 0
0.741634 0.317449 0
0.808667 0.313726 0
0.873457 0.310658 0
0.933791 0.308812 0
0.989456 0.308263 0
1 0.309194 0
1 0.312169 0
1 0.318395 0
1 0.32726 0
1 0.337148 0
1 0.346349 0
1 0.354681 0
1 0.363241 0
1 0.371771 0
0 0.38172 0
0 0.382666 0
0 0.383291 0
0 0.384329 0
0 0.385931 0
0 0.387427 0
0 0.388342 0
0.0411078 0.389151 0
0.0910658 0.389532 0
0.142855 0.389517 0
0.196292 0.389105 0
0.25182 0.38822 0
0.308507 0.387091 0
0.366354 0.385687 0
0.425147 0.3841 0
0.48484 0.382315 0
0.544793 0.380499 0
0.606989 0.377997 0
0.672663 0.374716 0
0.740093 0.370626 0
0.807157 0.366979 0
0.871458 0.364126 0
0.931914 0.362295 0
0.986984 0.361929 0
1 0.36286 0
1 0.366262 0
1 0.373236 0
1 0.382696 0
1 0.39292 0
1 0.402457 0
1 0.41146 0
1 0.420371 0
1 0.429648 0
0 0.432731 0
0 0.43386 0
0 0.434852 0
0 0.436042 0
0 0.437827 0
0 0.439811 0
0 0.441093 0
0.0370336 0.442084 0
0.0871595 0.442679 0
0.138796 0.442939 0
0.192462 0.44239 0
0.247868 0.441733 0
0.304784 0.440543 0
0.362814 0.439246 0
0.421714 0.437751 0
0.481209 0.436133 0
0.541665 0.434272 0
0.604227 0.431861 0
0.670069 0.428595 0
0.737438 0.424903 0
0.804562 0.421286 0
0.868925 0.418372 0
0.928939 0.416724 0
0.983948 0.41622 0
1 0.417304 0
1 0.421256 0
1 0.42887 0
1 0.438849 0
1 0.449561 0
1 0.459525 0
1 0.469154 0
1 0.479088 0
1 0.489052 0
0 0.485115 0
0 0.486519 0
0 0.487617 0
0 0.488792 0
0 0.4907 0
0 0.492958 0
0 0.494423 0
0.0324254 0.495598 0
0.0823529 0.496437 0
0.134386 0.496742 0
0.188067 0.49662 0
0.243778 0.495964 0
0.30071 0.495033 0
0.358877 0.493782 0
0.417853 0.492103 0
0.47744 0.490562 0
0.53753 0.48864 0
0.600565 0.486107 0
0.66656 0.48278 0
0.734051 0.479149 0
0.80087 0.475776 0
0.865629 0.473014 0
0.925734 0.471702 0
0.98114 0.471885 0
1 0.473701 0
1 0.478264 0
1 0.486656 0
1 0.497246 0
1 0.508537 0
1 0.518944 0
1 0.529061 0
1 0.539483 0
1 0.549844 0
0 0.538216 0
0 0.539773 0
0 0.541192 0
0 0.542748 0
0 0.544747 0
0 0.547204 0
0 0.548882 0
0.0272374 0.549889 0
0.0774395 0.550744 0
0.129473 0.551156 0
0.183001 0.551171 0
0.238895 0.550546 0
0.295842 0.549661 0
0.353902 0.548501 0
0.413062 0.547005 0
0.472755 0.545419 0
0.533181 0.543725 0
0.596231 0.54139 0
0.662593 0.538247 0
0.73077 0.534874 0
0.797604 0.531624 0
0.862242 0.529442 0
0.922896 0.528557 0
0.978256 0.529503 0
1 0.532006 0
1 0.53753 0
1 0.546746 0
1 0.558145 0
1 0.570108 0
1 0.580835 0
1 0.591241 0
1 0.601816 0
1 0.612039 0
0 0.592401 0
0 0.594171 0
0 0.595819 0
0 0.597528 0
0 0.599634 0
0 0.602335 0
0 0.604196 0
0.0204623 0.605585 0
0.0705425 0.606561 0
0.122179 0.607141 0
0.175921 0.607141 0
0.231098 0.606424 0
0.288457 0.605539 0
0.346456 0.604364 0
0.405554 0.603128 0
0.465339 0.601846 0
0.526497 0.600427 0
0.590158 0.598505 0
0.657069 0.595789 0
0.725444 0.592966 0
0.793423 0.590646 0
0.858549 0.589227 0
0.919173 0.589136 0
0.974929 0.59057 0
1 0.593378 0
1 0.599619 0
1 0.609552 0
1 0.621088 0
1 0.633234 0
1 0.643992 0
1 0.654368 0
1 0.66479 0
1 0.675074 0
0 0.648753 0
0 0.650721 0
0 0.652476 0
0 0.654139 0
0 0.656107 0
0 0.658946 0
0 0.660914 0
0.0100557 0.662379 0
0.0597086 0.663523 0
0.111574 0.664118 0
0.165286 0.664302 0
0.220844 0.664057 0
0.278126 0.663523 0
0.336934 0.662821 0
0.396429 0.662058 0
0.456489 0.661067 0
0.517952 0.660288 0
0.582574 0.658686 0
0.650278 0.656626 0
0.719158 0.654368 0
0.787137 0.652583 0
0.852583 0.651652 0
0.913527 0.651942 0
0.969268 0.653681 0
1 0.65716 0
1 0.663737 0
1 0.673884 0
1 0.685374 0
1 0.697322 0
1 0.707652 0
1 0.717617 0
1 0.727657 0
1 0.737194 0
0 0.706096 0
0 0.708064 0
0 0.709865 0
0 0.711727 0
0 0.713756 0
0 0.71664 0
0 0.718868 0
0 0.720562 0
0.0480049 0.721569 0
0.10013 0.72256 0
0.153903 0.723217 0
0.209964 0.723415 0
0.267643 0.723354 0
0.326894 0.723278 0
0.387381 0.72311 0
0.44831 0.722911 0
0.510369 0.722576 0
0.575525 0.721645 0
0.644144 0.719875 0
0.713298 0.717876 0
0.78143 0.716381 0
0.846159 0.715373 0
0.907103 0.715694 0
0.962448 0.71754 0
1 0.720851 0
1 0.727352 0
1 0.737316 0
1 0.748516 0
1 0.759884 0
1 0.769543 0
1 0.779065 0
1 0.788342 0
1 0.797162 0
0 0.763638 0
0 0.76553 0
0 0.767391 0
0 0.769345 0
0 0.771527 0
0 0.774594 0
0 0.777279 0
0 0.779355 0
0.0383764 0.781109 0
0.0906691 0.782666 0
0.14548 0.783917 0
0.201953 0.784894 0
0.260258 0.785031 0
0.320043 0.785412 0
0.380636 0.785626 0
0.441962 0.785824 0
0.504814 0.785641 0
0.570367 0.784772 0
0.638849 0.783154 0
0.708415 0.781186 0
0.77644 0.779568 0
0.841169 0.778729 0
0.901579 0.778943 0
0.956451 0.780499 0
1 0.783429 0
1 0.789517 0
1 0.798871 0
1 0.809506 0
1 0.820081 0
1 0.828824 0
1 0.837415 0
1 0.845869 0
1 0.853956 0
0 0.82092 0
0 0.823102 0
0 0.825162 0
0 0.827604 0
0 0.829984 0
0 0.833112 0
0 0.836316 0
0 0.839048 0
0.0326696 0.841535 0
0.0859083 0.843503 0
0.140978 0.845243 0
0.198199 0.846525 0
0.256825 0.84744 0
0.317266 0.847883 0
0.37818 0.848295 0
0.439704 0.848539 0
0.502434 0.848417 0
0.56849 0.847257 0
0.636713 0.845228 0
0.705486 0.842817 0
0.773342 0.840787 0
0.837522 0.839506 0
0.89688 0.839246 0
0.951095 0.840208 0
0.999054 0.842634 0
1 0.847974 0
1 0.856519 0
1 0.866255 0
1 0.87602 0
1 0.884031 0
1 0.891661 0
1 0.899046 0
1 0.906294 0
0 0.877882 0
0 0.880262 0
0 0.882719 0
0 0.885679 0
0 0.888747 0
0 0.892729 0
0 0.896376 0
0 0.899535 0
0.0331579 0.90219 0
0.0863203 0.904158 0
0.141955 0.90602 0
0.19939 0.907317 0
0.258198 0.908278 0
0.318166 0.908827 0
0.379049 0.90901 0
0.440848 0.908827 0
0.503609 0.908293 0
0.569207 0.906798 0
0.637537 0.904265 0
0.705928 0.901488 0
0.772763 0.898955 0
0.836454 0.896986 0
0.894896 0.896025 0
0.948196 0.896178 0
0.995102 0.897871 0
1 0.902663 0
1 0.910384 0
1 0.919066 0
1 0.927764 0
1 0.934768 0
1 0.941466 0
1 0.947845 0
1 0.954025 0
0 0.934798 0
0 0.937545 0
0 0.940398 0
0 0.94374 0
0 0.947188 0
0 0.951614 0
0 0.955367 0
0 0.958633 0
0.0387884 0.961364 0
0.0927749 0.963561 0
0.148547 0.965209 0
0.205692 0.966354 0
0.264332 0.966995 0
0.324407 0.967117 0
0.384863 0.966903 0
0.445762 0.966278 0
0.508415 0.964981 0
0.573617 0.962814 0
0.640986 0.959686 0
0.708904 0.956039 0
0.774731 0.952728 0
0.83711 0.950134 0
0.894942 0.948379 0
0.947173 0.947692 0
0.992645 0.948577 0
1 0.95259 0
1 0.959396 0
1 0.967147 0
1 0.974792 0
1 0.980896 0
1 0.98674 0
1 0.992279 0
1 0.997452 0
0 0.991302 0
0 0.994705 0
0 0.997925 0
0 1 0
0 1 0
0 1 0
0 1 0
0 1 0
0.0502174 1 0
0.104128 1 0
0.15993 1 0
0.217121 1 0
0.275517 1 0
0.334752 1 0
0.394888 1 0
0.455299 1 0
0.517037 1 0
0.581964 1 0
0.648585 1 0
0.715175 1 0
0.780209 1 0
0.841413 0.997497 0
0.898161 0.995026 0
0.949569 0.993973 0
0.993896 0.993973 0
1 0.997086 0
1 1 0
1 1 0
1 1 0
1 1 0
1 1 0
1 1 0
1 1 0
0 1 0
0 1 0
0 1 0
0 1 0
0 1 0
0 1 0
0 1 0
0.0214237 1 0
0.0740673 1 0
0.128145 1 0
0.183413 1 0
0.240253 1 0
0.297856 1 0
0.356634 1 0
0.415747 1 0
0.475456 1 0
0.53669 1 0
0.60032 1 0
0.66627 1 0
0.731807 1 0
0.795254 1 0
0.855375 1 0
0.910765 1 0
0.960708 1 0
1 1 0
1 1 0
1 1 0
1 1 0
1 1 0
1 1 0
1 1 0
1 1 0
1 1 0
0 1 0
0 1 0
0 1 0
0 1 0
0 1 0
0 1 0
0.00509651 1 0
0.0560922 1 0
0.108492 1 0
0.161807 1 0
0.216617 1 0
0.27245 1 0
0.329686 1 0
0.387182 1 0
0.445563 1 0
0.50425 1 0
0.564553 1 0
0.627634 1 0
0.692042 1 0
0.756756 1 0
0.819013 1 0
0.877852 1 0
0.931579 1 0
0.980575 1 0
1 1 0
1 1 0
1 1 0
1 1 0
1 1 0
1 1 0
1 1 0
1 1 0
1 1 0
0 1 0
0 1 0
0 1 0
0 1 0
0 1 0
0 1 0
0.0418708 1 0
0.0923629 1 0
0.143969 1 0
