nova/tdt-studio/app/Lut_mau/Buttery LUTs/Sony_New_Creative_1.cube
TITLE "Generated by Resolve"
LUT_3D_SIZE 9
0 0 0
0 0 0
0.0935378 0 0
0.295079 0 0
0.511482 0 0
0.747845 0 0
0.979965 0 0
1 0 0
1 0 0
0 0 0
0 0 0
0.102205 0 0
0.313649 0 0
0.53782 0 0
0.781567 0 0
1 0 0
1 0 0
1 0 0
0 0.149798 0
0 0.147784 0
0.104448 0.145663 0
0.315755 0.137835 0
0.545892 0.12697 0
0.815396 0.104677 0
1 0.0948196 0
1 0.117159 0
1 0.151034 0
0 0.331823 0
0 0.334936 0
0.0949416 0.337804 0
0.311559 0.334539 0
0.546746 0.327138 0
0.808667 0.313726 0
1 0.309194 0
1 0.337148 0
1 0.371771 0
0 0.538216 0
0 0.544747 0
0.0774395 0.550744 0
0.295842 0.549661 0
0.533181 0.543725 0
0.797604 0.531624 0
1 0.532006 0
1 0.570108 0
1 0.612039 0
0 0.763638 0
0 0.771527 0
0.0383764 0.781109 0
0.260258 0.785031 0
0.504814 0.785641 0
0.77644 0.779568 0
1 0.783429 0
1 0.820081 0
1 0.853956 0
0 0.991302 0
0 1 0
0.0502174 1 0
0.275517 1 0
0.517037 1 0
0.780209 1 0
0.993896 0.993973 0
1 1 0
1 1 0
0 1 0
0 1 0
0.174548 1 0
0.388434 1 0
0.617288 1 0
0.861295 1 0
1 1 0
1 1 0
1 1 0
0 1 0
0.0682383 1 0
0.24683 1 0
0.436454 1 0
0.64007 1 0
0.862501 1 0
1 1 0
1 1 0
1 1 0
0 0 0
0 0 0
0.0955673 0 0
0.296193 0 0
0.512901 0 0
0.750088 0 0
0.982055 0 0
1 0 0
1 0 0
0 0 0
0 0 0
0.105943 0 0
0.310948 0 0
0.534768 0 0
0.779675 0 0
1 0 0
1 0 0
1 0 0
0 0.149798 0
0 0.148318 0
0.1093 0.146395 0
0.32108 0.139101 0
0.560769 0.124788 0
0.818326 0.108598 0
1 0.100786 0
1 0.124254 0
1 0.158221 0
0 0.333715 0
0 0.337224 0
0.101732 0.340093 0
0.318517 0.337255 0
0.554879 0.330236 0
0.817121 0.316915 0
1 0.306615 0
1 0.334646 0
1 0.369711 0.0116426
0 0.541421 0
0 0.548089 0
0.0847791 0.554376 0
0.303136 0.553368 0
0.540825 0.547189 0
0.807019 0.535821 0
1 0.537713 0
1 0.576699 0
1 0.618433 0
0 0.7673 0
0 0.775784 0
0.0459297 0.785962 0
0.269352 0.790951 0
0.514504 0.791928 0
0.786358 0.78526 0
1 0.788464 0
1 0.82414 0
1 0.856641 0
0 0.996643 0
0 1 0
0.0606699 1 0
0.285283 1 0
0.525765 1 0
0.78706 1 0
0.998108 0.994202 0
1 1 0
1 1 0
0 1 0.0549783
0 1 0.0626535
0.181033 1 0.0612345
0.393393 1 0.0473945
0.620325 1 0.0231632
0.861311 1 0
1 1 0
1 1 0
1 1 0
0 1 0.143267
0.0696117 1 0.135058
0.245212 1 0.115557
0.432059 1 0.0797131
0.634684 1 0.0343481
0.857053 1 0
1 1 0
1 1 0
1 1 0
0 0 0.141955
0 0 0.132509
0.0970626 0 0.121309
0.296605 0 0.0992905
0.514626 0 0.074052
0.752697 0 0.0458839
0.985153 0 0.0207675
1 0 0.0220035
1 0 0.0483253
0 0 0.154345
0 0 0.144793
0.107622 0 0.134508
0.313497 0 0.118044
0.537728 0 0.0974136
0.783398 0 0.0719768
1 0 0.0525216
1 0 0.0661326
1 0 0.0993973
0 0.148257 0.154086
0 0.147402 0.149523
0.113542 0.145998 0.144228
0.326436 0.138949 0.134173
0.55845 0.128908 0.119432
0.815915 0.113634 0.0990616
1 0.106126 0.0870375
1 0.130724 0.109606
1 0.164569 0.141863
0 0.333852 0.145037
0 0.33785 0.144778
0.107469 0.34136 0.144167
0.324788 0.33875 0.136919
0.561074 0.33164 0.124666
0.834577 0.31371 0.120836
1 0.308858 0.116777
1 0.338674 0.143709
1 0.374594 0.176394
0 0.542794 0.132662
0 0.550103 0.134707
0.0907454 0.556085 0.135424
0.309102 0.555093 0.129183
0.547921 0.549569 0.118441
0.814893 0.539025 0.102342
1 0.541726 0.0988174
1 0.581781 0.131579
1 0.623102 0.165301
0 0.76997 0.104173
0 0.778607 0.105867
0.0540475 0.78996 0.110277
0.277928 0.795621 0.108858
0.523476 0.796094 0.103441
0.794903 0.789166 0.0905928
1 0.792081 0.0868391
1 0.826444 0.114031
1 0.857099 0.137942
0 1 0.109438
0 1 0.119814
0.069749 1 0.128649
0.292988 1 0.126284
0.532616 1 0.114214
0.792355 1 0.0920882
1 0.992889 0.0788128
1 1 0.0953536
1 1 0.104921
0 1 0.224643
0 1 0.231022
0.185321 1 0.228611
0.396368 1 0.213321
0.620783 1 0.186282
0.858793 1 0.146014
1 1 0.111696
1 1 0.10782
1 1 0.103182
0 1 0.310979
0.0686656 1 0.300191
0.240803 1 0.277378
0.425864 1 0.239429
0.628046 1 0.191959
0.850324 1 0.139147
1 1 0.105257
1 1 0.105562
1 1 0.105318
0 0 0.328984
0 0 0.318883
0.0963607 0 0.307179
0.295888 0 0.285069
0.51458 0 0.260304
0.753124 0 0.23212
0.986267 0 0.207172
1 0 0.208804
1 0 0.236805
0 0 0.341283
0 0 0.332052
0.108232 0 0.322286
0.314702 0 0.306111
0.53959 0 0.285771
0.786038 0 0.260487
1 0 0.241489
1 0 0.256733
1 0 0.291554
0 0.144503 0.343069
0 0.144198 0.339117
0.116197 0.143435 0.334264
0.329412 0.137087 0.323659
0.561288 0.127352 0.308782
0.819104 0.112703 0.288273
1 0.105852 0.276387
1 0.130831 0.299992
1 0.16463 0.333043
0 0.332021 0.33579
0 0.336461 0.336263
0.111437 0.340291 0.335988
0.329015 0.337636 0.328664
0.567346 0.330251 0.319982
0.830427 0.31696 0.300984
1 0.313054 0.292439
1 0.34406 0.320745
1 0.380728 0.354681
0 0.542229 0.324422
0 0.549371 0.326619
0.0954299 0.555657 0.327749
0.314275 0.554665 0.321752
0.553185 0.549462 0.311269
0.821515 0.539971 0.295689
1 0.540597 0.303258
1 0.578912 0.342321
1 0.61883 0.37937
0 0.769497 0.295415
0 0.779293 0.29781
0.0600748 0.791196 0.303075
0.284688 0.797253 0.3028
0.530709 0.798077 0.297383
0.801633 0.790524 0.284016
1 0.792447 0.280064
1 0.825452 0.306859
1 0.854597 0.330373
0 1 0.3037
0 1 0.314137
0.0758831 1 0.322728
0.297887 1 0.319142
0.536049 1 0.305684
0.794507 0.999359 0.282246
1 0.988479 0.26772
1 1 0.282399
1 1 0.290242
0 1 0.420356
0 1 0.425589
0.186755 1 0.421744
0.396277 1 0.404944
0.617288 1 0.374533
0.851698 1 0.330434
1 1 0.29395
1 1 0.289403
1 1 0.284352
0 1 0.503624
0.0648051 1 0.48983
0.233112 1 0.463508
0.417014 1 0.424018
0.618479 1 0.375525
0.841413 1 0.322194
1 1 0.288396
1 1 0.288716
1 1 0.288258
0 0 0.534813
0 0 0.524453
0.0937514 0 0.51194
0.293873 0 0.489998
0.513634 0 0.465919
0.751949 0 0.437446
0.986191 0 0.41297
1 0 0.415686
1 0 0.445075
0 0 0.547265
0 0 0.538842
0.107698 0 0.529686
0.31429 0 0.513649
0.540154 0 0.494011
0.787243 0 0.469047
1 0 0.450477
1 0 0.467094
1 0 0.502892
0 0.139422 0.5514
0 0.139376 0.547951
0.117372 0.139025 0.544121
0.331182 0.133211 0.533806
0.563943 0.124208 0.519692
0.822339 0.109865 0.499489
1 0.103044 0.487938
1 0.128542 0.513344
1 0.162387 0.547936
0 0.328634 0.54609
0 0.33315 0.547112
0.114229 0.337316 0.547768
0.332326 0.335103 0.541543
0.569131 0.328359 0.529702
0.832654 0.315053 0.511376
1 0.311589 0.502998
1 0.343175 0.532906
1 0.380468 0.569314
0 0.53959 0.535653
0 0.547173 0.538979
0.0987259 0.553231 0.540764
0.317617 0.552254 0.535058
0.557656 0.547997 0.525704
0.830152 0.537652 0.516594
1 0.542138 0.515496
1 0.582238 0.55198
1 0.622065 0.588174
0 0.767849 0.507469
0 0.778073 0.511543
0.065568 0.791119 0.518685
0.290806 0.79736 0.519158
0.536034 0.797498 0.513649
0.806134 0.789075 0.499702
1 0.789807 0.49482
1 0.821256 0.522011
1 0.849134 0.545708
0 1 0.519081
0 1 0.530968
0.0804608 1 0.539406
0.30106 1 0.53518
0.537606 1 0.52015
0.794095 0.993744 0.494453
1 0.98172 0.478325
1 0.996063 0.490883
1 1 0.496162
0 1 0.637491
0 1 0.642329
0.18587 1 0.637583
0.393317 1 0.618708
0.611368 1 0.585153
0.841993 1 0.536263
1 1 0.497566
1 1 0.492744
1 1 0.488685
0 1 0.71841
0.0577401 1 0.702708
0.223178 1 0.674006
0.405814 1 0.632303
0.607065 1 0.582605
0.831922 1 0.529107
1 1 0.494362
1 1 0.494835
1 1 0.49514
0 0 0.761349
0 0 0.751186
0.0894179 0 0.737652
0.290761 0 0.716762
0.511086 0 0.691981
0.750072 0 0.663539
0.984665 0 0.639292
1 0 0.643351
1 0 0.675166
0 0 0.775906
0 0 0.767575
0.105592 0 0.760143
0.312703 0 0.744656
0.538766 0 0.724941
0.78648 0 0.700343
1 0 0.683131
1 0 0.702327
1 0 0.74139
0 0.132403 0.784268
0 0.132708 0.782422
0.117357 0.132845 0.780072
0.331624 0.127459 0.771267
0.564523 0.118547 0.757305
0.823423 0.104479 0.737652
1 0.0982071 0.727687
1 0.123995 0.75523
1 0.157412 0.790936
0 0.32282 0.782193
0 0.327901 0.78526
0.115618 0.332235 0.787625
0.333532 0.32987 0.782132
0.570855 0.323445 0.771008
0.834516 0.310216 0.752895
1 0.306706 0.745144
1 0.339284 0.777401
1 0.377493 0.815732
0 0.53492 0.774289
0 0.542092 0.778958
0.100237 0.548257 0.782071
0.319707 0.547814 0.77789
0.560357 0.54406 0.768933
0.831067 0.536126 0.755978
1 0.5411 0.755673
1 0.581048 0.792294
1 0.619715 0.827253
0 0.763668 0.747707
0 0.775097 0.75436
0.0690013 0.788495 0.762982
0.294392 0.794614 0.763806
0.539803 0.794598 0.758358
0.808972 0.785245 0.743603
1 0.782773 0.744411
1 0.812436 0.771664
1 0.838315 0.795087
0 1 0.763516
0 1 0.775677
0.0827497 1 0.7832
0.302022 1 0.777829
0.536965 1 0.761349
0.791959 0.98558 0.734127
0.997452 0.97171 0.716304
1 0.983063 0.725933
1 0.984878 0.728008
0 1 0.88098
0 1 0.884016
0.182788 1 0.878004
0.387579 1 0.856748
0.602335 1 0.819959
0.830091 1 0.768551
1 1 0.728023
1 1 0.722866
1 1 0.720424
0 1 0.955779
0.0478218 1 0.93669
0.211322 1 0.905943
0.393118 1 0.863844
0.593988 1 0.813458
0.820554 1 0.761486
0.995453 1 0.726116
1 1 0.726497
1 1 0.726635
0 0 0.980133
0 0 0.968429
0.0862898 0 0.954574
0.288548 0 0.934844
0.509087 0 0.911513
0.748775 0 0.883955
0.983871 0 0.860075
1 0 0.864088
1 0 0.895399
0 0 0.992828
0 0 0.983871
0.104723 0 0.976242
0.31252 0 0.961303
0.539193 0 0.942336
0.787701 0 0.91809
1 0 0.900206
1 0 0.918257
1 0 0.954772
0 0.126787 0.99971
0 0.127901 0.996796
0.118898 0.128634 0.993255
0.3337 0.123735 0.983291
0.567498 0.115526 0.969467
0.8271 0.101778 0.948989
1 0.0957656 0.937102
1 0.122362 0.962112
1 0.156313 0.994614
0 0.319387 0.996872
0 0.324727 0.99765
0.119005 0.329519 0.99704
0.337362 0.327932 0.989441
0.574868 0.321233 0.977325
0.83859 0.308217 0.957519
1 0.305638 0.949172
1 0.339788 0.978683
1 0.379034 1
0 0.532311 0.986404
0 0.540246 0.987778
0.104295 0.546792 0.987793
0.324147 0.546838 0.981506
0.566445 0.544427 0.972702
0.838117 0.53727 0.958434
1 0.542412 0.95584
1 0.582528 0.987732
1 0.620981 1
0 0.762844 0.956603
0 0.77528 0.959899
0.0752728 0.789731 0.965591
0.300862 0.796124 0.964492
0.546059 0.795483 0.957305
0.814282 0.785092 0.940764
1 0.783413 0.933104
1 0.812207 0.95552
1 0.837156 0.973678
0 1 0.967468
0 1 0.974731
0.0876326 1 0.977493
0.305364 1 0.969589
0.538811 1 0.952758
0.792477 0.980941 0.92575
0.995636 0.964721 0.906188
1 0.973205 0.912444
1 0.972366 0.910338
0 1 1
0 1 1
0.18323 1 1
0.384619 1 1
0.595544 1 0.999115
0.821408 1 0.948409
0.99675 1 0.908614
1 1 0.902266
1 1 0.899763
0 1 1
0.0413062 1 1
0.203372 1 1
0.384649 1 1
0.585855 1 0.985916
0.813321 1 0.93695
0.988525 1 0.902815
1 1 0.901976
1 1 0.900389
0 0 1
0 0 1
0.0902876 0 1
0.293141 0 1
0.513893 0 1
0.754101 0 1
0.989914 0 0.995529
1 0 0.995911
1 0 1
0 0 1
0 0 1
0.111498 0 1
0.320394 0 1
0.547829 0 1
0.797787 0 1
1 0 1
1 0 1
1 0 1
0 0.130556 1
0 0.132769 1
0.12842 0.134493 1
0.34406 0.130526 1
0.579004 0.122759 1
0.83949 0.10898 1
1 0.104234 1
1 0.132158 1
1 0.166491 1
0 0.32546 1
0 0.332525 1
0.13022 0.338186 1
0.349157 0.336706 1
0.587289 0.330694 1
0.851881 0.317845 1
1 0.316304 1
1 0.352605 1
1 0.393103 1
0 0.540581 1
0 0.549249 1
0.115908 0.556573 1
0.337209 0.558007 1
0.580835 0.556298 1
0.853193 0.549874 1
1 0.555932 1
1 0.595987 1
1 0.633539 1
0 0.773388 1
0 0.788006 1
0.0898604 0.803006 1
0.314992 0.809033 1
0.559579 0.807599 1
0.827024 0.79585 1
1 0.793042 0.995193
1 0.821118 1
1 0.844663 1
0 1 1
0 1 1
0.100679 1 1
0.317311 1 1
0.549081 1 1
0.801068 0.987503 0.985824
1 0.968109 0.964157
1 0.973404 0.966766
1 0.970092 0.964935
0 1 1
0.00613413 1 1
0.191394 1 1
0.389853 1 1
0.596963 1 1
0.821408 1 0.998718
0.996139 1 0.959411
1 1 0.953399
1 1 0.950835
0 1 1
0.0426337 1 1
0.203616 1 1
0.384665 1 1
0.587716 1 1
0.815076 1 0.985382
0.989929 1 0.951904
1 1 0.950637
1 1 0.948089
0 0 1
0 0 1
0.100206 0 1
0.303822 0 1
0.525154 0 1
0.766033 0 1
1 0 1
1 0 1
1 0 1
0 0 1
0 0 1
0.123384 0 1
0.333196 0 1
0.561334 0 1
0.813046 0 1
1 0 1
1 0 1
1 0 1
0 0.140017 1
0 0.142779 1
0.141405 0.144686 1
0.357443 0.140688 1
0.592996 0.13312 1
0.854475 0.119768 1
1 0.115129 1
1 0.143755 1
1 0.178164 1
0 0.336568 1
0 0.343938 1
0.143206 0.349187 1
0.362905 0.347967 1
0.601328 0.341756 1
0.866392 0.328649 1
1 0.328466 1
1 0.366033 1
1 0.406638 1
0 0.552056 1
0 0.561181 1
0.129198 0.568551 1
0.351385 0.570291 1
0.596536 0.569665 1
0.869734 0.563333 1
1 0.569345 1
1 0.608743 1
1 0.645014 1
0 0.786938 1
0 0.802213 1
0.104128 0.816678 1
0.329824 0.822309 1
0.573953 0.81973 1
0.839902 0.806775 1
1 0.802884 1
1 0.829297 1
1 0.851667 1
0 1 1
0 1 1
0.113008 1 1
0.328664 1 1
0.559136 1 1
0.809232 0.993133 1
1 0.971115 1
1 0.972717 1
1 0.969009 1
0 1 1
0.0153201 1 1
0.198199 1 1
0.393729 1 1
0.598321 1 1
0.821546 1 1
0.995468 1 1
1 1 1
1 1 1
0 1 1
0.0431678 1 1
0.203586 1 1
0.384588 1 1
0.589532 1 1
0.816876 1 1
0.991058 1 1
1 1 1
1 1 1
