nova/tdt-studio/app/Lut_mau/Buttery LUTs/Sony_Tobacco.cube
TITLE "Generated by Resolve"
LUT_3D_SIZE 9
0 0 0
0.0475471 0 0
0.19498 0 0
0.393317 0 0
0.608606 0 0
0.805539 0 0
0.978729 0 0
1 0 0
1 0 0
0 0.0369116 0
0.0312657 0.0333104 0
0.164981 0.0272526 0
0.358038 0.0131685 0
0.587594 0.000915541 0
0.797726 0 0
0.982986 0 0
1 0 0
1 0 0
0 0.162997 0
0.0142519 0.164614 0
0.1523 0.159792 0
0.352834 0.146853 0
0.54374 0.135531 0
0.750317 0.125689 0
0.956481 0.119081 0
1 0.113817 0
1 0.111467 0
0 0.323552 0
0.000717174 0.331899 0
0.116548 0.338842 0
0.316884 0.330892 0
0.558724 0.321889 0
0.78735 0.313726 0
0.951003 0.320699 0
1 0.327733 0
1 0.331899 0
0 0.52134 0
0 0.535454 0
0.0829175 0.549599 0
0.28304 0.549142 0
0.51667 0.534722 0
0.760754 0.53109 0
0.966079 0.530907 0
1 0.532982 0
1 0.539834 0
0 0.733425 0
0 0.748165 0
0.06421 0.765057 0
0.256229 0.769635 0
0.496635 0.757626 0
0.727977 0.743679 0
0.93283 0.744579 0
1 0.744884 0
1 0.752163 0
0 0.940475 0
0 0.953475 0
0.0787823 0.966094 0
0.290578 0.955062 0
0.552254 0.925582 0
0.772732 0.903853 0
0.923827 0.905211 0.00164797
1 0.915053 0
1 0.921614 0
0 1 0
0.0654765 1 0
0.240925 1 0
0.419669 1 0
0.527169 1 0
0.709209 1 0
0.907362 1 0
1 1 0
1 1 0
0.00347906 1 0
0.00148013 1 0
0.0837568 1 0
0.253697 1 0
0.47509 1 0
0.708354 1 0
0.905196 1 0
1 1 0
1 1 0
0 0 0.0304875
0.0601053 0 0.0316167
0.212085 0 0.0231022
0.413931 0 0.000762951
0.630854 0 0.00125124
0.824704 0 0
0.987457 0 0
1 0 0
1 0 0
0 0.0322423 0.0158999
0.0457465 0.0297246 0.0133059
0.195789 0.019852 0.00564584
0.39791 0.00817884 0.0039826
0.61799 0 0
0.819471 0 0
0.997208 0 0
1 0 0
1 0 0
0 0.158938 0.000656138
0.0227817 0.161715 0.00343328
0.173266 0.157366 0.0059968
0.363638 0.14612 0.000671397
0.581857 0.130617 0
0.817899 0.114458 0
0.992935 0.109682 0
1 0.107347 0
1 0.107729 0
0 0.320989 0
0.00291447 0.330968 0
0.139681 0.337362 0
0.347951 0.33019 4.57771e-05
0.589975 0.319295 0
0.789899 0.317632 0.000915541
0.963699 0.323461 0.00196841
1 0.323919 0
1 0.323308 0.000381476
0 0.520394 0
0 0.535805 0
0.105882 0.548821 0
0.312352 0.547005 0
0.549371 0.535012 0
0.790326 0.529473 0
0.98616 0.529961 0
1 0.537621 0.00155642
1 0.547524 0.0081178
0 0.732769 0
0 0.748577 0
0.0863508 0.76463 0
0.284337 0.767239 0
0.526207 0.755886 0
0.756725 0.743053 0
0.956054 0.742962 0
1 0.745998 0.00349432
1 0.755123 0.0211032
0 0.939437 0
0 0.952895 0
0.106065 0.961776 0
0.335103 0.946105 0
0.592233 0.919982 0.0056611
0.79823 0.904021 0.0466316
0.942596 0.907652 0.0567178
1 0.917525 9.15541e-05
1 0.918502 0
0 1 0
0.0996262 1 0.0131228
0.269429 1 0.028748
0.424643 1 0.00862135
0.522454 1 0
0.733639 1 0
0.925963 1 0
1 1 0
1 1 0
0 1 0.000137331
0.000869764 1 0
0.100771 1 0
0.2766 1 0
0.500893 1 0
0.732494 1 0
0.922011 1 0
1 1 0
1 1 0
0 0 0.163851
0.070634 0 0.162799
0.227878 0 0.150546
0.432883 0 0.125185
0.650919 0 0.0988479
0.842176 0 0.0797436
0.99855 0 0.0661784
1 0 0.0536049
1 0 0.0465705
0 0.0260624 0.137591
0.0578012 0.0238651 0.138491
0.213275 0.0131991 0.129061
0.418936 0.00560006 0.10692
0.63978 0 0.0840314
0.838773 0 0.0695811
0.996826 0 0.0599527
1 0 0.0533761
1 0 0.0526741
0 0.154604 0.0996719
0.0383764 0.157595 0.105745
0.194308 0.153445 0.107698
0.405142 0.137926 0.0949569
0.638544 0.119326 0.0803693
0.852049 0.109895 0.0743877
1 0.107408 0.075288
1 0.106279 0.0783246
1 0.107485 0.083238
0 0.318868 0.0459602
0.00619516 0.330053 0.0603342
0.163241 0.335897 0.0713207
0.379126 0.328496 0.0771038
0.603067 0.321187 0.0793011
0.814832 0.317723 0.0869764
0.994537 0.314046 0.0820172
1 0.311162 0.082414
1 0.312596 0.0878004
0 0.520699 0.0118868
0.00132753 0.537301 0.0234379
0.131304 0.548806 0.0366064
0.343236 0.546059 0.0399786
0.584237 0.534813 0.0514229
0.820417 0.52874 0.0375372
0.989837 0.535134 0.0732433
1 0.54316 0.0979934
1 0.549294 0.10811
0 0.734035 0
0 0.750942 0
0.11014 0.766049 0.0131075
0.314672 0.766659 0.0200504
0.55761 0.75494 0.0268101
0.786603 0.743099 0.0523995
0.971847 0.742382 0.0538491
1 0.747143 0.0983291
1 0.758679 0.143114
0 0.940536 0.000595102
0.000137331 0.953674 0.00860609
0.139345 0.958434 0.0328679
0.383642 0.937881 0.0682841
0.62797 0.915496 0.0961776
0.819425 0.903761 0.149477
0.958862 0.909712 0.134844
1 0.918242 0.0222629
1 0.916899 0.00669871
0 1 0.0608072
0.129183 1 0.109895
0.293095 1 0.124437
0.409949 1 0.0781262
0.53521 1 0.013489
0.759365 1 0.00508125
0.944183 1 0.0393378
1 1 0.0496834
1 1 0.0239719
0 1 0.025803
0.00230411 1 0.00276188
0.120287 1 0.011429
0.302327 1 0.0149844
0.529366 1 0.00579843
0.759487 1 0
0.940185 1 0.00807202
1 1 0.0522774
1 1 0.0573739
0 0 0.348943
0.0773022 0 0.34522
0.239307 0 0.329854
0.447974 0 0.303731
0.666835 0 0.276875
0.855909 0 0.256382
1 0 0.239643
1 0 0.225605
1 0 0.219242
0 0.0171817 0.31371
0.0668193 0.0140536 0.314397
0.227741 0.00721752 0.302983
0.436149 0.00184634 0.279194
0.657465 0 0.254108
0.854368 0 0.238544
0.998901 0 0.227878
1 0 0.221378
1 0 0.221256
0 0.146532 0.267201
0.0502327 0.150103 0.2748
0.212528 0.145525 0.272999
0.428595 0.129534 0.259602
0.661707 0.112169 0.245563
0.872724 0.104631 0.239963
1 0.102846 0.23949
1 0.102464 0.24065
1 0.103838 0.245655
0 0.313664 0.206043
0.0200351 0.325734 0.221302
0.185977 0.330922 0.232074
0.403662 0.324117 0.234668
0.643854 0.313024 0.228183
0.871885 0.306111 0.223743
1 0.305455 0.228367
1 0.305928 0.235218
1 0.308858 0.242756
0 0.518395 0.151583
0.00288396 0.535454 0.172885
0.153887 0.545724 0.188434
0.371893 0.541848 0.190066
0.616983 0.53135 0.186679
0.827543 0.529122 0.208621
0.989853 0.534096 0.226322
1 0.534249 0.22298
1 0.538628 0.227955
0 0.732982 0.11606
0.00210575 0.750729 0.137301
0.133196 0.764569 0.1552
0.343664 0.7635 0.158846
0.587686 0.75111 0.163714
0.815045 0.7402 0.179507
0.985428 0.740139 0.201816
1 0.748669 0.262547
1 0.761135 0.307286
0 0.940337 0.111711
0.000747692 0.951904 0.135119
0.175784 0.951507 0.172473
0.427176 0.928389 0.206928
0.65742 0.910369 0.227207
0.838911 0.900679 0.283146
0.973053 0.910658 0.224689
1 0.915343 0.133211
1 0.91397 0.131411
0.00747692 1 0.197543
0.153613 1 0.235813
0.305501 1 0.24155
0.385611 1 0.171374
0.558206 1 0.125109
0.784085 1 0.112718
0.960769 1 0.168612
1 1 0.173358
1 1 0.136217
0 1 0.121538
0.0041352 1 0.120073
0.138827 1 0.130404
0.327321 1 0.128527
0.556909 1 0.115862
0.783352 1 0.104082
0.955322 1 0.121462
1 1 0.18085
1 1 0.186679
0 0 0.560388
0.0825513 0 0.556161
0.24892 0 0.539483
0.461646 0 0.513954
0.6795 0 0.48777
0.867155 0 0.467903
0.999649 0 0.451087
1 0 0.438117
1 0 0.43241
0 0.00628672 0.525643
0.073106 0.00294499 0.525185
0.238697 0.00434882 0.511986
0.450507 3.0518e-05 0.487724
0.672374 0 0.463615
0.866743 0 0.448737
1 0 0.438254
1 0 0.433097
1 0 0.43508
0 0.135576 0.477623
0.0597696 0.139406 0.485954
0.228092 0.134005 0.48394
0.447776 0.118151 0.470634
0.681163 0.101915 0.456443
0.889815 0.0960098 0.451698
1 0.0947433 0.45127
1 0.0948196 0.452934
1 0.0965591 0.4589
0 0.304891 0.416587
0.0335546 0.317281 0.434287
0.204685 0.322042 0.443687
0.430488 0.314061 0.440558
0.673701 0.302434 0.433631
0.892729 0.29781 0.433402
1 0.297627 0.437949
1 0.298589 0.44416
1 0.301564 0.452354
0 0.511574 0.357336
0.0090486 0.529183 0.379705
0.173968 0.538369 0.393591
0.396994 0.533318 0.39408
0.635996 0.524269 0.396399
0.862211 0.519677 0.395758
0.999725 0.519478 0.396521
1 0.520912 0.40206
1 0.530175 0.415305
0 0.728283 0.30988
0.00480659 0.746319 0.333547
0.152331 0.758801 0.350774
0.368139 0.756054 0.352163
0.614099 0.743236 0.349767
0.838163 0.7337 0.357488
0.989822 0.736996 0.405127
1 0.748226 0.449241
1 0.758083 0.465507
0 0.935866 0.292409
0.0162203 0.945342 0.320729
0.212833 0.939834 0.355917
0.46363 0.917357 0.379156
0.681056 0.903502 0.388708
0.852613 0.897917 0.426993
0.987762 0.908446 0.350561
1 0.908431 0.30251
1 0.90721 0.309026
0.0261997 1 0.365835
0.171237 1 0.394507
0.298695 1 0.386175
0.372381 1 0.317739
0.581613 1 0.291875
0.804227 1 0.278569
0.972076 1 0.336477
1 1 0.332143
1 1 0.294179
0 1 0.273106
0.0117494 1 0.285389
0.155535 1 0.295933
0.34995 1 0.291859
0.581018 1 0.278386
0.803449 1 0.267628
0.967422 1 0.27985
1 1 0.355703
1 1 0.358495
0 0 0.764874
0.0887465 0 0.76083
0.260533 0 0.744091
0.475654 0 0.719951
0.692973 0 0.696239
0.878462 0 0.679164
1 0 0.663752
1 0 0.652949
1 0 0.649897
0 0 0.735531
0.0796826 0.00154116 0.734524
0.25034 0.00154116 0.721019
0.465446 0 0.698421
0.685954 0 0.676066
0.87924 0 0.663462
1 0 0.655421
1 0 0.653147
1 0 0.656077
0 0.124666 0.69546
0.0691844 0.128176 0.703838
0.243168 0.122484 0.701106
0.466011 0.106798 0.688365
0.699931 0.0914321 0.676066
0.906203 0.0867933 0.673686
1 0.0859541 0.674205
1 0.0862287 0.677134
1 0.088426 0.683803
0 0.295155 0.641154
0.0461891 0.308263 0.659495
0.223484 0.311971 0.66865
0.453223 0.303456 0.6654
0.695842 0.29218 0.659266
0.91191 0.288487 0.659678
1 0.288548 0.664805
1 0.28983 0.67155
1 0.293095 0.680385
0 0.503655 0.585214
0.0231327 0.52108 0.607523
0.193118 0.529 0.62089
0.420157 0.52314 0.620157
0.666728 0.513039 0.61503
0.889174 0.509041 0.616358
1 0.509728 0.62208
1 0.512917 0.626825
1 0.526879 0.630488
0 0.720729 0.536446
0.00326543 0.739483 0.560571
0.169696 0.750469 0.575677
0.390738 0.745983 0.575311
0.639017 0.732387 0.568307
0.852094 0.725856 0.571023
0.985168 0.732967 0.590494
1 0.740078 0.596475
1 0.74696 0.60264
0 0.927443 0.513741
0.0369573 0.935332 0.538964
0.250965 0.92604 0.556756
0.495171 0.90663 0.560189
0.701534 0.896315 0.560433
0.861906 0.895293 0.577935
0.992432 0.901473 0.526909
1 0.898863 0.525307
1 0.899535 0.547005
0.0470436 1 0.545907
0.186007 1 0.565484
0.269856 1 0.55259
0.374395 1 0.517876
0.601541 1 0.502129
0.819852 1 0.489799
0.981262 0.999954 0.534997
1 1 0.512657
1 1 0.499763
0 1 0.481224
0.0225681 1 0.496925
0.168612 1 0.506783
0.368704 1 0.501793
0.601297 1 0.488075
0.819501 1 0.477043
0.973617 1 0.482872
1 1 0.551766
1 1 0.550927
0 0 0.938888
0.0964065 0 0.934264
0.274586 0 0.918486
0.492149 0 0.895201
0.707881 0 0.873411
0.892683 0 0.858106
1 0 0.84564
1 0 0.837308
1 0 0.835981
0 0 0.914107
0.0890822 0.000885023 0.912077
0.265492 0.000137331 0.898695
0.482734 0 0.877211
0.702037 0 0.857404
0.894286 0 0.84828
1 0 0.842939
1 0 0.842603
1 0 0.847379
0 0.116228 0.883375
0.0810559 0.119829 0.890822
0.261067 0.113497 0.888884
0.487434 0.0976883 0.877791
0.720012 0.0836347 0.867796
0.924773 0.0800488 0.867536
1 0.0794537 0.870146
1 0.079942 0.874769
1 0.0822156 0.881575
0 0.288182 0.84184
0.0624094 0.301137 0.859937
0.245304 0.304036 0.868544
0.47776 0.294865 0.865339
0.719768 0.283757 0.860533
0.93257 0.280903 0.864088
1 0.281193 0.870649
1 0.282811 0.877928
1 0.286381 0.886427
0 0.496925 0.796353
0.0363012 0.514199 0.817456
0.213535 0.52108 0.830091
0.44506 0.514458 0.829526
0.690883 0.50428 0.825971
0.910063 0.501152 0.828687
1 0.50164 0.834745
1 0.507271 0.833936
1 0.526925 0.82266
0 0.714183 0.755276
0.0178225 0.732937 0.77821
0.188937 0.74226 0.792859
0.415839 0.735958 0.789654
0.666072 0.722118 0.77261
0.875044 0.718242 0.755154
0.995666 0.72549 0.749828
1 0.733852 0.755032
1 0.737377 0.769192
0 0.917967 0.734585
0.0653086 0.923995 0.747753
0.290761 0.912902 0.743358
0.52282 0.89781 0.732799
0.719448 0.890227 0.72842
0.868833 0.891905 0.742611
0.992721 0.892576 0.740887
1 0.890745 0.753353
1 0.890974 0.758144
0.063798 1 0.722622
0.190021 1 0.736721
0.235325 1 0.741817
0.389029 1 0.733806
0.620859 1 0.718898
0.835401 1 0.707668
0.987198 0.999664 0.733089
1 1 0.712779
1 1 0.71873
0 1 0.702388
0.0291142 1 0.718181
0.181552 1 0.726299
0.387228 1 0.71931
0.620493 1 0.705318
0.832532 1 0.696345
0.982391 1 0.698024
1 1 0.746136
1 1 0.738567
0.000762951 0 1
0.106172 0 1
0.290135 0 1
0.509209 0 0.999954
0.723354 0 1
0.907469 0 0.999161
1 0 0.991638
1 0 0.994278
1 0 0.999802
0 0 1
0.0987564 0.000366217 1
0.280812 0 1
0.50074 0 1
0.718853 0 0.996139
0.910735 0 0.994675
1 0 1
1 0 0.998962
1 0 0.995041
0 0.108888 1
0.0952621 0.112276 1
0.28098 0.105272 1
0.50985 0.0898909 0.999512
0.741482 0.0770733 1
0.944488 0.0746166 1
1 0.0741283 1
1 0.0751812 1
1 0.0777295 0.999908
0 0.282902 0.993835
0.0800946 0.29546 0.99762
0.267948 0.297581 0.999786
0.503777 0.288075 1
0.744289 0.277211 1
0.955245 0.275196 0.99942
1 0.275792 0.999161
1 0.277714 1
1 0.281804 1
0 0.492256 0.980758
0.0543679 0.5093 0.992142
0.23798 0.514992 0.992584
0.47219 0.507637 0.988602
0.717723 0.497612 0.990356
0.933547 0.495125 0.998749
1 0.49633 0.997559
1 0.505745 0.99295
1 0.530602 0.97435
0 0.709911 0.942123
0.0350652 0.728573 0.963699
0.210254 0.736584 0.976043
0.444755 0.728191 0.966949
0.694606 0.715038 0.937865
0.893416 0.714656 0.907607
0.999863 0.723049 0.895842
1 0.730968 0.899413
1 0.72604 0.92813
0 0.910719 0.917357
0.100389 0.914717 0.915068
0.329229 0.903502 0.894957
0.548943 0.891737 0.879515
0.735286 0.88629 0.876493
0.876707 0.888197 0.901503
1 0.883955 0.910948
1 0.880476 0.91046
1 0.880827 0.913268
0.0802167 0.999939 0.875273
0.178164 1 0.893812
0.21857 1 0.92134
0.410025 1 0.914519
0.642313 1 0.897993
0.850568 0.999603 0.887251
0.989731 0.99942 0.891798
1 1 0.887449
1 1 0.901335
0 1 0.892729
0.0416114 1 0.904494
0.198123 1 0.909178
0.408545 1 0.899855
0.642588 1 0.884153
0.848417 1 0.873808
0.991272 1 0.872938
1 1 0.896208
1 1 0.885267
0 0 1
0.116289 0 1
0.305608 0 1
0.526757 0 1
0.739101 0 1
0.922789 0 1
1 0 1
1 0 1
1 0 1
0.000961318 0 1
0.109895 1.5259e-05 1
0.297749 0 1
0.519005 0 1
0.735775 0 1
0.927642 0 1
1 0 1
1 0 1
1 0 1
0 0.101701 1
0.109209 0.105028 1
0.300999 0.0975357 1
0.532509 0.0825818 1
0.762585 0.0709392 1
0.962371 0.0694133 1
1 0.069276 1
1 0.0706493 1
1 0.0735485 1
0 0.27779 1
0.0985275 0.290074 1
0.292744 0.291051 1
0.530312 0.281117 1
0.769055 0.271214 1
0.977981 0.269871 1
1 0.270787 1
1 0.273075 1
1 0.27747 1
0 0.48835 1
0.0734417 0.504479 1
0.262272 0.509133 1
0.499825 0.501152 1
0.744152 0.491463 1
0.955764 0.489677 1
1 0.492515 1
1 0.506859 1
1 0.535775 1
0 0.706386 1
0.052491 0.724651 1
0.234592 0.730922 1
0.476555 0.720882 1
0.72459 0.709728 1
0.912245 0.713039 0.998108
1 0.721706 0.993317
1 0.727626 0.999268
1 0.712245 1
0 0.904448 1
0.139071 0.907027 1
0.365209 0.89688 0.998749
0.573907 0.887602 0.986969
0.745312 0.884749 0.999268
0.887266 0.883131 1
1 0.877623 1
1 0.874998 1
1 0.875944 0.999969
0.0941634 1 0.991196
0.147738 1 1
0.222309 1 1
0.433677 1 1
0.6663 1 1
0.868177 0.998367 0.997086
0.998138 0.999146 0.99646
1 1 1
1 0.999786 1
0 1 0.999146
0.0552987 1 1
0.216678 1 1
0.432639 1 1
0.666667 1 0.99472
0.864942 1 0.997543
0.992493 1 0.9944
1 1 0.994934
1 1 0.991409
