nova/tdt-studio/app/Lut_mau/Buttery LUTs/Sony_New_Creative_1.cube
TITLE "Generated by Resolve"
LUT_3D_SIZE 5
0 0 0
0.0935378 0 0
0.511482 0 0
0.979965 0 0
1 0 0
0 0.149798 0
0.104448 0.145663 0
0.545892 0.12697 0
1 0.0948196 0
1 0.151034 0
0 0.538216 0
0.0774395 0.550744 0
0.533181 0.543725 0
1 0.532006 0
1 0.612039 0
0 0.991302 0
0.0502174 1 0
0.517037 1 0
0.993896 0.993973 0
1 1 0
0 1 0
0.24683 1 0
0.64007 1 0
1 1 0
1 1 0
0 0 0.141955
0.0970626 0 0.121309
0.514626 0 0.074052
0.985153 0 0.0207675
1 0 0.0483253
0 0.148257 0.154086
0.113542 0.145998 0.144228
0.55845 0.128908 0.119432
1 0.106126 0.0870375
1 0.164569 0.141863
0 0.542794 0.132662
0.0907454 0.556085 0.135424
0.547921 0.549569 0.118441
1 0.541726 0.0988174
1 0.623102 0.165301
0 1 0.109438
0.069749 1 0.128649
0.532616 1 0.114214
1 0.992889 0.0788128
1 1 0.104921
0 1 0.310979
0.240803 1 0.277378
0.628046 1 0.191959
1 1 0.105257
1 1 0.105318
0 0 0.534813
0.0937514 0 0.51194
0.513634 0 0.465919
0.986191 0 0.41297
1 0 0.445075
0 0.139422 0.5514
0.117372 0.139025 0.544121
0.563943 0.124208 0.519692
1 0.103044 0.487938
1 0.162387 0.547936
0 0.53959 0.535653
0.0987259 0.553231 0.540764
0.557656 0.547997 0.525704
1 0.542138 0.515496
1 0.622065 0.588174
0 1 0.519081
0.0804608 1 0.539406
0.537606 1 0.52015
1 0.98172 0.478325
1 1 0.496162
0 1 0.71841
0.223178 1 0.674006
0.607065 1 0.582605
1 1 0.494362
1 1 0.49514
0 0 0.980133
0.0862898 0 0.954574
0.509087 0 0.911513
0.983871 0 0.860075
1 0 0.895399
0 0.126787 0.99971
0.118898 0.128634 0.993255
0.567498 0.115526 0.969467
1 0.0957656 0.937102
1 0.156313 0.994614
0 0.532311 0.986404
0.104295 0.546792 0.987793
0.566445 0.544427 0.972702
1 0.542412 0.95584
1 0.620981 1
0 1 0.967468
0.0876326 1 0.977493
0.538811 1 0.952758
0.995636 0.964721 0.906188
1 0.972366 0.910338
0 1 1
0.203372 1 1
0.585855 1 0.985916
0.988525 1 0.902815
1 1 0.900389
0 0 1
0.100206 0 1
0.525154 0 1
1 0 1
1 0 1
0 0.140017 1
0.141405 0.144686 1
0.592996 0.13312 1
1 0.115129 1
1 0.178164 1
0 0.552056 1
0.129198 0.568551 1
0.596536 0.569665 1
1 0.569345 1
1 0.645014 1
0 1 1
0.113008 1 1
0.559136 1 1
1 0.971115 1
1 0.969009 1
0 1 1
0.203586 1 1
0.589532 1 1
0.991058 1 1
1 1 1
