nova/tdt-studio/app/Lut_mau/Buttery LUTs/Ursa_Mini_New_Creative_1.cube
TITLE "Generated by Resolve"
LUT_3D_SIZE 33
0 0 0
0 0 0
0 0 0
0 0 0
0 0 0
0 0 0
0.0136416 0 0
0.0606394 0 0
0.109209 0 0
0.159442 0 0
0.210925 0 0
0.264042 0 0
0.318181 0 0
0.372351 0 0
0.427329 0 0
0.482994 0 0
0.538445 0 0
0.595361 0 0
0.654688 0 0
0.715648 0 0
0.776959 0 0
0.836988 0 0
0.894835 0 0
0.949157 0 0
0.999512 0 0
1 0 0
1 0 0
1 0 0
1 0 0
1 0 0
1 0 0
1 0 0
1 0 0
0 0 0
0 0 0
0 0 0
0 0 0
0 0 0
0 0 0
0.0158083 0 0
0.0626078 0 0
0.11078 0 0
0.160189 0 0
0.211048 0 0
0.263798 0 0
0.317952 0 0
0.372793 0 0
0.42855 0 0
0.484291 0 0
0.540475 0 0
0.598062 0 0
0.657328 0 0
0.718593 0 0
0.780072 0 0
0.840696 0 0
0.89868 0 0
0.953048 0 0
1 0 0
1 0 0
1 0 0
1 0 0
1 0 0
1 0 0
1 0 0
1 0 0
1 0 0
0 0 0
0 0 0
0 0 0
0 0 0
0 0 0
0 0 0
0.0140078 0 0
0.0609445 0 0
0.112001 0 0
0.162646 0 0
0.214786 0 0
0.268254 0 0
0.32253 0 0
0.377966 0 0
0.433738 0 0
0.489891 0 0
0.546593 0 0
0.6038 0 0
0.663615 0 0
0.72491 0 0
0.786969 0 0
0.847715 0 0
0.905409 0 0
0.959808 0 0
1 0 0
1 0 0
1 0 0
1 0 0
1 0 0
1 0 0
1 0 0
1 0 0
1 0 0
0 0 0
0 0 0
0 0 0
0 0 0
0 0 0
0 0 0
0.0188296 0 0
0.0657511 0 0
0.114946 0 0
0.169421 0 0
0.223453 0 0
0.277424 0 0
0.332723 0 0
0.388693 0 0
0.444907 0 0
0.501564 0 0
0.558114 0 0
0.616037 0 0
0.675944 0 0
0.737728 0 0
0.799466 0 0
0.860121 0 0
0.91809 0 0
0.972549 0 0
1 0 0
1 0 0
1 0 0
1 0 0
1 0 0
1 0 0
1 0 0
1 0 0
1 0 0
0 0.00157168 0
0 0 0
0 0 0
0 0 0
0 0 0
0 0 0
0.0210117 0 0
0.0686503 0 0
0.118135 0 0
0.169192 0 0
0.222522 0 0
0.281987 0 0
0.339254 0 0
0.395987 0 0
0.453437 0 0
0.51075 0 0
0.568414 0 0
0.627176 0 0
0.68864 0 0
0.751263 0 0
0.81413 0 0
0.875029 0 0
0.933211 0 0
0.987594 0 0
1 0 0
1 0 0
1 0 0
1 0 0
1 0 0
1 0 0
1 0 0
1 0 0
1 0 0
0 0.0390173 0
0 0.0371862 0
0 0.0356298 0
0 0.0342107 0
0 0.0336004 0
0 0.0326238 0
0.0218967 0.0314031 0
0.0699168 0.0297398 0
0.119661 0.0275883 0
0.171221 0.0251011 0
0.224537 0.0222934 0
0.279423 0.0191653 0
0.337392 0.0150301 0
0.399817 0.00921645 0
0.458885 0.0049897 0
0.517296 0.00129702 0
0.575311 0 0
0.635264 0 0
0.69749 0 0
0.761669 0 0
0.824842 0 0
0.886473 0 0
0.944595 0 0
0.998917 0 0
1 0 0
1 0 0
1 0 0
1 0 0
1 0 0
1 0.00183108 0
1 0.0100557 0
1 0.0180819 0
1 0.0258488 0
0 0.0784619 0
0 0.0770275 0
0 0.075761 0
0 0.0747082 0
0 0.0744335 0
0 0.0737621 0
0.0218814 0.0727092 0
0.0705272 0.0715496 0
0.120714 0.0697337 0
0.172702 0.0675669 0
0.226383 0.0650645 0
0.281483 0.0623331 0
0.338079 0.0593271 0
0.3953 0.05626 0
0.456809 0.0516365 0
0.520317 0.0461891 0
0.580911 0.0421607 0
0.641581 0.0384833 0
0.705135 0.0342107 0
0.769482 0.0298619 0
0.833677 0.0256962 0
0.895399 0.0223545 0
0.95404 0.0199588 0
1 0.0187533 0
1 0.0189517 0
1 0.0204623 0
1 0.0247349 0
1 0.0321355 0
1 0.0409705 0
1 0.0504005 0
1 0.0588388 0
1 0.0668803 0
1 0.0750439 0
0 0.119829 0
0 0.118776 0
0 0.117815 0
0 0.117113 0
0 0.117266 0
0 0.116884 0
0.0212558 0.116106 0
0.0700847 0.115084 0
0.120912 0.113787 0
0.173007 0.112016 0
0.227253 0.109789 0
0.283085 0.107271 0
0.339788 0.104646 0
0.397726 0.101823 0
0.455909 0.0990463 0
0.515053 0.0960861 0
0.577783 0.0916915 0
0.644785 0.085893 0
0.710826 0.0809644 0
0.776318 0.0766003 0
0.840955 0.0726329 0
0.903181 0.0694438 0
0.961807 0.0673228 0
1 0.0664683 0
1 0.0669413 0
1 0.068864 0
1 0.0738384 0
1 0.0819257 0
1 0.0912947 0
1 0.100908 0
1 0.109209 0
1 0.117372 0
1 0.125811 0
0 0.163043 0
0 0.162387 0
0 0.161791 0
0 0.161456 0
0 0.161929 0
0 0.161929 0
0.0196078 0.161471 0
0.068925 0.160586 0
0.11989 0.159411 0
0.172869 0.158053 0
0.227436 0.156176 0
0.283268 0.15407 0
0.340627 0.151644 0
0.398825 0.149386 0
0.457725 0.146838 0
0.516487 0.144381 0
0.57583 0.141817 0
0.638025 0.138842 0
0.706874 0.13315 0
0.778134 0.126497 0
0.845167 0.121614 0
0.908431 0.118456 0
0.967361 0.116289 0
1 0.11574 0
1 0.116442 0
1 0.118944 0
1 0.12462 0
1 0.133043 0
1 0.142672 0
1 0.152392 0
1 0.160754 0
1 0.169162 0
1 0.1776 0
0 0.208194 0
0 0.207889 0
0 0.207736 0
0 0.207645 0
0 0.208377 0
0 0.208652 0
0.0177157 0.20856 0
0.067155 0.208087 0
0.118486 0.207233 0
0.171649 0.206043 0
0.226261 0.204562 0
0.282795 0.202686 0
0.340337 0.200641 0
0.39913 0.198367 0
0.458137 0.196124 0
0.517601 0.193881 0
0.577142 0.191699 0
0.639384 0.188876 0
0.703731 0.18558 0
0.770108 0.181598 0
0.840009 0.176074 0
0.907835 0.170947 0
0.96939 0.168017 0
1 0.167132 0
1 0.167895 0
1 0.170871 0
1 0.177096 0
1 0.185977 0
1 0.195682 0
1 0.205264 0
1 0.213703 0
1 0.221942 0
1 0.230335 0
0 0.255207 0
0 0.255268 0
0 0.255329 0
0 0.25565 0
0 0.256657 0
0 0.257328 0
0.0148623 0.257572 0
0.0649424 0.257328 0
0.11664 0.256794 0
0.169802 0.25597 0
0.225055 0.254673 0
0.28191 0.253071 0
0.339651 0.251316 0
0.398611 0.249317 0
0.457801 0.247333 0
0.517189 0.24538 0
0.577417 0.243275 0
0.639963 0.240604 0
0.705043 0.237308 0
0.770474 0.23389 0
0.834562 0.230701 0
0.897612 0.227817 0
0.959487 0.224903 0
1 0.222751 0
1 0.222248 0
1 0.224704 0
1 0.231098 0
1 0.240116 0
1 0.250019 0
1 0.259281 0
1 0.267689 0
1 0.276127 0
1 0.284443 0
0 0.303578 0
0 0.30396 0
0 0.304433 0
0 0.305272 0
0 0.306493 0
0 0.307332 0
0.0113985 0.307881 0
0.0615854 0.308156 0
0.1131 0.307836 0
0.167071 0.307088 0
0.222675 0.30602 0
0.279423 0.304707 0
0.337758 0.303075 0
0.396628 0.301366 0
0.456336 0.299474 0
0.515923 0.297673 0
0.576074 0.295781 0
0.639155 0.293141 0
0.704128 0.290028 0
0.770031 0.286717 0
0.834302 0.283848 0
0.896193 0.281621 0
0.953597 0.280659 0
1 0.280705 0
1 0.281453 0
1 0.284337 0
1 0.290745 0
1 0.29984 0
1 0.309712 0
1 0.318608 0
1 0.326802 0
1 0.334966 0
1 0.343145 0
0 0.35407 0
0 0.35465 0
0 0.355367 0
0 0.356329 0
0 0.357977 0
0 0.359258 0
0.0075227 0.359991 0
0.0578317 0.360372 0
0.109987 0.360327 0
0.163958 0.359884 0
0.219348 0.359136 0
0.276631 0.357916 0
0.335103 0.356405 0
0.394446 0.354726 0
0.453986 0.353048 0
0.514031 0.351263 0
0.574395 0.349447 0
0.637385 0.346899 0
0.702663 0.343511 0
0.768399 0.340459 0
0.832746 0.337423 0
0.89395 0.335439 0
0.951583 0.334386 0
1 0.334752 0
1 0.336339 0
1 0.340444 0
1 0.347921 0
1 0.357275 0
1 0.367437 0
1 0.376822 0
1 0.385626 0
1 0.394614 0
1 0.403647 0
0 0.405814 0
0 0.406729 0
0 0.407721 0
0 0.408835 0
0 0.410727 0
0 0.412253 0
0.00332647 0.413199 0
0.0538796 0.413458 0
0.106371 0.413748 0
0.160143 0.413275 0
0.215778 0.412634 0
0.273182 0.411536 0
0.331472 0.410239 0
0.390921 0.408667 0
0.450813 0.406973 0
0.510658 0.405341 0
0.571511 0.403464 0
0.63476 0.400946 0
0.70042 0.397772 0
0.766003 0.394614 0
0.83006 0.391852 0
0.891432 0.389807 0
0.948333 0.388952 0
1 0.389258 0
1 0.390936 0
1 0.395392 0
1 0.403281 0
1 0.413108 0
1 0.423575 0
1 0.433112 0
1 0.442222 0
1 0.451713 0
1 0.461341 0
0 0.458351 0
0 0.459525 0
0 0.460777 0
0 0.462135 0
0 0.464042 0
0 0.465766 0
0 0.466957 0
0.0496681 0.467689 0
0.102296 0.467857 0
0.156268 0.467735 0
0.212192 0.467109 0
0.269352 0.466178 0
0.328023 0.464881 0
0.387213 0.463462 0
0.447211 0.461799 0
0.507134 0.460151 0
0.567971 0.458259 0
0.631601 0.455512 0
0.696712 0.452201 0
0.762524 0.448844 0
0.826535 0.446143 0
0.8878 0.44419 0
0.944579 0.443519 0
0.996994 0.444175 0
1 0.446159 0
1 0.451164 0
1 0.459648 0
1 0.469993 0
1 0.481041 0
1 0.491142 0
1 0.500938 0
1 0.510903 0
1 0.52079 0
0 0.512169 0
0 0.513405 0
0 0.514855 0
0 0.516411 0
0 0.518471 0
0 0.520256 0
0 0.521492 0
0.0451209 0.522118 0
0.097673 0.522393 0
0.152087 0.522194 0
0.208087 0.521645 0
0.265263 0.520745 0
0.323919 0.519448 0
0.383093 0.518013 0
0.442725 0.516426 0
0.502861 0.514702 0
0.563561 0.512825 0
0.627512 0.510124 0
0.693202 0.506996 0
0.758892 0.50396 0
0.823392 0.501381 0
0.88452 0.499931 0
0.941787 0.499596 0
0.994247 0.500648 0
1 0.503319 0
1 0.509041 0
1 0.518257 0
1 0.529015 0
1 0.540627 0
1 0.550652 0
1 0.560693 0
1 0.570855 0
1 0.580926 0
0 0.566217 0
0 0.567742 0
0 0.569192 0
0 0.570871 0
0 0.573098 0
0 0.57499 0
0 0.576379 0
0.0405127 0.577264 0
0.0929274 0.577676 0
0.147219 0.577539 0
0.202991 0.577005 0
0.26041 0.576013 0
0.318669 0.574777 0
0.378134 0.573251 0
0.437797 0.57174 0
0.497688 0.57023 0
0.558862 0.568261 0
0.622919 0.566049 0
0.68893 0.563027 0
0.754757 0.560281 0
0.819242 0.55816 0
0.881102 0.557015 0
0.938582 0.557321 0
0.990982 0.559075 0
1 0.56228 0
1 0.568673 0
1 0.578393 0
1 0.589685 0
1 0.601389 0
1 0.611765 0
1 0.62182 0
1 0.631998 0
1 0.642008 0
0 0.622003 0
0 0.62359 0
0 0.625101 0
0 0.626902 0
0 0.629023 0
0 0.630961 0
0 0.632456 0
0.0328069 0.633219 0
0.0850385 0.633616 0
0.138735 0.633631 0
0.194537 0.633112 0
0.251896 0.632242 0
0.310552 0.631067 0
0.369909 0.629831 0
0.430182 0.62855 0
0.490425 0.627405 0
0.552193 0.625925 0
0.616587 0.623911 0
0.682994 0.621683 0
0.749813 0.619516 0
0.814511 0.617975 0
0.876326 0.617334 0
0.933806 0.618021 0
0.986526 0.620066 0
1 0.623682 0
1 0.630426 0
1 0.640452 0
1 0.651652 0
1 0.663157 0
1 0.673472 0
1 0.683253 0
1 0.692866 0
1 0.702464 0
0 0.678538 0
0 0.680232 0
0 0.681956 0
0 0.683574 0
0 0.685512 0
0 0.687861 0
0 0.689403 0
0.0232242 0.690288 0
0.0751812 0.690913 0
0.129213 0.69102 0
0.185183 0.690776 0
0.242588 0.690349 0
0.301579 0.68957 0
0.361257 0.688685 0
0.421805 0.6878 0
0.482979 0.687083 0
0.544839 0.685969 0
0.61004 0.684138 0
0.676829 0.682277 0
0.743603 0.680461 0
0.808728 0.679164 0
0.870192 0.678843 0
0.927535 0.679667 0
0.980194 0.681743 0
1 0.685389 0
1 0.69221 0
1 0.702113 0
1 0.713222 0
1 0.724392 0
1 0.734035 0
1 0.74342 0
1 0.752667 0
1 0.761685 0
0 0.735851 0
0 0.737545 0
0 0.739193 0
0 0.740963 0
0 0.742733 0
0 0.745113 0
0 0.746715 0
0.0128634 0.748058 0
0.0656596 0.748791 0
0.120073 0.749294 0
0.176059 0.749493 0
0.234226 0.749386 0
0.293431 0.749249 0
0.353887 0.748821 0
0.414618 0.74844 0
0.476249 0.747951 0
0.539071 0.74725 0
0.604425 0.745876 0
0.671717 0.743984 0
0.73843 0.742275 0
0.803555 0.740978 0
0.864836 0.740673 0
0.921813 0.741375 0
0.973816 0.743282 0
1 0.746822 0
1 0.753277 0
1 0.762783 0
1 0.773297 0
1 0.783886 0
1 0.792859 0
1 0.801434 0
1 0.809903 0
1 0.818067 0
0 0.792721 0
0 0.794202 0
0 0.795956 0
0 0.797894 0
0 0.799954 0
0 0.802823 0
0 0.804913 0
0.0059205 0.806607 0
0.0590524 0.807965 0
0.114107 0.808942 0
0.170794 0.809567 0
0.229358 0.809812 0
0.288899 0.809949 0
0.349371 0.809918 0
0.410559 0.809491 0
0.472053 0.809339 0
0.535042 0.808423 0
0.600336 0.806821 0
0.667552 0.804791 0
0.734432 0.802853 0
0.798733 0.801282 0
0.859876 0.800549 0
0.916381 0.800931 0
0.967544 0.802502 0
1 0.805432 0
1 0.811475 0
1 0.820417 0
1 0.830411 0
1 0.84007 0
1 0.848249 0
1 0.856184 0
1 0.86389 0
1 0.871153 0
0 0.849256 0
0 0.851225 0
0 0.853178 0
0 0.855207 0
0 0.857725 0
0 0.860792 0
0 0.863355 0
0.00317388 0.865415 0
0.0563363 0.86717 0
0.111757 0.868452 0
0.169253 0.869154 0
0.227726 0.869627 0
0.287755 0.869734 0
0.348302 0.869657 0
0.409628 0.869322 0
0.471 0.868864 0
0.533745 0.867903 0
0.59942 0.866011 0
0.665995 0.863767 0
0.732448 0.861357 0
0.796185 0.859403 0
0.856565 0.858106 0
0.912123 0.857984 0
0.962829 0.858885 0
1 0.861158 0
1 0.866392 0
1 0.874525 0
1 0.883558 0
1 0.892409 0
1 0.899596 0
1 0.906722 0
1 0.91368 0
1 0.920226 0
0 0.90515 0
0 0.907515 0
0 0.910033 0
0 0.912642 0
0 0.91548 0
0 0.919142 0
0 0.921843 0
0.00556954 0.924086 0
0.0593576 0.925811 0
0.114977 0.927077 0
0.172 0.927932 0
0.230823 0.928222 0
0.290425 0.928191 0
0.351095 0.927718 0
0.411902 0.927108 0
0.473472 0.926146 0
0.536126 0.924651 0
0.601175 0.92221 0
0.667353 0.919295 0
0.732754 0.916411 0
0.796078 0.913771 0
0.855573 0.911788 0
0.910109 0.910918 0
0.960067 0.911116 0
1 0.912825 0
1 0.917418 0
1 0.924636 0
1 0.932784 0
1 0.940841 0
1 0.947112 0
1 0.953262 0
1 0.959411 0
1 0.965164 0
0 0.961395 0
0 0.964034 0
0 0.966857 0
0 0.969497 0
0 0.972305 0
0 0.975982 0
0 0.978576 0
0.0125582 0.980697 0
0.0663615 0.982254 0
0.121981 0.98323 0
0.179171 0.983627 0
0.237446 0.983658 0
0.297063 0.983139 0
0.356985 0.982284 0
0.417487 0.981003 0
0.478126 0.979538 0
0.540627 0.977356 0
0.604913 0.974319 0
0.670527 0.970626 0
0.735042 0.967056 0
0.797589 0.963851 0
0.856016 0.961517 0
0.909895 0.959777 0
0.958846 0.959136 0
1 0.960189 0
1 0.964141 0
1 0.97055 0
1 0.977676 0
1 0.984802 0
1 0.990433 0
1 0.995987 0
1 1 0
1 1 0
0 1 0
0 1 0
0 1 0
0 1 0
0 1 0
0 1 0
0 1 0
0.0255741 1 0
0.0796521 1 0
0.135164 1 0
0.19176 1 0
0.249943 1 0
0.308721 1 0
0.368414 1 0
0.427893 1 0
0.488136 1 0
0.549691 1 0
0.613703 1 0
0.67805 1 0
0.741802 1 0
0.802869 1 0
0.860441 1 0
0.913649 1 0
0.961624 1 0
1 1 0
1 1 0
1 1 0
1 1 0
1 1 0
1 1 0
1 1 0
1 1 0
1 1 0
0 1 0
0 1 0
0 1 0
0 1 0
0 1 0
0 1 0
0 1 0
0.0500343 1 0
0.104067 1 0
0.15938 1 0
0.215885 1 0
0.273091 1 0
0.331441 1 0
0.390021 1 0
0.449058 1 0
0.508141 1 0
0.569223 1 0
0.631968 1 0
0.695735 1 0
0.758358 1 0
0.817975 1 0
0.874372 1 0
0.926482 1 0
0.973281 1 0
1 1 0
1 1 0
1 1 0
1 1 0
1 1 0
1 1 0
1 1 0
1 1 0
1 1 0
0 1 0
0 1 0
0 1 0
0 1 0
0 1 0
0 1 0
0.0311742 1 0
0.0833448 1 0
0.13669 1 0
0.191348 1 0
0.24686 1 0
0.304006 1 0
0.361089 1 0
0.418997 1 0
0.476844 1 0
0.535515 1 0
0.595666 1 0
0.657511 1 0
0.720256 1 0
0.781491 1 0
0.840406 1 0
0.895705 1 0
0.946105 1 0
0.992081 1 0
1 1 0
1 1 0
1 1 0
1 1 0
1 1 0
1 1 0
1 1 0
1 1 0
1 1 0
0 1 0
0 1 0
0 1 0
0 1 0
0 1 0
0.0155184 1 0
0.0659648 1 0
0.11754 1 0
0.170153 1 0
