nova/tdt-studio/app/Lut_mau/Buttery LUTs/Ursa_Mini_New_Creative_1.cube
TITLE "Generated by Resolve"
LUT_3D_SIZE 9
0 0 0
0 0 0
0.109209 0 0
0.318181 0 0
0.538445 0 0
0.776959 0 0
0.999512 0 0
1 0 0
1 0 0
0 0.00157168 0
0 0 0
0.118135 0 0
0.339254 0 0
0.568414 0 0
0.81413 0 0
1 0 0
1 0 0
1 0 0
0 0.163043 0
0 0.161929 0
0.11989 0.159411 0
0.340627 0.151644 0
0.57583 0.141817 0
0.845167 0.121614 0
1 0.116442 0
1 0.142672 0
1 0.1776 0
0 0.35407 0
0 0.357977 0
0.109987 0.360327 0
0.335103 0.356405 0
0.574395 0.349447 0
0.832746 0.337423 0
1 0.336339 0
1 0.367437 0
1 0.403647 0
0 0.566217 0
0 0.573098 0
0.0929274 0.577676 0
0.318669 0.574777 0
0.558862 0.568261 0
0.819242 0.55816 0
1 0.56228 0
1 0.601389 0
1 0.642008 0
0 0.792721 0
0 0.799954 0
0.0590524 0.807965 0
0.288899 0.809949 0
0.535042 0.808423 0
0.798733 0.801282 0
1 0.805432 0
1 0.84007 0
1 0.871153 0
0 1 0
0 1 0
0.0796521 1 0
0.308721 1 0
0.549691 1 0
0.802869 1 0
1 1 0
1 1 0
1 1 0
0 1 0
0 1 0
0.198703 1 0
0.41619 1 0
0.644633 1 0
0.878614 1 0
1 1 0
1 1 0
1 1 0
0 1 0
0.0817273 1 0
0.264485 1 0
0.458595 1 0
0.6636 1 0
0.87744 1 0
1 1 0
1 1 0
1 1 0
0 0 0
0 0 0
0.111254 0 0
0.319005 0 0
0.540413 0 0
0.779721 0 0
1 0 0
1 0 0
1 0 0
0 0 0.000793469
0 0 0
0.12195 0 0
0.336355 0 0
0.565103 0 0
0.812345 0 0
1 0 0
1 0 0
1 0 0
0 0.163317 0
0 0.162783 0
0.125597 0.160784 0
0.346685 0.153399 0
0.591333 0.139956 0
0.848524 0.12578 0
1 0.122499 0
1 0.149935 0
1 0.18468 0.00888075
0 0.356085 0
0 0.360494 0
0.117067 0.363165 0
0.342199 0.359136 0
0.581888 0.3523 0
0.840742 0.340551 0
1 0.335927 0
1 0.365621 0
1 0.400778 0.0212253
0 0.569451 0
0 0.57644 0
0.100389 0.580835 0
0.325673 0.577844 0
0.56669 0.571817 0
0.82829 0.562524 0
1 0.567727 0
1 0.607446 0
1 0.64712 0.00369268
0 0.796094 0
0 0.804028 0
0.0670787 0.812482 0
0.297627 0.814862 0
0.544228 0.813321 0
0.80763 0.805905 0
1 0.809537 0
1 0.842832 0
1 0.872419 0
0 1 0
0 1 0
0.0891127 1 0
0.317494 1 0
0.557336 1 0
0.80882 1 0
1 1 0
1 1 0
1 1 0
0 1 0.0738689
0.00451667 1 0.0780957
0.203616 1 0.0724346
0.419684 1 0.0544594
0.646845 1 0.0275731
0.877867 1 0
1 1 0
1 1 0
1 1 0
0 1 0.156329
0.0815595 1 0.145052
0.261814 1 0.121614
0.453788 1 0.083238
0.657984 1 0.036347
0.871733 1 0
1 1 0
1 1 0
1 1 0
0 0 0.157
0 0 0.146944
0.112261 0 0.133883
0.319539 0 0.109926
0.542245 0 0.0852369
0.782086 0 0.0585946
1 0 0.0383612
1 0 0.0441596
1 0 0.0738689
0 0 0.168475
0 0 0.159213
0.123735 0 0.148043
0.339132 0 0.131243
0.568292 0 0.11194
0.815915 0 0.088777
1 0 0.0750744
1 0 0.0939651
1 0 0.12871
0 0.161578 0.167407
0 0.161822 0.163836
0.130037 0.160372 0.158312
0.352422 0.15317 0.148013
0.589044 0.144045 0.134096
0.845457 0.130999 0.116014
1 0.127932 0.108675
1 0.155871 0.134615
1 0.190539 0.167575
0 0.356115 0.158236
0 0.360967 0.158831
0.122591 0.363867 0.15729
0.348318 0.360342 0.148913
0.588251 0.353521 0.137392
0.857877 0.337163 0.134783
1 0.335119 0.134463
1 0.36762 0.164218
1 0.404532 0.19762
0 0.570535 0.147189
0 0.577691 0.149248
0.105791 0.582147 0.148547
0.331685 0.579385 0.140597
0.573571 0.573816 0.129732
0.835859 0.565164 0.115465
1 0.570932 0.115007
1 0.610727 0.147875
1 0.649897 0.180179
0 0.79765 0.122103
0 0.806271 0.124529
0.0745403 0.815641 0.127916
0.305501 0.818219 0.124941
0.552239 0.816434 0.117189
0.814908 0.808392 0.103853
1 0.8112 0.101259
1 0.843366 0.126986
1 0.871366 0.149432
0 1 0.137392
0 1 0.146838
0.0963455 1 0.151125
0.323491 1 0.144015
0.562478 1 0.128939
0.812512 1 0.10602
1 0.99881 0.0938125
1 1 0.10959
1 1 0.118196
0 1 0.250462
0.00892653 1 0.253681
0.206668 1 0.246525
0.421317 1 0.227131
0.64567 1 0.19736
0.873762 1 0.156741
1 1 0.124727
1 1 0.121324
1 1 0.116579
0 1 0.331197
0.0794995 1 0.317037
0.256306 1 0.290257
0.446876 1 0.249516
0.650553 1 0.201343
0.864225 1 0.149874
1 1 0.118517
1 1 0.119326
1 1 0.118822
0 0 0.351873
0 0 0.341588
0.111025 0 0.327779
0.318517 0 0.303838
0.542214 0 0.279759
0.782406 0 0.252903
1 0 0.233356
1 0 0.240299
1 0 0.271199
0 0 0.363684
0 0 0.354788
0.124529 0 0.344366
0.340139 0 0.327504
0.570352 0 0.308705
0.818708 0 0.285786
1 0 0.273198
1 0 0.293599
1 0 0.329747
0 0.157931 0.364843
0 0.158358 0.361563
0.132525 0.157458 0.356329
0.354925 0.151019 0.345357
0.591852 0.142336 0.331472
0.848539 0.129656 0.313054
1 0.12726 0.305974
1 0.155734 0.333104
1 0.190341 0.366659
0 0.354162 0.357229
0 0.359442 0.35845
0.126757 0.362509 0.357214
0.352667 0.359121 0.348989
0.59411 0.351247 0.340063
0.852949 0.339605 0.322759
1 0.339254 0.317891
1 0.372686 0.348592
1 0.41033 0.383368
0 0.569451 0.346746
0 0.576715 0.349126
0.110048 0.581048 0.348455
0.335912 0.578164 0.340414
0.578454 0.573144 0.329976
0.841718 0.565408 0.316472
1 0.570169 0.321889
1 0.608026 0.361303
1 0.645045 0.398367
0 0.797192 0.321492
0 0.806577 0.32488
0.0805829 0.816419 0.328969
0.311345 0.818692 0.325597
0.557824 0.816434 0.317815
0.819593 0.807568 0.303731
1 0.809369 0.300511
1 0.840497 0.326253
1 0.86714 0.348165
0 1 0.339147
0 1 0.348608
0.101396 1 0.352193
0.32723 1 0.343923
0.564401 1 0.327108
0.813245 1 0.302831
1 0.993011 0.289158
1 1 0.303151
1 1 0.309636
0 1 0.452384
0.0106508 1 0.454231
0.206546 1 0.445701
0.419989 1 0.424826
0.64094 1 0.391989
0.865538 1 0.347601
1 1 0.313619
1 1 0.309361
1 1 0.304814
0 1 0.529641
0.0744488 1 0.513024
0.247898 1 0.483223
0.437018 1 0.440665
0.640223 1 0.391409
0.854658 1 0.339406
1 1 0.308278
1 1 0.308766
1 1 0.308659
0 0 0.561257
0 0 0.550362
0.107958 0 0.535348
0.317021 0 0.512795
0.541375 0 0.489143
0.782162 0 0.462547
1 0 0.443458
1 0 0.451301
1 0 0.483558
0 0 0.573297
0 0 0.56492
0.124666 0 0.555261
0.340658 0 0.538918
0.571115 0 0.520241
0.820371 0 0.497902
1 0 0.485985
1 0 0.507683
1 0 0.545129
0 0.153185 0.576989
0 0.154116 0.574441
0.134569 0.153719 0.569955
0.357458 0.147707 0.559579
0.594827 0.139376 0.54609
0.851728 0.127016 0.527626
1 0.124773 0.521447
1 0.153201 0.549767
1 0.187533 0.58468
0 0.351034 0.571237
0 0.356344 0.572976
0.129656 0.359533 0.572305
0.355734 0.356283 0.564477
0.596002 0.349554 0.55285
0.855039 0.337758 0.53579
1 0.337667 0.531456
1 0.371542 0.56379
1 0.409812 0.600504
0 0.567041 0.561669
0 0.573938 0.564294
0.113054 0.578241 0.564202
0.339666 0.576074 0.557198
0.583078 0.57174 0.547692
0.849882 0.563104 0.540673
1 0.569665 0.542031
1 0.608469 0.57734
1 0.645747 0.611109
0 0.795331 0.536904
0 0.805127 0.541787
0.0855421 0.81529 0.547112
0.316487 0.817914 0.544366
0.562524 0.815091 0.53637
0.823301 0.805295 0.521508
1 0.805814 0.517281
1 0.835203 0.542855
1 0.860685 0.564797
0 1 0.557702
0 1 0.567544
0.104646 1 0.570779
0.329122 1 0.561456
0.564828 1 0.543145
0.812039 0.996628 0.51693
1 0.985473 0.501701
1 0.998459 0.513436
1 1 0.517311
0 1 0.671336
0.0101778 1 0.672953
0.204761 1 0.663157
0.41622 1 0.640452
0.633768 1 0.603922
0.855344 1 0.555642
1 1 0.519585
1 1 0.515267
1 1 0.51107
0 1 0.746334
0.066453 1 0.727077
0.237491 1 0.695247
0.425635 1 0.651087
0.628244 1 0.60029
0.8448 1 0.548745
1 1 0.516426
1 1 0.517372
1 1 0.517281
0 0 0.787961
0 0 0.776699
0.104067 0 0.761212
0.314488 0 0.73959
0.539513 0 0.715816
0.780652 0 0.689311
1 0 0.670665
1 0 0.680079
1 0 0.714672
0 0 0.801617
0 0 0.794354
0.123445 0 0.785611
0.339971 0 0.769863
0.571023 0 0.751629
0.820691 0 0.72958
1 0 0.7187
1 0 0.74255
1 0 0.781659
0 0.146883 0.808988
0 0.148257 0.807736
0.135409 0.148348 0.804379
0.35874 0.142718 0.794751
0.59649 0.134691 0.78175
0.853254 0.12224 0.763378
1 0.12018 0.757702
1 0.149096 0.78735
1 0.183337 0.822461
0 0.345892 0.80557
0 0.351659 0.808698
0.131624 0.355093 0.808881
0.357794 0.351919 0.801358
0.598077 0.345144 0.789746
0.856764 0.333074 0.772335
1 0.333562 0.768734
1 0.368612 0.802518
1 0.407385 0.839628
0 0.562539 0.797436
0 0.569543 0.800992
0.11519 0.573999 0.801205
0.342321 0.572366 0.79472
0.586282 0.568444 0.78555
0.850568 0.561685 0.773129
1 0.568383 0.774609
1 0.607111 0.809308
1 0.643534 0.841459
0 0.791638 0.773678
0 0.802396 0.779629
0.0896315 0.812802 0.785214
0.320272 0.815229 0.782467
0.565713 0.811734 0.773785
0.825406 0.800946 0.7579
1 0.798444 0.758618
1 0.826185 0.784222
1 0.850095 0.805997
0 1 0.79556
0 1 0.804562
0.105943 1 0.806378
0.329305 1 0.795926
0.563516 1 0.776379
0.809094 0.988205 0.748684
1 0.975357 0.732082
1 0.985473 0.740871
1 0.986053 0.741817
0 1 0.906172
0.00842298 1 0.905898
0.201556 1 0.894453
0.41004 1 0.869276
0.624323 1 0.830289
0.843992 1 0.780224
1 1 0.742473
1 1 0.737865
1 1 0.735012
0 1 0.974197
0.0563363 1 0.951583
0.226108 1 0.918105
0.413474 1 0.873671
0.615518 1 0.822828
0.833936 1 0.772686
0.998001 1 0.739986
1 1 0.740688
1 1 0.740383
0 0 0.994888
0 0 0.981796
0.102632 0 0.966705
0.313741 0 0.946395
0.539055 0 0.924041
0.781094 0 0.898543
1 0 0.880201
1 0 0.888991
1 0 0.922301
0 0 1
0 0 0.998688
0.124041 0 0.989593
0.341604 0 0.974395
0.573312 0 0.95668
0.823804 0 0.934813
1 0 0.923293
1 0 0.945632
1 0 0.981735
0 0.142977 1
0 0.145098 1
0.138354 0.145708 1
0.362264 0.140627 0.994202
0.600229 0.133013 0.980591
0.858274 0.120974 0.961776
1 0.119432 0.954314
1 0.14902 0.98146
1 0.183352 1
0 0.344121 1
0 0.350408 1
0.135958 0.353979 1
0.362264 0.350912 0.996231
0.602792 0.344228 0.983444
0.862043 0.332616 0.96553
1 0.334066 0.95996
1 0.370535 0.990204
1 0.409857 1
0 0.561471 0.996887
0 0.568704 0.996933
0.120012 0.573373 0.994156
0.347662 0.57258 0.985962
0.593057 0.569818 0.976242
0.857755 0.5635 0.962615
1 0.570489 0.961456
1 0.609064 0.991516
1 0.644755 1
0 0.792203 0.970352
0 0.803876 0.972946
0.0957961 0.814389 0.974746
0.326558 0.81651 0.969299
0.571344 0.812207 0.958968
0.829877 0.800336 0.941756
1 0.798901 0.935088
1 0.825956 0.955734
1 0.848859 0.973068
0 1 0.986007
0 1 0.989639
0.110903 1 0.987243
0.33257 1 0.974823
0.565499 1 0.955291
0.809522 0.983948 0.928145
0.999435 0.968399 0.909514
1 0.975814 0.9149
1 0.974411 0.912322
0 1 1
0.0101167 1 1
0.202136 1 1
0.407248 1 1
0.617761 1 0.997604
0.835859 1 0.948531
0.999954 1 0.911299
1 1 0.905623
1 1 0.903258
0 1 1
0.05037 1 1
0.218753 1 1
0.405585 1 1
0.607965 1 0.984131
0.827329 1 0.937179
0.991669 1 0.905425
1 1 0.905089
1 1 0.903441
0 0 1
0 0 1
0.107851 0 1
0.3196 0 1
0.545266 0 1
0.787976 0 1
1 0 1
1 0 1
1 0 1
0 0 1
0 0 1
0.132311 0 1
0.350805 0 1
0.583505 0 1
0.835218 0 1
1 0 1
1 0 1
1 0 1
0 0.148425 1
0 0.151736 1
0.14934 0.153201 1
0.374044 0.148699 1
0.613001 0.141405 1
0.871458 0.129778 1
1 0.128634 1
1 0.159442 1
1 0.194553 1
0 0.351553 1
0 0.358984 1
0.148257 0.363424 1
0.375051 0.360861 1
0.616007 0.354208 1
0.875517 0.342748 1
1 0.345327 1
1 0.383597 1
1 0.423728 1
0 0.570352 1
0 0.578729 1
0.132464 0.584512 1
0.361486 0.584665 1
0.608118 0.582498 1
0.872694 0.576135 1
1 0.583169 1
1 0.621363 1
1 0.656382 1
0 0.803449 1
0 0.816907 1
0.110018 0.827543 1
0.340749 0.829236 1
0.584939 0.823896 1
0.842237 0.810849 1
1 0.808118 0.992599
1 0.834318 1
1 0.85594 1
0 1 1
0 1 1
0.123232 1 1
0.343709 1 1
0.575067 1 1
0.81796 0.990188 0.984054
1 0.971633 0.963302
1 0.975769 0.965133
1 0.972656 0.961868
0 1 1
0.0193942 1 1
0.209705 1 1
0.411933 1 1
0.619287 1 1
0.835904 1 0.9953
0.999405 1 0.958663
1 1 0.953307
1 1 0.95079
0 1 1
0.0516213 1 1
0.219059 1 1
0.405707 1 1
0.609873 1 1
0.829114 1 0.982406
0.993103 1 0.951385
1 1 0.95053
1 1 0.948043
0 0 1
0 0 1
0.118669 0 1
0.330709 0 1
0.557443 0 1
0.80087 0 1
1 0 1
1 0 1
1 0 1
0 0 1
0 0 1
0.145541 0 1
0.364858 0 1
0.598352 0 1
0.850752 0 1
1 0 1
1 0 1
1 0 1
0 0.15845 1
0 0.162387 1
0.162951 0.164004 1
0.388022 0.159503 1
0.627344 0.152239 1
0.885878 0.140719 1
1 0.140063 1
1 0.171405 1
1 0.206516 1
0 0.363088 1
0 0.370825 1
0.161791 0.375051 1
0.388602 0.37203 1
0.629908 0.365179 1
0.890257 0.354345 1
1 0.358129 1
1 0.397208 1
1 0.43743 1
0 0.582315 1
0 0.590829 1
0.145937 0.596765 1
0.375738 0.597223 1
0.623163 0.595346 1
0.88806 0.589136 1
1 0.596216 1
1 0.633631 1
1 0.667094 1
0 0.816983 1
0 0.83064 1
0.1243 0.840757 1
0.354543 0.841581 1
0.598108 0.835096 1
0.854109 0.820874 1
1 0.817182 1
1 0.842084 1
1 0.86247 1
0 1 1
0 1 1
0.134691 1 1
0.354055 1 1
0.584405 1 1
0.825513 0.995178 1
1 0.973999 1
1 0.974868 1
1 0.970962 1
0 1 1
0.0280461 1 1
0.215427 1 1
0.415076 1 1
0.620447 1 1
0.835966 1 1
0.998779 1 1
1 1 1
1 1 1
0 1 1
0.052018 1 1
0.21883 1 1
0.405646 1 1
0.611627 1 1
0.830793 1 1
0.994263 1 1
1 1 1
1 1 1
