nova/tdt-studio/app/Lut_mau/Buttery LUTs/Ursa_Mini_Tobacco.cube
TITLE "Generated by Resolve"
LUT_3D_SIZE 9
0 0 0
0 0 0
0.133898 0 0
0.324041 0 0
0.552041 0 0
0.740902 0 0
0.90454 0 0
1 0 0
1 0 0
0 0 0
0.00619516 0.000854505 0
0.14435 0.00166323 0
0.336431 0.000671397 0
0.581277 0 0
0.769635 0 0
0.92285 0 0
1 0 0
1 0 0
0 0.124758 0
0 0.125505 0
0.121569 0.122103 0
0.297658 0.109926 0
0.481239 0.102068 0
0.667201 0.0829633 0
0.823972 0.0728923 0
0.96939 0.0704967 0
1 0.0699321 0
0 0.270893 0
0.00502022 0.266209 0
0.101518 0.267338 0
0.282948 0.259236 0
0.517052 0.241733 0
0.668727 0.244724 0
0.795666 0.250507 0
0.925765 0.254246 0
1 0.256214 0
0 0.435492 0
0 0.428412 0
0.0982986 0.435416 0
0.229847 0.453895 0
0.498787 0.426841 0
0.701167 0.412573 0
0.85034 0.416983 0
0.95433 0.433707 0
1 0.448554 0
0 0.622538 0
0 0.615198 0
0.0972152 0.621973 0
0.266484 0.624247 0
0.415641 0.639017 0
0.678843 0.60592 0
0.849531 0.598398 0
0.979706 0.601267 0
1 0.615351 0
0 0.784192 0
0 0.771374 0
0.110002 0.778622 0
0.28513 0.778042 0
0.465934 0.775647 0
0.630014 0.761456 0
0.815061 0.728252 0.0114443
0.926329 0.732708 0.0289921
1 0.746853 0
0 0.930831 0
0.0630503 0.896651 0
0.238407 0.878218 0.00111391
0.421729 0.859815 0.0140688
0.574273 0.858473 0.0191806
0.631052 0.913802 0
0.777996 0.91368 0
0.968841 0.883619 0
1 0.876768 0
0.104662 0.961242 0.010071
0.174517 0.986313 0.0103609
0.204425 1 0
0.35407 1 0
0.545571 1 0
0.666911 1 0
0.767147 1 0
0.912077 0.998993 0
1 0.983612 0
0 0 0.000610361
0 0 0.000335698
0.149798 0 0
0.350271 0 0
0.581048 0 0
0.769757 0 0
0.933989 0 0
1 0 0
1 0 0
0 0 0
0.00828565 0.00138857 0
0.172351 0.00161746 0
0.374929 6.10361e-05 0
0.613306 0 0
0.796796 0 0
0.94725 0 0
1 0 0
1 0 0
0 0.124041 0
0.00611887 0.123278 0
0.1393 0.117952 0
0.29836 0.11104 0
0.505913 0.094667 0
0.691356 0.0775006 0
0.84892 0.0687877 0
0.98854 0.0664836 0
1 0.0671092 0
0 0.269673 0
0.00755322 0.261265 0
0.118379 0.264195 0
0.306508 0.254444 0
0.522133 0.24596 0
0.670863 0.247578 0
0.812345 0.245609 0
0.956191 0.246174 0
1 0.251164 0
0 0.435401 0
0.00329595 0.426596 0
0.112505 0.435309 0
0.258 0.447883 0
0.520363 0.423529 0
0.712856 0.413565 0
0.840238 0.425116 0.00349432
0.94374 0.439292 0.0124971
1 0.447852 0.0184024
0 0.623362 0
0 0.612741 0
0.111864 0.621592 0
0.289082 0.621057 0
0.445624 0.6327 0
0.697551 0.601236 0
0.856916 0.596551 0
0.973541 0.601434 0.0104372
1 0.625635 0.128618
0 0.783459 0
0.00552377 0.769451 0
0.124498 0.778042 0
0.305547 0.774075 0
0.500587 0.760174 0
0.651438 0.746777 0.000366217
0.826062 0.729366 0.0716564
0.936965 0.735943 0.0806439
1 0.743786 1.5259e-05
0 0.923171 0
0.089601 0.884978 0.00146487
0.26096 0.867506 0.054551
0.442557 0.85948 0.0852064
0.581277 0.863661 0.0579995
0.645716 0.909163 0
0.794263 0.903655 0
0.973434 0.875441 0
1 0.868894 0
0.117189 0.961456 0.0786755
0.15201 0.991836 0.0265507
0.207111 1 0
0.365713 1 0
0.553399 1 0
0.687694 0.998245 0
0.781506 0.999695 0
0.926192 0.992523 0
1 0.973312 0
0 0 0.0409094
0.00704967 0 0.0408637
0.165347 0 0.0437476
0.36788 0 0.0497597
0.59646 0 0.0361028
0.784985 0 0.0115816
0.951324 0 0.0107118
1 0 0.00970474
1 0 0.00822461
0 0 0.0474708
0.0158999 0.00109865 0.0637064
0.194308 0.000610361 0.0728008
0.40798 0 0.0665904
0.642039 0 0.0546731
0.822858 0 0.0441444
0.972488 0 0.0375067
1 0 0.0316777
1 0 0.0256199
0 0.119524 0.0291295
0.0158541 0.116014 0.0353857
0.145541 0.111177 0.0431373
0.32105 0.0999008 0.0437934
0.54052 0.0802625 0.0338598
0.722835 0.0635996 0.0252232
0.874846 0.0569314 0.0242771
0.998077 0.0555428 0.0290532
1 0.0569162 0.0356756
0 0.262119 0.0219883
0.00755322 0.248356 0.0230716
0.13669 0.251774 0.0305333
0.319951 0.244358 0.0342565
0.516106 0.242603 0.0625925
0.690959 0.231479 0.0546883
0.843778 0.229664 0.0580911
0.984878 0.233448 0.0670024
1 0.238117 0.0781109
0 0.426474 0
0.00733959 0.415763 0.0059968
0.123064 0.42533 0.0178378
0.285786 0.430121 0.0100252
0.533288 0.412253 0.0271763
0.69662 0.416068 0.0738079
0.821195 0.427268 0.115999
0.950134 0.428595 0.118761
1 0.428016 0.116472
0 0.614771 0.000869764
0.0009308 0.600229 0.00590524
0.122011 0.611109 0.0155337
0.302113 0.609522 0.0200504
0.475685 0.613825 0.000808728
0.704143 0.589609 0.0155489
0.857374 0.588266 0.0368963
0.9505 0.609964 0.139986
0.998276 0.636622 0.22359
0 0.775097 0.00274662
0.0146334 0.759289 0.000976577
0.134157 0.766796 0.00828565
0.320989 0.760723 0.0292668
0.531197 0.745007 0.0436713
0.678462 0.742046 0.0696269
0.838102 0.732097 0.131319
0.952682 0.738598 0.125978
1 0.743282 0.0716106
0 0.901854 0.0149386
0.113664 0.873075 0.0816052
0.290349 0.864805 0.129641
0.464332 0.860105 0.144381
0.579858 0.872175 0.105409
0.664668 0.893263 0.00135805
0.811673 0.886351 0.00656138
0.975128 0.865629 0.0355688
1 0.860243 0.0372168
0.128054 0.964874 0.137591
0.131304 1 0.0802472
0.211246 1 0.052079
0.371206 0.999954 0.0589303
0.557046 0.999802 0.0512398
0.705592 0.990036 0.0258793
0.79469 0.99443 0
0.9411 0.985336 0.00802625
1 0.965118 0.0358892
0 0 0.201328
0.0122988 0 0.201602
0.178836 0 0.193286
0.381842 0 0.18938
0.608957 0 0.171664
0.796414 0 0.153582
0.957 0 0.146624
1 0 0.138521
1 0 0.131395
0 0 0.2
0.0361486 0.000534066 0.205722
0.209781 4.57771e-05 0.204059
0.428946 0 0.20058
0.656153 0 0.187396
0.833097 0 0.175631
0.981964 0 0.169894
1 0 0.167117
1 0 0.167498
0 0.115145 0.151553
0.0240482 0.110185 0.146258
0.165148 0.105791 0.14432
0.355901 0.0914778 0.135439
0.576532 0.0709239 0.122576
0.755215 0.0552377 0.115496
0.906416 0.0491493 0.116899
1 0.0479438 0.122942
1 0.0493935 0.132006
0 0.257633 0.118898
0.0202945 0.246479 0.113252
0.153002 0.25037 0.119707
0.334356 0.24445 0.130404
0.53959 0.236179 0.131395
0.717296 0.227558 0.125704
0.871275 0.227436 0.129702
0.995712 0.23238 0.13962
1 0.238087 0.151034
0 0.423377 0.0813458
0.0139162 0.413306 0.0836347
0.141451 0.424842 0.0998856
0.315343 0.426001 0.080705
0.551675 0.412879 0.109392
0.702037 0.423239 0.167086
0.840009 0.423331 0.174014
0.973999 0.422004 0.172015
1 0.424369 0.178042
0 0.611093 0.0640879
0.0141146 0.597971 0.0725261
0.140902 0.609659 0.0924239
0.325307 0.608026 0.10016
0.503273 0.609796 0.0531624
0.719829 0.589227 0.104311
0.861433 0.59263 0.140032
0.941894 0.621973 0.238773
0.997864 0.644388 0.301228
0 0.768246 0.0659342
0.0246433 0.754604 0.0741436
0.153277 0.764508 0.100359
0.351232 0.756695 0.12079
0.558236 0.741848 0.124514
0.706233 0.738277 0.156497
0.849638 0.734096 0.200015
0.972152 0.740703 0.169131
1 0.750454 0.178607
0 0.883925 0.104784
0.147707 0.868849 0.160403
0.316884 0.863539 0.198657
0.480995 0.861997 0.204578
0.577081 0.880446 0.149416
0.683497 0.886488 0.05626
0.833814 0.878599 0.0906691
0.983368 0.863203 0.129015
1 0.857725 0.132403
0.127626 0.971954 0.189044
0.121187 1 0.142473
0.22652 1 0.153109
0.387686 1 0.156786
0.571221 0.996475 0.147127
0.722179 0.986542 0.12607
0.809842 0.991547 0.0381323
0.960037 0.977111 0.110887
1 0.962097 0.134188
0 0 0.366888
0.0163272 0 0.367727
0.196094 0 0.35404
0.398428 0 0.338918
0.62266 0 0.315969
0.811734 0 0.301488
0.965469 0 0.292821
1 0 0.283665
1 0 0.276555
0 0 0.368399
0.0565194 0.000122072 0.3682
0.226825 0 0.36257
0.449378 0 0.356649
0.669306 0 0.338216
0.843107 0 0.322789
0.984512 0 0.314977
1 0 0.312032
1 0 0.313344
0 0.109499 0.293111
0.0326848 0.103471 0.279805
0.178317 0.099855 0.276738
0.374777 0.0847639 0.265171
0.593759 0.0642252 0.251316
0.772122 0.0493019 0.242588
0.924025 0.0436408 0.243137
1 0.0421302 0.249104
1 0.04271 0.259831
0 0.251942 0.243915
0.0310216 0.242939 0.237613
0.169619 0.245762 0.244007
0.362402 0.238117 0.240604
0.577707 0.226658 0.232395
0.752392 0.219181 0.230167
0.902647 0.220295 0.237308
1 0.225147 0.246967
1 0.230289 0.257282
0 0.418891 0.200534
0.0248417 0.410986 0.198978
0.159442 0.422477 0.213153
0.34696 0.421164 0.209277
0.558465 0.416312 0.240604
0.718059 0.415305 0.25069
0.866773 0.411826 0.248295
0.993011 0.414588 0.255894
1 0.41883 0.26627
0 0.606958 0.175448
0.0289769 0.596613 0.177554
0.159564 0.608331 0.19559
0.347875 0.606104 0.20174
0.535714 0.603891 0.168673
0.734646 0.588495 0.203418
0.856184 0.607874 0.282612
0.93518 0.629908 0.351965
1 0.638697 0.377752
0 0.763348 0.164965
0.0399786 0.753948 0.169543
0.176486 0.762493 0.194446
0.383566 0.751842 0.218479
0.582864 0.736919 0.226627
0.729839 0.734249 0.26421
0.860517 0.734493 0.288457
0.988693 0.741436 0.244541
1 0.759838 0.300221
0.02121 0.870436 0.199161
0.178027 0.86392 0.257633
0.338964 0.861616 0.288685
0.484489 0.865522 0.282673
0.581094 0.883787 0.217853
0.703349 0.882292 0.144656
0.855634 0.873289 0.183886
0.993423 0.861814 0.206622
1 0.85713 0.21146
0.108629 0.981216 0.251774
0.125612 1 0.214054
0.243748 1 0.229328
0.407187 1 0.23035
0.586816 0.993713 0.221241
0.737911 0.984054 0.204135
0.825086 0.989303 0.116808
0.979675 0.971176 0.194934
1 0.961288 0.208225
0 0 0.552941
0.0225376 0 0.553552
0.210605 0 0.542504
0.414069 0 0.526192
0.636545 0 0.505333
0.823667 0 0.494392
0.973297 0 0.482551
1 0 0.470588
1 0 0.460472
0 0 0.560983
0.0743877 0 0.556008
0.244862 0 0.557488
0.468772 0 0.548455
0.682002 0 0.529931
0.852537 0 0.514977
0.990036 0 0.506477
1 0 0.502525
1 0 0.503182
0 0.101579 0.480491
0.0434882 0.095491 0.462577
0.190555 0.0916304 0.456794
0.391836 0.0762188 0.443
0.607706 0.0563668 0.427237
0.783352 0.0427405 0.417288
0.933867 0.0379187 0.416358
1 0.0367895 0.422568
1 0.037995 0.431617
0 0.243809 0.418173
0.0402228 0.236973 0.408774
0.183062 0.239719 0.414359
0.383551 0.231174 0.407691
0.598566 0.219272 0.398245
0.773266 0.212009 0.394034
0.923949 0.213245 0.397986
1 0.217441 0.405112
1 0.222019 0.413245
0 0.412085 0.36051
0.0362402 0.407202 0.357473
0.175998 0.417411 0.372534
0.371954 0.414328 0.370382
0.580224 0.406516 0.375692
0.751842 0.400168 0.372457
0.898985 0.401251 0.378485
1 0.405631 0.388373
1 0.410895 0.39968
0 0.597818 0.319081
0.042359 0.593042 0.321447
0.176089 0.604242 0.341527
0.368139 0.601602 0.345296
0.565194 0.596353 0.325078
0.737896 0.591089 0.370306
0.853391 0.608682 0.422446
0.946578 0.614176 0.439338
1 0.623499 0.454887
0 0.756374 0.295598
0.0552071 0.751019 0.302251
0.198917 0.757626 0.330449
0.416449 0.744335 0.354208
0.607263 0.731579 0.367468
0.746853 0.730632 0.389746
0.871092 0.735882 0.402625
0.991501 0.754314 0.404334
1 0.764797 0.453529
0.0539406 0.859373 0.324453
0.203433 0.859022 0.380911
0.356954 0.859068 0.403906
0.474876 0.871458 0.380896
0.58938 0.881514 0.33106
0.722255 0.875242 0.264378
0.874739 0.865492 0.309819
0.9944 0.857847 0.321874
1 0.856504 0.338094
0.0750896 0.992294 0.337713
0.137469 1 0.325261
0.257801 0.999451 0.342992
0.424826 1 0.341833
0.600031 0.989914 0.330816
0.750652 0.979019 0.316213
0.840848 0.982483 0.227756
0.994125 0.96379 0.311238
1 0.958511 0.314961
0 0 0.715023
0.0447395 0 0.717556
0.223545 0 0.706661
0.429572 0 0.692287
0.653071 0 0.678096
0.833768 0 0.669062
0.981765 0 0.660014
1 0 0.652033
1 0 0.647013
0 0 0.728145
0.0903792 0 0.720516
0.262531 0 0.724941
0.488533 0 0.71223
0.695155 0 0.695155
0.862425 0 0.683604
0.998352 0 0.678523
1 0 0.677562
1 0 0.680415
0 0.0927443 0.643091
0.0542763 0.0875868 0.625254
0.203861 0.0833906 0.618372
0.409705 0.0672923 0.60415
0.622538 0.0482185 0.591577
0.795254 0.0356298 0.586145
0.945922 0.03122 0.589151
1 0.030808 0.597604
1 0.0328832 0.60708
0 0.235676 0.586358
0.0513924 0.230533 0.574929
0.197848 0.233005 0.576699
0.403494 0.224567 0.569543
0.613779 0.21326 0.561212
0.785077 0.20708 0.557778
0.934188 0.209018 0.56228
1 0.213443 0.570016
1 0.217929 0.5785
0 0.401312 0.532067
0.0464637 0.402594 0.530434
0.191806 0.411597 0.538872
0.394293 0.407309 0.537072
0.603571 0.39826 0.532769
0.774609 0.392081 0.531182
0.922652 0.393011 0.53669
1 0.396674 0.545037
1 0.402762 0.553109
0 0.587289 0.491112
0.0527962 0.588937 0.49456
0.192401 0.5991 0.508553
0.38706 0.595712 0.50898
0.587671 0.588067 0.501457
0.7449 0.585122 0.515419
0.871321 0.590845 0.521614
0.964431 0.605249 0.536477
1 0.618387 0.550301
0 0.747677 0.46334
0.0699016 0.746166 0.470741
0.222568 0.750546 0.490761
0.447562 0.736553 0.498177
0.626108 0.727275 0.500481
0.762539 0.727901 0.513161
0.878599 0.743343 0.538003
0.98349 0.754543 0.559197
1 0.742046 0.53962
0.0851148 0.850843 0.472892
0.225208 0.854383 0.508324
0.370108 0.85713 0.520485
0.457847 0.877119 0.500725
0.600504 0.875441 0.478965
0.742519 0.865461 0.434714
0.889189 0.856901 0.465843
0.996216 0.855161 0.473075
1 0.867262 0.526116
0.0489052 0.999863 0.465614
0.145541 0.99852 0.475319
0.269734 0.998886 0.48986
0.439719 0.99884 0.485176
0.610697 0.985428 0.472053
0.761425 0.972152 0.46041
0.855665 0.973068 0.375036
0.994507 0.957061 0.452583
1 0.95378 0.453956
0 0 0.857649
0.0658885 0 0.858442
0.238331 0 0.849027
0.448386 0 0.837201
0.670848 0 0.829068
0.845121 0 0.819425
0.989242 0 0.812345
1 0 0.806958
1 0 0.804349
0.000885023 0 0.871
0.10753 0 0.866361
0.282719 0 0.868101
0.507408 0 0.855451
0.709621 0 0.840269
0.873945 0 0.831113
0.998749 0 0.827939
1 0 0.828992
1 0 0.833753
0 0.0850233 0.789502
0.0662852 0.080827 0.771221
0.218753 0.0760967 0.763256
0.429282 0.0593729 0.750225
0.637919 0.0412451 0.739879
0.808743 0.0290227 0.737011
0.95967 0.0252384 0.743358
1 0.0257877 0.751431
1 0.0286259 0.760769
0 0.226688 0.733074
0.0630503 0.225162 0.723033
0.213703 0.227192 0.723354
0.423835 0.218463 0.715663
0.629572 0.207721 0.707851
0.79794 0.20267 0.70518
0.945312 0.205158 0.709972
1 0.209689 0.717617
1 0.214237 0.725887
0 0.391028 0.678111
0.0597086 0.397742 0.679118
0.209049 0.405966 0.685878
0.415564 0.401282 0.681743
0.619852 0.39266 0.675593
0.787823 0.387198 0.673869
0.933761 0.388693 0.679561
1 0.392737 0.68806
1 0.401617 0.690806
0 0.577813 0.637186
0.0635996 0.585138 0.642435
0.208698 0.594064 0.650919
0.407233 0.589746 0.648325
0.60827 0.580621 0.64155
0.771664 0.576257 0.633783
0.892699 0.585397 0.629953
0.98439 0.6009 0.634256
1 0.612222 0.644099
0 0.738949 0.608927
0.0827802 0.742061 0.614252
0.249744 0.74345 0.620676
0.478248 0.729961 0.612238
0.644236 0.723903 0.609247
0.771557 0.727306 0.619287
0.878737 0.73518 0.638941
0.995178 0.730648 0.630518
1 0.728481 0.630381
0.109346 0.845411 0.594156
0.244007 0.851255 0.613413
0.372198 0.858183 0.620462
0.450172 0.878508 0.615198
0.612909 0.869062 0.603235
0.759426 0.858015 0.579492
0.897063 0.851347 0.590158
0.999939 0.862638 0.627543
1 0.869978 0.664393
0.0410163 0.997925 0.600305
0.153506 0.99649 0.61149
0.281453 0.998657 0.618067
0.454307 0.99295 0.609079
0.621439 0.980087 0.594125
0.770214 0.965728 0.581659
0.869383 0.963088 0.527749
0.998962 0.951354 0.572671
1 0.949813 0.575952
0 0 0.979187
0.086183 0 0.978515
0.253727 0 0.971618
0.469688 0 0.962478
0.687526 0 0.956176
0.857618 0 0.94725
0.991135 0 0.941955
1 0 0.938445
1 0 0.937881
0.00347906 0 0.992615
0.126528 0 0.988327
0.303059 0 0.983352
0.528466 0 0.975814
0.72578 0 0.963119
0.886656 0 0.955779
0.999542 0 0.954482
1 0 0.957168
1 0 0.962966
0 0.0788434 0.913237
0.0810407 0.0754406 0.894041
0.236805 0.0700999 0.885832
0.451179 0.0532387 0.874617
0.655344 0.0355688 0.866377
0.82414 0.024155 0.866697
0.973785 0.0214389 0.87361
1 0.0227207 0.882521
1 0.0257115 0.892821
0 0.217533 0.855039
0.0767376 0.221363 0.850004
0.231769 0.22295 0.848875
0.445747 0.213993 0.841001
0.646799 0.203708 0.834363
0.812497 0.199512 0.8336
0.958007 0.202701 0.839475
1 0.207507 0.847578
1 0.211933 0.856016
0.000137331 0.382208 0.807538
0.0745861 0.394308 0.811032
0.228122 0.401541 0.814908
0.438422 0.396567 0.810666
0.63679 0.38822 0.805158
0.802472 0.38349 0.804181
0.945876 0.385702 0.810452
1 0.390402 0.817655
1 0.403296 0.812955
0 0.570397 0.771572
0.0775464 0.582055 0.777462
0.227405 0.589517 0.783383
0.42945 0.584802 0.77937
0.625055 0.576059 0.770336
0.783078 0.574228 0.754864
0.898497 0.585977 0.739376
0.988556 0.600626 0.737682
1 0.609094 0.746746
0.00030518 0.73077 0.742947
0.0983291 0.738613 0.748592
0.283009 0.736629 0.739681
0.50454 0.72517 0.719341
0.658854 0.721843 0.71252
0.782498 0.724254 0.721035
0.910399 0.72221 0.739315
0.999954 0.72047 0.743755
1 0.718578 0.7458
0.132143 0.841428 0.70515
0.26186 0.84892 0.716838
0.359823 0.862654 0.731334
0.455589 0.875914 0.741741
0.625437 0.863249 0.73022
0.776562 0.85182 0.718288
0.903471 0.850309 0.725841
0.994705 0.85214 0.744732
1 0.84596 0.738186
0.0489357 0.993835 0.731319
0.16347 0.994705 0.741909
0.295171 0.998581 0.745418
0.46978 0.987213 0.734005
0.632914 0.973556 0.718212
0.779355 0.959594 0.705165
0.887678 0.954284 0.668711
1 0.946975 0.69723
1 0.952255 0.713619
