nova/tdt-studio/app/Lut_mau/Buttery LUTs/Ursa_Mini_Tobacco.cube
TITLE "Generated by Resolve"
LUT_3D_SIZE 33
0 0 0
0 0 0
0 0 0
0 0 0
0 0 0
0.011017 0 0
0.0301976 0 0
0.0837568 0 0
0.133898 0 0
0.177234 0 0
0.220966 0 0
0.270039 0 0
0.324041 0 0
0.379934 0 0
0.439307 0 0
0.497215 0 0
0.552041 0 0
0.603708 0 0
0.651102 0 0
0.697017 0 0
0.740902 0 0
0.78323 0 0
0.823941 0 0
0.863066 0 0
0.90454 0 0
0.943267 0 0
0.978073 0 0
1 0 0
1 0 0
1 0 0
1 0 0
1 0 0
1 0 0
0 0 0
0 0 0
0 0 0
0 0 0
0 0 0
0.0162203 0 0
0.0464637 0 0
0.10222 0 0
0.148043 0 0
0.192111 0 0
0.2365 0 0
0.288808 0 0
0.34374 0 0
0.400793 0 0
0.461753 0 0
0.518196 0 0
0.571878 0 0
0.622538 0 0
0.67039 0 0
0.716243 0 0
0.75964 0 0
0.801236 0 0
0.841596 0 0
0.881773 0 0
0.923613 0 0
0.960571 0 0
0.993637 0 0
1 0 0
1 0 0
1 0 0
1 0 0
1 0 0
1 0 0
0 0 0
0 0 0
0 0 0
0 0 0
0.00207523 0 0
0.0153811 0 0
0.0531167 0 0
0.108888 0 0
0.152499 0 0
0.196246 0 0
0.24155 0 0
0.291051 0 0
0.344472 0 0
0.401831 0 0
0.461143 0 0
0.51931 0 0
0.572778 0 0
0.623148 0 0
0.672724 0 0
0.721889 0 0
0.767819 0 0
0.81033 0 0
0.850675 0 0
0.889967 0 0
0.927718 0 0
0.963455 0 0
0.993744 0 0
1 0 0
1 0 0
1 0 0
1 0 0
1 0 0
1 0 0
0 0 0
0 0 0
0 0 0
0 0 0
0.00411994 0 0
0.0155489 0 0
0.0569619 0 0
0.105241 0 0
0.150057 0 0
0.194141 0 0
0.239719 0 0
0.287846 0 0
0.341985 0 0
0.400504 0 0
0.462058 0 0
0.523644 0 0
0.578714 0 0
0.629084 0 0
0.678981 0 0
0.726757 0 0
0.771572 0 0
0.814054 0 0
0.853681 0 0
0.891127 0 0
0.927199 0 0
0.963256 0 0
0.989837 0 0
1 0 0
1 0 0
1 0 0
1 0 0
1 0 0
1 0 0
0 0 0
0 0 0
0 0 0
0 0 0
0.00619516 0.000854505 0
0.0171817 0.00141909 0
0.0563211 0.0015259 0
0.0992752 0.0016022 0
0.14435 0.00166323 0
0.187259 0.00175479 0
0.231937 0.00172427 0
0.281117 0.00141909 0
0.336431 0.000671397 0
0.396231 0.000137331 0
0.462028 0 0
0.524941 0 0
0.581277 0 0
0.633066 0 0
0.680781 0 0
0.726131 0 0
0.769635 0 0
0.810636 0 0
0.84979 0 0
0.886976 0 0
0.92285 0 0
0.95845 0 0
0.988098 0 0
0.999252 0 0
1 0 0
1 0 0
1 0 0
1 0 0
1 0 0
0 0.0179599 0
0 0.0196841 0
0 0.0203555 0
0 0.0196384 0
0.005066 0.0193484 0
0.0195163 0.0184634 0
0.0636454 0.0151217 0
0.101991 0.0132753 0
0.137346 0.0123598 0
0.172641 0.0117952 0
0.218402 0.0104219 0
0.270619 0.00714122 0
0.327352 0.0030518 0
0.385946 4.57771e-05 0
0.450797 0 0
0.512535 0 0
0.570153 0 0
0.623102 0 0
0.671595 0 0
0.71722 0 0
0.760616 0 0
0.801755 0 0
0.84094 0 0
0.878111 0 0
0.914076 0 0
0.949584 0 0
0.985122 0 0
0.997848 0 0
1 0 0
1 0 0
1 0 0
1 0 0
1 0 0
0 0.0465095 0
0 0.049485 0
0 0.0501259 0
0 0.0495766 0
0.00274662 0.0496834 0
0.0191043 0.0493477 0
0.0546426 0.0488441 0
0.0952926 0.0461585 0
0.134936 0.044419 0
0.173556 0.0437018 0
0.214725 0.0426642 0
0.256672 0.0411383 0
0.301839 0.0395209 0
0.352544 0.0374304 0
0.409216 0.0349279 0
0.470069 0.0309606 0
0.526574 0.0271763 0
0.578698 0.0234226 0
0.627192 0.0197604 0
0.672267 0.0163119 0
0.715984 0.0130159 0
0.758007 0.00994888 0
0.798611 0.00708019 0
0.837934 0.00437934 0
0.87686 0.00205997 0
0.914473 0.000701915 0
0.950896 0.000198367 0
0.979446 0 0
0.999329 0 0
1 0 0
1 0 0
1 0 0
1 0 0
0 0.0868696 0
0 0.0892958 0
0 0.0892958 0
0 0.0887007 0
0 0.087953 0
0.014725 0.0890669 0
0.0420233 0.0904097 0
0.0872969 0.0869306 0
0.131304 0.0838636 0
0.173358 0.081239 0
0.211719 0.0799115 0
0.248768 0.0789044 0
0.290089 0.0775464 0
0.335378 0.0753948 0
0.385458 0.072221 0
0.441306 0.067689 0
0.494285 0.0627909 0
0.545205 0.0573892 0
0.593896 0.0519722 0
0.640223 0.0468147 0
0.684733 0.0421607 0
0.727489 0.0379644 0
0.767819 0.0345312 0
0.807065 0.0316167 0
0.845487 0.029221 0
0.882979 0.0280156 0
0.920394 0.0271305 0
0.955901 0.0267948 0
0.984619 0.0264286 0
0.999481 0.0262303 0
1 0.025864 0
1 0.025391 0
1 0.0252232 0
0 0.124758 0
0 0.127367 0
0 0.128176 0
0 0.127855 0
0 0.125505 0
0.0146639 0.126757 0
0.0378271 0.128344 0
0.0708629 0.128649 0
0.121569 0.122103 0
0.168368 0.117571 0
0.21207 0.114626 0
0.255528 0.111513 0
0.297658 0.109926 0
0.340032 0.108843 0
0.384421 0.1075 0
0.431144 0.105562 0
0.481239 0.102068 0
0.529915 0.0971847 0
0.577722 0.0921798 0
0.623484 0.0872969 0
0.667201 0.0829633 0
0.708995 0.0793469 0
0.748653 0.0765393 0
0.786694 0.0745403 0
0.823972 0.0728923 0
0.860716 0.0716259 0
0.897398 0.0710765 0
0.933608 0.0707256 0
0.96939 0.0704967 0
0.994354 0.0701305 0
1 0.0700999 0
1 0.0700236 0
1 0.0699321 0
0 0.162142 0
0 0.164401 0
0 0.165042 0
0 0.163745 0
0 0.160754 0
0.0189364 0.15906 0
0.0410773 0.160388 0
0.0670787 0.163989 0
0.105318 0.162127 0
0.156863 0.155657 0
0.208133 0.149508 0
0.25301 0.146456 0
0.304189 0.142535 0
0.351415 0.139742 0
0.396353 0.138964 0
0.440711 0.138918 0
0.485573 0.137652 0
0.526436 0.135683 0
0.568124 0.132753 0
0.610407 0.129076 0
0.653437 0.125093 0
0.696239 0.121218 0
0.737194 0.118105 0
0.775982 0.115923 0
0.813428 0.114351 0
0.849882 0.113634 0
0.885832 0.113405 0
0.921004 0.113634 0
0.956039 0.113924 0
0.98674 0.114443 0
0.999374 0.115068 0
1 0.115541 0
1 0.11635 0
0 0.199222 0
0 0.200687 0
0 0.201038 0
0 0.199161 0
0.0031281 0.196262 0
0.0200046 0.191897 0
0.0433356 0.193133 0
0.0701915 0.196216 0
0.0967269 0.199496 0
0.140963 0.196033 0
0.194064 0.189487 0
0.250202 0.182345 0
0.301122 0.178393 0
0.354788 0.174334 0
0.407111 0.171618 0
0.454032 0.170779 0
0.495964 0.171084 0
0.535943 0.170657 0
0.575952 0.169436 0
0.612924 0.168276 0
0.649531 0.166857 0
0.686152 0.16524 0
0.72372 0.163165 0
0.762173 0.160983 0
0.8009 0.159152 0
0.839841 0.1579 0
0.877211 0.157244 0
0.913664 0.157244 0
0.948623 0.15761 0
0.983185 0.158602 0
0.99762 0.159594 0
1 0.160784 0
1 0.162066 0
0 0.235172 0
0 0.236271 0
0 0.236606 0
0 0.234821 0
0.00492866 0.23122 0
0.0178836 0.225147 0
0.0456092 0.226154 0
0.072343 0.229358 0
0.097734 0.233555 0
0.129076 0.235279 0
0.178561 0.230442 0
0.235828 0.223468 0
0.297108 0.216037 0
0.353429 0.211749 0
0.409934 0.207889 0
0.463233 0.205798 0
0.5093 0.205035 0
0.54873 0.205402 0
0.585641 0.206012 0
0.622034 0.206195 0
0.657694 0.206149 0
0.691752 0.206104 0
0.725017 0.20618 0
0.758389 0.206027 0
0.792844 0.205997 0
0.828428 0.205692 0
0.864561 0.205264 0
0.900847 0.205142 0
0.936767 0.205142 0
0.972457 0.205554 0
1 0.206043 0
1 0.207111 0
1 0.208164 0
0 0.270893 0
0 0.271931 0
0 0.272206 0
0 0.27071 0
0.00502022 0.266209 0
0.0155642 0.259815 0
0.0445869 0.261341 0
0.0736553 0.263935 0
0.101518 0.267338 0
0.125582 0.272755 0
0.162936 0.273228 0
0.218814 0.267277 0
0.282948 0.259236 0
0.348333 0.251606 0
0.407767 0.247044 0
0.467185 0.24358 0
0.517052 0.241733 0
0.560769 0.241321 0
0.599695 0.242054 0
0.634745 0.243198 0
0.668727 0.244724 0
0.701442 0.24622 0
0.733166 0.247761 0
0.764462 0.249226 0
0.795666 0.250507 0
0.827436 0.251942 0
0.859632 0.252995 0
0.892256 0.253819 0
0.925765 0.254246 0
0.960098 0.254856 0
0.988891 0.255299 0
1 0.255543 0
1 0.256214 0
0 0.309483 0
0 0.310674 0
0 0.310918 0
0 0.309682 0
0.00204471 0.303304 0
0.0113985 0.297993 0
0.0396429 0.300237 0
0.0733959 0.301335 0
0.103761 0.304402 0
0.130846 0.30927 0
0.156573 0.314885 0
0.199161 0.314397 0
0.262928 0.306584 0
0.333959 0.297047 0
0.401999 0.289845 0
0.464881 0.285466 0
0.519371 0.282582 0
0.568246 0.28072 0
0.610651 0.280568 0
0.648569 0.281621 0
0.683009 0.283482 0
0.714916 0.285801 0
0.745541 0.288502 0
0.775418 0.291325 0
0.804868 0.293965 0
0.834287 0.296559 0
0.863371 0.298833 0
0.892409 0.300816 0
0.922499 0.302495 0
0.953811 0.303899 0
0.982788 0.305013 0
0.998657 0.305638 0
1 0.306111 0
0 0.349523 0
0 0.35108 0
0 0.351507 0
0 0.350439 0
0.000457771 0.342809 0
0.0114137 0.339254 0
0.0349584 0.341711 0
0.0693217 0.343008 0
0.104158 0.344549 0
0.135698 0.347967 0
0.160708 0.354665 0
0.191104 0.359289 0
0.238178 0.357992 0
0.309987 0.348775 0
0.389395 0.338064 0
0.458015 0.331716 0
0.516075 0.327962 0
0.567819 0.325078 0
0.616144 0.322911 0
0.659052 0.322576 0
0.696544 0.323476 0
0.729671 0.325917 0
0.760494 0.329015 0
0.789776 0.332448 0
0.818479 0.336126 0
0.846616 0.339635 0
0.873854 0.343008 0
0.900343 0.346151 0
0.927733 0.348928 0
0.95581 0.351385 0
0.984619 0.35346 0
0.998108 0.355138 0
1 0.356435 0
0 0.391333 0
0 0.393088 0
0 0.393408 0
0 0.391989 0
0 0.383734 0
0.0110475 0.3823 0
0.0316167 0.384466 0
0.064744 0.386694 0
0.101381 0.388022 0
0.136797 0.390188 0
0.168734 0.394156 0
0.193332 0.402121 0
0.228794 0.405341 0
0.282261 0.40322 0
0.361212 0.393057 0
0.445167 0.381567 0
0.510658 0.375784 0
0.563897 0.372229 0
0.613397 0.369284 0
0.660395 0.367086 0
0.703761 0.366339 0
0.742092 0.367224 0
0.775692 0.369589 0
0.805722 0.372976 0
0.834165 0.37705 0
0.861372 0.38117 0
0.887922 0.385092 0
0.913405 0.388998 0
0.939513 0.392477 0
0.96585 0.395911 0
0.991165 0.398962 0
0.999023 0.401907 0
1 0.404303 0
0 0.435492 0
0 0.437552 0
0 0.438346 0
0 0.436194 0
0 0.428412 0
0.00970474 0.428321 0
0.0294194 0.430365 0
0.0610056 0.433768 0
0.0982986 0.435416 0
0.137011 0.436927 0
0.172869 0.440009 0
0.203967 0.445563 0
0.229847 0.453895 0
0.273182 0.45568 0
0.333547 0.451774 0
0.414969 0.440345 0
0.498787 0.426841 0
0.559899 0.420188 0
0.609674 0.417334 0
0.65655 0.414649 0
0.701167 0.412573 0
0.743725 0.411536 0
0.783169 0.412085 0
0.818967 0.414038 0
0.85034 0.416983 0
0.878325 0.42092 0
0.904189 0.425284 0
0.929061 0.429618 0
0.95433 0.433707 0
0.979232 0.437629 0
0.998611 0.441444 0
1 0.444984 0
1 0.448554 0
0 0.483528 0
0 0.485679 0
0 0.486213 0
0 0.483177 0
0 0.475547 0
0.00796521 0.475883 0
0.0283207 0.478309 0
0.0594644 0.481834 0
0.0964828 0.484001 0
0.136629 0.485206 0
0.176349 0.487007 0
0.211826 0.490715 0
0.240543 0.497673 0
0.27216 0.504128 0
0.322225 0.504234 0
0.387106 0.498772 0
0.46772 0.487282 0
0.547463 0.474601 0
0.60621 0.467811 0
0.652888 0.464912 0
0.697581 0.462684 0
0.739864 0.460685 0
0.780728 0.459556 0
0.820508 0.459556 0
0.857771 0.460822 0
0.891402 0.462837 0
0.920729 0.465873 0
0.947188 0.470008 0
0.972412 0.474784 0
0.992325 0.479408 0
1 0.483864 0
1 0.488106 0
1 0.49221 0
0 0.530709 0
0 0.532921 0
0 0.533806 0
0 0.52961 0
0.000762951 0.523644 0
0.00584421 0.52256 0
0.027924 0.525597 0
0.0592966 0.529458 0
0.0958877 0.531701 0
0.135988 0.532937 0
0.178576 0.533623 0
0.217456 0.53576 0
0.251209 0.540261 0
0.281041 0.547555 0
0.318883 0.551614 0
0.372396 0.550332 0
0.441581 0.543694 0
0.520302 0.532021 0
0.593545 0.519997 0
0.649454 0.51339 0
0.69398 0.510811 0
0.736416 0.509087 0
0.777432 0.507622 0
0.81709 0.507057 0
0.855482 0.507149 0
0.892164 0.508324 0
0.926665 0.510033 0
0.958724 0.512612 0
0.987045 0.516014 0
1 0.520272 0
1 0.525292 0
1 0.53048 0
1 0.5355 0
0 0.577157 0
0 0.579095 0
0 0.580041 0
0 0.575051 0
0.000656138 0.569909 0
0.00259403 0.568032 0
0.0283055 0.571862 0
0.0602884 0.575418 0
0.0963607 0.577874 0
0.135958 0.579141 0
0.179034 0.579599 0
0.22153 0.580163 0
0.259709 0.582818 0
0.292912 0.588571 0
0.324193 0.595102 0
0.3664 0.597299 0
0.424247 0.594827 0
0.493858 0.587076 0
0.569284 0.574746 0
0.637369 0.563561 0
0.690135 0.557336 0
0.73315 0.555428 0
0.774258 0.554147 0
0.81442 0.553491 0
0.852583 0.553338 0
0.889158 0.553857 0
0.924147 0.554635 0
0.958572 0.55639 0
0.989593 0.558679 0
0.999969 0.561257 0
1 0.565042 0
1 0.570291 0
1 0.576196 0
0 0.622538 0
0 0.624582 0
0 0.625727 0
0 0.620066 0
0 0.615198 0
0.00205997 0.612818 0
0.0297551 0.6168 0
0.0615702 0.619745 0
0.0972152 0.621973 0
0.136431 0.623377 0
0.179049 0.623774 0
0.223606 0.623423 0
0.266484 0.624247 0
0.303655 0.627817 0
0.335302 0.633814 0
0.368826 0.638529 0
0.415641 0.639017 0
0.476265 0.635447 0
0.543648 0.6271 0
0.614496 0.615732 0
0.678843 0.60592 0
0.729732 0.600885 0
0.771725 0.599329 0
0.811597 0.598581 0
0.849531 0.598398 0
0.885374 0.598413 0
0.918898 0.59884 0
0.950103 0.599603 0
0.979706 0.601267 0
0.995178 0.603372 0
1 0.605951 0
1 0.609766 0
1 0.615351 0
0 0.665461 0
0 0.666667 0
0 0.666712 0
0 0.6607 0
0 0.656519 0
0.00610361 0.654765 0
0.0319371 0.658 0
0.0631418 0.660975 0
0.0986038 0.663035 0
0.137774 0.664302 0
0.179965 0.664652 0
0.224781 0.664256 0
0.271656 0.663645 0
0.313039 0.665263 0
0.347402 0.669856 0
0.37821 0.675349 0
0.416007 0.678553 0
0.468147 0.678111 0
0.525353 0.674189 0
0.590234 0.66566 0
0.658671 0.654459 0
0.719646 0.64535 0
0.768139 0.640742 0
0.807691 0.639384 0
0.843687 0.638575 0
0.876768 0.638392 0
0.90695 0.638468 0
0.933501 0.638834 0
0.957656 0.639109 0
0.978775 0.640299 0
0.992981 0.641749 0.00454719
0.998215 0.644404 0.0166018
1 0.648569 0.0338293
0 0.70605 0
0 0.706966 0
0 0.705791 0
0 0.699809 0
0 0.695659 0
0.0102541 0.694392 0
0.0358434 0.696696 0
0.0654154 0.700084 0
0.100832 0.70219 0
0.139956 0.703349 0
0.182086 0.703792 0
0.22649 0.703517 0
0.274891 0.702251 0
0.321599 0.702251 0
0.359533 0.705226 0
0.391043 0.710475 0
0.424384 0.715389 0
0.467521 0.717021 0
0.517815 0.71548 0
0.5729 0.710399 0
0.636637 0.70016 0
0.702708 0.688045 0
0.758251 0.679393 0
0.800427 0.675151 0
0.833661 0.67335 0
0.862684 0.671824 0
0.889036 0.671016 0
0.911772 0.669154 0
0.933516 0.668147 0.000183108
0.955108 0.66836 0.00239567
0.978424 0.671305 0.0168154
0.993027 0.674434 0.0306859
1 0.678401 0.0466011
0 0.745617 0
0 0.746227 0
0 0.74374 0
0 0.737896 0
0 0.733852 0
0.0142824 0.732876 0
0.0400397 0.734829 0
0.0686656 0.73846 0
0.104372 0.740459 0
0.143572 0.741634 0
0.185748 0.742229 0
0.230304 0.741924 0
0.277638 0.740978 0
0.328893 0.739406 0
0.37171 0.740353 0
0.406592 0.744305 0
0.439811 0.74873 0
0.477485 0.751049 0
0.521782 0.749599 0
0.571389 0.745022 0
0.624887 0.737652 0
0.688014 0.724544 0
0.745922 0.712291 0
0.789288 0.705043 0
0.820981 0.70016 0
0.847852 0.697719 0
0.873564 0.696849 0.00288396
0.899596 0.69807 0.0128481
0.924956 0.699657 0.0210269
0.949935 0.701427 0.0276493
0.975464 0.703716 0.0337682
0.992813 0.706355 0.0391394
1 0.708888 0.0406806
0 0.784192 0
0 0.784649 0
0 0.781201 0
0 0.776089 0
0 0.771374 0
0.0188296 0.770962 0
0.0456092 0.7729 0
0.0752422 0.77644 0
0.110002 0.778622 0
0.149065 0.77995 0
0.191028 0.780346 0
0.23624 0.779751 0
0.28513 0.778042 0
0.339254 0.77528 0
0.390555 0.772335 0
0.4318 0.772931 0
0.465934 0.775647 0
0.50016 0.776745 0
0.539513 0.77406 0
0.583185 0.768719 0
0.630014 0.761456 0
0.680674 0.750469 0
0.737453 0.737118 0
0.780179 0.730083 0.00300603
0.815061 0.728252 0.0114443
0.84538 0.728298 0.0183719
0.873182 0.729427 0.0232395
0.900069 0.731075 0.0269169
0.926329 0.732708 0.0289921
0.954376 0.734874 0.0265507
0.98349 0.737285 0.0173648
1 0.740032 0
1 0.746853 0
0 0.822431 0
0 0.823011 0
0 0.81912 0
0 0.814557 0
0 0.80911 0
0.0246586 0.809094 0
0.0529641 0.811231 0
0.0836194 0.81445 0
0.118441 0.816403 0
0.159716 0.816632 0
0.204807 0.815412 0
0.252964 0.812863 0
0.306996 0.808789 0
0.363912 0.803418 0
0.42002 0.797803 0
0.467552 0.794018 0
0.504234 0.792355 0
0.534615 0.791547 0
0.565332 0.789136 0
0.598947 0.785885 0
0.637552 0.782238 0
0.680018 0.778027 0
0.728267 0.771481 0.00395209
0.778653 0.764096 0.0144808
0.816449 0.761517 0.0209354
0.848325 0.761639 0.0234836
0.878676 0.763394 0.0201724
0.90956 0.766552 0.00987259
0.945403 0.772091 0
0.984756 0.780591 0
1 0.783749 0
1 0.785153 0
1 0.78497 0
0 0.860975 0
0 0.861204 0
0 0.857343 0
0 0.85243 0
0.00337224 0.846281 0
0.0339361 0.84538 0
0.0659342 0.846952 0
0.100694 0.848142 0
0.14081 0.847562 0
0.186831 0.845197 0
0.2365 0.84097 0
0.290822 0.835019 0
0.348699 0.827878 0
0.406104 0.820066 0
0.460716 0.812634 0
0.505104 0.806546 0
0.540124 0.802991 0
0.56524 0.805188 0.000991836
0.589258 0.807919 0.000549325
0.615656 0.809964 0
0.646082 0.810742 0
0.682048 0.8103 0
0.72195 0.808545 9.15541e-05
0.767086 0.805692 0.0037995
0.812772 0.803983 0.00216678
0.857786 0.80885 0
0.900114 0.815198 0
0.937194 0.818082 0
0.971893 0.819501 0
0.996704 0.819608 0
1 0.818906 0
1 0.818097 0
1 0.817075 0
0 0.89865 0
0 0.897704 0
0 0.892409 0
0 0.883528 0
0.020798 0.877104 0
0.057969 0.874876 0
0.095613 0.874189 0
0.136172 0.872114 0
0.184497 0.867658 0
