nova/tdt-studio/app/Lut_mau/Buttery LUTs/Ursa_Mini_Tobacco.cube
TITLE "Generated by Resolve"
LUT_3D_SIZE 5
0 0 0
0.133898 0 0
0.552041 0 0
0.90454 0 0
1 0 0
0 0.124758 0
0.121569 0.122103 0
0.481239 0.102068 0
0.823972 0.0728923 0
1 0.0699321 0
0 0.435492 0
0.0982986 0.435416 0
0.498787 0.426841 0
0.85034 0.416983 0
1 0.448554 0
0 0.784192 0
0.110002 0.778622 0
0.465934 0.775647 0
0.815061 0.728252 0.0114443
1 0.746853 0
0.104662 0.961242 0.010071
0.204425 1 0
0.545571 1 0
0.767147 1 0
1 0.983612 0
0 0 0.0409094
0.165347 0 0.0437476
0.59646 0 0.0361028
0.951324 0 0.0107118
1 0 0.00822461
0 0.119524 0.0291295
0.145541 0.111177 0.0431373
0.54052 0.0802625 0.0338598
0.874846 0.0569314 0.0242771
1 0.0569162 0.0356756
0 0.426474 0
0.123064 0.42533 0.0178378
0.533288 0.412253 0.0271763
0.821195 0.427268 0.115999
1 0.428016 0.116472
0 0.775097 0.00274662
0.134157 0.766796 0.00828565
0.531197 0.745007 0.0436713
0.838102 0.732097 0.131319
1 0.743282 0.0716106
0.128054 0.964874 0.137591
0.211246 1 0.052079
0.557046 0.999802 0.0512398
0.79469 0.99443 0
1 0.965118 0.0358892
0 0 0.366888
0.196094 0 0.35404
0.62266 0 0.315969
0.965469 0 0.292821
1 0 0.276555
0 0.109499 0.293111
0.178317 0.099855 0.276738
0.593759 0.0642252 0.251316
0.924025 0.0436408 0.243137
1 0.04271 0.259831
0 0.418891 0.200534
0.159442 0.422477 0.213153
0.558465 0.416312 0.240604
0.866773 0.411826 0.248295
1 0.41883 0.26627
0 0.763348 0.164965
0.176486 0.762493 0.194446
0.582864 0.736919 0.226627
0.860517 0.734493 0.288457
1 0.759838 0.300221
0.108629 0.981216 0.251774
0.243748 1 0.229328
0.586816 0.993713 0.221241
0.825086 0.989303 0.116808
1 0.961288 0.208225
0 0 0.715023
0.223545 0 0.706661
0.653071 0 0.678096
0.981765 0 0.660014
1 0 0.647013
0 0.0927443 0.643091
0.203861 0.0833906 0.618372
0.622538 0.0482185 0.591577
0.945922 0.03122 0.589151
1 0.0328832 0.60708
0 0.401312 0.532067
0.191806 0.411597 0.538872
0.603571 0.39826 0.532769
0.922652 0.393011 0.53669
1 0.402762 0.553109
0 0.747677 0.46334
0.222568 0.750546 0.490761
0.626108 0.727275 0.500481
0.878599 0.743343 0.538003
1 0.742046 0.53962
0.0489052 0.999863 0.465614
0.269734 0.998886 0.48986
0.610697 0.985428 0.472053
0.855665 0.973068 0.375036
1 0.95378 0.453956
0 0 0.979187
0.253727 0 0.971618
0.687526 0 0.956176
0.991135 0 0.941955
1 0 0.937881
0 0.0788434 0.913237
0.236805 0.0700999 0.885832
0.655344 0.0355688 0.866377
0.973785 0.0214389 0.87361
1 0.0257115 0.892821
0.000137331 0.382208 0.807538
0.228122 0.401541 0.814908
0.63679 0.38822 0.805158
0.945876 0.385702 0.810452
1 0.403296 0.812955
0.00030518 0.73077 0.742947
0.283009 0.736629 0.739681
0.658854 0.721843 0.71252
0.910399 0.72221 0.739315
1 0.718578 0.7458
0.0489357 0.993835 0.731319
0.295171 0.998581 0.745418
0.632914 0.973556 0.718212
0.887678 0.954284 0.668711
1 0.952255 0.713619
