nova/tdt-studio/app/Lut_mau/Buttery LUTs/Ursa_Mini_New_Creative_1.cube
TITLE "Generated by Resolve"
LUT_3D_SIZE 5
0 0 0
0.109209 0 0
0.538445 0 0
0.999512 0 0
1 0 0
0 0.163043 0
0.11989 0.159411 0
0.57583 0.141817 0
1 0.116442 0
1 0.1776 0
0 0.566217 0
0.0929274 0.577676 0
0.558862 0.568261 0
1 0.56228 0
1 0.642008 0
0 1 0
0.0796521 1 0
0.549691 1 0
1 1 0
1 1 0
0 1 0
0.264485 1 0
0.6636 1 0
1 1 0
1 1 0
0 0 0.157
0.112261 0 0.133883
0.542245 0 0.0852369
1 0 0.0383612
1 0 0.0738689
0 0.161578 0.167407
0.130037 0.160372 0.158312
0.589044 0.144045 0.134096
1 0.127932 0.108675
1 0.190539 0.167575
0 0.570535 0.147189
0.105791 0.582147 0.148547
0.573571 0.573816 0.129732
1 0.570932 0.115007
1 0.649897 0.180179
0 1 0.137392
0.0963455 1 0.151125
0.562478 1 0.128939
1 0.99881 0.0938125
1 1 0.118196
0 1 0.331197
0.256306 1 0.290257
0.650553 1 0.201343
1 1 0.118517
1 1 0.118822
0 0 0.561257
0.107958 0 0.535348
0.541375 0 0.489143
1 0 0.443458
1 0 0.483558
0 0.153185 0.576989
0.134569 0.153719 0.569955
0.594827 0.139376 0.54609
1 0.124773 0.521447
1 0.187533 0.58468
0 0.567041 0.561669
0.113054 0.578241 0.564202
0.583078 0.57174 0.547692
1 0.569665 0.542031
1 0.645747 0.611109
0 1 0.557702
0.104646 1 0.570779
0.564828 1 0.543145
1 0.985473 0.501701
1 1 0.517311
0 1 0.746334
0.237491 1 0.695247
0.628244 1 0.60029
1 1 0.516426
1 1 0.517281
0 0 0.994888
0.102632 0 0.966705
0.539055 0 0.924041
1 0 0.880201
1 0 0.922301
0 0.142977 1
0.138354 0.145708 1
0.600229 0.133013 0.980591
1 0.119432 0.954314
1 0.183352 1
0 0.561471 0.996887
0.120012 0.573373 0.994156
0.593057 0.569818 0.976242
1 0.570489 0.961456
1 0.644755 1
0 1 0.986007
0.110903 1 0.987243
0.565499 1 0.955291
0.999435 0.968399 0.909514
1 0.974411 0.912322
0 1 1
0.218753 1 1
0.607965 1 0.984131
0.991669 1 0.905425
1 1 0.903441
0 0 1
0.118669 0 1
0.557443 0 1
1 0 1
1 0 1
0 0.15845 1
0.162951 0.164004 1
0.627344 0.152239 1
1 0.140063 1
1 0.206516 1
0 0.582315 1
0.145937 0.596765 1
0.623163 0.595346 1
1 0.596216 1
1 0.667094 1
0 1 1
0.134691 1 1
0.584405 1 1
1 0.973999 1
1 0.970962 1
0 1 1
0.21883 1 1
0.611627 1 1
0.994263 1 1
1 1 1
