nova/tdt-studio/app/Lut_mau/IWLTBAP/2 - LUTs by IWLTBAP (3DL)/02 - Generic LOG/Psychedelia/Adoras - LOG.3dl
# Copyright: (C) Copyright 2010-2018 by IWLTBAP SAS
# Cannot be resold, shared or otherwise redistributed
# Website: https://luts.iwltbap.com
0 64 128 192 256 320 384 448 512 576 640 704 768 832 896 960 1023
   0    0    0
   0    0    0
   2    4    5
  13   25  179
   0   94  467
   0  216  717
   0  364  997
   0  526 1315
   0  699 1675
   0  869 2054
   0  988 2305
   0  993 2317
   0  993 2317
   0  993 2317
   0  993 2317
   0  993 2317
   0  993 2317
   3    6    6
   3    6    6
   6    8    7
  22   30  129
   0   91  445
   0  202  682
   0  343  954
   0  501 1265
   0  674 1622
   0  844 1998
   0  985 2299
   0  993 2317
   0  993 2317
   0  993 2317
   0  993 2317
   0  993 2317
   0  993 2317
  85   86   86
  81   83   83
  83   85   84
  86   95  110
  32  160  406
   0  259  695
   0  372  924
   0  518 1247
   0  672 1563
   0  839 1941
   0  992 2257
   0 1011 2307
   0 1009 2313
   0 1009 2316
   0 1008 2318
   0 1007 2318
   0 1007 2318
 330  327  326
 325  321  320
 315  312  312
 314  315  315
 206  302  366
  50  394  737
   0  492 1071
   0  591 1253
   0  713 1484
   0  862 1824
   0 1023 2188
   0 1060 2273
   0 1056 2278
   0 1055 2281
   0 1053 2283
   0 1052 2285
   0 1052 2285
 650  653  649
 645  648  644
 635  636  633
 619  619  619
 622  623  625
 220  566  760
  59  663 1166
   0  781 1532
   0  868 1721
   0  972 1926
   0 1100 2172
   0 1160 2304
   0 1150 2292
   0 1146 2288
   0 1143 2287
   0 1140 2287
   0 1140 2287
 997 1009  999
 992 1004  993
 982  994  983
 964  976  967
 944  955  949
 956  964  962
  37  904 1220
   4 1003 1693
   0 1128 2121
   0 1212 2314
   0 1306 2498
   0 1364 2593
   0 1351 2576
   0 1344 2566
   0 1338 2558
   0 1332 2551
   0 1332 2550
1409 1411 1406
1403 1406 1400
1390 1395 1388
1371 1379 1371
1341 1354 1346
1314 1332 1325
1325 1345 1339
   0 1304 1833
   0 1404 2346
   0 1530 2753
   0 1600 2880
   0 1673 2999
   0 1654 2975
   0 1642 2961
   0 1634 2951
   0 1626 2942
   0 1626 2941
1843 1846 1838
1838 1841 1833
1830 1830 1823
1818 1817 1810
1797 1794 1789
1768 1766 1763
1742 1742 1741
1766 1765 1772
   0 1792 2594
   0 1862 2978
   0 1955 3293
   0 2018 3385
   0 2011 3380
   0 1997 3367
   0 1988 3359
   0 1980 3350
   0 1979 3350
2287 2298 2291
2282 2293 2286
2274 2285 2279
2261 2273 2267
2243 2254 2250
2220 2229 2228
2195 2204 2205
2172 2181 2185
2196 2210 2219
   0 2234 3145
   0 2275 3395
 356 2379 3695
 478 2395 3719
 429 2379 3707
 402 2370 3700
 377 2362 3694
 376 2362 3693
2695 2710 2696
2690 2706 2691
2684 2701 2685
2671 2691 2674
2656 2677 2660
2638 2659 2645
2618 2637 2627
2601 2619 2613
2589 2605 2604
2618 2636 2644
 826 2684 3606
 606 2677 3733
1169 2740 3908
1198 2733 3916
1194 2726 3914
1191 2720 3912
1191 2720 3912
3055 3057 3046
3051 3054 3042
3047 3049 3038
3040 3041 3030
3030 3030 3019
3012 3016 3004
2988 2996 2984
2968 2981 2970
2954 2969 2961
2944 2962 2955
2972 2992 2994
1911 3095 3986
1570 3030 4000
1601 3028 4014
1589 3020 4010
1578 3013 4007
1577 3013 4007
3365 3365 3356
3362 3361 3352
3359 3357 3348
3354 3351 3343
3347 3342 3335
3337 3332 3325
3320 3319 3311
3300 3302 3295
3284 3291 3285
3275 3285 3280
3273 3284 3281
3309 3314 3325
2621 3403 4068
2171 3324 4062
2151 3317 4062
2132 3311 4062
2131 3310 4062
3616 3628 3618
3614 3626 3615
3612 3623 3612
3608 3619 3608
3603 3612 3603
3597 3605 3596
3589 3597 3588
3581 3589 3581
3569 3578 3571
3563 3572 3567
3562 3572 3569
3568 3575 3576
3591 3601 3615
3445 3714 4064
3421 3704 4065
3404 3697 4066
3403 3697 4066
3747 3743 3739
3747 3743 3739
3747 3743 3738
3747 3743 3738
3746 3742 3738
3745 3741 3736
3742 3739 3734
3740 3738 3734
3740 3738 3736
3739 3738 3737
3743 3744 3746
3754 3756 3760
3769 3773 3781
3795 3806 3824
3781 3850 3947
3779 3850 3950
3779 3850 3951
3748 3743 3739
3748 3743 3739
3748 3743 3739
3748 3743 3739
3748 3743 3739
3748 3743 3739
3748 3743 3739
3749 3744 3741
3751 3747 3745
3755 3750 3751
3763 3758 3762
3777 3773 3781
3795 3794 3806
3820 3833 3852
3826 3843 3864
3826 3843 3864
3826 3843 3864
3748 3743 3739
3748 3743 3739
3748 3743 3739
3748 3743 3739
3748 3743 3739
3748 3743 3739
3748 3743 3739
3749 3744 3741
3751 3746 3744
3754 3749 3749
3761 3756 3759
3774 3770 3777
3791 3790 3801
3816 3826 3844
3826 3843 3864
3826 3843 3864
3826 3843 3864
3748 3743 3739
3748 3743 3739
3748 3743 3739
3748 3743 3739
3748 3743 3739
3748 3743 3739
3748 3743 3739
3749 3744 3741
3751 3746 3744
3754 3749 3749
3761 3756 3758
3774 3770 3776
3791 3790 3800
3816 3826 3843
3826 3843 3864
3826 3843 3864
3826 3843 3864
   2    0    0
   1    0    0
   3    6    6
  20   27  174
   0  100  482
   0  218  721
   0  363  997
   0  521 1307
   0  693 1663
   0  862 2039
   0  987 2304
   0  993 2317
   0  993 2317
   0  993 2317
   0  993 2317
   0  993 2317
   0  993 2317
   4    6    7
   4    6    6
   7    9    7
  20   26  119
   0   81  440
   0  189  658
   0  334  939
   0  495 1252
   0  668 1610
   0  838 1982
   0  983 2297
   0  993 2317
   0  993 2317
   0  993 2317
   0  993 2317
   0  993 2317
   0  993 2317
  75   77   77
  71   73   73
  72   75   75
  79   85  100
  33  147  389
   0  247  676
   0  361  912
   0  509 1237
   0  664 1553
   0  831 1932
   0  989 2259
   0 1010 2312
   0 1008 2318
   0 1007 2318
   0 1006 2318
   0 1005 2318
   0 1005 2318
 313  310  309
 308  305  304
 299  298  297
 299  300  301
 195  290  351
  45  381  722
   0  479 1049
   0  580 1234
   0  702 1468
   0  853 1812
   0 1018 2188
   0 1057 2276
   0 1054 2282
   0 1052 2284
   0 1051 2286
   0 1049 2289
   0 1049 2289
 636  638  635
 632  633  630
 622  622  620
 606  604  605
 610  609  612
 222  555  744
  59  651 1151
   0  768 1511
   0  857 1700
   0  961 1907
   0 1088 2153
   0 1154 2297
   0 1144 2288
   0 1141 2287
   0 1139 2286
   0 1136 2286
   0 1136 2286
 983  995  984
 979  990  980
 970  981  971
 952  962  954
 934  942  938
 944  951  950
  44  891 1200
   4  988 1672
   0 1112 2096
   0 1198 2293
   0 1293 2478
   0 1356 2582
   0 1342 2564
   0 1335 2554
   0 1329 2546
   0 1323 2539
   0 1323 2538
1389 1395 1388
1383 1389 1382
1372 1380 1371
1353 1364 1355
1323 1339 1330
1294 1316 1307
1308 1330 1322
   0 1287 1806
   0 1388 2321
   0 1514 2731
   0 1584 2856
   0 1660 2982
   0 1642 2960
   0 1630 2946
   0 1622 2936
   0 1614 2926
   0 1613 2926
1828 1829 1821
1823 1823 1816
1816 1815 1808
1805 1801 1795
1783 1779 1774
1753 1750 1746
1724 1727 1725
1747 1749 1755
   0 1773 2566
   0 1848 2965
   0 1939 3276
   0 2002 3370
   0 1998 3368
   0 1984 3354
   0 1975 3345
   0 1966 3335
   0 1965 3335
2271 2283 2276
2266 2278 2271
2259 2270 2264
2245 2256 2252
2228 2239 2235
2205 2213 2211
2179 2188 2188
2155 2164 2166
2182 2194 2203
   0 2219 3127
   0 2260 3380
 302 2363 3684
 436 2381 3708
 389 2366 3697
 363 2358 3690
 337 2349 3684
 335 2349 3683
2680 2698 2682
2675 2693 2677
2667 2687 2671
2656 2677 2660
2646 2665 2649
2628 2646 2633
2607 2623 2614
2591 2606 2602
2579 2591 2592
2604 2622 2630
 785 2669 3593
 560 2664 3722
1160 2729 3904
1193 2723 3913
1190 2717 3911
1186 2710 3909
1186 2710 3909
3045 3046 3035
3041 3042 3031
3037 3038 3027
3028 3029 3018
3016 3019 3007
2999 3006 2993
2975 2986 2973
2955 2969 2957
2941 2958 2949
2930 2951 2943
2957 2981 2981
1888 3082 3979
1544 3018 3992
1584 3017 4009
1572 3010 4005
1560 3003 4002
1560 3003 4002
3357 3354 3346
3354 3351 3343
3351 3347 3340
3347 3341 3334
3337 3333 3325
3324 3322 3314
3308 3310 3301
3287 3293 3284
3271 3281 3273
3263 3276 3269
3261 3274 3270
3298 3303 3314
2587 3392 4068
2143 3314 4062
2122 3307 4062
2105 3301 4062
2104 3301 4062
3610 3621 3611
3608 3619 3608
3606 3616 3606
3602 3611 3602
3597 3605 3596
3590 3597 3588
3582 3589 3580
3573 3581 3572
3561 3570 3563
3555 3564 3559
3554 3563 3560
3561 3567 3568
3585 3593 3608
3424 3704 4064
3395 3693 4066
3378 3686 4067
3377 3686 4067
3747 3743 3738
3747 3743 3738
3747 3743 3738
3747 3743 3738
3746 3742 3737
3744 3740 3736
3741 3738 3734
3740 3738 3733
3738 3738 3735
3737 3737 3736
3742 3743 3744
3751 3753 3758
3766 3770 3778
3793 3803 3822
3778 3850 3952
3776 3851 3955
3776 3851 3956
3748 3743 3739
3748 3743 3739
3748 3743 3739
3748 3743 3739
3748 3743 3739
3748 3743 3739
3748 3743 3739
3749 3744 3741
3751 3747 3745
3755 3750 3750
3763 3758 3761
3777 3772 3780
3794 3794 3805
3820 3833 3851
3826 3843 3864
3826 3843 3864
3826 3843 3864
3748 3743 3739
3748 3743 3739
3748 3743 3739
3748 3743 3739
3748 3743 3739
3748 3743 3739
3748 3743 3739
3749 3744 3740
3751 3746 3744
3754 3749 3749
3760 3755 3758
3774 3769 3776
3791 3789 3800
3815 3825 3842
3826 3843 3864
3826 3843 3864
3826 3843 3864
3748 3743 3739
3748 3743 3739
3748 3743 3739
3748 3743 3739
3748 3743 3739
3748 3743 3739
3748 3743 3739
3749 3744 3740
3751 3746 3744
3754 3749 3749
3760 3755 3758
3774 3769 3776
3790 3789 3800
3815 3825 3842
3826 3843 3864
3826 3843 3864
3826 3843 3864
 128   14    0
 144    5   21
 124   11   36
  95   54  176
  12  142  564
   0  259  803
   0  392 1056
   0  545 1359
   0  709 1702
   0  873 2067
   0 1006 2345
   0 1013 2361
   0 1012 2358
   0 1011 2356
   0 1010 2354
   0 1009 2353
   0 1009 2352
  90   14    1
  88   10    5
  74   12   11
  46   41  137
   4  114  484
   0  225  736
   0  360  989
   0  514 1295
   0  680 1639
   0  845 1998
   0  996 2326
   0 1008 2350
   0 1007 2347
   0 1006 2346
   0 1006 2345
   0 1005 2343
   0 1005 2343
  85   89   88
  82   85   85
  80   82   82
  88   93  110
  49  149  398
   0  249  733
   0  369  984
   0  511 1276
   0  665 1587
   0  826 1944
   0  988 2276
   0 1010 2325
   0 1007 2323
   0 1006 2323
   0 1004 2322
   0 1003 2321
   0 1003 2321
 294  295  294
 289  290  289
 278  281  280
 274  278  278
 208  271  324
  42  362  705
   0  458 1016
   0  561 1208
   0  685 1450
   0  837 1791
   0 1007 2184
   0 1052 2285
   0 1049 2290
   0 1047 2292
   0 1045 2295
   0 1044 2297
   0 1044 2297
 607  604  604
 603  599  599
 593  588  589
 578  573  576
 579  579  582
 227  529  702
  57  624 1118
   0  740 1465
   0  832 1655
   0  937 1864
   0 1064 2114
   0 1142 2287
   0 1136 2286
   0 1133 2285
   0 1130 2285
   0 1127 2284
   0 1127 2284
 958  966  958
 954  961  953
 946  952  945
 930  935  930
 912  916  914
 919  923  924
  60  865 1160
   4  961 1632
   0 1083 2046
   0 1170 2247
   0 1271 2443
   0 1340 2561
   0 1326 2542
   0 1319 2533
   0 1314 2526
   0 1308 2518
   0 1308 2518
1356 1367 1357
1350 1362 1351
1340 1353 1341
1322 1338 1326
1291 1312 1300
1264 1290 1279
1281 1304 1296
   0 1259 1761
   0 1362 2279
   0 1489 2694
   0 1556 2817
   0 1637 2954
   0 1622 2937
   0 1610 2921
   0 1602 2911
   0 1594 2901
   0 1594 2901
1807 1804 1797
1802 1798 1792
1795 1790 1784
1784 1777 1772
1760 1754 1749
1726 1726 1722
1698 1704 1702
1718 1725 1729
   0 1745 2526
   0 1827 2946
   0 1916 3248
   0 1981 3350
   0 1980 3350
   0 1965 3334
   0 1957 3326
   0 1948 3317
   0 1948 3317
2249 2261 2255
2244 2255 2250
2237 2248 2244
2225 2235 2231
2209 2218 2213
2185 2193 2189
2158 2166 2165
2134 2144 2144
2166 2174 2182
   0 2198 3102
   0 2243 3363
 252 2345 3670
 386 2365 3696
 338 2350 3684
 312 2341 3678
 284 2332 3671
 281 2331 3670
2660 2681 2664
2655 2676 2659
2651 2670 2654
2642 2660 2645
2632 2648 2634
2614 2628 2618
2594 2607 2600
2578 2589 2587
2564 2573 2576
2587 2605 2615
 739 2651 3577
 497 2645 3708
1150 2716 3900
1187 2711 3909
1183 2704 3907
1180 2697 3905
1180 2697 3905
3031 3031 3020
3027 3028 3016
3021 3023 3011
3012 3016 3003
3000 3006 2992
2983 2992 2978
2958 2972 2957
2939 2956 2943
2925 2945 2934
2912 2936 2927
2939 2966 2964
1836 3063 3964
1513 3002 3982
1561 3003 4002
1548 2995 3998
1537 2989 3995
1537 2988 3995
3348 3342 3335
3345 3339 3332
3340 3335 3328
3332 3329 3321
3322 3320 3311
3310 3311 3301
3293 3298 3288
3271 3280 3270
3256 3269 3260
3247 3263 3255
3244 3261 3256
3285 3290 3300
2533 3377 4067
2109 3303 4062
2088 3295 4062
2070 3289 4062
2069 3289 4062
3603 3612 3602
3601 3609 3600
3598 3606 3596
3594 3602 3593
3588 3595 3586
3580 3588 3578
3571 3579 3569
3563 3571 3562
3551 3560 3552
3544 3553 3547
3545 3552 3549
3553 3557 3557
3575 3582 3597
3391 3690 4066
3362 3679 4067
3343 3671 4068
3342 3671 4068
3747 3743 3738
3747 3743 3738
3747 3743 3738
3747 3743 3738
3746 3742 3737
3744 3740 3736
3741 3738 3733
3739 3737 3732
3737 3737 3734
3735 3736 3734
3739 3741 3742
3749 3751 3755
3763 3767 3774
3791 3800 3819
3774 3851 3958
3772 3851 3963
3772 3851 3963
3748 3743 3739
3748 3743 3739
3748 3743 3739
3748 3743 3739
3748 3743 3739
3748 3743 3739
3748 3743 3739
3749 3744 3741
3751 3747 3745
3755 3750 3750
3762 3757 3761
3776 3772 3779
3794 3793 3804
3819 3832 3850
3826 3843 3864
3826 3843 3864
3826 3843 3864
3748 3743 3739
3748 3743 3739
3748 3743 3739
3748 3743 3739
3748 3743 3739
3748 3743 3739
3748 3743 3739
3749 3744 3740
3751 3746 3744
3754 3749 3749
3760 3755 3758
3773 3769 3775
3790 3788 3799
3814 3823 3840
3826 3843 3864
3826 3843 3864
3826 3843 3864
3748 3743 3739
3748 3743 3739
3748 3743 3739
3748 3743 3739
3748 3743 3739
3748 3743 3739
3748 3743 3739
3749 3744 3740
3751 3746 3744
3754 3749 3749
3760 3755 3758
3773 3769 3775
3790 3788 3799
3814 3823 3840
3826 3843 3864
3826 3843 3864
3826 3843 3864
 430   42   17
 419   38   27
 425   24  130
 445   52  238
 414  209  525
  52  343 1103
   0  483 1277
   0  620 1535
   0  766 1861
   0  924 2210
   0 1053 2440
   0 1063 2458
   0 1060 2452
   0 1058 2449
   0 1057 2446
   0 1055 2442
   0 1055 2442
 370   34   16
 365   33   16
 363   19   89
 381   39  188
 342  174  447
  19  308 1004
   0  443 1183
   0  583 1457
   0  734 1783
   0  889 2133
   0 1038 2411
   0 1053 2438
   0 1050 2432
   0 1049 2430
   0 1047 2428
   0 1046 2425
