nova/tdt-studio/app/Lut_mau/IWLTBAP/2 - LUTs by IWLTBAP (3DL)/02 - Generic LOG/Psychedelia/Adoras - LOG.3dl
# Copyright: (C) Copyright 2010-2018 by IWLTBAP SAS
# Cannot be resold, shared or otherwise redistributed
# Website: https://luts.iwltbap.com
0 128 256 384 512 640 768 896 1023
   0    0    0
   2    4    5
   0   94  467
   0  364  997
   0  699 1675
   0  988 2305
   0  993 2317
   0  993 2317
   0  993 2317
  85   86   86
  83   85   84
  32  160  406
   0  372  924
   0  672 1563
   0  992 2257
   0 1009 2313
   0 1008 2318
   0 1007 2318
 650  653  649
 635  636  633
 622  623  625
  59  663 1166
   0  868 1721
   0 1100 2172
   0 1150 2292
   0 1143 2287
   0 1140 2287
1409 1411 1406
1390 1395 1388
1341 1354 1346
1325 1345 1339
   0 1404 2346
   0 1600 2880
   0 1654 2975
   0 1634 2951
   0 1626 2941
2287 2298 2291
2274 2285 2279
2243 2254 2250
2195 2204 2205
2196 2210 2219
   0 2275 3395
 478 2395 3719
 402 2370 3700
 376 2362 3693
3055 3057 3046
3047 3049 3038
3030 3030 3019
2988 2996 2984
2954 2969 2961
2972 2992 2994
1570 3030 4000
1589 3020 4010
1577 3013 4007
3616 3628 3618
3612 3623 3612
3603 3612 3603
3589 3597 3588
3569 3578 3571
3562 3572 3569
3591 3601 3615
3421 3704 4065
3403 3697 4066
3748 3743 3739
3748 3743 3739
3748 3743 3739
3748 3743 3739
3751 3747 3745
3763 3758 3762
3795 3794 3806
3826 3843 3864
3826 3843 3864
3748 3743 3739
3748 3743 3739
3748 3743 3739
3748 3743 3739
3751 3746 3744
3761 3756 3758
3791 3790 3800
3826 3843 3864
3826 3843 3864
 128   14    0
 124   11   36
  12  142  564
   0  392 1056
   0  709 1702
   0 1006 2345
   0 1012 2358
   0 1010 2354
   0 1009 2352
  85   89   88
  80   82   82
  49  149  398
   0  369  984
   0  665 1587
   0  988 2276
   0 1007 2323
   0 1004 2322
   0 1003 2321
 607  604  604
 593  588  589
 579  579  582
  57  624 1118
   0  832 1655
   0 1064 2114
   0 1136 2286
   0 1130 2285
   0 1127 2284
1356 1367 1357
1340 1353 1341
1291 1312 1300
1281 1304 1296
   0 1362 2279
   0 1556 2817
   0 1622 2937
   0 1602 2911
   0 1594 2901
2249 2261 2255
2237 2248 2244
2209 2218 2213
2158 2166 2165
2166 2174 2182
   0 2243 3363
 386 2365 3696
 312 2341 3678
 281 2331 3670
3031 3031 3020
3021 3023 3011
3000 3006 2992
2958 2972 2957
2925 2945 2934
2939 2966 2964
1513 3002 3982
1548 2995 3998
1537 2988 3995
3603 3612 3602
3598 3606 3596
3588 3595 3586
3571 3579 3569
3551 3560 3552
3545 3552 3549
3575 3582 3597
3362 3679 4067
3342 3671 4068
3748 3743 3739
3748 3743 3739
3748 3743 3739
3748 3743 3739
3751 3747 3745
3762 3757 3761
3794 3793 3804
3826 3843 3864
3826 3843 3864
3748 3743 3739
3748 3743 3739
3748 3743 3739
3748 3743 3739
3751 3746 3744
3760 3755 3758
3790 3788 3799
3826 3843 3864
3826 3843 3864
 801   95    3
 802   68  174
 837  160  620
 400  581 1771
   0  875 2177
   1 1154 2656
   0 1161 2670
   0 1156 2661
   0 1153 2656
 681  157    3
 655  133   74
 685  172  486
 132  526 1522
   0  789 1924
   0 1093 2542
   0 1119 2594
   0 1115 2587
   0 1113 2582
 629  634  628
 615  618  613
 549  552  551
 184  627 1161
   0  839 1718
   0 1096 2290
   0 1176 2458
   0 1166 2449
   0 1162 2445
1291 1307 1292
1278 1293 1279
1241 1256 1246
1224 1239 1237
   3 1297 2172
   0 1492 2743
   0 1574 2887
   0 1552 2855
   0 1543 2843
2174 2180 2173
2163 2168 2161
2135 2138 2129
2079 2086 2079
2088 2091 2098
   0 2168 3298
 182 2299 3644
 108 2276 3627
  82 2267 3620
2968 2980 2964
2958 2972 2955
2938 2956 2937
2900 2923 2905
2871 2893 2882
2894 2914 2917
1403 2950 3949
1472 2949 3976
1461 2942 3972
3573 3580 3570
3567 3574 3564
3557 3564 3553
3540 3548 3536
3519 3528 3519
3511 3519 3515
3538 3548 3560
3262 3637 4072
3243 3629 4072
3748 3743 3739
3748 3743 3739
3748 3743 3739
3748 3743 3739
3751 3746 3744
3761 3756 3759
3792 3790 3801
3826 3843 3864
3826 3843 3864
3748 3743 3739
3748 3743 3739
3748 3743 3739
3748 3743 3739
3750 3746 3743
3759 3754 3757
3788 3786 3796
3826 3843 3864
3826 3843 3864
1785  367    2
1732  343  163
1765  112  796
1654  673 1576
1664 1206 3187
 467 1685 3672
 237 1655 3615
 127 1630 3588
  95 1617 3571
1596  340    2
1569  324   39
1597  131  683
1472  554 1376
1422 1073 3002
  26 1487 3429
   2 1489 3372
   0 1478 3349
   0 1472 3336
1427  658    2
1410  644    2
1333  585  518
1281  712 1202
 376 1104 2745
   5 1371 3009
   1 1447 3112
   2 1435 3093
   2 1429 3085
1348 1360 1347
1333 1346 1332
1286 1305 1290
1182 1201 1197
 129 1326 2282
   0 1548 2889
   0 1636 3013
   0 1611 2977
   0 1602 2964
2149 2143 2138
2135 2131 2124
2102 2102 2093
2036 2044 2038
2008 2027 2030
  83 2140 3311
 185 2275 3633
 126 2249 3612
 106 2239 3603
2903 2925 2904
2896 2916 2897
2883 2899 2882
2857 2868 2855
2830 2834 2831
2842 2851 2860
1337 2902 3937
1464 2911 3984
1450 2904 3980
3529 3536 3524
3524 3530 3518
3512 3519 3506
3492 3501 3488
3465 3477 3466
3450 3465 3460
3482 3497 3505
3070 3567 4072
3044 3559 4071
3748 3743 3739
3748 3743 3739
3748 3743 3739
3748 3743 3739
3750 3746 3743
3759 3755 3757
3789 3787 3797
3826 3843 3864
3826 3843 3864
3748 3743 3739
3748 3743 3739
3748 3743 3739
3748 3743 3739
3750 3745 3742
3758 3753 3755
3786 3783 3793
3826 3843 3864
3826 3843 3864
2932  703    3
2907  688   63
2773  527  803
3221    0 2022
2814 1483 2917
3101 2582 3973
2976 2619 4031
2947 2606 4034
2931 2600 4035
2739  644    2
2721  639    2
2587  533  662
2976    0 1773
2649 1293 2711
2888 2369 3913
2711 2518 4055
2675 2505 4059
2657 2499 4060
2485  813    3
2466  800    3
2395  734  441
2509  383 1338
2359 1226 2409
2425 2043 3783
2114 2371 4056
2067 2352 4059
2046 2343 4060
2322 1350    8
2308 1337    7
2273 1295  154
2124 1162 1066
2118 1514 2219
1481 2015 3631
1081 2165 3802
1012 2133 3781
 981 2119 3772
2227 2225 2220
2216 2211 2207
2190 2184 2181
2124 2122 2119
1993 1999 2000
1142 2253 3406
 723 2377 3761
 639 2353 3743
 607 2343 3736
2902 2916 2899
2892 2906 2889
2874 2889 2872
2850 2859 2846
2813 2820 2814
2808 2818 2831
1771 2962 4022
1861 2974 4074
1850 2968 4074
3499 3508 3494
3491 3501 3487
3478 3490 3475
3457 3473 3456
3429 3443 3432
3418 3428 3423
3441 3455 3465
2828 3498 4061
2800 3489 4061
3766 3759 3757
3765 3758 3757
3765 3758 3756
3764 3757 3755
3764 3758 3757
3770 3764 3768
3796 3795 3805
3834 3852 3871
3833 3852 3871
3762 3755 3754
3762 3755 3753
3761 3755 3753
3761 3754 3752
3761 3755 3753
3766 3760 3763
3790 3788 3798
3830 3848 3867
3831 3850 3869
3952 1131  121
3947 1128  117
3950  946  757
3960  218 1564
4039 1070 3219
3741 2959 3859
3676 3021 3871
3671 3017 3872
3669 3014 3873
3881 1088   82
3872 1082   76
3855  924  619
3804  285 1417
3980  747 3070
3649 2840 3807
3642 2982 3885
3637 2974 3889
3634 2970 3891
3682 1100   20
3670 1090   19
3636 1013  380
3472  697 1204
3856  395 2816
3461 2517 3646
3567 2916 3933
3559 2907 3938
3556 2903 3940
3499 1469    6
3486 1458    5
3433 1431   43
3318 1264  989
3640  948 2479
3245 2405 3451
3361 2935 3995
3332 2919 4003
3321 2913 4003
3228 2153   92
3218 2142   87
3199 2118   78
3183 2046  751
3034 1878 1769
3095 2599 3389
2716 2982 4074
2578 2943 4077
2563 2937 4076
2986 2990 2974
2975 2981 2964
2954 2965 2946
2918 2936 2915
2880 2895 2882
2814 2823 2820
2411 3103 4046
2133 3057 4079
2114 3048 4078
3514 3514 3503
3506 3508 3495
3492 3496 3483
3470 3477 3463
3443 3455 3443
3425 3437 3430
3436 3453 3474
2936 3512 4067
2921 3506 4065
3813 3813 3815
3812 3812 3814
3811 3811 3813
3810 3809 3811
3809 3808 3811
3812 3814 3819
3830 3841 3848
3871 3892 3906
3867 3891 3911
3807 3805 3807
3806 3804 3807
3806 3803 3805
3804 3801 3804
3803 3800 3803
3805 3805 3810
3822 3830 3839
3861 3881 3893
3864 3885 3900
4021 1178  193
4021 1178  193
4064 1038  670
4045  521 1440
4084  833 3146
3879 2842 3857
3792 3015 3885
3792 3015 3885
3792 3015 3885
4021 1178  193
4021 1178  193
4049 1078  555
4020  722 1342
4084  356 3005
3894 2675 3820
3792 3015 3885
3792 3015 3885
3792 3015 3885
4036 1250  199
4035 1246  199
4049 1197  402
4048  969 1165
4079   93 2577
3952 2257 3715
3797 3024 3885
3796 3022 3885
3796 3021 3885
4062 1568  220
4061 1562  220
4059 1545  230
4072 1412  952
4068 1111 1864
4018 2064 3593
3764 3111 3885
3756 3110 3885
3755 3109 3884
4080 2113  259
4080 2104  253
4079 2087  241
4059 2039  750
4006 1917 1679
4012 2253 3475
3739 3254 3898
3703 3267 3909
3701 3263 3910
3904 2867  790
3898 2857  777
3886 2841  759
3876 2809  833
3878 2751 1575
3710 2649 2573
3695 3421 3959
3574 3427 4001
3566 3423 4002
3588 3585 3577
3580 3577 3569
3570 3567 3558
3551 3549 3539
3529 3529 3519
3510 3512 3505
3487 3488 3488
3404 3642 4057
3393 3635 4057
3897 3904 3896
3895 3903 3895
3894 3901 3894
3891 3899 3892
3888 3897 3890
3888 3897 3892
3903 3908 3906
3935 3942 3964
3938 3957 4010
3885 3895 3888
3884 3893 3887
3882 3892 3885
3879 3890 3883
3876 3887 3882
3879 3891 3887
3899 3907 3904
3944 3940 3942
3948 3951 3970
4021 1178  193
4021 1178  193
4059 1055  622
4033  606 1393
4087  650 3086
3884 2807 3850
3792 3015 3885
3792 3015 3885
3792 3015 3885
4021 1178  193
4021 1178  193
4047 1092  517
4012  801 1304
4083  188 2934
3902 2565 3796
3792 3015 3885
3792 3015 3885
3792 3015 3885
4033 1234  198
4032 1231  198
4043 1192  360
4055  958 1103
4079  182 2368
3975 2102 3677
3796 3018 3885
3795 3017 3885
3794 3017 3885
4057 1522  220
4056 1516  220
4054 1501  219
4070 1369  884
4065 1062 1781
4041 1882 3535
3780 3090 3885
3767 3098 3884
3767 3097 3884
4078 2056  291
4077 2047  287
4076 2029  279
4069 1973  681
4062 1864 1603
4069 2034 3315
3810 3210 3887
3763 3262 3894
3763 3260 3894
4071 2782  766
4071 2772  756
4072 2755  737
4060 2718  779
4072 2666 1486
4057 2580 2468
3858 3415 3914
3779 3485 3949
3779 3483 3949
3752 3609 3391
3757 3602 3365
3769 3589 3314
3800 3562 3190
3886 3516 2922
4046 3437 2588
4014 3350 3304
3825 3745 3980
3823 3742 3979
4009 4003 3995
4007 4001 3994
4003 3997 3989
3997 3991 3983
3991 3985 3977
3989 3984 3978
3996 3992 3989
4009 4007 4007
3998 4010 4037
4003 3994 3987
4002 3993 3986
4002 3992 3985
4000 3990 3983
3999 3988 3982
4001 3992 3987
4009 4007 4003
4021 4029 4027
4021 4034 4038
4021 1178  193
4021 1178  193
4055 1063  598
4028  650 1373
4086  530 3053
3888 2751 3837
3792 3015 3885
3792 3015 3885
3792 3015 3885
4021 1178  193
4021 1178  193
4046 1098  499
4015  814 1281
4082  138 2894
3909 2509 3782
3792 3015 3885
3792 3015 3885
3792 3015 3885
4031 1227  197
4031 1225  197
4041 1190  343
4057  956 1081
4077  233 2290
3984 2040 3661
3795 3017 3885
3794 3017 3885
3793 3016 3885
4055 1505  219
4054 1499  219
4053 1487  219
4067 1355  857
4060 1053 1756
4043 1823 3511
3785 3084 3885
3769 3093 3884
3769 3092 3884
4076 2032  280
4076 2023  276
4074 2006  269
4072 1950  653
4063 1841 1574
4073 1960 3263
3817 3194 3886
3765 3254 3893
3765 3251 3893
4072 2756  738
4072 2745  727
4072 2728  709
4061 2693  744
4072 2642 1453
4061 2555 2441
3870 3389 3912
3779 3478 3949
3780 3476 3949
3771 3587 3306
3783 3577 3259
3801 3561 3186
3831 3535 3066
3915 3489 2799
4052 3413 2550
4013 3324 3275
3821 3735 3978
3819 3732 3978
4003 3997 3989
4000 3993 3986
3997 3989 3982
3993 3984 3977
3988 3979 3972
3988 3978 3974
3997 3989 3987
4032 3990 3990
4012 4008 4035
4009 4003 3995
4009 4003 3995
4009 4003 3995
4009 4003 3995
4009 4003 3996
4012 4009 4003
4019 4024 4019
4028 4042 4041
4030 4046 4046
