nova/tdt-studio/app/Lut_mau/IWLTBAP/2 - LUTs by IWLTBAP (3DL)/02 - Generic LOG/Psychedelia/Adoras - LOG.3dl
# Copyright: (C) Copyright 2010-2018 by IWLTBAP SAS
# Cannot be resold, shared or otherwise redistributed
# Website: https://luts.iwltbap.com
0 256 512 768 1023
   0    0    0
   0   94  467
   0  699 1675
   0  993 2317
   0  993 2317
 650  653  649
 622  623  625
   0  868 1721
   0 1150 2292
   0 1140 2287
2287 2298 2291
2243 2254 2250
2196 2210 2219
 478 2395 3719
 376 2362 3693
3616 3628 3618
3603 3612 3603
3569 3578 3571
3591 3601 3615
3403 3697 4066
3748 3743 3739
3748 3743 3739
3751 3746 3744
3791 3790 3800
3826 3843 3864
 801   95    3
 837  160  620
   0  875 2177
   0 1161 2670
   0 1153 2656
 629  634  628
 549  552  551
   0  839 1718
   0 1176 2458
   0 1162 2445
2174 2180 2173
2135 2138 2129
2088 2091 2098
 182 2299 3644
  82 2267 3620
3573 3580 3570
3557 3564 3553
3519 3528 3519
3538 3548 3560
3243 3629 4072
3748 3743 3739
3748 3743 3739
3750 3746 3743
3788 3786 3796
3826 3843 3864
2932  703    3
2773  527  803
2814 1483 2917
2976 2619 4031
2931 2600 4035
2485  813    3
2395  734  441
2359 1226 2409
2114 2371 4056
2046 2343 4060
2227 2225 2220
2190 2184 2181
1993 1999 2000
 723 2377 3761
 607 2343 3736
3499 3508 3494
3478 3490 3475
3429 3443 3432
3441 3455 3465
2800 3489 4061
3762 3755 3754
3761 3755 3753
3761 3755 3753
3790 3788 3798
3831 3850 3869
4021 1178  193
4064 1038  670
4084  833 3146
3792 3015 3885
3792 3015 3885
4036 1250  199
4049 1197  402
4079   93 2577
3797 3024 3885
3796 3021 3885
4080 2113  259
4079 2087  241
4006 1917 1679
3739 3254 3898
3701 3263 3910
3588 3585 3577
3570 3567 3558
3529 3529 3519
3487 3488 3488
3393 3635 4057
3885 3895 3888
3882 3892 3885
3876 3887 3882
3899 3907 3904
3948 3951 3970
4021 1178  193
4055 1063  598
4086  530 3053
3792 3015 3885
3792 3015 3885
4031 1227  197
4041 1190  343
4077  233 2290
3795 3017 3885
3793 3016 3885
4076 2032  280
4074 2006  269
4063 1841 1574
3817 3194 3886
3765 3251 3893
3771 3587 3306
3801 3561 3186
3915 3489 2799
4013 3324 3275
3819 3732 3978
4009 4003 3995
4009 4003 3995
4009 4003 3996
4019 4024 4019
4030 4046 4046
