nova/tdt-studio/app/Lut_mau/IWLTBAP/2 - LUTs by IWLTBAP (3DL)/02 - Generic LOG/Psychedelia/Choweed - LOG.3dl
# Copyright: (C) Copyright 2010-2018 by IWLTBAP SAS
# Cannot be resold, shared or otherwise redistributed
# Website: https://luts.iwltbap.com
0 256 512 768 1023
   9    0    3
  31  224  299
 110  563  747
 315  825 1045
 315  825 1045
 181  331  349
 371  511  539
 608  961 1133
 851 1270 1500
 839 1260 1490
 983 1157 1244
1081 1257 1360
1398 1506 1674
1541 1804 2066
1521 1789 2049
1871 2161 2347
1843 2132 2313
2127 2386 2643
2358 2558 2827
2351 2539 2805
2094 2413 2656
2094 2413 2656
2280 2585 2863
2517 2773 3083
2509 2727 3030
1040  301  312
1126  665  751
1457  853 1181
1628  959 1375
1607  950 1368
 478  390  387
 522  492  522
 290  764  973
 436  987 1301
 427  976 1286
 893 1060 1137
 925 1090 1178
1327 1442 1597
1481 1760 2014
1462 1746 1997
1805 2086 2264
1791 2065 2245
2086 2339 2574
2332 2520 2800
2328 2500 2781
2094 2413 2656
2094 2413 2656
2266 2572 2846
2531 2795 3113
2509 2727 3030
2116  545  520
1966  818  980
2098 1248 1495
2302 1372 1755
2295 1368 1751
2315  740  327
2301  766  567
2003 1268 1486
2162 1349 1771
2149 1335 1755
2162 1451  700
2122 1420  682
1920 1786 1844
1233 1623 1972
1174 1580 1932
2022 2417 2655
2008 2399 2633
2046 2409 2657
2454 2670 2968
2323 2492 2770
2131 2548 2782
2128 2542 2777
2196 2563 2811
2581 2883 3205
2554 2784 3082
2953  625  413
2849  811  869
2330 1522 1737
2612 1795 2168
2612 1795 2168
3088  798  428
3092  801  510
2327 1541 1670
2648 1873 2240
2642 1860 2226
3712 1740  152
3691 1712  154
3380 1716 1212
2812 2272 2600
2826 2277 2618
3345 2578 1357
3333 2568 1350
3463 2673 1402
3299 3486 3623
3061 3152 3513
2710 2852 2412
2682 2861 2450
2607 2975 2746
2708 3148 3452
2724 3006 3307
2953  625  413
2883  768  788
2315 1512 1711
2612 1795 2168
2612 1795 2168
3057  759  431
3063  756  488
2298 1503 1627
2629 1832 2199
2621 1815 2185
3701 1635  172
3687 1608  176
3389 1584 1076
2803 2267 2581
2851 2327 2671
3545 2552 1107
3540 2536 1091
3680 2565 1021
3914 3188 2870
3642 3341 3431
3670 2823 1487
3670 2823 1487
3691 2847 1514
3898 3211 2158
4095 4092 4095
