nova/tdt-studio/app/Lut_mau/IWLTBAP/2 - LUTs by IWLTBAP (3DL)/02 - Generic LOG/Psychedelia/Choweed - LOG.3dl
# Copyright: (C) Copyright 2010-2018 by IWLTBAP SAS
# Cannot be resold, shared or otherwise redistributed
# Website: https://luts.iwltbap.com
0 128 256 384 512 640 768 896 1023
   9    0    3
   9   27   39
  31  224  299
  82  425  551
 110  563  747
 317  827 1046
 315  825 1045
 315  825 1045
 315  825 1045
  15   68   91
  28  105  136
 102  313  363
 208  531  644
 319  759  947
 503  971 1201
 464  938 1164
 446  924 1148
 436  916 1140
 181  331  349
 181  330  349
 371  511  539
 519  747  837
 608  961 1133
 831 1255 1492
 851 1270 1500
 843 1264 1494
 839 1260 1490
 521  656  673
 514  648  666
 745  856  903
 886  995 1073
 988 1216 1385
1043 1406 1641
1155 1501 1749
1144 1494 1741
1139 1491 1738
 983 1157 1244
 975 1147 1233
1081 1257 1360
1410 1528 1697
1398 1506 1674
1451 1679 1914
1541 1804 2066
1527 1793 2053
1521 1789 2049
1487 1716 1867
1482 1711 1861
1471 1699 1848
1757 1960 2172
1949 2145 2402
1969 2114 2358
1991 2161 2422
1979 2153 2412
1973 2149 2407
1871 2161 2347
1861 2151 2335
1843 2132 2313
1934 2209 2405
2127 2386 2643
2339 2596 2870
2358 2558 2827
2353 2543 2807
2351 2539 2805
2094 2413 2656
2094 2413 2656
2094 2413 2656
2110 2427 2675
2295 2601 2879
2447 2735 3045
2504 2752 3060
2509 2727 3030
2509 2727 3030
2094 2413 2656
2094 2413 2656
2094 2413 2656
2094 2413 2657
2280 2585 2863
2423 2719 3030
2517 2773 3083
2509 2727 3030
2509 2727 3030
 343   88  159
 340  198  292
 291  280  403
 319  390  555
 434  548  782
 443  657  910
 378  650  883
 347  648  871
 337  650  870
  54   89  122
  67  118  159
  58  197  257
 103  390  502
 204  595  781
 346  820 1050
 333  819 1045
 330  820 1045
 328  821 1045
 163  313  333
 158  307  328
 337  481  507
 489  716  805
 581  936 1102
 807 1235 1470
 833 1255 1486
 826 1249 1480
 822 1246 1477
 501  635  654
 495  628  648
 711  822  859
 859  969 1047
 966 1191 1359
1022 1387 1620
1137 1490 1737
1125 1482 1729
1122 1479 1725
 960 1128 1214
 953 1119 1204
1043 1215 1312
1381 1501 1663
1373 1484 1647
1429 1659 1889
1523 1791 2050
1509 1780 2038
1502 1775 2032
1473 1700 1849
1466 1694 1842
1453 1681 1828
1737 1938 2149
1928 2125 2382
1951 2093 2333
1970 2145 2404
1960 2138 2395
1954 2134 2391
1842 2131 2312
1831 2120 2299
1818 2105 2282
1909 2186 2378
2112 2369 2618
2325 2580 2851
2349 2546 2815
2345 2529 2799
2342 2524 2796
2094 2413 2656
2094 2413 2656
2094 2413 2656
2105 2423 2670
2290 2596 2874
2439 2730 3040
2508 2759 3066
2509 2727 3030
2509 2727 3030
2094 2413 2656
2094 2413 2656
2094 2413 2656
2094 2413 2656
2274 2580 2858
2416 2714 3024
2523 2782 3095
2509 2727 3030
2509 2727 3030
1040  301  312
1049  447  503
1126  665  751
1253  737  933
1457  853 1181
1667  978 1392
1628  959 1375
1614  953 1371
1607  950 1368
 918  289  191
 918  314  306
 883  535  612
 948  577  783
1155  722 1063
1508  914 1345
1503  898 1318
1490  892 1312
1482  888 1308
 478  390  387
 464  382  383
 522  492  522
 286  535  641
 290  764  973
 431  957 1249
 436  987 1301
 430  980 1292
 427  976 1286
 499  634  651
 489  624  642
 563  694  721
 755  878  944
 831 1118 1299
 885 1316 1562
 987 1393 1648
 987 1391 1646
 986 1390 1644
 893 1060 1137
 885 1051 1128
 925 1090 1178
1323 1447 1596
1327 1442 1597
1378 1609 1839
1481 1760 2014
1468 1750 2001
1462 1746 1997
1433 1663 1807
1427 1657 1800
1414 1645 1787
1698 1894 2102
1887 2080 2339
1907 2043 2274
1929 2113 2370
1924 2111 2364
1919 2106 2360
1805 2086 2264
1800 2078 2257
1791 2065 2245
1866 2144 2329
2086 2339 2574
2303 2553 2820
2332 2520 2800
2331 2505 2784
2328 2500 2781
2094 2413 2656
2094 2413 2656
2094 2413 2656
2097 2415 2660
2283 2588 2866
2428 2722 3033
2513 2768 3076
2509 2727 3030
2509 2727 3030
2094 2413 2656
2094 2413 2656
2094 2413 2656
2094 2413 2656
2266 2572 2846
2407 2707 3016
2531 2795 3113
2509 2727 3030
2509 2727 3030
1606  434  423
1595  484  549
1568  881  923
1675  974 1126
1851 1081 1388
2038 1214 1590
2022 1203 1576
2016 1200 1572
2013 1198 1570
1540  435  388
1524  440  431
1481  813  826
1583  926 1058
1769 1018 1322
1993 1187 1568
1975 1175 1552
1969 1171 1548
1964 1168 1546
1643  690  107
1627  679  109
1666  702  464
1385  960 1076
1343  947 1286
1497 1058 1541
1546 1100 1583
1540 1089 1573
1538 1084 1569
1312  848  465
1296  839  462
1320  860  474
1212 1082 1069
 859 1138 1366
 748 1277 1590
 737 1283 1618
 724 1272 1606
 719 1269 1601
1155 1329 1369
1141 1316 1356
1109 1286 1326
1172 1329 1437
1336 1451 1605
1222 1551 1811
1091 1530 1818
1087 1523 1809
1085 1521 1807
1483 1759 1893
1474 1749 1881
1454 1727 1858
1584 1836 2003
1892 2102 2343
1993 2143 2390
1848 2054 2318
1809 2020 2288
1804 2014 2283
1778 2088 2263
1773 2081 2255
1765 2068 2243
1807 2103 2283
2055 2317 2542
2287 2541 2802
2327 2520 2793
2310 2477 2760
2306 2473 2756
2094 2413 2656
2094 2413 2656
2094 2413 2656
2094 2413 2656
2269 2575 2851
2411 2710 3020
2527 2789 3105
2509 2727 3030
2509 2727 3030
2094 2413 2656
2094 2413 2656
2094 2413 2656
2094 2413 2656
2252 2559 2821
2393 2696 3001
2541 2812 3131
2509 2727 3030
2509 2727 3030
2116  545  520
2101  555  578
1966  818  980
1949 1159 1251
2098 1248 1495
2305 1375 1757
2302 1372 1755
2298 1369 1753
2295 1368 1751
2037  529  509
2029  528  507
1915  739  898
1887 1110 1201
2042 1214 1445
2265 1348 1732
2269 1350 1735
2264 1347 1732
2262 1345 1731
2315  740  327
2299  732  330
2301  766  567
1955 1162 1161
2003 1268 1486
2120 1335 1735
2162 1349 1771
2153 1339 1760
2149 1335 1755
2335 1183  138
2325 1176  137
2313 1164  310
2320 1264  882
1989 1565 1782
1909 1487 1902
1886 1439 1907
1868 1426 1896
1863 1421 1891
2162 1451  700
2149 1440  694
2122 1420  682
2081 1494  837
1920 1786 1844
1600 1794 2125
1233 1623 1972
1181 1585 1936
1174 1580 1932
1993 2195 2085
1984 2185 2078
1965 2168 2069
1858 2155 2214
1899 2148 2350
2021 2182 2432
1651 1969 2260
1464 1829 2116
1456 1824 2111
2022 2417 2655
2017 2411 2647
2008 2399 2633
1985 2371 2599
2046 2409 2657
2293 2597 2871
2454 2670 2968
2329 2499 2776
2323 2492 2770
2145 2571 2799
2143 2568 2797
2141 2565 2794
2137 2558 2790
2211 2582 2838
2332 2667 2956
2598 2901 3222
2560 2792 3095
2560 2791 3094
2131 2548 2782
2130 2546 2780
2128 2542 2777
2124 2536 2772
2196 2563 2811
2323 2655 2946
2581 2883 3205
2556 2787 3088
2554 2784 3082
2833  615  456
2825  614  459
2646  870 1021
2160 1315 1423
2299 1422 1667
2495 1574 1954
2535 1648 2021
2531 1638 2013
2528 1632 2010
2733  610  488
2720  609  492
2592  786  935
2141 1227 1352
2246 1364 1589
2420 1476 1852
2500 1569 1967
2495 1561 1959
2493 1557 1956
2859  809  434
2845  803  437
2832  808  576
2392 1171 1196
2244 1432 1602
2405 1491 1839
2517 1633 2019
2507 1613 2003
2503 1605 1996
3055 1166  215
3045 1158  217
3009 1133  338
2941 1239  822
2475 1667 1717
2480 1768 2065
2537 1806 2188
2525 1788 2172
2521 1782 2166
2955 1691  292
2948 1683  287
2932 1667  278
2966 1662  651
2936 1866 1482
2551 2153 2422
2431 1950 2349
2384 1886 2291
2377 1878 2285
2880 2143 1099
2872 2135 1094
2856 2120 1084
2856 2071 1017
2737 2312 1613
2617 2639 2774
2401 2411 2812
2077 2152 2547
2062 2142 2538
2560 2612 2170
2554 2609 2170
2545 2605 2172
2520 2607 2203
2392 2815 2801
2505 2885 3156
2604 2867 3191
2318 2518 2802
2308 2507 2791
2316 2794 3006
2314 2790 3004
2310 2785 3001
2305 2778 2995
2291 2746 2968
2380 2794 3050
2557 2893 3195
2612 2859 3166
2611 2857 3164
2295 2763 2985
2293 2760 2983
2290 2756 2979
2285 2749 2972
2270 2720 2931
2359 2767 3022
2523 2857 3150
2611 2861 3170
2606 2850 3156
2953  625  413
2953  625  413
2849  811  869
2339 1296 1466
2330 1522 1737
2537 1671 2031
2612 1795 2168
2612 1795 2168
2612 1795 2168
2953  625  413
2953  625  413
2904  743  741
2427 1221 1431
2308 1507 1696
2511 1634 1981
2612 1795 2168
2612 1795 2168
2612 1795 2168
3088  798  428
3084  793  429
3092  801  510
2788 1105 1091
2327 1541 1670
2516 1702 2007
2648 1873 2240
2643 1863 2230
2642 1860 2226
3399 1157  291
3395 1151  293
3380 1136  310
3272 1192  738
2729 1505 1241
2570 1925 2157
2764 2124 2465
2763 2121 2461
2762 2117 2457
3712 1740  152
3705 1731  152
3691 1712  154
3621 1630  628
3380 1716 1212
2815 2113 2198
2812 2272 2600
2829 2283 2624
2826 2277 2618
3423 2237  578
3419 2231  572
3411 2220  563
3454 2174  592
3605 2319 1075
3532 2538 2144
3029 2693 2984
2883 2544 2890
2877 2536 2883
3345 2578 1357
3340 2574 1354
3333 2568 1350
3321 2557 1343
3463 2673 1402
3492 3008 2176
3299 3486 3623
3071 3167 3524
3061 3152 3513
2812 2817 2268
2803 2821 2281
2789 2827 2302
2761 2835 2340
2671 2961 2655
2664 3104 3079
2783 3241 3534
2767 3063 3363
2751 3040 3338
2710 2852 2412
2697 2856 2429
2682 2861 2450
2658 2869 2487
2607 2975 2746
2601 3077 3128
2708 3148 3452
2754 3055 3364
2724 3006 3307
2953  625  413
2953  625  413
2872  783  816
2377 1261 1450
2320 1516 1722
2524 1651 2004
2612 1795 2168
2612 1795 2168
2612 1795 2168
2953  625  413
2953  625  413
2927  721  696
2463 1193 1417
2299 1500 1679
2500 1620 1962
2612 1795 2168
2612 1795 2168
2612 1795 2168
3066  771  431
3062  765  431
3071  769  494
2784 1072 1091
2307 1514 1640
2491 1665 1960
2634 1844 2209
2629 1832 2199
2627 1828 2196
3366 1115  307
3361 1109  310
3351 1095  315
3259 1148  704
2724 1463 1198
2544 1885 2103
2750 2093 2431
2757 2106 2444
2756 2103 2442
3713 1659  168
3709 1650  170
3699 1631  173
3621 1543  573
3394 1605 1094
2814 1953 1936
2811 2282 2599
2855 2339 2680
2854 2336 2678
3682 2249  349
3686 2244  343
3692 2236  333
3719 2197  419
3861 2241 1101
3589 2251 1756
3066 2638 2854
3009 2673 3010
3006 2668 3005
3549 2565 1122
3547 2561 1117
3545 2553 1108
3540 2536 1092
3697 2594 1053
3890 2862 1557
3923 3227 2919
3688 3385 3450
3676 3374 3445
3670 2823 1487
3668 2822 1486
3662 2818 1485
3653 2813 1484
3684 2846 1528
3795 3035 1785
3885 3364 2533
3949 4003 4024
3923 3999 4071
3619 2814 1527
3613 2813 1531
3605 2812 1537
3594 2810 1546
3601 2834 1584
3647 2994 1834
3704 3275 2492
3661 3862 3958
3615 3859 4095
2953  625  413
2953  625  413
2883  768  788
2396 1246 1442
2315 1512 1711
2518 1644 1994
2612 1795 2168
2612 1795 2168
2612 1795 2168
2953  625  413
2953  625  413
2938  712  676
2480 1179 1407
2295 1496 1673
2495 1615 1953
2612 1795 2168
2612 1795 2168
2612 1795 2168
3057  759  431
3053  754  431
3063  756  488
2779 1058 1091
2298 1503 1627
2481 1650 1942
2629 1832 2199
2623 1820 2189
2621 1815 2185
3354 1099  314
3349 1093  316
3339 1080  322
3254 1132  692
2725 1448 1192
2536 1870 2083
2744 2077 2418
2754 2097 2437
2752 2093 2434
3701 1635  172
3696 1625  173
3687 1608  176
3610 1521  558
3389 1584 1076
2811 1933 1902
2803 2267 2581
2852 2330 2673
2851 2327 2671
3692 2236  334
3695 2231  328
3702 2222  317
3726 2187  395
3865 2224 1090
3581 2222 1724
3053 2615 2829
3001 2658 2994
2999 2653 2988
3545 2552 1107
3543 2546 1101
3540 2536 1091
3535 2520 1075
3680 2565 1021
3885 2837 1517
3914 3188 2870
3654 3353 3436
3642 3341 3431
3666 2817 1478
3664 2814 1473
3662 2810 1468
3659 2806 1461
3695 2839 1503
3826 3043 1771
3940 3380 2533
4095 4013 3965
4094 4056 4043
3670 2823 1487
3670 2823 1487
3670 2823 1487
3670 2823 1487
3691 2847 1514
3801 3014 1721
3898 3211 2158
4040 3968 3787
4095 4092 4095
