nova/tdt-studio/app/Lut_mau/IWLTBAP/2 - LUTs by IWLTBAP (3DL)/02 - Generic LOG/Psychedelia/Choweed - LOG.3dl
# Copyright: (C) Copyright 2010-2018 by IWLTBAP SAS
# Cannot be resold, shared or otherwise redistributed
# Website: https://luts.iwltbap.com
0 64 128 192 256 320 384 448 512 576 640 704 768 832 896 960 1023
   9    0    3
   9    1   10
   9   27   39
  13   95  131
  31  224  299
  59  336  432
  82  425  551
 100  506  663
 110  563  747
 293  806 1028
 317  827 1046
 315  825 1045
 315  825 1045
 315  825 1045
 315  825 1045
 315  825 1045
 315  825 1045
   9    8   14
   9   14   19
  13   36   53
  17  100  134
  34  218  288
  63  334  428
  85  419  539
  96  497  644
 103  548  724
 269  782 1004
 317  827 1047
 315  825 1045
 315  825 1045
 315  825 1045
 315  825 1045
 315  825 1045
 315  825 1045
  15   68   91
  15   66   89
  28  105  136
  57  186  223
 102  313  363
 158  429  505
 208  531  644
 269  648  802
 319  759  947
 421  898 1120
 503  971 1201
 481  952 1179
 464  938 1164
 455  932 1157
 446  924 1148
 436  917 1141
 436  916 1140
  57  181  210
  55  178  207
  77  210  245
 150  293  319
 228  411  451
 286  521  590
 335  619  723
 402  752  886
 494  886 1066
 591 1019 1246
 715 1157 1386
 713 1151 1379
 702 1139 1369
 697 1134 1364
 693 1130 1360
 688 1125 1356
 688 1125 1356
 181  331  349
 179  329  347
 181  330  349
 292  421  437
 371  511  539
 469  634  700
 519  747  837
 554  846  974
 608  961 1133
 711 1117 1337
 831 1255 1492
 862 1277 1509
 851 1270 1500
 847 1267 1497
 843 1264 1494
 839 1260 1490
 839 1260 1490
 340  484  484
 337  482  482
 332  478  478
 439  557  582
 550  668  694
 636  761  811
 712  868  955
 758  967 1100
 779 1068 1241
 822 1202 1403
 938 1327 1562
1011 1388 1630
1003 1382 1622
 999 1379 1618
 995 1376 1614
 992 1373 1611
 992 1373 1611
 521  656  673
 519  653  670
 514  648  666
 558  690  712
 745  856  903
 829  927  982
 886  995 1073
 945 1097 1215
 988 1216 1385
 989 1300 1499
1043 1406 1641
1166 1508 1756
1155 1501 1749
1148 1497 1744
1144 1494 1741
1139 1491 1738
1139 1491 1738
 720  866  912
 718  863  908
 713  858  901
 706  851  891
 901 1033 1117
1077 1205 1314
1086 1209 1306
1125 1248 1367
1175 1332 1496
1203 1428 1638
1205 1508 1749
1310 1638 1873
1323 1649 1887
1317 1644 1882
1313 1641 1879
1310 1637 1876
1309 1637 1876
 983 1157 1244
 980 1153 1240
 975 1147 1233
 967 1138 1223
1081 1257 1360
1292 1433 1558
1410 1528 1697
1385 1498 1656
1398 1506 1674
1430 1590 1791
1451 1679 1914
1487 1760 2012
1541 1804 2066
1532 1797 2058
1527 1793 2053
1521 1790 2049
1521 1789 2049
1252 1449 1583
1249 1446 1579
1246 1442 1575
1239 1435 1566
1236 1431 1562
1474 1658 1814
1607 1780 1963
1698 1850 2065
1686 1824 2027
1687 1812 2000
1714 1865 2100
1730 1921 2184
1781 1975 2247
1776 1971 2242
1772 1968 2238
1767 1964 2234
1767 1964 2234
1487 1716 1867
1485 1714 1865
1482 1711 1861
1478 1706 1856
1471 1699 1848
1597 1824 2002
1757 1960 2172
1858 2064 2308
1949 2145 2402
1974 2147 2397
1969 2114 2358
1985 2147 2400
1991 2161 2422
1984 2157 2417
1979 2153 2412
1973 2149 2407
1973 2149 2407
1658 1913 2094
1655 1911 2092
1652 1908 2089
1648 1905 2086
1643 1900 2080
1685 1928 2104
1835 2086 2283
1962 2198 2419
2055 2285 2533
2164 2384 2645
2201 2392 2665
2201 2364 2652
2216 2376 2668
2205 2365 2650
2200 2360 2644
2194 2355 2638
2194 2355 2638
1871 2161 2347
1866 2156 2341
1861 2151 2335
1854 2143 2326
1843 2132 2313
1830 2119 2297
1934 2209 2405
2041 2303 2522
2127 2386 2643
2227 2472 2736
2339 2596 2870
2330 2553 2832
2358 2558 2827
2357 2549 2812
2353 2543 2807
2351 2539 2805
2351 2539 2805
2093 2411 2655
2093 2411 2655
2093 2411 2654
2093 2411 2654
2091 2409 2652
2089 2406 2648
2120 2434 2678
2223 2528 2779
2299 2599 2876
2359 2659 2949
2448 2733 3038
2525 2801 3116
2473 2705 3010
2488 2700 2998
2485 2694 2991
2484 2693 2990
2484 2693 2990
2094 2413 2656
2094 2413 2656
2094 2413 2656
2094 2413 2656
2094 2413 2656
2094 2413 2656
2110 2427 2675
2212 2521 2769
2295 2601 2879
2360 2665 2962
2447 2735 3045
2539 2824 3141
2504 2752 3060
2510 2733 3037
2509 2727 3030
2509 2727 3030
2509 2727 3030
2094 2413 2656
2094 2413 2656
2094 2413 2656
2094 2413 2656
2094 2413 2656
2094 2413 2656
2095 2414 2658
2195 2492 2741
2280 2586 2864
2349 2654 2950
2425 2720 3031
2524 2810 3129
2516 2772 3081
2509 2734 3039
2509 2727 3030
2509 2727 3030
2509 2727 3030
2094 2413 2656
2094 2413 2656
2094 2413 2656
2094 2413 2656
2094 2413 2656
2094 2413 2656
2094 2413 2657
2194 2491 2739
2280 2585 2863
2348 2653 2950
2423 2719 3030
2523 2809 3128
2517 2773 3083
2509 2734 3039
2509 2727 3030
2509 2727 3030
2509 2727 3030
  79    6   37
  45   17   73
  35   47   86
  27  106  156
  43  203  275
  66  310  402
  88  397  517
 116  484  632
 123  548  724
 283  784 1007
 317  827 1046
 315  825 1045
 315  825 1045
 315  825 1045
 315  825 1045
 315  825 1045
 315  825 1045
  16   12   22
  16   15   27
  16   33   49
  16   84  118
  28  193  263
  54  316  411
  77  409  528
  96  494  640
 103  546  721
 260  772  992
 317  828 1047
 315  825 1045
 315  825 1045
 315  825 1045
 315  825 1045
 315  825 1045
 315  825 1045
  14   63   85
  14   60   83
  25   95  124
  51  173  210
  90  300  350
 147  417  492
 197  519  631
 255  632  785
 302  739  926
 396  878 1098
 488  959 1188
 466  940 1166
 447  925 1149
 438  918 1142
 428  911 1134
 419  904 1127
 418  903 1126
  53  173  202
  52  171  200
  71  199  235
 140  281  309
 218  400  439
 276  511  578
 325  610  713
 392  743  876
 485  877 1056
 580 1009 1233
 708 1150 1380
 705 1143 1372
 695 1132 1362
 690 1127 1358
 685 1122 1354
 681 1117 1349
 681 1117 1349
 176  325  344
 174  324  342
 170  319  339
 282  411  429
 360  502  529
 459  624  690
 510  738  827
 545  838  963
 599  953 1123
 704 1108 1328
 823 1248 1485
 855 1272 1503
 845 1265 1495
 841 1262 1492
 837 1259 1489
 834 1256 1486
 833 1256 1486
 333  478  478
 331  476  477
 326  472  473
 426  546  568
 539  657  684
 625  753  801
 704  860  945
 749  959 1089
 771 1058 1230
 814 1194 1395
 927 1320 1554
1006 1384 1625
 998 1378 1617
 993 1374 1612
 990 1371 1609
 986 1369 1606
 986 1369 1605
 514  648  666
 512  645  663
 507  641  659
 546  678  700
 733  844  888
 819  917  970
 876  985 1063
 937 1088 1204
 980 1207 1375
 982 1293 1490
1035 1399 1633
1158 1503 1751
1148 1497 1744
1141 1493 1740
1136 1490 1737
1132 1487 1734
1132 1487 1733
 712  857  900
 710  854  896
 705  850  890
 699  843  880
 886 1016 1101
1063 1193 1299
1077 1198 1294
1117 1240 1357
1165 1324 1485
1195 1421 1629
1197 1501 1740
1300 1630 1865
1317 1644 1883
1311 1639 1877
1308 1635 1874
1304 1631 1871
1303 1630 1870
 974 1145 1231
 970 1141 1227
 966 1136 1221
 958 1125 1210
1064 1240 1340
1279 1419 1542
1398 1517 1682
1373 1487 1642
1387 1496 1662
1419 1579 1780
1441 1670 1903
1475 1751 2001
1533 1798 2059
1524 1791 2051
1519 1787 2047
1513 1784 2042
1513 1783 2042
1244 1440 1572
1241 1437 1568
1237 1432 1563
1230 1425 1555
1221 1416 1544
1461 1644 1799
1597 1768 1949
1687 1840 2053
1675 1814 2014
1675 1801 1987
1704 1855 2089
1721 1913 2175
1772 1967 2239
1769 1966 2236
1765 1962 2232
1760 1958 2228
1760 1958 2227
1481 1709 1859
1479 1707 1857
1476 1704 1853
1471 1698 1847
1463 1691 1839
1586 1812 1989
1749 1951 2162
1850 2053 2297
1940 2136 2393
1965 2137 2388
1961 2105 2347
1977 2138 2390
1982 2154 2414
1976 2151 2410
1971 2147 2405
1965 2143 2400
1965 2142 2400
1651 1907 2088
1649 1905 2086
1646 1903 2083
1642 1899 2080
1637 1894 2074
1673 1917 2092
1829 2077 2275
1955 2192 2411
2049 2278 2526
2157 2377 2636
2196 2386 2658
2194 2356 2644
2210 2370 2662
2197 2358 2642
2191 2353 2636
2187 2348 2630
2186 2348 2630
1858 2148 2331
1854 2143 2326
1848 2138 2320
1841 2130 2311
1830 2118 2297
1820 2108 2285
1923 2199 2393
2033 2294 2512
2120 2379 2632
2220 2462 2728
2333 2589 2862
2326 2549 2828
2354 2553 2821
2353 2543 2807
2350 2537 2803
2347 2533 2801
2347 2533 2801
2093 2411 2654
2093 2411 2654
2093 2411 2654
2093 2411 2654
2091 2409 2651
2088 2406 2647
2117 2431 2675
2220 2525 2775
2297 2596 2873
2356 2656 2945
2445 2729 3033
2524 2799 3114
2470 2704 3008
2486 2698 2996
2483 2692 2989
2482 2691 2987
2482 2691 2987
2094 2413 2656
2094 2413 2656
2094 2413 2656
2094 2413 2656
2094 2413 2656
2094 2413 2656
2108 2425 2673
2209 2517 2765
2293 2599 2877
2358 2663 2960
2444 2733 3043
2537 2823 3140
2506 2755 3063
2510 2733 3037
2509 2727 3030
2509 2727 3030
2509 2727 3030
2094 2413 2656
2094 2413 2656
2094 2413 2656
2094 2413 2656
2094 2413 2656
2094 2413 2656
2094 2413 2656
2192 2487 2736
2278 2584 2861
2347 2652 2948
2421 2718 3029
2521 2807 3126
2519 2776 3087
2508 2735 3040
2509 2727 3030
2509 2727 3030
2509 2727 3030
2094 2413 2656
2094 2413 2656
2094 2413 2656
2094 2413 2656
2094 2413 2656
2094 2413 2656
2094 2413 2656
2191 2486 2734
2277 2583 2861
2346 2652 2948
2420 2717 3028
2520 2807 3126
2519 2778 3089
2508 2735 3040
2509 2727 3030
2509 2727 3030
2509 2727 3030
 343   88  159
 301  132  231
 340  198  292
 270  236  339
 291  280  403
 310  327  480
 319  390  555
 348  465  650
 434  548  782
 534  647  960
 443  657  910
 404  652  894
 378  650  883
 364  649  878
 347  648  871
 337  650  870
 337  650  870
 292   72  110
 272   69  138
 246  138  231
 185  187  274
 192  246  332
 211  301  411
 229  366  495
 264  441  599
 322  520  715
 394  625  859
 344  652  873
 327  660  880
 318  670  888
 314  674  892
 310  680  897
 305  684  901
 305  684  902
  54   89  122
  52   87  119
  67  118  159
  62  148  188
  58  197  257
  77  298  374
 103  390  502
 160  497  642
 204  595  781
 272  723  935
 346  820 1050
 338  817 1045
 333  819 1045
 332  819 1045
 330  820 1045
 328  821 1045
 328  821 1045
  58  174  209
  56  171  206
  65  186  221
 112  242  275
 155  338  372
 206  445  509
 262  555  656
 337  694  832
 446  847 1027
 557  989 1207
 690 1133 1364
 689 1126 1357
 678 1115 1347
 674 1110 1343
 669 1105 1338
 664 1100 1334
 664 1100 1334
 163  313  333
 162  311  332
 158  307  328
 259  390  410
 337  481  507
 434  604  668
 489  716  805
 527  819  938
 581  936 1102
 687 1089 1310
 807 1235 1470
 842 1263 1493
 833 1255 1486
 829 1252 1483
 826 1249 1480
 822 1246 1477
 822 1246 1477
 320  465  468
 318  463  466
 314  459  463
 401  525  542
 518  635  663
 602  734  782
 687  844  925
 733  943 1070
 757 1039 1210
 799 1178 1378
 910 1307 1540
 996 1377 1615
 988 1370 1607
 984 1367 1603
 980 1364 1600
 977 1361 1596
 977 1361 1596
 501  635  654
 499  633  652
 495  628  648
 526  655  680
 711  822  859
 801  901  952
 859  969 1047
 920 1071 1187
 966 1191 1359
 970 1281 1476
1022 1387 1620
1143 1493 1740
1137 1490 1737
1129 1485 1732
1125 1482 1729
1122 1479 1725
1122 1479 1725
 700  844  882
 698  841  878
 694  837  872
 687  830  863
 860  990 1074
1045 1170 1275
1063 1182 1275
1105 1227 1341
1150 1312 1470
1182 1410 1616
1185 1490 1727
1287 1620 1854
1310 1637 1876
1303 1630 1870
1300 1627 1867
1296 1623 1864
1296 1623 1864
 960 1128 1214
 957 1124 1209
 953 1119 1204
 944 1110 1194
1043 1215 1312
1261 1401 1521
1381 1501 1663
1359 1473 1627
1373 1484 1647
1405 1564 1767
1429 1659 1889
1460 1739 1989
1523 1791 2050
1514 1784 2042
1509 1780 2038
1503 1776 2033
1502 1775 2032
1233 1428 1558
1230 1425 1554
1226 1421 1549
1218 1414 1540
1209 1405 1530
1443 1625 1779
1585 1755 1931
1674 1827 2037
1660 1799 1995
1660 1788 1971
1693 1843 2076
1707 1902 2163
1761 1959 2230
1760 1959 2228
1755 1954 2223
1751 1951 2219
1751 1951 2219
1473 1700 1849
1470 1697 1846
1466 1694 1842
1460 1688 1836
1453 1681 1828
1572 1796 1973
1737 1938 2149
1840 2040 2285
1928 2125 2382
1953 2124 2374
1951 2093 2333
1964 2127 2377
1970 2145 2404
1966 2143 2401
1960 2138 2395
1955 2134 2391
1954 2134 2391
1643 1900 2080
1641 1898 2078
1638 1895 2075
1635 1892 2071
1630 1886 2064
1658 1903 2078
1820 2066 2264
1946 2183 2401
2042 2270 2519
2147 2368 2626
2189 2377 2649
2185 2347 2633
2200 2361 2650
2188 2349 2632
2182 2344 2625
2177 2340 2620
2177 2340 2620
1842 2131 2312
1838 2127 2307
1831 2120 2299
1825 2113 2291
1818 2105 2282
1812 2095 2273
1909 2186 2378
2023 2283 2499
2112 2369 2618
2212 2451 2718
2325 2580 2851
2321 2544 2822
2349 2546 2815
2348 2535 2802
2345 2529 2799
2342 2524 2796
2342 2524 2796
2093 2411 2654
2093 2411 2654
2093 2411 2654
2092 2411 2654
2090 2409 2651
2087 2405 2646
2114 2428 2672
2215 2521 2769
2293 2592 2868
2352 2651 2941
2439 2724 3025
2522 2797 3112
2468 2702 3006
2485 2696 2993
2481 2690 2986
2480 2688 2984
2480 2688 2984
2094 2413 2656
2094 2413 2656
2094 2413 2656
2094 2413 2656
2094 2413 2656
2094 2413 2656
2105 2423 2670
2206 2511 2759
2290 2596 2874
2356 2661 2958
2439 2730 3040
2535 2821 3138
2508 2759 3066
2510 2733 3037
2509 2727 3030
2509 2727 3030
2509 2727 3030
2094 2413 2656
2094 2413 2656
2094 2413 2656
2094 2413 2656
2094 2413 2656
2094 2413 2656
2094 2413 2656
2187 2484 2732
2275 2581 2858
2345 2650 2946
2417 2715 3025
2517 2804 3123
2522 2781 3094
2508 2735 3040
2509 2727 3030
2509 2727 3030
2509 2727 3030
2094 2413 2656
2094 2413 2656
2094 2413 2656
2094 2413 2656
2094 2413 2656
2094 2413 2656
2094 2413 2656
2185 2483 2731
2274 2580 2858
2344 2649 2945
2416 2714 3024
2517 2803 3123
2523 2782 3095
2508 2735 3040
2509 2727 3030
2509 2727 3030
2509 2727 3030
 691  213  252
 687  239  297
 746  385  425
 741  447  533
 753  472  602
 809  498  677
 869  535  781
 969  593  902
1101  690 1041
1283  801 1207
1261  797 1217
1216  780 1204
1192  770 1199
1179  765 1196
1166  760 1192
1151  754 1189
1150  754 1189
 626  195  237
 621  193  236
 660  340  391
 672  406  489
 669  430  562
 720  457  637
 782  494  739
 869  550  856
1006  638  996
1178  755 1161
1176  764 1197
1122  746 1182
1089  736 1174
1074  732 1170
1059  728 1167
1041  723 1163
