nova/tdt-studio/app/Lut_mau/IWLTBAP/2 - LUTs by IWLTBAP (3DL)/02 - Generic LOG/Psychedelia/Esromen - LOG.3dl
# Copyright: (C) Copyright 2010-2018 by IWLTBAP SAS
# Cannot be resold, shared or otherwise redistributed
# Website: https://luts.iwltbap.com
0 256 512 768 1023
   0    0    0
  16  174  437
  24  691 1171
  29  966 1597
  29  966 1597
   9  620  941
  16  678 1088
  26  923 1360
  32 1166 1794
  32 1158 1787
  79 1569 2281
  74 1556 2291
  57 1606 2522
  97 1749 2388
  94 1733 2367
  99 2355 3440
 103 2342 3422
 373 2380 3559
1257 2513 3616
1130 2545 3575
  71 2449 3572
  71 2449 3572
 298 2525 3681
1942 2666 3790
2039 2774 3798
1189   69   21
 983  212  503
 567  709 1481
 316  974 1912
 297  975 1903
 585  727  478
 550  693  853
 293  876 1427
 135 1136 1897
 127 1129 1885
  76 1538 2208
  71 1516 2196
  53 1554 2434
  87 1703 2328
  84 1688 2308
 110 2317 3387
 114 2304 3369
 311 2334 3500
1117 2457 3575
 982 2502 3525
  71 2449 3572
  71 2449 3572
 266 2519 3670
1907 2656 3789
2039 2774 3798
2885  156   21
2848   44  876
2611  213 1292
2427  903 2168
2394  916 2172
2588  715   29
2556  648  544
2418  621 1316
2008 1154 2295
1968 1145 2288
1414 1858 1022
1393 1831 1008
1711 1801 2049
1150 1736 2582
1086 1710 2572
 217 2489 3394
 214 2469 3376
 424 2466 3456
1210 2483 3539
 951 2507 3462
 173 2606 3659
 168 2600 3655
 312 2628 3710
1914 2715 3800
2112 2817 3805
3799  196   22
3806   84  675
3590  178 1748
3573  903 1989
3573  903 1989
3841  555   32
3843  481  332
3838  351 1993
3614 1008 2036
3607  990 2028
3957 1888   69
3941 1860   69
3929 1810 1713
3840 1982 2497
3812 1968 2588
2291 3040 1571
2276 3020 1563
2438 3062 2165
3285 3240 3332
3320 3161 3499
 335 2995 3461
 322 2988 3471
 403 3024 3551
2421 3335 3798
3201 3414 3902
3799  196   22
3805   95  595
3639  139 1829
3573  903 1989
3573  903 1989
3830  472   30
3831  404  251
3849  241 1960
3592  952 2011
3583  931 2001
4008 1788   67
4004 1761   66
4023 1699 1596
3933 1898 2354
3934 1904 2497
4003 3244  241
4009 3220  231
4035 3195 1090
4030 3297 3104
4089 3329 3430
2809 3683 2064
2809 3683 2064
2859 3708 2254
3577 3888 3440
4094 4082 4088
