nova/tdt-studio/app/Lut_mau/IWLTBAP/2 - LUTs by IWLTBAP (3DL)/02 - Generic LOG/Psychedelia/Esromen - LOG.3dl
# Copyright: (C) Copyright 2010-2018 by IWLTBAP SAS
# Cannot be resold, shared or otherwise redistributed
# Website: https://luts.iwltbap.com
0 64 128 192 256 320 384 448 512 576 640 704 768 832 896 960 1023
   0    0    0
   7   11   44
  16   40  140
  18   98  275
  16  174  437
  19  272  603
  19  388  764
  22  526  943
  24  691 1171
  27  862 1432
  29  962 1590
  29  966 1597
  29  966 1597
  29  966 1597
  29  966 1597
  29  966 1597
  29  966 1597
   2   51   82
   4   52   95
  12   76  180
  16  119  294
  16  182  434
  18  270  591
  19  374  744
  22  505  915
  22  667 1137
  25  840 1397
  29  959 1586
  29  966 1597
  29  966 1597
  29  966 1597
  29  966 1597
  29  966 1597
  29  966 1597
   3  211  339
   3  207  332
   9  229  400
  12  261  483
  14  312  582
  16  380  694
  19  465  818
  22  579  974
  23  718 1175
  27  871 1413
  30  994 1617
  30 1005 1637
  29 1000 1632
  29  998 1630
  29  995 1627
  29  993 1625
  29  993 1625
   6  400  626
   6  396  621
   9  407  655
  12  440  732
  12  479  801
  16  525  864
  17  592  945
  20  685 1070
  25  806 1249
  29  938 1464
  32 1058 1671
  32 1081 1714
  32 1076 1709
  32 1073 1707
  32 1071 1705
  32 1069 1702
  32 1069 1702
   9  620  941
   9  616  936
  10  611  931
  13  646 1024
  16  678 1088
  16  712 1124
  17  758 1155
  21  827 1226
  26  923 1360
  30 1032 1539
  32 1137 1730
  32 1172 1800
  32 1166 1794
  32 1163 1792
  32 1161 1789
  32 1158 1787
  32 1158 1787
  13  864 1281
  13  861 1277
  12  854 1268
  15  873 1333
  18  902 1414
  18  928 1457
  19  958 1463
  23 1004 1474
  29 1073 1537
  35 1156 1656
  35 1238 1805
  35 1286 1901
  35 1279 1895
  35 1275 1891
  35 1272 1889
  35 1269 1886
  35 1269 1886
  21 1113 1628
  21 1110 1624
  21 1103 1615
  22 1105 1636
  23 1128 1730
  23 1149 1802
  23 1170 1824
  25 1201 1808
  35 1249 1801
  44 1308 1840
  46 1370 1926
  43 1424 2024
  43 1415 2016
  42 1410 2011
  42 1407 2008
  42 1404 2005
  42 1403 2005
  43 1348 1962
  43 1346 1958
  42 1340 1950
  41 1334 1941
  40 1346 2017
  36 1360 2105
  32 1374 2170
  31 1395 2181
  42 1431 2146
  58 1477 2113
  65 1525 2121
  64 1572 2171
  62 1573 2173
  61 1566 2166
  61 1563 2162
  60 1559 2158
  60 1559 2158
  79 1569 2281
  78 1567 2277
  78 1563 2272
  76 1557 2263
  74 1556 2291
  64 1563 2372
  53 1569 2462
  46 1580 2524
  57 1606 2522
  82 1648 2469
  99 1694 2413
  99 1736 2393
  97 1749 2388
  95 1742 2378
  94 1738 2372
  94 1734 2367
  94 1733 2367
 125 1779 2592
 124 1776 2588
 124 1774 2584
 123 1768 2575
 122 1761 2566
 107 1764 2632
  89 1765 2714
  76 1765 2805
  93 1778 2862
 133 1813 2850
 163 1862 2782
 162 1911 2712
 151 1939 2670
 148 1933 2655
 146 1928 2648
 145 1924 2642
 145 1924 2641
 151 1980 2893
 151 1978 2890
 151 1975 2886
 151 1970 2879
 151 1964 2870
 142 1962 2896
 130 1962 2957
 125 1960 3043
 159 1962 3131
 241 1980 3175
 311 2024 3149
 313 2082 3077
 268 2132 3005
 254 2132 2980
 251 2127 2973
 248 2123 2965
 248 2123 2965
 142 2171 3177
 143 2168 3174
 143 2165 3170
 144 2162 3164
 144 2156 3157
 145 2152 3157
 155 2158 3202
 181 2162 3268
 263 2163 3351
 428 2169 3419
 605 2197 3439
 667 2253 3405
 595 2320 3343
 541 2338 3308
 532 2333 3301
 523 2328 3294
 522 2328 3293
  99 2355 3440
 100 2353 3437
 100 2350 3434
 101 2347 3429
 103 2342 3422
 105 2335 3414
 146 2350 3443
 223 2370 3496
 373 2380 3559
 660 2384 3615
1016 2402 3644
1246 2446 3641
1257 2513 3616
1170 2556 3589
1146 2550 3581
1130 2545 3576
1130 2545 3575
  71 2449 3571
  71 2449 3571
  71 2449 3571
  71 2449 3571
  71 2448 3570
  71 2447 3569
 100 2459 3584
 207 2498 3638
 400 2529 3701
 759 2543 3747
1266 2564 3769
1716 2609 3774
1921 2672 3773
1921 2737 3772
1901 2741 3768
1896 2739 3767
1895 2739 3767
  71 2449 3572
  71 2449 3572
  71 2449 3572
  71 2449 3572
  71 2449 3572
  71 2449 3572
  83 2455 3579
 172 2493 3629
 341 2532 3695
 657 2552 3749
1163 2573 3778
1676 2616 3787
1979 2679 3791
2043 2755 3797
2039 2774 3798
2039 2774 3798
2039 2774 3798
  71 2449 3572
  71 2449 3572
  71 2449 3572
  71 2449 3572
  71 2449 3572
  71 2449 3572
  71 2450 3572
 149 2484 3617
 300 2525 3682
 581 2549 3741
1060 2567 3775
1594 2606 3786
1945 2667 3790
2043 2743 3796
2039 2774 3798
2039 2774 3798
2039 2774 3798
  71 2449 3572
  71 2449 3572
  71 2449 3572
  71 2449 3572
  71 2449 3572
  71 2449 3572
  71 2449 3572
 148 2484 3616
 298 2525 3681
 578 2549 3740
1054 2567 3775
1589 2606 3786
1942 2666 3790
2043 2742 3796
2039 2774 3798
2039 2774 3798
2039 2774 3798
 142    7    5
 126   30   55
 116   57  149
 100  106  283
  78  180  448
  58  274  614
  42  389  777
  34  524  953
  28  686 1172
  28  856 1426
  29  961 1589
  29  966 1597
  29  966 1597
  29  966 1597
  29  966 1597
  29  966 1597
  29  966 1597
  56   52   51
  48   47   70
  47   64  154
  40  105  270
  27  167  414
  19  253  572
  19  365  733
  22  499  908
  22  661 1128
  25  834 1387
  29  958 1585
  29  966 1597
  29  966 1597
  29  966 1597
  29  966 1597
  29  966 1597
  29  966 1597
   3  199  320
   3  194  313
   9  214  377
  12  248  463
  15  298  565
  16  367  679
  19  453  804
  22  567  961
  22  707 1161
  27  861 1400
  30  989 1611
  29 1001 1633
  29  996 1628
  29  994 1625
  29  991 1623
  29  989 1621
  29  989 1621
   6  388  609
   6  385  604
   8  395  635
  12  428  714
  12  467  785
  16  514  849
  17  581  932
  20  675 1057
  25  796 1236
  29  929 1453
  32 1053 1665
  32 1077 1711
  32 1072 1705
  32 1070 1703
  32 1068 1701
  32 1066 1699
  32 1065 1699
   9  610  928
   9  607  923
   9  600  913
  13  635 1007
  16  668 1074
  16  703 1111
  17  748 1143
  21  817 1215
  26  913 1349
  30 1024 1529
  32 1129 1721
  32 1168 1796
  32 1162 1791
  32 1159 1788
  32 1157 1786
  32 1154 1783
  32 1154 1783
  12  854 1268
  12  851 1264
  12  845 1255
  15  862 1316
  18  892 1399
  17  918 1442
  19  948 1449
  22  994 1460
  29 1064 1525
  35 1148 1646
  35 1231 1796
  35 1282 1897
  35 1275 1891
  35 1270 1887
  35 1267 1884
  35 1265 1882
  35 1264 1882
  21 1103 1615
  21 1100 1610
  21 1094 1602
  22 1095 1621
  23 1119 1715
  23 1140 1787
  22 1162 1811
  25 1193 1796
  34 1240 1789
  44 1300 1829
  45 1362 1917
  43 1418 2018
  42 1410 2011
  42 1405 2006
  42 1402 2003
  42 1398 2000
  42 1398 2000
  42 1340 1949
  41 1337 1945
  41 1333 1939
  40 1326 1929
  39 1338 2004
  35 1352 2091
  31 1366 2157
  31 1387 2168
  41 1423 2134
  57 1469 2102
  64 1518 2111
  63 1565 2162
  61 1567 2167
  60 1561 2160
  60 1557 2156
  59 1553 2152
  59 1553 2152
  77 1562 2270
  77 1559 2266
  76 1556 2261
  75 1549 2251
  73 1548 2278
  64 1556 2359
  53 1562 2449
  45 1573 2511
  56 1599 2510
  80 1640 2457
  97 1686 2402
  98 1729 2384
  95 1743 2379
  94 1735 2370
  93 1731 2364
  92 1727 2359
  92 1727 2359
 124 1772 2581
 123 1770 2578
 123 1766 2572
 122 1761 2564
 120 1754 2555
 106 1757 2620
  88 1757 2701
  75 1758 2793
  90 1772 2851
 128 1805 2838
 159 1854 2771
 159 1904 2701
 149 1932 2659
 145 1926 2645
 144 1922 2638
 143 1917 2632
 142 1917 2631
 151 1973 2884
 151 1971 2880
 151 1968 2876
 151 1963 2869
 151 1957 2860
 141 1956 2885
 130 1955 2946
 123 1953 3031
 154 1955 3120
 233 1973 3166
 302 2016 3139
 306 2074 3068
 264 2124 2994
 249 2125 2969
 246 2121 2961
 243 2116 2954
 243 2116 2954
 143 2164 3168
 144 2162 3165
 144 2159 3161
 145 2156 3156
 145 2150 3148
 146 2146 3146
 154 2151 3192
 177 2156 3258
 255 2156 3340
 414 2162 3411
 587 2189 3431
 650 2244 3397
 582 2312 3335
 528 2331 3298
 519 2326 3290
 510 2322 3283
 510 2321 3283
 101 2349 3432
 101 2347 3429
 102 2344 3426
 103 2341 3421
 105 2335 3413
 107 2330 3405
 145 2343 3433
 219 2362 3486
 363 2372 3550
 639 2376 3607
 990 2393 3637
1220 2437 3635
1232 2503 3609
1144 2548 3580
1122 2543 3573
1106 2538 3568
1105 2538 3567
  71 2449 3571
  71 2449 3571
  71 2449 3571
  71 2449 3571
  71 2448 3570
  71 2447 3569
  99 2458 3582
 204 2497 3636
 394 2528 3698
 746 2541 3745
1252 2562 3768
1703 2606 3773
1914 2669 3772
1913 2735 3770
1893 2739 3766
1887 2737 3765
1887 2737 3765
  71 2449 3572
  71 2449 3572
  71 2449 3572
  71 2449 3572
  71 2449 3572
  71 2449 3572
  82 2455 3579
 168 2492 3627
 334 2531 3693
 646 2551 3748
1147 2572 3778
1664 2614 3787
1974 2678 3791
2043 2754 3797
2039 2774 3798
2039 2774 3798
2039 2774 3798
  71 2449 3572
  71 2449 3572
  71 2449 3572
  71 2449 3572
  71 2449 3572
  71 2449 3572
  71 2449 3572
 146 2483 3615
 294 2524 3680
 571 2549 3739
1044 2566 3774
1580 2605 3786
1938 2665 3790
2043 2741 3796
2039 2774 3798
2039 2774 3798
2039 2774 3798
  71 2449 3572
  71 2449 3572
  71 2449 3572
  71 2449 3572
  71 2449 3572
  71 2449 3572
  71 2449 3572
 145 2483 3614
 292 2524 3679
 568 2548 3739
1039 2566 3774
1576 2604 3786
1936 2664 3790
2043 2740 3796
2039 2774 3798
2039 2774 3798
2039 2774 3798
 465   25   16
 457   26   98
 394  100  191
 358  142  318
 303  204  489
 239  293  675
 177  407  858
 128  544 1049
  95  702 1271
  73  866 1513
  59  972 1673
  56  978 1678
  54  978 1673
  53  977 1671
  52  977 1668
  51  977 1665
  51  977 1665
 393   50   21
 387   42   37
 334   91  167
 307  126  284
 259  186  450
 204  273  634
 150  385  813
 108  518  998
  81  676 1217
  62  842 1460
  51  967 1650
  49  976 1660
  47  975 1655
  46  975 1652
  45  975 1650
  44  974 1647
  44  974 1647
 240  247  213
 236  242  210
 218  239  334
 206  263  438
 178  302  558
 140  364  692
 105  450  837
  78  562  997
  59  699 1193
  48  851 1422
  42  984 1633
  40  997 1653
  38  991 1642
  37  988 1637
  36  986 1633
  35  983 1628
  35  983 1628
 101  399  554
  98  395  550
  95  398  580
  93  423  670
  80  456  754
  62  501  832
  46  565  922
  35  657 1046
  30  777 1219
  28  912 1430
  32 1040 1650
  32 1069 1703
  32 1064 1698
  32 1062 1696
  32 1060 1693
  32 1057 1691
  32 1057 1691
   9  588  897
   9  585  893
   9  578  883
  12  612  971
  15  646 1041
  16  680 1080
  16  726 1116
  20  797 1190
  25  893 1324
  29 1006 1507
  32 1115 1703
  32 1160 1789
  32 1154 1783
  32 1151 1781
  32 1149 1779
  32 1147 1776
  32 1146 1776
  12  834 1240
  12  831 1236
  12  825 1227
  14  841 1283
  17  872 1368
  17  898 1413
  19  929 1422
  22  976 1436
  28 1047 1503
  34 1132 1626
  35 1218 1780
  35 1273 1890
  35 1266 1883
  35 1262 1880
  35 1259 1877
  35 1256 1875
  35 1256 1875
  20 1087 1592
  20 1084 1588
  20 1079 1580
  21 1078 1593
  23 1102 1688
  22 1125 1762
  22 1147 1788
  25 1177 1773
  33 1225 1768
  43 1286 1811
  44 1350 1902
  42 1407 2006
  42 1402 2003
  42 1396 1998
  41 1393 1995
  41 1390 1992
  41 1390 1992
  40 1327 1931
  40 1324 1927
  39 1320 1921
  39 1314 1912
  38 1325 1982
  34 1339 2071
  31 1354 2137
  30 1375 2149
  40 1411 2116
  56 1458 2085
  63 1506 2096
  62 1555 2150
  60 1559 2158
  59 1552 2152
  58 1549 2148
  58 1545 2144
  58 1545 2144
  75 1551 2254
  74 1548 2250
  74 1545 2246
  73 1539 2237
  71 1538 2260
  63 1546 2343
  52 1552 2432
  45 1563 2495
  54 1589 2496
  77 1630 2442
  95 1676 2389
  96 1719 2372
  94 1735 2369
  92 1728 2359
  91 1724 2354
  91 1719 2349
  91 1719 2348
 122 1763 2567
 122 1760 2564
 121 1757 2559
 120 1752 2551
 118 1745 2541
 105 1748 2604
  87 1749 2686
  73 1750 2778
  86 1762 2836
 123 1796 2824
 154 1845 2758
 156 1894 2687
 146 1923 2646
 143 1918 2632
 141 1913 2624
 139 1908 2618
 139 1908 2617
 151 1965 2871
 151 1963 2867
 151 1960 2863
 150 1955 2857
 150 1949 2848
 141 1947 2871
 129 1946 2931
 121 1944 3017
 148 1946 3107
 223 1964 3152
 290 2007 3127
 298 2064 3055
 258 2114 2982
 243 2117 2955
 240 2112 2947
 237 2107 2939
 236 2107 2939
 144 2156 3157
 145 2154 3154
 145 2152 3150
 145 2148 3144
 146 2142 3136
 147 2138 3133
 153 2143 3179
 173 2146 3244
 245 2147 3328
 396 2153 3400
 564 2179 3421
 630 2234 3387
 567 2301 3324
 512 2323 3285
 502 2317 3277
 494 2313 3270
 494 2313 3270
 103 2341 3422
 104 2339 3419
 105 2336 3415
 106 2333 3410
 107 2328 3403
 109 2322 3395
 144 2334 3421
 214 2353 3473
 350 2363 3538
 613 2366 3597
 957 2383 3629
1187 2426 3628
1201 2492 3601
1114 2539 3570
1092 2534 3562
1074 2529 3557
1073 2528 3556
  71 2449 3571
  71 2449 3571
  71 2449 3571
  71 2449 3571
  71 2448 3570
  71 2447 3568
  97 2457 3581
 199 2495 3633
 385 2526 3696
 730 2539 3743
1234 2559 3766
1687 2602 3771
1903 2665 3771
1904 2732 3768
1882 2736 3764
1874 2734 3762
1874 2734 3762
  71 2449 3572
  71 2449 3572
  71 2449 3572
  71 2449 3572
  71 2449 3572
  71 2449 3572
  80 2454 3577
 164 2490 3624
 326 2530 3690
 630 2551 3746
1127 2571 3777
1649 2612 3787
1967 2675 3790
2043 2752 3797
2039 2774 3798
2039 2774 3798
2039 2774 3798
  71 2449 3572
  71 2449 3572
  71 2449 3572
  71 2449 3572
  71 2449 3572
  71 2449 3572
  71 2449 3572
 142 2482 3613
 286 2523 3677
 557 2548 3738
1023 2565 3773
1564 2603 3786
1929 2662 3790
2043 2738 3796
2039 2774 3798
2039 2774 3798
2039 2774 3798
  71 2449 3572
  71 2449 3572
  71 2449 3572
  71 2449 3572
  71 2449 3572
  71 2449 3572
  71 2449 3572
 141 2481 3612
 284 2523 3677
 554 2548 3737
1019 2565 3773
1560 2602 3786
1927 2662 3790
2043 2737 3796
2039 2774 3798
2039 2774 3798
2039 2774 3798
 814   46   22
 807   46   78
 795   49  351
 672  170  342
 609  221  508
 522  304  709
 424  419  925
 330  558 1146
 251  711 1382
 185  866 1619
 142  974 1782
 132  984 1791
 127  984 1786
 125  984 1784
 122  985 1781
 119  985 1778
 119  985 1778
 750   42   22
 744   42   21
 733   45  295
 621  159  314
 560  209  475
 478  288  673
 385  399  885
 298  536 1100
 224  689 1331
 165  847 1570
 124  972 1759
 115  985 1773
 111  985 1768
 109  985 1766
 107  985 1763
 104  985 1761
