nova/tdt-studio/app/Lut_mau/IWLTBAP/2 - LUTs by IWLTBAP (3DL)/02 - Generic LOG/Psychedelia/Esromen - LOG.3dl
# Copyright: (C) Copyright 2010-2018 by IWLTBAP SAS
# Cannot be resold, shared or otherwise redistributed
# Website: https://luts.iwltbap.com
0 128 256 384 512 640 768 896 1023
   0    0    0
  16   40  140
  16  174  437
  19  388  764
  24  691 1171
  29  962 1590
  29  966 1597
  29  966 1597
  29  966 1597
   3  211  339
   9  229  400
  14  312  582
  19  465  818
  23  718 1175
  30  994 1617
  29 1000 1632
  29  995 1627
  29  993 1625
   9  620  941
  10  611  931
  16  678 1088
  17  758 1155
  26  923 1360
  32 1137 1730
  32 1166 1794
  32 1161 1789
  32 1158 1787
  21 1113 1628
  21 1103 1615
  23 1128 1730
  23 1170 1824
  35 1249 1801
  46 1370 1926
  43 1415 2016
  42 1407 2008
  42 1403 2005
  79 1569 2281
  78 1563 2272
  74 1556 2291
  53 1569 2462
  57 1606 2522
  99 1694 2413
  97 1749 2388
  94 1738 2372
  94 1733 2367
 151 1980 2893
 151 1975 2886
 151 1964 2870
 130 1962 2957
 159 1962 3131
 311 2024 3149
 268 2132 3005
 251 2127 2973
 248 2123 2965
  99 2355 3440
 100 2350 3434
 103 2342 3422
 146 2350 3443
 373 2380 3559
1016 2402 3644
1257 2513 3616
1146 2550 3581
1130 2545 3575
  71 2449 3572
  71 2449 3572
  71 2449 3572
  83 2455 3579
 341 2532 3695
1163 2573 3778
1979 2679 3791
2039 2774 3798
2039 2774 3798
  71 2449 3572
  71 2449 3572
  71 2449 3572
  71 2449 3572
 298 2525 3681
1054 2567 3775
1942 2666 3790
2039 2774 3798
2039 2774 3798
 465   25   16
 394  100  191
 303  204  489
 177  407  858
  95  702 1271
  59  972 1673
  54  978 1673
  52  977 1668
  51  977 1665
 240  247  213
 218  239  334
 178  302  558
 105  450  837
  59  699 1193
  42  984 1633
  38  991 1642
  36  986 1633
  35  983 1628
   9  588  897
   9  578  883
  15  646 1041
  16  726 1116
  25  893 1324
  32 1115 1703
  32 1154 1783
  32 1149 1779
  32 1146 1776
  20 1087 1592
  20 1079 1580
  23 1102 1688
  22 1147 1788
  33 1225 1768
  44 1350 1902
  42 1402 2003
  41 1393 1995
  41 1390 1992
  75 1551 2254
  74 1545 2246
  71 1538 2260
  52 1552 2432
  54 1589 2496
  95 1676 2389
  94 1735 2369
  91 1724 2354
  91 1719 2348
 151 1965 2871
 151 1960 2863
 150 1949 2848
 129 1946 2931
 148 1946 3107
 290 2007 3127
 258 2114 2982
 240 2112 2947
 236 2107 2939
 103 2341 3422
 105 2336 3415
 107 2328 3403
 144 2334 3421
 350 2363 3538
 957 2383 3629
1201 2492 3601
1092 2534 3562
1073 2528 3556
  71 2449 3572
  71 2449 3572
  71 2449 3572
  80 2454 3577
 326 2530 3690
1127 2571 3777
1967 2675 3790
2039 2774 3798
2039 2774 3798
  71 2449 3572
  71 2449 3572
  71 2449 3572
  71 2449 3572
 284 2523 3677
1019 2565 3773
1927 2662 3790
2039 2774 3798
2039 2774 3798
1189   69   21
1172   64  318
 983  212  503
 815  402  951
 567  709 1481
 351  960 1901
 316  974 1912
 304  975 1906
 297  975 1903
1028  251   46
1014  234  201
 849  310  516
 682  434  907
 455  690 1384
 260  958 1834
 225  980 1863
 217  981 1859
 213  981 1856
 585  727  478
 576  715  472
 550  693  853
 465  733 1111
 293  876 1427
 171 1083 1804
 135 1136 1897
 129 1131 1889
 127 1129 1885
 135 1137 1470
 132 1126 1459
 164 1124 1548
 195 1136 1689
 144 1194 1738
  99 1313 1895
  81 1374 2016
  77 1366 2006
  76 1362 2002
  76 1538 2208
  75 1531 2198
  71 1516 2196
  61 1525 2366
  53 1554 2434
  88 1638 2334
  87 1703 2328
  85 1692 2313
  84 1688 2308
 148 1934 2824
 148 1929 2817
 147 1919 2802
 126 1916 2879
 128 1915 3056
 257 1974 3083
 238 2082 2936
 219 2082 2898
 216 2078 2890
 110 2317 3387
 112 2312 3380
 114 2304 3369
 140 2306 3382
 311 2334 3500
 863 2351 3604
1117 2457 3575
 999 2507 3531
 982 2502 3525
  71 2449 3572
  71 2449 3572
  71 2449 3572
  73 2451 3573
 305 2526 3684
1074 2568 3775
1951 2669 3790
2039 2774 3798
2039 2774 3798
  71 2449 3572
  71 2449 3572
  71 2449 3572
  71 2449 3572
 266 2519 3670
 970 2563 3771
1907 2656 3789
2039 2774 3798
2039 2774 3798
2017  113   19
1999   91  240
1983   46  920
1798  210  889
1644  592 1542
1317  978 2105
1239 1002 2144
1215 1000 2140
1201  999 2138
1871  201   21
1856  179   93
1836  107  796
1643  219  817
1487  566 1446
1146  945 2040
1046  987 2114
1025  986 2110
1013  985 2108
1653  764   70
1640  752   69
1628  722  668
1494  730 1019
1268  848 1511
 900 1044 2003
 740 1100 2145
 719 1094 2137
 711 1092 2133
 984 1281  741
 977 1272  736
1009 1255  937
1038 1211 1433
 920 1219 1725
 612 1283 2019
 441 1336 2191
 425 1327 2179
 419 1323 2174
 239 1668 2037
 236 1661 2030
 233 1644 2016
 382 1632 2188
 492 1612 2334
 368 1638 2331
 240 1684 2372
 228 1672 2357
 225 1667 2352
 163 2009 2831
 162 2003 2823
 160 1990 2806
 166 1978 2860
 220 1959 3018
 328 1979 3054
 255 2059 2899
 224 2061 2854
 220 2055 2846
 135 2325 3367
 135 2320 3360
 135 2309 3347
 152 2302 3349
 285 2317 3457
 758 2322 3570
1005 2414 3541
 874 2470 3483
 860 2465 3477
  71 2449 3572
  71 2449 3572
  71 2449 3572
  71 2449 3572
 272 2520 3672
 991 2564 3772
1916 2659 3789
2039 2774 3798
2039 2774 3798
  71 2449 3572
  71 2449 3572
  71 2449 3572
  71 2449 3572
 238 2513 3659
 890 2560 3767
1866 2646 3789
2039 2774 3798
2039 2774 3798
2885  156   21
2869  135  143
2848   44  876
2718   44 1281
2611  213 1292
2492  787 2054
2427  903 2168
2405  912 2171
2394  916 2172
2747  149   20
2734  149   20
2713   53  743
2616   41 1256
2495  205 1232
2354  774 2001
2261  957 2186
2241  963 2188
2230  966 2189
2588  715   29
2575  702   29
2556  648  544
2522  594 1279
2418  621 1316
2197  951 1999
2008 1154 2295
1980 1148 2290
1968 1145 2288
2330 1335   99
2320 1325   98
2301 1300  348
2295 1272 1219
2231 1252 1576
1961 1328 2103
1638 1410 2457
1603 1394 2445
1591 1388 2441
1414 1858 1022
1407 1849 1018
1393 1831 1008
1536 1830 1513
1711 1801 2049
1577 1771 2341
1150 1736 2582
1097 1717 2578
1086 1710 2572
 335 2175 2596
 333 2167 2588
 329 2154 2575
 413 2156 2649
 820 2159 2814
1151 2143 2957
 821 2131 2925
 672 2114 2897
 662 2107 2889
 217 2489 3394
 216 2482 3388
 214 2469 3376
 221 2455 3371
 424 2466 3456
 988 2454 3556
1210 2483 3539
 969 2513 3469
 951 2507 3462
 191 2634 3672
 189 2631 3670
 186 2627 3668
 181 2619 3664
 368 2656 3729
1100 2680 3796
1989 2741 3802
2133 2828 3806
2131 2827 3806
 173 2606 3659
 171 2604 3657
 168 2600 3655
 163 2592 3652
 312 2628 3710
 967 2656 3789
1914 2715 3800
2115 2815 3805
2112 2817 3805
3692  191   22
3685  191   22
3678   69  783
3670   33 1602
3313  217 1388
3372  666 1811
3364  749 2007
3349  741 2008
3341  737 2009
3609  188   22
3598  187   22
3584   82  653
3569   32 1480
3243  144 1406
3259  544 1717
3253  695 2020
3237  691 2022
3229  689 2023
3463  648   32
3452  637   31
3436  571  438
3423  493 1293
3218  454 1495
3159  631 1674
3124  862 2131
3100  849 2129
3091  844 2128
3302 1277   52
3292 1267   51
3272 1240  188
3257 1192 1085
3194 1162 1681
3140 1187 1840
3017 1388 2414
2984 1372 2410
2972 1366 2408
3034 1958  140
3024 1948  139
3005 1929  137
2995 1902  885
2994 1899 1802
3000 1914 2194
2771 1945 2739
2705 1927 2783
2690 1919 2779
1874 2459 1317
1868 2451 1313
1856 2435 1306
1900 2434 1552
2190 2478 2158
2507 2486 2705
2377 2430 3001
2195 2376 3076
2178 2366 3070
 434 2671 3099
 433 2664 3093
 431 2654 3083
 435 2641 3077
 785 2710 3226
1715 2783 3370
2165 2795 3484
1958 2756 3474
1939 2747 3468
 281 2855 3663
 281 2853 3664
 282 2851 3666
 282 2847 3670
 471 2884 3725
1344 2952 3788
2234 3005 3822
2516 3030 3839
2504 3025 3837
 284 2840 3676
 284 2839 3678
 284 2836 3679
 283 2831 3682
 428 2858 3727
1220 2915 3790
2138 2965 3818
2453 2995 3834
2448 2995 3833
3799  196   22
3799  196   22
3806   84  675
3814   36 1519
3590  178 1748
3535  763 1704
3573  903 1989
3573  903 1989
3573  903 1989
3799  196   22
3799  196   22
3805  102  546
3812   38 1399
3666  121 1865
3518  703 1601
3573  903 1989
3573  903 1989
3573  903 1989
3841  555   32
3839  544   32
3843  481  332
3852  382 1196
3838  351 1993
3544  756 1524
3614 1008 2036
3609  995 2030
3607  990 2028
3926 1196   53
3925 1187   53
3920 1164   69
3938 1101  962
3942 1065 1900
3708 1224 1709
3769 1424 2231
3757 1408 2236
3753 1400 2233
3957 1888   69
3952 1879   69
3941 1860   69
3941 1824  697
3929 1810 1713
3846 1881 2149
3840 1982 2497
3819 1977 2591
3812 1968 2588
3735 2604  154
3727 2595  154
3710 2580  154
3692 2556  463
3686 2553 1497
3679 2596 2429
3688 2645 2861
3641 2635 3071
3633 2626 3067
2291 3040 1571
2285 3032 1568
2276 3020 1563
2262 3000 1554
2438 3062 2165
2891 3147 2792
3285 3240 3332
3333 3171 3505
3320 3161 3499
 388 3023 3424
 380 3020 3429
 370 3015 3435
 357 3008 3444
 481 3064 3538
1384 3224 3675
2566 3380 3793
3263 3456 3893
3264 3449 3891
 335 2995 3461
 329 2992 3466
 322 2988 3471
 312 2982 3479
 403 3024 3551
1213 3179 3688
2421 3335 3798
3150 3413 3895
3201 3414 3902
3799  196   22
3799  196   22
3806   91  623
3813   37 1468
3621  151 1803
3528  736 1656
3573  903 1989
3573  903 1989
3573  903 1989
3799  196   22
3799  196   22
3805  109  496
3812   38 1350
3701  101 1905
3510  675 1557
3573  903 1989
3573  903 1989
3573  903 1989
3834  497   31
3832  486   30
3834  426  275
3843  313 1135
3853  271 1981
3516  675 1468
3598  968 2018
3592  953 2011
3590  947 2009
3916 1129   51
3915 1120   51
3912 1098   50
3930 1030  889
3937  989 1831
3683 1141 1655
3760 1370 2180
3757 1363 2206
3754 1357 2203
4011 1814   68
4010 1804   67
4008 1785   67
4019 1747  609
4026 1727 1625
3953 1777 2219
3939 1925 2381
3942 1935 2515
3940 1928 2511
4072 2531   87
4072 2522   86
4071 2506   85
4073 2480  291
4080 2470 1347
4073 2487 2369
4046 2615 2705
4049 2632 2946
4048 2623 2941
3990 3265  264
3995 3257  254
4002 3245  242
4009 3221  231
4030 3221 1127
4056 3236 2198
4027 3321 3135
4090 3360 3454
4090 3352 3448
2809 3683 2064
2806 3679 2061
2797 3668 2050
2785 3654 2036
2852 3677 2312
3197 3756 2914
3561 3826 3501
3988 3945 3971
4023 3948 3990
2490 3604 2286
2453 3595 2313
2404 3583 2346
2336 3566 2394
2317 3577 2631
2677 3668 3163
3244 3771 3611
3814 3914 3987
3942 3949 4038
3799  196   22
3799  196   22
3805   95  595
3813   37 1442
3639  139 1829
3524  722 1633
3573  903 1989
3573  903 1989
3573  903 1989
3799  196   22
3799  196   22
3804  113  473
3812   39 1325
3718   93 1921
3506  660 1538
3573  903 1989
3573  903 1989
3573  903 1989
3830  472   30
3829  462   30
3831  404  251
3839  285 1110
3849  241 1960
3506  644 1447
3592  952 2011
3586  936 2004
3583  931 2001
3913 1104   50
3912 1095   50
3909 1075   49
3926 1005  863
3933  962 1806
3681 1108 1665
3753 1350 2164
3750 1346 2197
3747 1339 2194
4008 1788   67
4007 1779   67
4004 1761   66
4015 1722  583
4023 1699 1596
3952 1746 2217
3933 1898 2354
3936 1912 2501
3934 1904 2497
4071 2507   85
4071 2497   85
4070 2481   84
4072 2456  264
4080 2443 1318
4073 2458 2345
4043 2588 2676
4047 2607 2930
4046 2599 2924
4003 3244  241
4005 3235  237
4009 3220  231
4015 3197  220
4035 3195 1090
4059 3210 2165
4030 3297 3104
4089 3337 3436
4089 3329 3430
2850 3677 2005
2873 3674 1972
2899 3670 1936
2931 3666 1890
3039 3695 2127
3381 3776 2762
3699 3845 3402
4036 3960 3954
4095 3988 3991
2809 3683 2064
2809 3683 2064
2809 3683 2064
2809 3683 2064
2859 3708 2254
3187 3799 2870
3577 3888 3440
3941 4009 4003
4094 4082 4088
