nova/tdt-studio/app/Lut_mau/IWLTBAP/2 - LUTs by IWLTBAP (3DL)/02 - Generic LOG/Psychedelia/Gyrenam - LOG.3dl
# Copyright: (C) Copyright 2010-2018 by IWLTBAP SAS
# Cannot be resold, shared or otherwise redistributed
# Website: https://luts.iwltbap.com
0 128 256 384 512 640 768 896 1023
   0    0    0
   0   17   54
   0  250  356
   0  511  625
  19  749  871
  44  969 1097
  45  975 1101
  45  975 1101
  45  975 1101
 363   69    5
  14  156  209
   0  336  454
   0  522  639
  16  736  855
  45  975 1104
  45  986 1112
  45  984 1110
  45  984 1110
1254  394   27
1241  387   26
 256  549  564
   7  713  816
  27  855  986
  48 1074 1206
  48 1113 1243
  48 1107 1237
  48 1104 1235
1926  670   66
1912  662   66
1915  641   65
 752  990  940
  35 1180 1269
  67 1360 1449
  77 1437 1525
  77 1426 1516
  77 1422 1513
2577  995  103
2567  989  102
2551  978  100
2571  961   93
1452 1558 1395
 167 1828 1800
 214 1910 1913
 209 1895 1900
 207 1890 1895
3472 1449  182
3456 1440  182
3419 1421  180
3411 1398  172
3370 1430  183
2148 2182 1931
 462 2471 2364
 457 2458 2360
 453 2451 2354
3919 2598 1938
3915 2582 1915
3909 2553 1873
3901 2518 1823
3902 2507 1822
3892 2533 1763
2920 2844 2502
 668 3157 2811
 667 3148 2806
3987 2914 2388
3987 2914 2388
3987 2914 2388
3987 2915 2388
3991 2927 2410
4007 2983 2516
4026 3054 2479
3342 3201 2740
3342 3201 2740
3987 2914 2388
3987 2914 2388
3987 2914 2388
3987 2914 2388
3990 2925 2406
4007 2982 2521
4024 3049 2505
3342 3201 2740
3342 3201 2740
 170    0   33
  52  107  472
   0  330  463
   0  527  648
  19  751  874
  46  976 1105
  45  982 1109
  45  981 1108
  45  981 1108
 167  116   21
  43  239  323
   0  340  463
   0  516  636
  16  727  847
  46  971 1100
  47  984 1110
  46  982 1108
  46  981 1107
1208  373   24
1194  366   23
 232  526  544
   5  685  793
  26  830  962
  48 1050 1184
  48 1100 1231
  48 1095 1227
  48 1092 1224
1888  650   66
1876  643   65
1877  625   65
 720  965  920
  34 1152 1244
  65 1333 1422
  77 1420 1511
  77 1408 1502
  76 1404 1498
2549  980  100
2540  975  100
2523  962   98
2545  943   90
1426 1533 1372
 157 1804 1778
 208 1892 1897
 202 1878 1884
 200 1872 1879
3422 1423  180
3406 1416  179
3374 1401  177
3362 1377  169
3326 1407  180
2117 2158 1904
 446 2446 2342
 443 2435 2341
 439 2428 2335
3908 2552 1870
3904 2535 1845
3897 2508 1803
3889 2477 1752
3890 2466 1754
3879 2487 1683
2888 2816 2484
 666 3125 2796
 665 3114 2790
3987 2914 2388
3987 2914 2388
3987 2914 2388
3987 2915 2388
3991 2926 2408
4007 2982 2517
4025 3053 2489
3342 3201 2740
3342 3201 2740
3987 2914 2388
3987 2914 2388
3987 2914 2388
3987 2914 2388
3990 2925 2405
4006 2979 2517
4023 3046 2508
3342 3201 2740
3342 3201 2740
1076   47  108
1064   28  255
 968   63 1239
  45  725  913
  43  846 1011
  53 1055 1201
  52 1061 1206
  52 1057 1202
  52 1055 1200
1095   85   42
 881  142  204
 719  148 1067
  27  649  829
  31  792  945
  51 1015 1152
  51 1035 1180
  51 1033 1177
  51 1032 1176
 902  483   75
 888  476   73
 514  740  792
  46  755  865
  36  852  984
  59 1056 1186
  59 1118 1252
  58 1110 1244
  57 1107 1241
1826  633   64
1815  627   63
1666  768  372
 742  958  923
  49 1128 1226
  63 1293 1390
  75 1393 1492
  73 1381 1482
  73 1376 1478
2488  946   95
2479  941   95
2456  934  111
2477  920  136
1366 1477 1322
 131 1743 1731
 192 1852 1861
 187 1838 1849
 185 1833 1845
3327 1380  174
3312 1374  173
3282 1360  171
3264 1336  165
3242 1361  174
2062 2115 1865
 415 2397 2300
 416 2391 2305
 412 2385 2300
3887 2473 1743
3883 2459 1719
3876 2435 1678
3868 2405 1630
3871 2396 1638
3861 2407 1550
2832 2775 2447
 662 3070 2769
 662 3059 2764
3987 2914 2388
3987 2914 2388
3987 2914 2388
3987 2914 2388
3991 2926 2407
4007 2982 2520
4024 3051 2503
3342 3201 2740
3342 3201 2740
3987 2914 2388
3987 2914 2388
3987 2914 2388
3987 2914 2388
3990 2923 2403
4005 2974 2509
4021 3042 2513
3342 3201 2740
3342 3201 2740
1920  123  180
1927  100  200
2092   77  823
1973  217 1968
 222 1334 1661
 123 1324 1529
 118 1326 1522
 116 1319 1513
 115 1316 1509
1797  118  163
1774  135  172
1900   72  660
1803  193 1841
 175 1199 1482
 106 1254 1447
 103 1273 1457
 101 1267 1448
 100 1264 1443
1727  484   67
1722  470   67
1498  628  548
1531  673 1624
 117 1112 1340
  93 1206 1374
  95 1270 1418
  93 1261 1406
  91 1256 1401
1606  857  149
1593  850  148
1542  887  362
1285 1320 1319
 456 1303 1397
 265 1379 1485
 245 1466 1565
 233 1451 1552
 229 1446 1547
2432  963  104
2423  957  103
2405  944  100
2180 1269  808
1486 1559 1409
 389 1747 1748
 343 1851 1867
 324 1837 1855
 318 1831 1849
3223 1352  172
3211 1345  170
3187 1332  168
3046 1465  582
3072 1450  562
2026 2078 1837
 479 2338 2259
 445 2335 2273
 436 2327 2267
3859 2376 1575
3855 2363 1553
3850 2336 1508
3845 2296 1445
3849 2280 1451
3838 2284 1356
2749 2714 2393
 652 2994 2727
 650 2987 2721
3987 2914 2388
3987 2914 2388
3987 2914 2388
3987 2914 2388
3990 2924 2404
4005 2976 2512
4022 3044 2511
3342 3201 2740
3342 3201 2740
3987 2914 2388
3987 2914 2388
3987 2914 2388
3987 2914 2388
3989 2920 2396
4002 2967 2496
4020 3037 2522
3342 3201 2740
3342 3201 2740
2659  180  266
2657  172  270
2803  123  520
2860  231 1694
2801  370 2631
1081 2257 2808
 730 2030 2448
 682 1998 2404
 657 1981 2381
2558  178  251
2548  177  250
2663  115  414
2745  201 1547
2677  347 2538
 825 2051 2531
 402 1822 2167
 365 1799 2136
 346 1787 2120
2481  290  207
2468  284  206
2338  610  501
2565  536 1214
2470  673 2360
 596 1820 2194
 230 1634 1893
 224 1621 1874
 222 1615 1866
2109  926  178
2103  917  176
2088  911  259
2123 1199 1019
2228 1280 2143
 513 1688 1923
 369 1682 1854
 347 1663 1833
 341 1656 1826
2302 1345  230
2293 1337  229
2273 1321  227
2141 1426  788
1997 1931 1847
1240 1923 1996
 879 1962 2008
 832 1946 1990
 821 1939 1983
3178 1403  186
3164 1395  185
3138 1380  182
3022 1476  515
2689 1859 1382
2185 2169 1968
1080 2382 2310
1009 2382 2322
 996 2374 2316
3847 2308 1433
3844 2292 1406
3838 2263 1360
3830 2220 1289
3835 2260 1410
3844 2283 1418
2749 2701 2401
1276 2959 2739
1265 2951 2734
3997 2951 2449
3996 2950 2447
3996 2949 2445
3995 2946 2441
4000 2962 2470
4011 3000 2540
4027 3073 2581
3384 3225 2764
3384 3225 2764
3994 2942 2434
3994 2942 2433
3994 2941 2432
3994 2940 2430
3997 2952 2456
4008 2988 2523
4024 3056 2568
3474 3198 2674
3377 3218 2758
3372  216  332
3365  216  332
3438  160  463
3583  157 1294
3636  432 2499
3704  564 3391
3631  919 3588
3609  930 3586
3596  935 3586
3287  214  332
3275  214  332
3322  165  431
3480  151 1130
3528  392 2380
3552  526 3262
3469  989 3579
3449  988 3584
3440  987 3586
3151  277  300
3141  275  299
3104  510  461
3268  368  877
3334  601 2147
3316  722 3061
3249 1025 3630
3231 1001 3632
3221  995 3633
3119  613  156
3108  608  159
3091  619  201
2844 1209 1011
3102 1123 1791
3070 1253 2852
2074 2665 3501
2036 2754 3470
1996 2730 3431
2615 1475  299
2607 1465  299
2592 1444  297
2548 1441  605
2621 1780 1541
2803 1941 2625
1378 2321 2533
1199 2268 2474
1176 2258 2463
2965 1933  320
2955 1924  319
2936 1908  317
2874 1906  570
2704 2062 1363
2625 2490 2343
2080 2535 2585
1971 2514 2566
1957 2506 2558
3848 2363 1447
3846 2348 1421
3842 2323 1379
3836 2284 1316
3836 2298 1371
3509 2581 2080
2895 2793 2540
2056 3020 2863
2046 3012 2857
4025 3065 2602
4025 3064 2600
4024 3061 2596
4023 3056 2590
4025 3064 2602
4040 3158 2736
4053 3226 2811
3517 3342 2891
3487 3346 2888
4022 3048 2580
4022 3046 2577
4021 3044 2574
4020 3039 2568
4021 3045 2577
4035 3120 2702
4048 3197 2778
3782 3278 2673
3495 3322 2869
3477  227  338
3477  227  338
3534  167  442
3728  151 1123
3809  380 2335
3860  549 3304
3977  647 3651
3977  647 3651
3977  647 3651
3477  227  338
3477  227  338
3515  181  406
3701  151  978
3794  333 2178
3835  528 3180
3977  647 3651
3977  647 3651
3977  647 3651
3512  269  332
3510  266  332
3513  282  364
3660  180  741
3794  378 1886
3824  653 2987
3986  784 3654
3985  768 3653
3984  762 3653
3697  538  308
3693  533  308
3681  518  309
3497 1138  961
3771  924 1454
3827 1195 2694
3975 1347 3657
3968 1342 3671
3965 1336 3669
3662 1239  198
3659 1227  193
3655 1202  181
3724 1262  521
3437 1817 1556
3763 1784 2306
3828 1949 3511
3789 2004 3661
3779 1998 3658
3283 2160  349
3273 2152  350
3255 2135  351
3224 2109  488
3179 2129 1100
3274 2377 2121
3546 2562 3203
3271 2675 3702
3247 2671 3699
3925 2628  399
3911 2617  397
3892 2602  393
3858 2575  387
3744 2598 1082
3484 2740 2018
3218 3073 2898
2793 3163 3136
2782 3153 3129
4065 3322 2919
4065 3318 2913
4064 3313 2905
4063 3305 2895
4063 3306 2899
4066 3360 2987
4071 3494 3177
3753 3581 3188
3493 3676 3237
4062 3290 2877
4061 3287 2872
4061 3282 2867
4060 3275 2858
4060 3274 2859
4065 3331 2943
4071 3473 3136
4078 3528 3056
3762 3582 3158
3477  227  338
3477  227  338
3526  172  427
3718  151 1051
3802  357 2268
3847  537 3251
3977  647 3651
3977  647 3651
3977  647 3651
3477  227  338
3477  227  338
3510  187  393
3688  151  926
3789  315 2112
3826  520 3123
3977  647 3651
3977  647 3651
3977  647 3651
3504  259  332
3502  257  332
3509  253  351
3645  158  693
3789  300 1814
3822  603 2926
3982  734 3653
3981  713 3652
3980  706 3652
3664  496  310
3659  491  310
3649  478  311
3498 1061  896
3770  850 1372
3839 1114 2622
3978 1273 3621
3994 1266 3670
3994 1258 3669
3814 1082  134
3815 1067  135
3816 1036  139
3837 1155  477
3545 1752 1504
3871 1667 2192
3935 1870 3420
4008 1910 3710
4008 1904 3710
3555 2116  465
3554 2104  463
3552 2084  461
3547 2052  500
3624 2040 1033
3726 2393 2106
3966 2493 3001
4032 2544 3756
4032 2536 3755
3928 2728 1729
3924 2719 1700
3919 2704 1649
3915 2676 1537
3919 2673 1400
3876 2797 1694
3949 3051 2802
4053 3155 3821
4053 3147 3819
4078 3757 3375
4078 3750 3364
4078 3729 3330
4078 3703 3286
4078 3676 3241
4078 3694 3294
4080 3772 3437
4051 3964 3861
3944 3974 3884
4081 3718 3294
4081 3714 3284
4081 3708 3272
4082 3700 3255
4082 3692 3245
4080 3725 3326
4077 3829 3546
4084 4007 3891
4063 4018 3879
3477  227  338
3477  227  338
3522  175  419
3712  151 1023
3799  348 2232
3842  533 3221
3977  647 3651
3977  647 3651
3977  647 3651
3477  227  338
3477  227  338
3507  189  386
3680  151  899
3787  306 2081
3824  519 3101
3977  647 3651
3977  647 3651
3977  647 3651
3501  255  333
3499  254  333
3508  241  346
3638  154  674
3786  275 1789
3821  584 2901
3981  713 3652
3980  691 3652
3979  683 3652
3651  481  311
3648  476  311
3641  467  313
3498 1037  872
3767  825 1345
3840 1088 2598
3972 1242 3610
3993 1241 3669
3993 1232 3669
3816 1042  138
3817 1026  140
3819  998  143
3836 1121  453
3541 1726 1481
3866 1638 2162
3925 1844 3395
4008 1890 3711
4008 1883 3711
3552 2085  461
3551 2072  459
3548 2051  457
3544 2021  491
3627 2007 1012
3721 2369 2086
3964 2471 2968
4032 2522 3754
4032 2515 3754
3919 2702 1642
3917 2692 1599
3914 2675 1532
3910 2648 1423
3914 2647 1286
3843 2776 1656
3939 3026 2773
4052 3130 3817
4052 3122 3816
4078 3728 3337
4078 3712 3315
4078 3694 3292
4078 3672 3262
4078 3647 3229
4078 3668 3279
4078 3771 3447
4082 3962 3837
4083 3996 4016
4078 3757 3375
4078 3757 3375
4078 3757 3375
4078 3757 3375
4078 3758 3377
4076 3802 3471
4078 3905 3659
4086 4056 3982
4091 4095 4095
