nova/tdt-studio/app/Lut_mau/IWLTBAP/2 - LUTs by IWLTBAP (3DL)/02 - Generic LOG/Psychedelia/Gyrenam - LOG.3dl
# Copyright: (C) Copyright 2010-2018 by IWLTBAP SAS
# Cannot be resold, shared or otherwise redistributed
# Website: https://luts.iwltbap.com
0 256 512 768 1023
   0    0    0
   0  250  356
  19  749  871
  45  975 1101
  45  975 1101
1254  394   27
 256  549  564
  27  855  986
  48 1113 1243
  48 1104 1235
2577  995  103
2551  978  100
1452 1558 1395
 214 1910 1913
 207 1890 1895
3919 2598 1938
3909 2553 1873
3902 2507 1822
2920 2844 2502
 667 3148 2806
3987 2914 2388
3987 2914 2388
3990 2925 2406
4024 3049 2505
3342 3201 2740
1076   47  108
 968   63 1239
  43  846 1011
  52 1061 1206
  52 1055 1200
 902  483   75
 514  740  792
  36  852  984
  59 1118 1252
  57 1107 1241
2488  946   95
2456  934  111
1366 1477 1322
 192 1852 1861
 185 1833 1845
3887 2473 1743
3876 2435 1678
3871 2396 1638
2832 2775 2447
 662 3059 2764
3987 2914 2388
3987 2914 2388
3990 2923 2403
4021 3042 2513
3342 3201 2740
2659  180  266
2803  123  520
2801  370 2631
 730 2030 2448
 657 1981 2381
2481  290  207
2338  610  501
2470  673 2360
 230 1634 1893
 222 1615 1866
2302 1345  230
2273 1321  227
1997 1931 1847
 879 1962 2008
 821 1939 1983
3847 2308 1433
3838 2263 1360
3835 2260 1410
2749 2701 2401
1265 2951 2734
3994 2942 2434
3994 2941 2432
3997 2952 2456
4024 3056 2568
3377 3218 2758
3477  227  338
3534  167  442
3809  380 2335
3977  647 3651
3977  647 3651
3512  269  332
3513  282  364
3794  378 1886
3986  784 3654
3984  762 3653
3662 1239  198
3655 1202  181
3437 1817 1556
3828 1949 3511
3779 1998 3658
3925 2628  399
3892 2602  393
3744 2598 1082
3218 3073 2898
2782 3153 3129
4062 3290 2877
4061 3282 2867
4060 3274 2859
4071 3473 3136
3762 3582 3158
3477  227  338
3522  175  419
3799  348 2232
3977  647 3651
3977  647 3651
3501  255  333
3508  241  346
3786  275 1789
3981  713 3652
3979  683 3652
3816 1042  138
3819  998  143
3541 1726 1481
3925 1844 3395
4008 1883 3711
3919 2702 1642
3914 2675 1532
3914 2647 1286
3939 3026 2773
4052 3122 3816
4078 3757 3375
4078 3757 3375
4078 3758 3377
4078 3905 3659
4091 4095 4095
