nova/tdt-studio/app/Lut_mau/IWLTBAP/2 - LUTs by IWLTBAP (3DL)/02 - Generic LOG/Psychedelia/Gyrenam - LOG.3dl
# Copyright: (C) Copyright 2010-2018 by IWLTBAP SAS
# Cannot be resold, shared or otherwise redistributed
# Website: https://luts.iwltbap.com
0 64 128 192 256 320 384 448 512 576 640 704 768 832 896 960 1023
   0    0    0
   0    4   11
   0   17   54
   0   75  181
   0  250  356
   0  390  513
   0  511  625
   6  619  752
  19  749  871
  33  878 1016
  44  969 1097
  45  975 1101
  45  975 1101
  45  975 1101
  45  975 1101
  45  975 1101
  45  975 1101
   8    4    2
   0   12   34
   0   33   95
   0  103  192
   0  245  353
   0  379  499
   0  496  609
   6  603  736
  15  732  852
  32  859  998
  44  966 1095
  45  975 1101
  45  975 1101
  45  975 1101
  45  975 1101
  45  975 1101
  45  975 1101
 363   69    5
 349   67    5
  14  156  209
   0  259  364
   0  336  454
   0  434  542
   0  522  639
   6  615  747
  16  736  855
  31  856  994
  45  975 1104
  46  988 1114
  45  986 1112
  45  985 1111
  45  984 1110
  45  984 1110
  45  984 1110
 906  255    9
 899  252    9
 907  245    9
  99  369  412
   0  473  566
   0  524  637
   3  587  713
   8  669  793
  21  771  893
  33  883 1019
  47 1006 1132
  48 1032 1166
  48 1028 1159
  48 1026 1157
  48 1024 1154
  48 1023 1152
  48 1023 1152
1254  394   27
1249  392   27
1241  387   26
1251  384   25
 256  549  564
   0  652  753
   7  713  816
  17  775  894
  27  855  986
  41  956 1083
  48 1074 1206
  49 1120 1249
  48 1113 1243
  48 1110 1240
  48 1107 1237
  48 1104 1235
  48 1104 1235
1591  524   48
1586  522   48
1577  519   47
1587  512   48
1552  524   48
 488  762  750
  14  879  965
  24  932 1034
  36  999 1106
  43 1077 1200
  53 1182 1303
  66 1268 1373
  65 1257 1365
  65 1251 1361
  64 1246 1357
  64 1241 1354
  64 1241 1353
1926  670   66
1922  667   66
1912  662   66
1904  655   66
1915  641   65
1857  677   66
 752  990  940
  29 1133 1189
  35 1180 1269
  53 1271 1353
  67 1360 1449
  77 1448 1534
  77 1437 1525
  77 1431 1520
  77 1426 1516
  77 1422 1513
  77 1422 1513
2239  819   77
2235  817   77
2227  813   76
2216  808   76
2217  800   72
2252  789   68
2147  846   90
1099 1253 1130
  54 1455 1441
  69 1505 1531
  91 1579 1609
 122 1655 1698
 121 1658 1710
 118 1649 1703
 116 1644 1698
 114 1639 1693
 114 1639 1693
2577  995  103
2573  992  102
2567  989  102
2558  984  101
2551  978  100
2556  967   96
2571  961   93
2443 1051  137
1452 1558 1395
 122 1782 1698
 167 1828 1800
 202 1888 1884
 214 1910 1913
 211 1901 1904
 209 1895 1900
 207 1890 1895
 207 1890 1895
2938 1184  142
2933 1181  142
2927 1177  141
2916 1170  140
2902 1162  139
2901 1153  131
2920 1140  121
2905 1156  134
2752 1299  184
1789 1874 1660
 231 2097 1966
 290 2135 2075
 320 2169 2126
 317 2160 2120
 314 2154 2115
 311 2148 2110
 311 2148 2110
3472 1449  182
3464 1445  182
3456 1440  182
3440 1432  181
3419 1421  180
3407 1412  176
3411 1398  172
3451 1384  165
3370 1430  183
3131 1623  234
2148 2182 1931
 364 2438 2250
 462 2471 2364
 461 2465 2365
 457 2458 2360
 453 2451 2355
 453 2451 2354
3808 1956  870
3808 1946  851
3807 1935  833
3806 1919  805
3804 1897  767
3803 1871  716
3804 1848  677
3807 1855  728
3808 1852  779
3805 1845  522
3666 2019  275
2535 2517 2239
 550 2780 2547
 596 2783 2596
 594 2776 2591
 592 2768 2586
 592 2768 2586
3919 2598 1938
3917 2591 1928
3915 2582 1915
3913 2571 1898
3909 2553 1873
3904 2532 1842
3901 2518 1823
3898 2506 1807
3902 2507 1822
3904 2529 1866
3892 2533 1763
3872 2543 1444
2920 2844 2502
 722 3170 2813
 668 3157 2811
 667 3148 2807
 667 3148 2806
3987 2913 2386
3987 2913 2386
3987 2913 2385
3987 2913 2385
3987 2911 2382
3986 2907 2378
3985 2902 2370
3985 2901 2370
3988 2910 2400
3993 2927 2438
3998 2946 2453
4004 2974 2446
4015 2994 2311
3283 3144 2699
2953 3265 2704
2937 3267 2703
2936 3268 2703
3987 2914 2388
3987 2914 2388
3987 2914 2388
3987 2914 2388
3987 2914 2388
3987 2914 2388
3987 2915 2388
3988 2917 2392
3991 2927 2410
3998 2952 2470
4007 2983 2516
4014 3015 2520
4026 3054 2479
3801 3101 2345
3342 3201 2740
3342 3201 2740
3342 3201 2740
3987 2914 2388
3987 2914 2388
3987 2914 2388
3987 2914 2388
3987 2914 2388
3987 2914 2388
3987 2914 2388
3988 2916 2391
3990 2925 2406
3997 2949 2464
4007 2982 2521
4012 3009 2520
4024 3050 2504
3965 3078 2312
3342 3201 2740
3342 3201 2740
3342 3201 2740
3987 2914 2388
3987 2914 2388
3987 2914 2388
3987 2914 2388
3987 2914 2388
3987 2914 2388
3987 2914 2388
3988 2916 2391
3990 2925 2406
3997 2949 2463
4007 2982 2521
4012 3008 2520
4024 3049 2505
3975 3076 2310
3342 3201 2740
3342 3201 2740
3342 3201 2740
   1    0    7
   0    4  111
   0   25   89
   0   97  209
   0  258  370
   0  396  514
   0  510  629
   6  616  749
  17  745  867
  33  872 1011
  44  969 1097
  45  975 1101
  45  975 1101
  45  975 1101
  45  975 1101
  45  975 1101
  45  975 1101
   6    6    1
   0   21   64
   0   40   92
   0   84  171
   0  229  335
   0  364  489
   0  490  601
   5  599  732
  15  728  847
  31  854  993
  44  965 1095
  45  975 1101
  45  975 1101
  45  975 1101
  45  975 1101
  45  975 1101
  45  975 1101
 325   62    5
 309   59    4
  10  136  194
   0  243  345
   0  323  443
   0  423  533
   0  514  629
   6  610  741
  16  730  849
  30  850  987
  44  973 1101
  45  986 1112
  45  985 1111
  45  984 1110
  45  983 1109
  45  982 1108
  45  982 1108
 882  246    9
 874  244    9
 882  237    8
  94  359  402
   0  464  557
   0  515  626
   2  580  706
   7  660  786
  20  764  884
  32  876 1013
  47 1002 1128
  48 1029 1161
  48 1025 1155
  48 1023 1153
  48 1022 1150
  48 1020 1148
  48 1020 1148
1240  388   26
1235  386   26
1225  381   25
1235  377   24
 248  542  558
   0  643  746
   7  705  809
  16  768  885
  27  847  978
  40  948 1076
  48 1066 1198
  49 1115 1245
  48 1108 1239
  48 1105 1236
  48 1103 1234
  48 1100 1231
  48 1100 1231
1578  519   47
1574  517   47
1565  514   46
1572  507   47
1542  519   47
 478  754  743
  13  869  956
  23  922 1026
  35  991 1097
  42 1068 1191
  52 1173 1294
  65 1261 1368
  64 1250 1360
  64 1243 1355
  64 1238 1352
  63 1234 1348
  63 1233 1348
1912  662   66
1908  660   66
1899  656   66
1891  648   65
1902  635   65
1843  669   66
 740  981  933
  28 1121 1180
  35 1170 1260
  52 1258 1344
  66 1350 1439
  77 1440 1528
  77 1430 1520
  77 1424 1514
  77 1420 1511
  77 1415 1507
  77 1415 1507
2226  812   76
2221  811   76
2214  808   76
2204  803   75
2205  795   71
2240  783   67
2138  840   89
1084 1243 1124
  53 1443 1431
  67 1493 1523
  88 1569 1600
 118 1644 1687
 118 1650 1703
 115 1641 1695
 114 1636 1690
 112 1631 1685
 112 1631 1685
2566  988  102
2562  986  101
2556  983  101
2546  978  100
2539  971   99
2543  960   95
2560  953   92
2433 1043  134
1440 1547 1384
 119 1770 1688
 163 1817 1790
 198 1879 1874
 211 1902 1905
 208 1893 1897
 206 1888 1893
 204 1883 1888
 204 1882 1888
2924 1175  141
2919 1172  140
2912 1168  140
2901 1162  139
2889 1156  138
2889 1147  130
2906 1133  121
2894 1149  132
2740 1290  182
1777 1863 1649
 226 2086 1957
 285 2124 2066
 316 2158 2117
 312 2151 2113
 310 2145 2108
 307 2139 2103
 307 2139 2103
3450 1437  181
3443 1434  181
3434 1429  181
3418 1421  180
3399 1413  179
3386 1403  175
3390 1389  171
3428 1374  164
3351 1420  182
3115 1612  233
2134 2171 1919
 359 2427 2240
 455 2459 2354
 455 2455 2357
 451 2448 2352
 447 2442 2347
 447 2441 2346
3806 1929  823
3806 1920  807
3805 1910  789
3804 1894  762
3803 1872  717
3804 1844  658
3804 1822  621
3807 1827  676
3808 1824  729
3805 1817  463
3656 2004  273
2522 2505 2230
 544 2768 2537
 593 2772 2589
 591 2765 2584
 589 2758 2580
 589 2758 2580
3914 2578 1908
3913 2571 1898
3911 2562 1885
3908 2551 1868
3904 2532 1841
3899 2513 1812
3895 2500 1793
3892 2486 1774
3897 2489 1792
3900 2508 1836
3886 2512 1726
3867 2522 1403
2907 2831 2495
 665 3156 2808
 667 3143 2804
 666 3134 2800
 666 3133 2799
3987 2913 2385
3987 2913 2385
3987 2913 2385
3987 2913 2385
3987 2910 2382
3986 2906 2377
3985 2901 2368
3985 2899 2368
3987 2908 2394
3992 2923 2432
3998 2942 2450
4003 2969 2439
4014 2989 2308
3279 3140 2697
2929 3269 2702
2913 3271 2701
2912 3272 2701
3987 2914 2388
3987 2914 2388
3987 2914 2388
3987 2914 2388
3987 2914 2388
3987 2914 2388
3987 2915 2388
3988 2917 2392
3991 2927 2409
3998 2952 2469
4007 2983 2516
4013 3014 2520
4026 3053 2483
3813 3099 2343
3342 3201 2740
3342 3201 2740
3342 3201 2740
3987 2914 2388
3987 2914 2388
3987 2914 2388
3987 2914 2388
3987 2914 2388
3987 2914 2388
3987 2914 2388
3988 2916 2390
3990 2925 2406
3997 2948 2462
4007 2982 2522
4012 3008 2520
4023 3048 2506
3995 3073 2306
3342 3201 2740
3342 3201 2740
3342 3201 2740
3987 2914 2388
3987 2914 2388
3987 2914 2388
3987 2914 2388
3987 2914 2388
3987 2914 2388
3987 2914 2388
3988 2916 2390
3990 2925 2406
3997 2948 2462
4007 2981 2521
4012 3007 2520
4023 3048 2506
4004 3072 2304
3342 3201 2740
3342 3201 2740
3342 3201 2740
 170    0   33
 126    0   94
  52  107  472
   0  259  404
   0  330  463
   0  434  548
   0  527  648
   6  627  762
  19  751  874
  32  878 1017
  46  976 1105
  46  983 1110
  45  982 1109
  45  982 1109
  45  981 1108
  45  981 1108
  45  981 1108
 143    8   20
 102   15   48
  33  105  402
   0  199  327
   0  289  416
   0  403  521
   0  506  619
   6  608  742
  17  733  854
  32  857  996
  44  971 1100
  45  980 1107
  45  980 1107
  45  980 1107
  45  979 1106
  45  979 1106
  45  979 1106
 167  116   21
 158  111   21
  43  239  323
   0  279  385
   0  340  463
   0  431  540
   0  516  636
   5  610  742
  16  727  847
  31  845  983
  46  971 1100
  47  986 1113
  47  984 1110
  47  983 1109
  46  982 1108
  46  981 1107
  46  981 1107
 844  245    9
 836  243    9
 675  290  163
 101  371  409
   0  457  553
   0  505  613
   2  570  696
   6  645  774
  18  753  871
  31  863  999
  46  992 1117
  48 1023 1152
  48 1019 1146
  48 1017 1144
  48 1016 1141
  48 1014 1138
  48 1014 1138
1208  373   24
1204  371   23
1194  366   23
1206  362   22
 232  526  544
   0  627  731
   5  685  793
  14  752  866
  26  830  962
  39  931 1063
  48 1050 1184
  48 1106 1237
  48 1100 1231
  48 1097 1229
  48 1095 1227
  48 1092 1224
  48 1092 1224
1551  509   45
1547  507   45
1539  504   44
1543  497   45
1520  508   45
 457  737  728
  13  851  940
  22  904 1012
  34  975 1081
  41 1051 1174
  51 1157 1279
  64 1248 1358
  63 1236 1350
  63 1230 1346
  62 1225 1342
  62 1220 1339
  62 1220 1339
1888  650   66
1884  647   65
1876  643   65
1868  636   65
1877  625   65
1822  655   65
 720  965  920
  27 1104 1163
  34 1152 1244
  50 1239 1329
  65 1333 1422
  76 1426 1516
  77 1420 1511
  77 1413 1505
  77 1408 1502
  76 1404 1498
  76 1404 1498
2205  804   75
2201  802   75
2195  799   75
2184  794   74
2185  787   70
2220  775   67
2123  832   87
1062 1227 1115
  51 1425 1416
  63 1475 1510
  84 1553 1587
 112 1629 1673
 114 1639 1693
 112 1630 1684
 111 1626 1680
 110 1621 1675
 110 1621 1674
2549  980  100
2545  978  100
2540  975  100
2530  969   99
2523  962   98
2527  951   94
2545  943   90
2421 1034  131
1426 1533 1372
 115 1754 1675
 157 1804 1778
 193 1866 1862
 208 1892 1897
 204 1883 1889
 202 1878 1884
 200 1872 1879
 200 1872 1879
2905 1164  139
2900 1161  139
2895 1158  138
2885 1154  137
2873 1148  136
2872 1138  128
2889 1125  120
2879 1140  129
2724 1279  180
1762 1850 1636
 220 2073 1945
 278 2108 2054
 310 2146 2107
 307 2140 2104
 304 2133 2098
 301 2127 2094
 301 2127 2093
3422 1423  180
3415 1420  180
3406 1416  179
3393 1410  178
3374 1401  177
3360 1391  174
3362 1377  169
3400 1363  163
3326 1407  180
3094 1597  231
2117 2158 1904
 353 2410 2225
 446 2446 2342
 447 2442 2347
 443 2435 2341
 439 2428 2336
 439 2428 2335
3804 1898  768
3803 1889  753
3803 1878  730
3803 1862  695
3804 1838  644
3804 1813  591
3805 1788  548
3807 1791  607
3807 1790  669
3805 1780  386
3640 1986  271
2506 2490 2219
 536 2754 2526
 589 2760 2581
 587 2752 2576
 585 2746 2572
 584 2745 2571
3908 2552 1870
3907 2545 1860
3904 2535 1845
3902 2524 1829
3897 2508 1803
3892 2490 1773
3889 2477 1752
3885 2462 1733
3890 2466 1754
3894 2481 1796
3879 2487 1683
3862 2497 1349
2888 2816 2484
 664 3138 2799
 666 3125 2796
 665 3114 2790
 665 3114 2790
3987 2913 2385
3987 2913 2385
3987 2913 2385
3987 2912 2385
3986 2910 2381
3986 2906 2376
3984 2899 2367
3984 2897 2365
3987 2904 2387
3992 2918 2426
3997 2939 2446
4001 2963 2431
4013 2983 2301
3274 3135 2693
2900 3274 2700
2877 3277 2697
2877 3277 2697
3987 2914 2388
3987 2914 2388
3987 2914 2388
3987 2914 2388
3987 2914 2388
3987 2914 2388
3987 2915 2388
3988 2917 2392
3991 2926 2408
3998 2952 2468
4007 2982 2517
4013 3012 2520
4025 3053 2489
3837 3096 2338
3342 3201 2740
3342 3201 2740
3342 3201 2740
3987 2914 2388
3987 2914 2388
3987 2914 2388
3987 2914 2388
3987 2914 2388
3987 2914 2388
3987 2914 2388
3988 2916 2390
3990 2925 2405
3997 2947 2460
4006 2980 2518
4012 3007 2520
4023 3046 2508
4034 3068 2298
3342 3201 2740
3342 3201 2740
3342 3201 2740
3987 2914 2388
3987 2914 2388
3987 2914 2388
3987 2914 2388
3987 2914 2388
3987 2914 2388
3987 2914 2388
3988 2916 2390
3990 2925 2405
3996 2947 2460
4006 2979 2517
4012 3006 2520
4023 3046 2508
4041 3067 2297
3342 3201 2740
3342 3201 2740
3342 3201 2740
 648    8   48
 620    4   86
 540    0  412
 387   33  846
  42  565  798
   5  524  683
  10  585  734
  12  675  809
  24  779  918
  39  898 1041
  50 1001 1133
  49 1007 1138
  49 1006 1135
  48 1005 1134
  48 1004 1132
  48 1003 1131
  48 1003 1131
 564    6   41
 557    6   40
 463    0  342
 288   36  772
  22  501  705
   2  496  644
   5  560  704
  11  647  783
  21  757  887
  34  876 1018
  48  992 1121
  48 1001 1130
  48 1000 1128
  48 1000 1128
  48  999 1127
  48  998 1126
