nova/tdt-studio/app/Lut_mau/IWLTBAP/2 - LUTs by IWLTBAP (3DL)/02 - Generic LOG/Psychedelia/Suppol - LOG.3dl
# Copyright: (C) Copyright 2010-2018 by IWLTBAP SAS
# Cannot be resold, shared or otherwise redistributed
# Website: https://luts.iwltbap.com
0 64 128 192 256 320 384 448 512 576 640 704 768 832 896 960 1023
  13    7   10
   2   23   28
   0   91  104
   0  190  214
   0  295  339
   0  394  473
   0  509  610
   0  640  769
   0  790  947
   0  958 1142
   0 1062 1268
   0 1067 1275
   0 1067 1275
   0 1067 1275
   0 1067 1275
   0 1067 1275
   0 1067 1275
  79   34  121
  69   39   98
   2  107  136
   0  192  216
   0  290  334
   0  379  461
   0  490  593
   0  623  743
   0  764  924
   0  938 1111
   0 1059 1265
   0 1067 1275
   0 1067 1275
   0 1067 1275
   0 1067 1275
   0 1067 1275
   0 1067 1275
 282  111  443
 277  109  435
 255  127  342
   0  283  349
   0  360  417
   0  430  516
   0  528  631
   0  643  768
   0  776  934
   0  936 1113
   0 1075 1281
   0 1087 1302
   0 1084 1299
   0 1083 1297
   0 1082 1296
   0 1081 1294
   0 1081 1294
 583  188  816
 576  186  808
 584  187  739
 538  225  642
  22  458  594
   0  537  632
   0  610  725
   0  707  849
   0  835  986
   0  972 1156
   0 1118 1331
   0 1154 1367
   0 1149 1361
   0 1147 1358
   0 1145 1355
   0 1143 1353
   0 1142 1353
1029  296 1299
1021  294 1291
1005  290 1270
1055  284 1164
 999  329 1010
  95  662  874
   0  767  883
   0  845  982
   0  944 1109
   0 1063 1257
   0 1208 1425
   0 1262 1486
   0 1255 1475
   0 1252 1471
   0 1248 1468
   0 1244 1465
   0 1244 1464
1653  437 1889
1643  435 1880
1624  430 1863
1623  432 1791
1695  409 1670
1631  460 1478
 337  909 1229
   0 1055 1196
   0 1126 1295
   0 1222 1428
   0 1340 1569
   0 1417 1667
   0 1408 1655
   0 1403 1648
   0 1399 1643
   0 1395 1637
   0 1395 1637
2401  697 2550
2391  693 2542
2371  684 2524
2349  679 2486
2373  664 2402
2442  627 2258
2369  668 2021
 754 1216 1654
   0 1388 1549
   0 1458 1653
   0 1547 1776
   0 1640 1898
   0 1626 1883
   0 1618 1874
   0 1613 1868
   0 1607 1862
   0 1606 1861
3126 1223 3202
3118 1214 3195
3104 1198 3181
3085 1177 3163
3079 1151 3103
3109 1114 3017
3150 1063 2858
3076 1068 2617
1323 1548 2108
   0 1750 1939
   0 1801 2029
   0 1881 2165
   0 1880 2169
   0 1870 2158
   0 1864 2151
   0 1857 2144
   0 1857 2144
3569 1930 3653
3567 1923 3650
3564 1912 3646
3558 1895 3640
3566 1872 3627
3593 1845 3597
3630 1804 3522
3680 1731 3383
3631 1672 3168
1931 1953 2613
   0 2112 2347
   0 2169 2431
   0 2182 2471
   0 2169 2459
   0 2162 2452
   0 2156 2446
   0 2155 2446
3626 2420 3741
3626 2416 3741
3626 2410 3740
3627 2400 3740
3627 2388 3739
3658 2381 3739
3714 2380 3738
3806 2382 3729
3918 2355 3691
3968 2307 3592
2509 2366 3072
  96 2478 2764
   0 2505 2786
   0 2492 2776
   0 2484 2768
   0 2477 2761
   0 2477 2760
3624 2763 3764
3624 2760 3764
3624 2756 3764
3624 2749 3763
3624 2739 3763
3632 2735 3762
3669 2740 3763
3718 2745 3763
3807 2753 3763
3915 2757 3757
4002 2752 3731
3002 2733 3442
 623 2799 3150
 219 2806 3118
 202 2800 3109
 185 2793 3101
 184 2793 3101
3627 3061 3805
3627 3056 3805
3627 3052 3804
3626 3046 3803
3626 3038 3802
3627 3029 3801
3640 3023 3801
3682 3025 3801
3724 3046 3802
3805 3058 3804
3898 3072 3803
3988 3098 3794
3418 3076 3715
2641 3038 3634
2575 3031 3621
2510 3024 3609
2507 3024 3608
3681 3361 3851
3680 3357 3851
3679 3353 3850
3677 3347 3849
3675 3339 3847
3672 3328 3845
3678 3320 3844
3690 3316 3843
3712 3316 3844
3755 3322 3846
3818 3349 3848
3900 3367 3852
3983 3389 3855
3956 3408 3854
3945 3400 3852
3936 3392 3850
3935 3392 3850
3725 3524 3884
3725 3524 3884
3725 3524 3884
3725 3524 3884
3724 3523 3884
3724 3521 3883
3725 3519 3883
3732 3520 3883
3752 3525 3885
3781 3534 3888
3816 3548 3892
3879 3574 3900
3942 3613 3914
3997 3637 3922
3999 3635 3921
3999 3633 3920
3999 3633 3920
3725 3525 3884
3725 3525 3884
3725 3525 3884
3725 3525 3884
3725 3525 3884
3725 3525 3884
3725 3525 3884
3732 3528 3885
3747 3535 3887
3780 3548 3890
3810 3565 3895
3866 3589 3903
3922 3636 3920
3991 3671 3936
4001 3678 3939
4001 3678 3939
4001 3678 3939
3725 3525 3884
3725 3525 3884
3725 3525 3884
3725 3525 3884
3725 3525 3884
3725 3525 3884
3725 3525 3884
3731 3527 3885
3741 3534 3887
3775 3545 3890
3803 3561 3894
3850 3584 3901
3912 3630 3917
3985 3666 3935
4001 3678 3939
4001 3678 3939
4001 3678 3939
3725 3525 3884
3725 3525 3884
3725 3525 3884
3725 3525 3884
3725 3525 3884
3725 3525 3884
3725 3525 3884
3731 3527 3885
3741 3534 3886
3775 3545 3890
3803 3561 3894
3849 3584 3901
3911 3629 3917
3984 3665 3935
4001 3678 3939
4001 3678 3939
4001 3678 3939
  76    1   10
  43   18   38
   0  108  131
   0  200  230
   0  300  347
   0  394  475
   0  506  609
   0  637  767
   0  783  942
   0  953 1133
   0 1061 1267
   0 1067 1275
   0 1067 1275
   0 1067 1275
   0 1067 1275
   0 1067 1275
   0 1067 1275
  64   37  105
  54   37   75
   0  105  122
   0  178  201
   0  278  321
   0  367  450
   0  482  585
   0  616  738
   0  760  916
   0  930 1105
   0 1058 1264
   0 1067 1275
   0 1067 1275
   0 1067 1275
   0 1067 1275
   0 1067 1275
   0 1067 1275
 268  106  421
 262  104  412
 240  121  323
   0  272  333
   0  349  405
   0  422  504
   0  520  619
   0  636  758
   0  767  925
   0  927 1102
   0 1072 1276
   0 1085 1299
   0 1082 1296
   0 1081 1294
   0 1080 1293
   0 1079 1291
   0 1079 1291
 563  182  792
 556  180  785
 566  181  722
 519  221  625
  22  448  581
   0  528  620
   0  600  715
   0  697  838
   0  827  975
   0  964 1146
   0 1113 1325
   0 1150 1363
   0 1146 1357
   0 1143 1354
   0 1141 1351
   0 1139 1349
   0 1139 1349
1006  290 1276
 998  288 1269
 982  284 1252
1030  279 1143
 978  324  992
  83  656  862
   0  757  872
   0  835  972
   0  933 1097
   0 1053 1247
   0 1198 1415
   0 1257 1479
   0 1250 1469
   0 1245 1466
   0 1242 1463
   0 1238 1460
   0 1238 1460
1626  430 1865
1617  429 1857
1598  425 1840
1594  426 1768
1668  404 1651
1604  454 1458
 321  898 1214
   0 1041 1183
   0 1115 1282
   0 1211 1416
   0 1329 1557
   0 1411 1659
   0 1402 1647
   0 1397 1640
   0 1393 1634
   0 1389 1629
   0 1389 1629
2370  684 2524
2361  680 2516
2343  672 2500
2320  666 2463
2345  652 2379
2411  613 2233
2342  657 1999
 731 1205 1638
   0 1376 1535
   0 1446 1640
   0 1536 1763
   0 1630 1888
   0 1618 1874
   0 1609 1865
   0 1604 1858
   0 1598 1852
   0 1598 1852
3102 1195 3179
3094 1187 3171
3083 1173 3160
3064 1152 3142
3056 1127 3083
3086 1090 2995
3126 1044 2837
3051 1051 2596
1305 1533 2090
   0 1735 1923
   0 1787 2014
   0 1868 2151
   0 1871 2158
   0 1860 2147
   0 1854 2140
   0 1846 2133
   0 1846 2133
3563 1909 3645
3560 1901 3643
3557 1891 3639
3551 1872 3632
3556 1849 3617
3578 1820 3584
3615 1779 3507
3664 1703 3365
3613 1648 3149
1906 1937 2594
   0 2098 2332
   0 2157 2418
   0 2171 2460
   0 2159 2449
   0 2152 2442
   0 2145 2436
   0 2145 2436
3627 2407 3740
3627 2403 3740
3627 2397 3740
3627 2387 3739
3627 2374 3738
3656 2367 3738
3713 2364 3736
3805 2366 3727
3916 2337 3685
3962 2287 3583
2489 2352 3058
  75 2467 2750
   0 2492 2773
   0 2481 2764
   0 2473 2757
   0 2466 2749
   0 2465 2749
3624 2754 3764
3624 2750 3763
3624 2746 3763
3624 2739 3762
3624 2729 3762
3632 2725 3762
3668 2729 3762
3718 2733 3762
3807 2742 3762
3916 2746 3756
4003 2740 3729
2990 2721 3432
 593 2788 3137
 193 2797 3106
 175 2790 3097
 159 2784 3089
 158 2784 3089
3627 3050 3804
3626 3047 3804
3626 3043 3803
3626 3037 3802
3626 3028 3801
3627 3019 3799
3640 3014 3799
3681 3015 3799
3723 3036 3801
3804 3048 3803
3898 3062 3802
3988 3088 3791
3402 3066 3708
2546 3028 3616
2479 3021 3603
2420 3014 3592
2417 3014 3591
3678 3351 3849
3677 3347 3849
3676 3343 3848
3674 3337 3847
3672 3328 3845
3669 3319 3843
3675 3310 3842
3688 3306 3842
3710 3306 3842
3752 3312 3844
3817 3339 3846
3899 3357 3850
3982 3379 3852
3948 3398 3851
3930 3389 3849
3921 3381 3848
3920 3381 3847
3725 3524 3884
3725 3524 3884
3725 3524 3884
3725 3524 3884
3724 3523 3884
3724 3521 3883
3724 3518 3883
3732 3519 3883
3751 3523 3885
3780 3532 3887
3815 3546 3891
3878 3572 3900
3940 3610 3913
3997 3634 3921
3999 3632 3920
3999 3630 3919
3999 3630 3919
3725 3525 3884
3725 3525 3884
3725 3525 3884
3725 3525 3884
3725 3525 3884
3725 3525 3884
3725 3525 3884
3732 3528 3885
3746 3535 3887
3779 3547 3890
3809 3565 3895
3864 3588 3902
3921 3636 3920
3991 3670 3936
4001 3678 3939
4001 3678 3939
4001 3678 3939
3725 3525 3884
3725 3525 3884
3725 3525 3884
3725 3525 3884
3725 3525 3884
3725 3525 3884
3725 3525 3884
3730 3527 3885
3741 3534 3886
3774 3545 3890
3802 3561 3894
3847 3584 3901
3910 3628 3917
3983 3665 3935
4001 3678 3939
4001 3678 3939
4001 3678 3939
3725 3525 3884
3725 3525 3884
3725 3525 3884
3725 3525 3884
3725 3525 3884
3725 3525 3884
3725 3525 3884
3730 3527 3885
3741 3533 3886
3774 3544 3889
3802 3561 3894
3847 3584 3901
3910 3627 3916
3983 3664 3935
4001 3678 3939
4001 3678 3939
4001 3678 3939
 267    1    4
 248   11   39
 158   92  196
   0  249  317
   0  331  405
   0  417  508
   0  526  637
   0  648  779
   0  787  954
   0  958 1146
   0 1072 1285
   0 1079 1295
   0 1078 1294
   0 1077 1293
   0 1077 1293
   0 1076 1292
   0 1076 1292
 216   21   31
 210   18   27
 127   80  155
   0  222  274
   0  311  368
   0  397  481
   0  503  607
   0  627  752
   0  766  923
   0  929 1113
   0 1066 1276
   0 1076 1291
   0 1075 1290
   0 1075 1290
   0 1074 1289
   0 1074 1289
   0 1074 1289
 193  150  455
 192  147  445
 190  179  276
   1  285  337
   0  349  422
   0  424  507
   0  519  622
   0  631  757
   0  763  919
   0  920 1096
   0 1069 1272
   0 1084 1299
   0 1081 1294
   0 1079 1292
   0 1078 1290
   0 1077 1288
   0 1077 1288
 487  201  829
 483  200  819
 467  228  688
 426  269  553
  12  444  552
   0  517  607
   0  584  703
   0  679  819
   0  811  957
   0  948 1126
   0 1100 1312
   0 1143 1353
   0 1138 1347
   0 1136 1345
   0 1134 1342
   0 1132 1340
   0 1132 1339
 954  278 1226
 947  276 1219
 931  272 1203
 979  269 1100
 930  314  955
  80  637  835
   0  734  847
   0  813  951
   0  912 1073
   0 1032 1223
   0 1179 1395
   0 1246 1467
   0 1238 1460
   0 1234 1456
   0 1230 1454
   0 1227 1451
   0 1227 1450
1570  419 1815
1562  417 1807
1544  414 1792
1540  417 1724
1613  393 1612
1547  443 1416
 283  879 1183
   0 1017 1160
   0 1093 1257
   0 1190 1392
   0 1310 1535
   0 1400 1645
   0 1391 1632
   0 1386 1625
   0 1383 1620
   0 1379 1615
   0 1379 1614
2319  661 2479
2310  657 2472
2293  649 2457
2270  643 2423
2291  630 2337
2362  592 2195
2295  638 1963
 691 1187 1606
   0 1354 1512
   0 1424 1618
   0 1516 1740
   0 1612 1868
   0 1604 1858
   0 1595 1849
   0 1589 1843
   0 1584 1839
   0 1584 1838
3067 1156 3145
3060 1147 3138
3048 1134 3127
3030 1114 3109
3018 1091 3050
3046 1060 2962
3090 1016 2805
3013 1025 2563
1262 1513 2061
   0 1714 1901
   0 1769 1994
   0 1851 2132
   0 1857 2144
   0 1846 2132
   0 1840 2126
   0 1833 2119
   0 1833 2119
3553 1878 3634
3551 1870 3631
3548 1861 3628
3538 1841 3618
3538 1818 3600
3558 1789 3566
3595 1746 3486
3645 1669 3344
3592 1619 3125
1869 1916 2568
   0 2083 2314
   0 2141 2401
   0 2158 2448
   0 2145 2436
   0 2138 2430
   0 2131 2423
   0 2130 2422
3627 2391 3739
3627 2386 3739
3627 2380 3738
3627 2370 3738
3627 2357 3737
3655 2348 3736
3712 2345 3734
3803 2344 3724
3913 2313 3677
3955 2264 3574
2468 2334 3041
  70 2451 2732
   0 2478 2758
   0 2466 2750
   0 2458 2742
   0 2451 2734
   0 2450 2734
3624 2741 3763
3624 2737 3762
3624 2733 3762
3624 2726 3762
3624 2716 3761
3632 2711 3761
3667 2715 3761
3718 2720 3761
3807 2728 3761
3917 2730 3754
4003 2724 3726
2961 2705 3414
 560 2775 3120
 160 2785 3090
 141 2778 3081
 124 2772 3073
 123 2771 3073
3626 3038 3802
3626 3035 3802
3626 3031 3801
3626 3025 3800
3625 3016 3798
3626 3007 3797
3639 3002 3796
3681 3002 3797
3723 3024 3799
3804 3036 3801
3899 3049 3800
3989 3076 3788
3374 3052 3695
2434 3016 3594
2363 3008 3581
2304 3002 3569
2301 3001 3569
3674 3338 3847
3674 3334 3846
3672 3329 3845
3671 3324 3844
3668 3316 3843
3665 3306 3841
3670 3298 3840
3685 3293 3840
3708 3293 3840
3749 3299 3842
3815 3326 3844
3898 3345 3847
3982 3365 3850
3930 3385 3848
3912 3375 3846
3901 3367 3844
3900 3366 3844
3725 3524 3884
3725 3524 3884
3725 3524 3884
3725 3524 3884
3724 3523 3884
3724 3520 3883
3724 3517 3882
3731 3518 3883
3749 3522 3884
3778 3530 3887
3813 3544 3891
3876 3568 3898
3937 3606 3911
3996 3631 3920
3999 3629 3918
3999 3626 3917
3999 3626 3917
3725 3525 3884
3725 3525 3884
3725 3525 3884
3725 3525 3884
3725 3525 3884
3725 3525 3884
3725 3525 3884
3732 3528 3885
3744 3535 3887
3778 3547 3890
3807 3564 3895
3862 3587 3902
3919 3634 3919
3990 3670 3936
4001 3678 3939
4001 3678 3939
4001 3678 3939
3725 3525 3884
3725 3525 3884
3725 3525 3884
3725 3525 3884
3725 3525 3884
3725 3525 3884
3725 3525 3884
3730 3527 3885
3740 3533 3886
3773 3544 3889
3801 3560 3894
3844 3583 3901
3908 3626 3916
3982 3664 3934
4001 3678 3939
4001 3678 3939
4001 3678 3939
3725 3525 3884
3725 3525 3884
3725 3525 3884
3725 3525 3884
3725 3525 3884
3725 3525 3884
3725 3525 3884
3730 3527 3885
3740 3533 3886
3773 3544 3889
3801 3560 3894
3843 3583 3900
3908 3625 3916
3981 3663 3934
4001 3678 3939
4001 3678 3939
4001 3678 3939
 552    0    0
 540    0   22
 486   40  180
 317  184  408
   0  400  543
   0  476  600
   0  568  709
   0  681  838
   0  826  991
   0  978 1178
   0 1099 1319
   0 1106 1330
   0 1104 1328
   0 1103 1326
   0 1101 1325
   0 1100 1324
   0 1100 1324
 494    0    0
 489    0    0
 436   29  147
 283  166  361
   0  371  500
   0  447  566
   0  545  673
   0  659  802
   0  795  962
   0  955 1141
   0 1088 1308
   0 1099 1322
   0 1098 1321
   0 1097 1320
   0 1096 1319
   0 1096 1318
