nova/tdt-studio/app/Lut_mau/IWLTBAP/2 - LUTs by IWLTBAP (3DL)/02 - Generic LOG/Psychedelia/Suppol - LOG.3dl
# Copyright: (C) Copyright 2010-2018 by IWLTBAP SAS
# Cannot be resold, shared or otherwise redistributed
# Website: https://luts.iwltbap.com
0 256 512 768 1023
  13    7   10
   0  295  339
   0  790  947
   0 1067 1275
   0 1067 1275
1029  296 1299
 999  329 1010
   0  944 1109
   0 1255 1475
   0 1244 1464
3569 1930 3653
3566 1872 3627
3631 1672 3168
   0 2182 2471
   0 2155 2446
3681 3361 3851
3675 3339 3847
3712 3316 3844
3983 3389 3855
3935 3392 3850
3725 3525 3884
3725 3525 3884
3741 3534 3886
3911 3629 3917
4001 3678 3939
 935    0    0
 551  278  677
   0  884 1083
   0 1166 1408
   0 1162 1402
 405  434 1465
 548  573  673
   0  931 1104
   0 1257 1486
   0 1244 1471
3490 1767 3578
3447 1701 3524
3491 1510 3021
   0 2104 2396
   0 2077 2373
3663 3297 3840
3656 3276 3836
3701 3255 3834
3982 3327 3842
3844 3324 3835
3725 3525 3884
3725 3525 3884
3738 3532 3886
3903 3621 3914
4001 3678 3939
3298    0  162
3282    0  403
2433 1052 2337
   0 1647 2164
   0 1637 2149
2869  161   99
2811  211  245
2013  980 1980
   0 1592 2020
   0 1578 1998
1616 1720 3479
1586 1686 3468
2080 1982 2010
 462 2164 2501
 384 2141 2480
3576 3198 3824
3573 3177 3821
3632 3166 3819
3976 3244 3823
3196 3197 3738
3720 3539 3888
3721 3538 3888
3732 3541 3889
3886 3620 3914
4001 3686 3941
4095    0  423
4095    0  462
4095 1105 2173
4028 2282 3636
4028 2282 3636
4095  107  442
4095  127  454
4095  858 1718
4024 2325 3640
4025 2316 3639
4095 2025  757
4095 1986  734
4095 2021 1420
3437 2609 3491
2650 2551 3488
3090 3258 3830
3057 3232 3824
2999 3186 3812
3395 3348 3486
2695 3350 3612
3739 3739 3960
3737 3734 3958
3736 3726 3956
3873 3777 3970
4022 3855 3992
4095    0  423
4095    0  455
4095  994 2052
4028 2282 3636
4028 2282 3636
4095   39  438
4095   39  445
4095  695 1584
4026 2298 3638
4027 2291 3637
4095 1900  738
4095 1860  726
4095 1918 1240
4004 2631 3512
3979 2711 3712
3651 3409 3448
3687 3392 3360
3835 3363 3076
4017 3392 3332
3923 3462 3862
3909 3971 4052
3909 3971 4052
3910 3972 4052
3983 4017 4071
4093 4095 4095
