nova/tdt-studio/app/Lut_mau/IWLTBAP/2 - LUTs by IWLTBAP (3DL)/02 - Generic LOG/Psychedelia/Suppol - LOG.3dl
# Copyright: (C) Copyright 2010-2018 by IWLTBAP SAS
# Cannot be resold, shared or otherwise redistributed
# Website: https://luts.iwltbap.com
0 128 256 384 512 640 768 896 1023
  13    7   10
   0   91  104
   0  295  339
   0  509  610
   0  790  947
   0 1062 1268
   0 1067 1275
   0 1067 1275
   0 1067 1275
 282  111  443
 255  127  342
   0  360  417
   0  528  631
   0  776  934
   0 1075 1281
   0 1084 1299
   0 1082 1296
   0 1081 1294
1029  296 1299
1005  290 1270
 999  329 1010
   0  767  883
   0  944 1109
   0 1208 1425
   0 1255 1475
   0 1248 1468
   0 1244 1464
2401  697 2550
2371  684 2524
2373  664 2402
2369  668 2021
   0 1388 1549
   0 1547 1776
   0 1626 1883
   0 1613 1868
   0 1606 1861
3569 1930 3653
3564 1912 3646
3566 1872 3627
3630 1804 3522
3631 1672 3168
   0 2112 2347
   0 2182 2471
   0 2162 2452
   0 2155 2446
3624 2763 3764
3624 2756 3764
3624 2739 3763
3669 2740 3763
3807 2753 3763
4002 2752 3731
 623 2799 3150
 202 2800 3109
 184 2793 3101
3681 3361 3851
3679 3353 3850
3675 3339 3847
3678 3320 3844
3712 3316 3844
3818 3349 3848
3983 3389 3855
3945 3400 3852
3935 3392 3850
3725 3525 3884
3725 3525 3884
3725 3525 3884
3725 3525 3884
3747 3535 3887
3810 3565 3895
3922 3636 3920
4001 3678 3939
4001 3678 3939
3725 3525 3884
3725 3525 3884
3725 3525 3884
3725 3525 3884
3741 3534 3886
3803 3561 3894
3911 3629 3917
4001 3678 3939
4001 3678 3939
 267    1    4
 158   92  196
   0  331  405
   0  526  637
   0  787  954
   0 1072 1285
   0 1078 1294
   0 1077 1293
   0 1076 1292
 193  150  455
 190  179  276
   0  349  422
   0  519  622
   0  763  919
   0 1069 1272
   0 1081 1294
   0 1078 1290
   0 1077 1288
 954  278 1226
 931  272 1203
 930  314  955
   0  734  847
   0  912 1073
   0 1179 1395
   0 1238 1460
   0 1230 1454
   0 1227 1450
2319  661 2479
2293  649 2457
2291  630 2337
2295  638 1963
   0 1354 1512
   0 1516 1740
   0 1604 1858
   0 1589 1843
   0 1584 1838
3553 1878 3634
3548 1861 3628
3538 1818 3600
3595 1746 3486
3592 1619 3125
   0 2083 2314
   0 2158 2448
   0 2138 2430
   0 2130 2422
3624 2741 3763
3624 2733 3762
3624 2716 3761
3667 2715 3761
3807 2728 3761
4003 2724 3726
 560 2775 3120
 141 2778 3081
 123 2771 3073
3674 3338 3847
3672 3329 3845
3668 3316 3843
3670 3298 3840
3708 3293 3840
3815 3326 3844
3982 3365 3850
3912 3375 3846
3900 3366 3844
3725 3525 3884
3725 3525 3884
3725 3525 3884
3725 3525 3884
3744 3535 3887
3807 3564 3895
3919 3634 3919
4001 3678 3939
4001 3678 3939
3725 3525 3884
3725 3525 3884
3725 3525 3884
3725 3525 3884
3740 3533 3886
3801 3560 3894
3908 3625 3916
4001 3678 3939
4001 3678 3939
 935    0    0
 872    1  120
 551  278  677
   0  655  834
   0  884 1083
   0 1153 1393
   0 1166 1408
   0 1163 1404
   0 1162 1402
 779   77    7
 743   95   83
 473  299  594
   0  612  761
   0  827 1004
   0 1114 1343
   0 1145 1365
   0 1143 1360
   0 1141 1358
 405  434 1465
 399  427 1435
 548  573  673
   0  760  896
   0  931 1104
   0 1183 1402
   0 1257 1486
   0 1248 1475
   0 1244 1471
2154  647 2512
2127  635 2482
1765  815 1963
1829  832 1679
   0 1314 1470
   0 1466 1691
   0 1568 1837
   0 1553 1821
   0 1547 1814
3490 1767 3578
3482 1748 3568
3447 1701 3524
3484 1628 3387
3491 1510 3021
   0 2018 2242
   0 2104 2396
   0 2084 2379
   0 2077 2373
3624 2692 3759
3624 2685 3759
3624 2669 3758
3664 2665 3757
3807 2676 3757
4005 2665 3714
 431 2729 3062
  26 2737 3027
   9 2731 3019
3663 3297 3840
3660 3289 3839
3656 3276 3836
3657 3258 3834
3701 3255 3834
3812 3288 3838
3982 3327 3842
3854 3332 3837
3844 3324 3835
3725 3525 3884
3725 3525 3884
3725 3525 3884
3725 3525 3884
3742 3534 3887
3804 3562 3895
3913 3631 3918
4001 3678 3939
4001 3678 3939
3725 3525 3884
3725 3525 3884
3725 3525 3884
3725 3525 3884
3738 3532 3886
3798 3558 3893
3903 3621 3914
4001 3678 3939
4001 3678 3939
1990    0   51
1957    0  110
1908   20  520
1364  537 1404
   0 1112 1431
   0 1345 1676
   0 1362 1686
   0 1357 1679
   0 1354 1675
1799    0   37
1774    0   64
1689   43  425
1190  491 1252
   0 1028 1317
   0 1284 1590
   0 1316 1629
   0 1312 1622
   0 1310 1618
1557  396  111
1538  387  109
1479  463  399
1051  700 1154
   0 1064 1332
   0 1281 1561
   0 1361 1659
   0 1351 1648
   0 1346 1643
1072  982 2945
1060  970 2927
 960  971 2190
1216 1163 1265
 326 1371 1561
   0 1526 1786
   0 1631 1923
   0 1614 1903
   0 1608 1896
3299 1788 3665
3293 1771 3659
3280 1732 3642
2616 1639 2729
2762 1664 2494
   0 2022 2233
   0 2100 2392
   0 2081 2373
   0 2074 2366
3579 2639 3754
3580 2630 3753
3581 2611 3752
3621 2602 3752
3783 2618 3747
3978 2600 3668
 295 2679 2985
   0 2697 2972
   0 2689 2963
3641 3241 3831
3639 3234 3829
3637 3221 3827
3639 3203 3825
3692 3198 3825
3806 3233 3829
3982 3269 3831
3698 3261 3810
3673 3252 3806
3725 3525 3884
3725 3525 3884
3725 3525 3884
3725 3525 3884
3739 3533 3886
3799 3559 3894
3905 3623 3915
4001 3678 3939
4001 3678 3939
3725 3525 3884
3725 3525 3884
3725 3525 3884
3725 3525 3884
3736 3531 3886
3793 3556 3893
3895 3612 3912
4001 3678 3939
4001 3678 3939
3298    0  162
3280    0  173
3282    0  403
3149  208 1263
2433 1052 2337
   0 1620 2160
   0 1647 2164
   0 1641 2154
   0 1637 2149
3093    0  139
3073    0  137
3070    0  325
2969  130 1108
2260  941 2178
   0 1552 2049
   0 1605 2080
   0 1600 2069
   0 1597 2064
2869  161   99
2849  151   98
2811  211  245
2703  409  958
2013  980 1980
   0 1497 1946
   0 1592 2020
   0 1582 2004
   0 1578 1998
2563 1040  208
2548 1025  205
2518 1017  290
2459 1094  923
1857 1346 1895
   0 1659 2053
   0 1770 2171
   0 1752 2149
   0 1746 2141
1616 1720 3479
1605 1709 3476
1586 1686 3468
1720 1705 2897
2080 1982 2010
1077 2089 2321
 462 2164 2501
 398 2148 2487
 384 2141 2480
3284 2578 3738
3284 2568 3738
3285 2552 3736
3325 2539 3737
3249 2521 3395
3421 2559 3237
 705 2681 2944
 472 2676 2977
 459 2668 2970
3576 3198 3824
3575 3190 3823
3573 3177 3821
3574 3158 3818
3632 3166 3819
3781 3193 3824
3976 3244 3823
3230 3205 3744
3196 3197 3738
3719 3543 3889
3719 3542 3889
3719 3542 3889
3720 3541 3888
3734 3546 3890
3793 3569 3897
3896 3633 3919
4002 3689 3942
4002 3689 3942
3720 3539 3888
3720 3539 3888
3721 3538 3888
3721 3537 3888
3732 3541 3889
3787 3563 3895
3886 3620 3914
3999 3685 3941
4001 3686 3941
4095    0  381
4095    0  379
4095    0  452
4095  153 1036
4006 1155 2336
3377 2000 3286
2157 2045 3249
2003 2031 3226
1915 2024 3213
4095    0  358
4095    0  355
4094    0  393
4088   59  901
3921  968 2171
3244 1860 3158
 981 1948 3076
 839 1938 3047
 771 1933 3033
4019  131  302
4009  118  298
3993  174  329
3959  325  760
3729  905 1920
3039 1698 2956
   0 1870 2737
   0 1859 2704
   0 1854 2690
3777  949  234
3767  933  230
3744  921  242
3702 1028  655
3514 1265 1719
2789 1772 2780
   0 1979 2640
   0 1964 2614
   0 1958 2606
3397 1984  593
3388 1970  581
3369 1944  558
3362 1947  843
3269 1989 1720
2642 2150 2683
 498 2272 2777
 392 2262 2768
 378 2255 2760
2227 2471 3661
2217 2459 3658
2198 2438 3654
2178 2410 3642
2355 2464 3453
2862 2755 2800
1812 2743 3029
1489 2727 3065
1473 2720 3057
3399 3197 3820
3397 3189 3819
3392 3175 3817
3385 3152 3813
3419 3144 3813
3602 3192 3797
3846 3254 3758
2223 3261 3599
2186 3255 3592
3711 3607 3913
3711 3606 3912
3711 3604 3911
3711 3600 3910
3721 3602 3911
3786 3635 3923
3888 3678 3941
4008 3753 3959
4008 3750 3958
3712 3594 3907
3712 3593 3907
3712 3591 3906
3712 3589 3905
3719 3590 3905
3780 3620 3916
3877 3665 3937
4002 3739 3955
4007 3745 3956
4095    0  423
4095    0  423
4095    0  462
4095  124  901
4095 1105 2173
4071 2049 3337
4028 2282 3636
4028 2282 3636
4028 2282 3636
4095    0  423
4095    0  423
4095    0  451
4095   66  777
4095  935 1987
4060 1959 3206
4028 2282 3636
4028 2282 3636
4028 2282 3636
4095  107  442
4095   97  441
4095  127  454
4095  337  658
4095  858 1718
4051 1869 2994
4024 2325 3640
4024 2318 3640
4025 2316 3639
4095  982  521
4095  968  519
4095  937  515
4095 1113  640
4095 1298 1490
4057 1965 2793
3936 2468 3636
3833 2457 3626
3817 2452 3621
4095 2025  757
4095 2013  749
4095 1986  734
4095 1996  789
4095 2021 1420
3994 2248 2590
3437 2609 3491
2702 2563 3498
2650 2551 3488
3896 2820 1584
3893 2810 1566
3885 2790 1537
3884 2774 1515
3891 2775 1798
3796 2784 2584
3234 2888 3393
1647 2823 3413
1617 2815 3405
3090 3258 3830
3076 3247 3827
3057 3232 3824
3023 3204 3818
2999 3186 3812
3059 3211 3768
3395 3348 3486
2711 3359 3618
2695 3350 3612
3750 3758 3965
3748 3756 3964
3746 3754 3964
3743 3749 3962
3748 3748 3962
3781 3755 3964
3875 3780 3972
4013 3841 3989
4005 3835 3986
3739 3739 3960
3738 3737 3959
3737 3734 3958
3735 3729 3957
3736 3726 3956
3778 3742 3960
3873 3777 3970
4014 3850 3990
4022 3855 3992
4095    0  423
4095    0  423
4095    0  457
4095   97  843
4095 1034 2096
4066 2012 3278
4028 2282 3636
4028 2282 3636
4028 2282 3636
4095    0  423
4095    0  423
4095    0  448
4095   45  730
4095  863 1908
4055 1916 3147
4028 2282 3636
4028 2282 3636
4028 2282 3636
4095   58  439
4095   50  438
4095   64  448
4095  241  612
4095  742 1624
4062 1791 2924
4025 2305 3638
4026 2299 3638
4026 2297 3638
4095  876  508
4095  861  506
4095  826  502
4095 1002  602
4095 1196 1381
4081 1873 2698
4021 2446 3631
4008 2465 3659
4009 2462 3659
4095 1937  750
4095 1924  746
4095 1896  737
4095 1915  775
4095 1948 1281
4095 2170 2477
4003 2652 3531
3977 2728 3714
3977 2724 3713
4095 2785 1354
4095 2775 1343
4095 2760 1326
4095 2741 1323
4095 2741 1591
4095 2733 2417
3978 2962 3372
3930 3073 3768
3930 3069 3767
3621 3423 3514
3631 3418 3493
3649 3410 3454
3686 3393 3364
3801 3382 3167
4008 3380 2933
4015 3413 3359
3924 3482 3867
3924 3477 3866
3909 3971 4052
3905 3968 4051
3893 3959 4047
3878 3947 4041
3864 3936 4036
3868 3936 4035
3905 3955 4038
4002 4000 4032
3963 3997 4056
3895 3954 4043
3893 3952 4042
3891 3950 4041
3888 3946 4039
3886 3943 4038
3899 3951 4043
3944 3983 4057
4045 4033 4077
4060 4043 4082
4095    0  423
4095    0  423
4095    0  455
4095   85  818
4095  994 2052
4064 1989 3248
4028 2282 3636
4028 2282 3636
4028 2282 3636
4095    0  423
4095    0  423
4095    0  446
4095   35  711
4095  830 1872
4056 1895 3119
4028 2282 3636
4028 2282 3636
4028 2282 3636
4095   39  438
4095   32  437
4095   39  445
4095  206  597
4095  695 1584
4067 1760 2897
4026 2298 3638
4027 2293 3637
4027 2291 3637
4095  836  503
4095  821  502
4095  789  499
4095  960  592
4095 1159 1343
4085 1839 2664
4026 2433 3623
4009 2458 3658
4010 2456 3657
4095 1900  738
4095 1886  734
4095 1860  726
4095 1879  757
4095 1918 1240
4095 2138 2442
4004 2631 3512
3978 2715 3712
3979 2711 3712
4095 2760 1326
4095 2751 1316
4095 2735 1298
4095 2716 1290
4095 2717 1551
4095 2707 2377
3979 2939 3346
3931 3059 3766
3931 3054 3765
3651 3409 3448
3665 3402 3414
3687 3392 3360
3722 3375 3272
3835 3363 3076
4020 3360 2874
4017 3392 3332
3923 3467 3864
3923 3462 3862
3893 3959 4046
3884 3951 4043
3874 3944 4039
3862 3934 4034
3848 3923 4029
3847 3924 4028
3903 3951 4029
4061 3985 4012
4047 3986 4057
3909 3971 4052
3909 3971 4052
3909 3971 4052
3909 3971 4052
3910 3972 4052
3925 3984 4058
3983 4017 4071
4074 4085 4091
4093 4095 4095
