nova/tdt-studio/app/Lut_mau/luts/lut10.cube
# Created by Adobe Lightroom plugin Export LUT (1.22.0)
# www.johnrellis.com/lightroom/exportlut.htm
# Preset: Butterfly
# Color profile: /Library/Application Support/Adobe/Color/Profiles/Recommended/AdobeRGB1998.icc
LUT_3D_SIZE 5
DOMAIN_MIN 0.000000 0.000000 0.000000
DOMAIN_MAX 0.903226 0.903226 0.903226
0.000000 0.000000 0.000000
0.182345 0.000000 0.042420
0.564935 0.000000 0.019776
0.848875 0.000000 0.078309
0.999420 0.104799 0.238529
0.000000 0.134005 0.074922
0.136202 0.148989 0.000671
0.527947 0.044648 0.000000
0.833646 0.000000 0.000000
0.997955 0.238041 0.203525
0.000000 0.425666 0.159548
0.000000 0.419440 0.113100
0.447730 0.475593 0.000000
0.789914 0.449195 0.000000
0.980682 0.451575 0.000000
0.000000 0.723751 0.314824
0.000000 0.723445 0.305669
0.316167 0.682612 0.186099
0.720638 0.740963 0.000000
0.959686 0.707546 0.000000
0.229374 0.913207 0.522271
0.236851 0.913359 0.517144
0.395026 0.902342 0.459205
0.624475 0.876371 0.396429
0.902739 0.909972 0.000000
0.000000 0.016358 0.174136
0.163516 0.000000 0.148775
0.545129 0.000000 0.152071
0.828977 0.000000 0.068635
0.994659 0.094331 0.226627
0.000000 0.142123 0.171298
0.145144 0.152224 0.166323
0.519554 0.085481 0.130007
0.817655 0.000000 0.000000
0.991547 0.225956 0.189700
0.000000 0.431586 0.250675
0.043519 0.433539 0.244236
0.442084 0.460365 0.102296
0.776699 0.434302 0.000000
0.978668 0.447181 0.000000
0.000000 0.727230 0.387823
0.000000 0.726467 0.382788
0.348760 0.693263 0.291875
0.722164 0.738155 0.000000
0.959380 0.703243 0.000000
0.195865 0.914488 0.554070
0.204898 0.914611 0.548821
0.472023 0.903807 0.554772
0.633265 0.876768 0.450721
0.905974 0.910704 0.000000
0.000000 0.014496 0.489387
0.225589 0.000000 0.486580
0.551476 0.000000 0.449073
0.832944 0.072236 0.458442
0.980743 0.323796 0.470405
0.000000 0.177798 0.468177
0.115572 0.173037 0.477607
0.532860 0.207797 0.455909
0.816831 0.263432 0.464515
0.981048 0.346807 0.440955
0.000000 0.433997 0.467750
0.000000 0.440711 0.463386
0.451606 0.454719 0.452064
0.776303 0.457771 0.415442
0.975799 0.458900 0.329564
0.000000 0.742306 0.574334
0.000000 0.738582 0.565911
0.439033 0.721157 0.545220
0.719814 0.733883 0.426001
0.955810 0.678798 0.070863
0.000000 0.918517 0.657465
0.000000 0.919554 0.651545
0.432959 0.910704 0.648402
0.658198 0.882872 0.602777
0.904967 0.908049 0.306645
0.000000 0.051881 0.767788
0.263706 0.000000 0.769009
0.648585 0.213565 0.769558
0.814328 0.267979 0.720455
0.964141 0.475502 0.718532
0.000000 0.193698 0.756435
0.151034 0.206058 0.759243
0.624140 0.321080 0.764462
0.803342 0.381994 0.723171
0.957824 0.525444 0.725368
0.000000 0.456580 0.719814
0.000000 0.447883 0.713954
0.467109 0.466529 0.735683
0.768307 0.575555 0.727169
0.943511 0.636469 0.739437
0.000000 0.708492 0.732937
0.000000 0.709010 0.729763
0.307134 0.710414 0.723262
0.701381 0.717098 0.714290
0.931579 0.713008 0.679622
0.000000 0.929473 0.806394
0.000000 0.930846 0.804288
0.332525 0.923949 0.794125
0.698665 0.901793 0.782162
0.892699 0.906401 0.692012
0.173434 0.235080 0.929534
0.374060 0.243656 0.928191
0.659571 0.327367 0.922942
0.857206 0.522972 0.910521
0.943084 0.509422 0.863828
0.053620 0.270176 0.927367
0.334539 0.285466 0.925750
0.640040 0.382910 0.920226
0.851530 0.578454 0.908019
0.938231 0.557458 0.865843
0.000000 0.467811 0.913848
0.000000 0.459388 0.914794
0.518975 0.498207 0.913237
0.823239 0.661891 0.905699
0.928008 0.677211 0.876127
0.000000 0.706935 0.903227
0.000000 0.700893 0.901244
0.000000 0.675319 0.896330
0.698329 0.709346 0.900542
0.919829 0.811032 0.897642
0.000000 0.894835 0.906004
0.000000 0.896178 0.905516
0.000000 0.898466 0.904234
0.575097 0.891997 0.899290
0.879515 0.894957 0.894072
