nova/tdt-studio/app/Lut_mau/luts/lut1.cube
# Created by Adobe Lightroom plugin Export LUT (1.22.0)
# www.johnrellis.com/lightroom/exportlut.htm
# Preset: Cinnamon
# Color profile: /Library/Application Support/Adobe/Color/Profiles/Recommended/AdobeRGB1998.icc
LUT_3D_SIZE 5
DOMAIN_MIN 0.000000 0.000000 0.000000
DOMAIN_MAX 0.903226 0.903226 0.903226
0.106233 0.089601 0.058900
0.185489 0.089815 0.056306
0.464149 0.023438 0.000000
0.774838 0.185306 0.000000
0.963378 0.396521 0.137484
0.104372 0.157107 0.052583
0.196323 0.178317 0.023713
0.493477 0.212253 0.000000
0.785245 0.308141 0.000000
0.969757 0.469459 0.170169
0.068696 0.402930 0.000000
0.202548 0.398779 0.000000
0.495827 0.484138 0.000000
0.801633 0.548882 0.000000
0.971527 0.633814 0.253696
0.000000 0.689235 0.000000
0.213870 0.685267 0.000000
0.472023 0.667567 0.050355
0.745510 0.731807 0.000000
0.964080 0.779263 0.064210
0.287327 0.909483 0.304906
0.370825 0.905974 0.305425
0.561334 0.888792 0.319097
0.763973 0.895933 0.345495
0.953155 0.925261 0.272221
0.112276 0.088502 0.114931
0.194034 0.079103 0.128023
0.457862 0.006470 0.135012
0.750301 0.184268 0.159121
0.948425 0.388495 0.239963
0.114351 0.152285 0.128756
0.215183 0.191470 0.152773
0.497078 0.224399 0.158175
0.765652 0.303593 0.170748
0.952056 0.456550 0.261173
0.109682 0.425452 0.192020
0.215152 0.442451 0.162722
0.500603 0.486000 0.118929
0.795254 0.549401 0.187869
0.961700 0.634699 0.349767
0.169589 0.704494 0.270085
0.221042 0.705592 0.200931
0.485237 0.681086 0.211063
0.748074 0.734279 0.100221
0.960357 0.781033 0.267063
0.356176 0.907683 0.428595
0.374212 0.907652 0.380316
0.572778 0.897490 0.401404
0.767361 0.897734 0.421546
0.952270 0.926696 0.362219
0.086885 0.077729 0.338231
0.230320 0.000000 0.399268
0.512352 0.000000 0.430762
0.718135 0.229892 0.442786
0.929625 0.357855 0.447913
0.087831 0.168032 0.330297
0.208286 0.173678 0.393683
0.531487 0.219333 0.459236
0.736751 0.315770 0.450202
0.930114 0.453193 0.474617
0.079683 0.394324 0.406226
0.234318 0.436683 0.438941
0.570489 0.561120 0.530205
0.784604 0.579919 0.517998
0.940154 0.634302 0.541009
0.076478 0.729061 0.539452
0.279271 0.731228 0.533623
0.532036 0.739071 0.506828
0.760800 0.753079 0.474220
0.946410 0.796841 0.573693
0.378393 0.907652 0.616327
0.451575 0.906828 0.616754
0.566003 0.905425 0.564843
0.758633 0.889647 0.573938
0.940032 0.922454 0.534508
0.000000 0.000000 0.625605
0.230289 0.000000 0.660548
0.609003 0.000000 0.760800
0.788327 0.180026 0.729244
0.879393 0.557275 0.743679
0.000000 0.153872 0.615442
0.193729 0.143954 0.650874
0.584741 0.000000 0.750881
0.785458 0.333440 0.732326
0.881163 0.579736 0.743221
0.000000 0.359899 0.562493
0.144747 0.379553 0.577905
0.502464 0.470497 0.707637
0.783200 0.602441 0.751400
0.898100 0.652857 0.745602
0.091127 0.652277 0.682307
0.266941 0.667597 0.692195
0.553246 0.722896 0.731472
0.800900 0.803799 0.792325
0.928161 0.803372 0.771359
0.369970 0.919097 0.812863
0.444404 0.917479 0.809689
0.613764 0.914000 0.799619
0.757900 0.910002 0.758236
0.926818 0.921843 0.735866
0.232273 0.000000 0.885130
0.349889 0.000000 0.893095
0.608911 0.000000 0.918120
0.883513 0.000000 0.952209
0.945159 0.512230 0.908232
0.174472 0.149660 0.879118
0.314885 0.127535 0.887358
0.591180 0.000000 0.913512
0.872953 0.186618 0.948272
0.942382 0.566217 0.908721
0.000000 0.391608 0.846586
0.000000 0.378058 0.858549
0.510002 0.414984 0.891905
0.833982 0.529168 0.933867
0.936797 0.691127 0.912352
0.000000 0.643580 0.843656
0.135714 0.644129 0.843503
0.377356 0.644404 0.842679
0.737118 0.717708 0.898802
0.933288 0.826871 0.921782
0.357092 0.863920 0.890043
0.416083 0.866392 0.890959
0.576867 0.876249 0.895323
0.764523 0.897978 0.907103
0.941222 0.945800 0.942443
