nova/tdt-studio/app/Lut_mau/luts/lut1.cube
# Created by Adobe Lightroom plugin Export LUT (1.22.0)
# www.johnrellis.com/lightroom/exportlut.htm
# Preset: Cinnamon
# Color profile: /Library/Application Support/Adobe/Color/Profiles/Recommended/AdobeRGB1998.icc
LUT_3D_SIZE 32
0.106233 0.089601 0.058900
0.106996 0.089723 0.059266
0.108614 0.089693 0.059205
0.112734 0.090303 0.059327
0.122194 0.090852 0.059602
0.138796 0.091341 0.058900
0.160098 0.090883 0.058656
0.185489 0.089815 0.056306
0.215122 0.087190 0.053376
0.248692 0.083528 0.048615
0.286473 0.077424 0.041993
0.327733 0.069429 0.032074
0.371801 0.059327 0.019867
0.417700 0.038697 0.006165
0.464149 0.023438 0.000000
0.509850 0.020264 0.000000
0.554467 0.034272 0.000000
0.603693 0.066926 0.000000
0.652338 0.095216 0.000000
0.696986 0.125124 0.000000
0.738033 0.155215 0.000000
0.774838 0.185306 0.000000
0.807523 0.214481 0.000000
0.837095 0.242618 0.000000
0.864408 0.270756 0.000000
0.890288 0.299718 0.000000
0.915343 0.330053 0.060090
0.939696 0.362127 0.099153
0.963378 0.396521 0.137484
0.986145 0.434150 0.179782
1.000000 0.475196 0.228336
1.000000 0.520226 0.286107
0.106355 0.090455 0.059205
0.107179 0.090578 0.059144
0.108797 0.090547 0.059083
0.112917 0.091157 0.059205
0.122286 0.092287 0.059419
0.139223 0.092988 0.059083
0.160311 0.092897 0.058167
0.185336 0.092256 0.055726
0.214725 0.090120 0.052766
0.248264 0.086671 0.048005
0.285649 0.081880 0.041108
0.326452 0.075013 0.031312
0.370123 0.066255 0.019379
0.415717 0.058869 0.005432
0.461707 0.046418 0.000000
0.507408 0.044587 0.000000
0.551751 0.057862 0.000000
0.600763 0.075959 0.000000
0.648188 0.100557 0.000000
0.692164 0.128054 0.000000
0.733028 0.156497 0.000000
0.769986 0.185336 0.000000
0.802976 0.213504 0.000000
0.832853 0.241520 0.000000
0.860533 0.269352 0.000000
0.886748 0.298009 0.000000
0.912169 0.327977 0.049866
0.936858 0.359869 0.094362
0.960876 0.394446 0.132692
0.984009 0.431739 0.174929
1.000000 0.472541 0.223484
1.000000 0.517235 0.280400
0.106447 0.091615 0.059510
0.107546 0.091676 0.059419
0.109102 0.092256 0.059266
0.113497 0.092805 0.058961
0.123049 0.094118 0.059113
0.139834 0.095369 0.058717
0.160952 0.095796 0.057313
0.185702 0.095247 0.055726
0.215030 0.093812 0.051820
0.248203 0.090974 0.047822
0.285466 0.086854 0.040772
0.326207 0.081605 0.030732
0.369909 0.074952 0.018494
0.415351 0.068879 0.005707
0.461189 0.065278 0.000000
0.506645 0.065187 0.000000
0.550958 0.071412 0.000000
0.599908 0.087221 0.000000
0.646601 0.109316 0.000000
0.690181 0.134859 0.000000
0.730892 0.161715 0.000000
0.767910 0.189212 0.000000
0.801022 0.216983 0.000000
0.830991 0.243900 0.000000
0.858701 0.271366 0.000000
0.885039 0.299413 0.000000
0.910582 0.329107 0.044129
0.935424 0.360845 0.092439
0.959625 0.394842 0.131167
0.982849 0.432044 0.173220
1.000000 0.472389 0.221347
1.000000 0.516777 0.278080
0.106813 0.095247 0.059419
0.108125 0.095277 0.059785
0.109712 0.095521 0.059663
0.114443 0.097353 0.059174
0.125277 0.099428 0.057893
0.141848 0.101076 0.057832
0.162966 0.101869 0.056184
0.187930 0.102235 0.054231
0.216953 0.101411 0.050996
0.250248 0.099947 0.046509
0.287358 0.097292 0.038727
0.327977 0.094057 0.028138
0.371374 0.090700 0.016358
0.416480 0.088014 0.003021
0.462104 0.086671 0.000000
0.507378 0.088899 0.000000
0.551385 0.095033 0.000000
0.600702 0.108553 0.000000
0.645502 0.127108 0.000000
0.687770 0.148928 0.000000
0.727901 0.173404 0.000000
0.764462 0.198795 0.000000
0.797910 0.224887 0.000000
0.828550 0.251286 0.000000
0.857115 0.278202 0.000000
0.884215 0.306096 0.000000
0.910277 0.335576 0.044404
0.935424 0.367224 0.093233
0.959625 0.400610 0.132540
0.982727 0.436805 0.174075
1.000000 0.476387 0.221897
1.000000 0.519524 0.277684
0.107362 0.102876 0.059602
0.108675 0.103182 0.059480
0.110780 0.103304 0.059785
0.115724 0.104646 0.059327
0.126864 0.108888 0.056641
0.144900 0.111879 0.053437
0.165469 0.112856 0.053346
0.190433 0.113497 0.051209
0.219699 0.113893 0.048280
0.252903 0.113863 0.042267
0.289708 0.112917 0.033906
0.330327 0.111879 0.024628
0.373571 0.111147 0.011933
0.418585 0.111482 0.000000
0.464179 0.112642 0.000000
0.509545 0.116152 0.000000
0.555444 0.123140 0.000000
0.604028 0.136294 0.000000
0.647883 0.152346 0.000000
0.689204 0.171389 0.000000
0.728298 0.192966 0.000000
0.764401 0.216342 0.000000
0.797452 0.240269 0.000000
0.827970 0.265202 0.000000
0.856474 0.290715 0.000000
0.883604 0.317388 0.000000
0.909606 0.345708 0.046845
0.934691 0.375830 0.093782
0.958831 0.408148 0.132509
0.981811 0.443427 0.174746
1.000000 0.481880 0.222324
1.000000 0.524102 0.277775
0.106691 0.116243 0.059205
0.108522 0.116609 0.059022
0.111452 0.116609 0.058869
0.117189 0.117006 0.058930
0.127291 0.120424 0.056916
0.144900 0.126619 0.051698
0.169223 0.129763 0.045838
0.194003 0.130190 0.044038
0.223423 0.131258 0.040650
0.258244 0.132509 0.035981
0.295293 0.133547 0.027314
0.335851 0.134737 0.017731
0.379156 0.136080 0.005707
0.424170 0.138399 0.000000
0.469612 0.141421 0.000000
0.514702 0.146426 0.000000
0.563134 0.155093 0.000000
0.609857 0.167636 0.000000
0.652644 0.182345 0.000000
0.693355 0.199771 0.000000
0.731838 0.219211 0.000000
0.767636 0.240391 0.000000
0.828611 0.289830 0.000000
0.856168 0.312749 0.000000
0.881773 0.336370 0.000000
0.906035 0.360571 0.059602
0.929259 0.386694 0.095949
0.951629 0.414466 0.130922
0.973236 0.444709 0.167819
0.993835 0.478126 0.209537
1.000000 0.514611 0.257816
1.000000 0.554437 0.313146
0.105653 0.135958 0.055940
0.107851 0.136049 0.055695
0.110994 0.136202 0.056123
0.118013 0.136355 0.056153
0.128969 0.136904 0.056336
0.144839 0.143709 0.049897
0.170016 0.151522 0.040253
0.201724 0.156008 0.027588
0.231724 0.156710 0.024811
0.267247 0.158328 0.019013
0.307958 0.161563 0.012024
0.352575 0.165530 0.005005
0.396338 0.168917 0.000000
0.441108 0.172549 0.000000
0.485939 0.176974 0.000000
0.531518 0.183291 0.000000
0.581384 0.194705 0.000000
0.626612 0.207126 0.000000
0.668513 0.221469 0.000000
0.709163 0.238621 0.000000
0.748196 0.258335 0.000000
0.784787 0.280034 0.000000
0.818509 0.303044 0.000000
0.849424 0.326726 0.000000
0.877623 0.351080 0.000000
0.903288 0.375219 0.056947
0.927184 0.400275 0.096376
0.949737 0.426856 0.131563
0.971435 0.455726 0.168399
0.991974 0.487495 0.209873
1.000000 0.522332 0.257237
1.000000 0.560723 0.311986
0.104372 0.157107 0.052583
0.106569 0.157351 0.052277
0.110384 0.157259 0.051942
0.117678 0.157351 0.051972
0.129397 0.157443 0.052247
0.144594 0.160494 0.049653
0.165743 0.168887 0.039796
0.196323 0.178317 0.023713
0.232609 0.183841 0.006928
0.268681 0.186007 0.000000
0.308537 0.189364 0.000000
0.352972 0.194369 0.000000
0.401160 0.200778 0.000000
0.449195 0.207126 0.000000
0.493477 0.212253 0.000000
0.543389 0.221805 0.000000
0.589776 0.231846 0.000000
0.632563 0.243290 0.000000
0.672694 0.256077 0.000000
0.711940 0.271305 0.000000
0.749691 0.288792 0.000000
0.785245 0.308141 0.000000
0.818235 0.328618 0.000000
0.848478 0.349981 0.000000
0.876310 0.371801 0.000000
0.901793 0.394232 0.059510
0.925536 0.417365 0.097993
0.948119 0.442145 0.132906
0.969757 0.469459 0.170169
0.990265 0.499550 0.211185
1.000000 0.532891 0.258366
1.000000 0.569696 0.312963
0.102785 0.182437 0.046998
0.105379 0.182345 0.046784
0.109163 0.182406 0.047242
0.117311 0.182528 0.047150
0.129915 0.182498 0.048188
0.146090 0.182254 0.048676
0.165011 0.188815 0.039460
0.191287 0.198642 0.023285
0.227024 0.209659 0.001617
0.267765 0.217014 0.000000
0.309819 0.221164 0.000000
0.353521 0.225986 0.000000
0.400824 0.232761 0.000000
0.450446 0.240726 0.000000
0.506920 0.253361 0.000000
0.556939 0.264134 0.000000
0.600610 0.273167 0.000000
0.641291 0.283177 0.000000
0.679683 0.294621 0.000000
0.717525 0.307866 0.000000
0.753811 0.323735 0.000000
0.788113 0.340520 0.000000
0.820035 0.358648 0.000000
0.849516 0.377600 0.000000
0.876677 0.397162 0.000000
0.901671 0.417151 0.065431
0.925139 0.438331 0.103395
0.947387 0.461250 0.137819
0.968780 0.486580 0.174746
0.989136 0.514794 0.215518
1.000000 0.546288 0.262028
1.000000 0.581201 0.316045
0.101686 0.210880 0.039033
0.104311 0.210819 0.038788
0.108400 0.210819 0.039338
0.117098 0.210788 0.040375
0.130434 0.210605 0.041779
0.147463 0.210300 0.043458
0.166995 0.210941 0.043305
0.190311 0.220890 0.025483
0.221256 0.232212 0.002716
0.261265 0.244846 0.000000
0.305760 0.253452 0.000000
0.352636 0.259495 0.000000
0.400427 0.266911 0.000000
0.454017 0.277989 0.000000
0.508354 0.289921 0.000000
0.561395 0.303044 0.000000
0.611994 0.317266 0.000000
0.653162 0.327459 0.000000
0.690272 0.337438 0.000000
0.726223 0.348943 0.000000
0.760311 0.361791 0.000000
0.792264 0.375616 0.000000
0.822232 0.390478 0.000000
0.850095 0.406348 0.000000
0.876188 0.423102 0.000000
0.900664 0.440803 0.070466
0.923980 0.460090 0.107607
0.946288 0.481483 0.142855
0.967773 0.505364 0.180179
0.988220 0.532311 0.221195
1.000000 0.562524 0.268742
1.000000 0.596185 0.323003
0.100343 0.241398 0.030243
0.102907 0.241611 0.029694
0.107424 0.241520 0.029236
0.116976 0.241337 0.031403
0.130739 0.241245 0.032685
0.148409 0.241093 0.035187
0.169223 0.240635 0.037934
0.191653 0.245274 0.028840
0.219577 0.256901 0.005127
0.255222 0.269932 0.000000
0.299504 0.283970 0.000000
0.351690 0.298161 0.000000
0.403540 0.306493 0.000000
0.455055 0.316106 0.000000
0.507164 0.326879 0.000000
0.558373 0.338628 0.000000
0.607904 0.351354 0.000000
0.654505 0.365209 0.000000
0.698512 0.380255 0.000000
0.733059 0.389654 0.000000
0.765591 0.400336 0.000000
0.796445 0.412055 0.000000
0.825467 0.424842 0.000000
0.852537 0.438361 0.000000
0.877897 0.453040 0.018952
0.901732 0.468391 0.082338
0.924315 0.485603 0.117372
0.946105 0.504723 0.151308
0.967132 0.526574 0.187564
0.987182 0.551385 0.228550
1.000000 0.579614 0.275120
1.000000 0.611353 0.329290
0.097169 0.275669 0.018738
0.099947 0.275700 0.017304
0.105440 0.275578 0.017853
0.115389 0.275547 0.019806
0.130434 0.275486 0.020935
0.148989 0.275059 0.022553
0.170779 0.274815 0.025971
0.194797 0.273930 0.029938
0.220737 0.283543 0.008576
0.253635 0.297337 0.000000
0.296483 0.314824 0.000000
0.347204 0.332952 0.000000
0.427466 0.371252 0.000000
0.480140 0.377447 0.000000
0.533013 0.387701 0.000000
0.583764 0.398535 0.000000
0.631861 0.409949 0.000000
0.676844 0.421637 0.000000
0.718532 0.433967 0.000000
0.757198 0.447150 0.000000
0.791623 0.459571 0.000000
0.818357 0.467292 0.000000
0.843626 0.475746 0.000000
0.867643 0.485695 0.030518
0.890501 0.496986 0.084871
0.912291 0.509636 0.116396
0.933165 0.524071 0.146670
0.953246 0.540642 0.178653
0.972656 0.559838 0.213535
0.991241 0.582086 0.253361
1.000000 0.607691 0.299504
1.000000 0.636683 0.352056
0.091157 0.318578 0.000000
0.094606 0.318456 0.000000
0.100313 0.318090 0.000000
0.112337 0.317540 0.000793
0.129244 0.316655 0.002838
0.149416 0.315404 0.005493
0.172610 0.314427 0.009705
0.198398 0.313878 0.013916
0.227115 0.317693 0.012055
0.259709 0.334295 0.000000
0.300450 0.352819 0.000000
0.349706 0.372930 0.000000
0.406714 0.393927 0.000000
0.469947 0.414618 0.000000
0.522667 0.421088 0.000000
0.573754 0.431495 0.000000
0.622034 0.441840 0.000000
0.666957 0.452247 0.000000
0.709102 0.463111 0.000000
0.748318 0.474556 0.000000
0.784390 0.486610 0.000000
0.817502 0.499245 0.000000
0.845457 0.509941 0.000000
0.868620 0.517662 0.064118
0.890776 0.526848 0.097444
0.911986 0.537469 0.127565
0.932403 0.550072 0.157229
0.952148 0.564691 0.188174
0.971252 0.581994 0.222599
0.989654 0.602472 0.262242
1.000000 0.626246 0.307317
1.000000 0.653468 0.359777
0.082765 0.356329 0.000000
0.086946 0.356268 0.000000
0.093812 0.355993 0.000000
0.107607 0.355932 0.000000
0.126131 0.356115 0.000000
0.148287 0.356268 0.000000
0.173587 0.356420 0.000000
0.201358 0.356634 0.000000
0.230961 0.356939 0.000000
0.262333 0.364996 0.000000
0.299229 0.382269 0.000000
0.343786 0.401068 0.000000
0.395239 0.420691 0.000000
0.452491 0.440467 0.000000
0.513207 0.459205 0.000000
0.562341 0.464027 0.000000
0.610773 0.472694 0.000000
0.655940 0.481910 0.000000
0.698726 0.491676 0.000000
0.738766 0.502037 0.000000
0.775875 0.512718 0.000000
0.809781 0.523919 0.000000
0.840635 0.535668 0.000000
0.868803 0.548547 0.066712
0.892180 0.558618 0.115267
0.912810 0.567437 0.142580
0.932738 0.578058 0.171115
0.952026 0.590936 0.201297
0.970794 0.606470 0.235142
0.988830 0.625147 0.274174
1.000000 0.647120 0.319402
1.000000 0.672419 0.371374
0.068696 0.402930 0.000000
0.073884 0.403235 0.000000
0.083009 0.402838 0.000000
0.100221 0.402228 0.000000
0.121614 0.401495 0.000000
0.146609 0.400549 0.000000
0.173739 0.399573 0.000000
0.202548 0.398779 0.000000
0.233310 0.398108 0.000000
0.265507 0.397772 0.000000
0.299870 0.411688 0.000000
0.340459 0.429267 0.000000
0.387366 0.447791 0.000000
0.439612 0.466316 0.000000
0.495827 0.484138 0.000000
0.553368 0.500816 0.000000
0.599023 0.504295 0.000000
0.644862 0.511345 0.000000
0.688197 0.520134 0.000000
0.729122 0.529534 0.000000
0.766873 0.539025 0.000000
0.801633 0.548882 0.000000
0.833249 0.559136 0.000000
0.862333 0.570336 0.000000
0.888945 0.582788 0.092287
0.913420 0.596826 0.155032
0.933684 0.607477 0.188540
0.952880 0.619257 0.219364
0.971527 0.633814 0.253696
0.989380 0.651453 0.293706
1.000000 0.672297 0.339910
1.000000 0.696345 0.392767
0.039948 0.448005 0.000000
0.051972 0.448341 0.000000
0.067720 0.448157 0.000000
0.089693 0.447517 0.000000
0.115755 0.446784 0.000000
0.144045 0.445716 0.000000
0.173037 0.444800 0.000000
0.203799 0.443946 0.000000
0.236210 0.442847 0.000000
0.269505 0.441688 0.000000
0.303441 0.443519 0.000000
0.340459 0.459113 0.000000
0.382849 0.475257 0.000000
0.429969 0.491493 0.000000
0.480842 0.507378 0.000000
0.534234 0.522667 0.000000
0.588464 0.537652 0.000000
0.632105 0.540917 0.000000
0.677058 0.547631 0.000000
0.719539 0.557153 0.000000
0.758633 0.566369 0.000000
0.794644 0.575525 0.000000
0.827481 0.584863 0.000000
0.857450 0.594842 0.000000
0.885008 0.605921 0.000000
0.910338 0.618555 0.122560
0.933562 0.632959 0.184970
0.954742 0.649439 0.241703
0.972656 0.662257 0.275944
0.989776 0.677882 0.314549
1.000000 0.696315 0.359289
1.000000 0.717952 0.410376
0.000000 0.489540 0.000000
0.003235 0.489601 0.000000
0.039460 0.489113 0.000000
0.078431 0.488441 0.000000
0.109163 0.487373 0.000000
0.139712 0.486305 0.000000
0.171054 0.485054 0.000000
0.203250 0.483558 0.000000
0.236484 0.482155 0.000000
0.270512 0.480568 0.000000
0.304936 0.478828 0.000000
0.340246 0.485969 0.000000
0.379522 0.501122 0.000000
0.422950 0.516228 0.000000
0.470130 0.530968 0.000000
0.519524 0.545159 0.000000
0.570397 0.558892 0.000000
0.622004 0.572564 0.000000
0.664210 0.576410 0.000000
0.707759 0.582635 0.000000
0.748196 0.591455 0.000000
0.785214 0.599939 0.000000
0.819059 0.608423 0.000000
0.850217 0.617456 0.000000
0.878904 0.627344 0.000000
0.905272 0.638636 0.059602
0.929656 0.651667 0.150240
0.951873 0.666926 0.214786
0.971923 0.684535 0.277714
0.989441 0.703059 0.335302
1.000000 0.719905 0.379004
1.000000 0.739712 0.429480
0.000000 0.530419 0.000000
0.000000 0.530663 0.000000
0.000000 0.549279 0.000000
0.060883 0.548394 0.000000
0.102907 0.547051 0.000000
0.139193 0.545037 0.000000
0.174502 0.542901 0.000000
0.209323 0.540368 0.000000
0.244724 0.537896 0.000000
0.280522 0.535302 0.000000
0.316228 0.532525 0.000000
0.352056 0.529198 0.000000
0.388983 0.540337 0.000000
0.429511 0.553582 0.000000
0.473243 0.566522 0.000000
0.519310 0.579156 0.000000
0.566888 0.591547 0.000000
0.615198 0.603540 0.000000
0.663966 0.615656 0.000000
0.704067 0.619074 0.000000
0.744198 0.622919 0.000000
0.781552 0.630152 0.000000
0.815793 0.637415 0.000000
0.847196 0.644923 0.000000
0.875822 0.652888 0.000000
0.902281 0.662013 0.000000
0.926665 0.672786 0.106050
0.949187 0.685695 0.183566
0.969848 0.701106 0.250675
0.988281 0.719326 0.317540
1.000000 0.740169 0.387488
1.000000 0.760739 0.448554
0.000000 0.574578 0.000000
0.000000 0.576989 0.000000
0.000000 0.579004 0.000000
0.034394 0.580499 0.000000
0.096132 0.580926 0.000000
0.135348 0.579980 0.000000
0.172122 0.578332 0.000000
0.208347 0.575891 0.000000
0.244144 0.573510 0.000000
0.280430 0.570733 0.000000
0.316564 0.567956 0.000000
0.352880 0.564630 0.000000
0.388403 0.564630 0.000000
0.426062 0.576562 0.000000
0.466773 0.588525 0.000000
0.509850 0.600336 0.000000
0.554467 0.611810 0.000000
0.600214 0.623285 0.000000
0.646540 0.634699 0.000000
0.693172 0.645991 0.000000
0.731868 0.649897 0.000000
0.770352 0.652979 0.000000
0.806180 0.660060 0.000000
0.838987 0.667231 0.000000
0.869047 0.674708 0.000000
0.896788 0.683040 0.000000
0.922332 0.692866 0.000000
0.945983 0.704524 0.141726
0.967620 0.718471 0.219211
0.986969 0.735012 0.290715
1.000000 0.754025 0.363745
1.000000 0.775418 0.439307
0.000000 0.610437 0.000000
0.000000 0.612512 0.000000
0.000000 0.614557 0.000000
0.003906 0.615930 0.000000
0.089998 0.616266 0.000000
0.132540 0.615351 0.000000
0.170962 0.613764 0.000000
0.208042 0.611444 0.000000
0.244846 0.609094 0.000000
0.281437 0.606500 0.000000
0.318212 0.603662 0.000000
0.354650 0.600519 0.000000
0.390326 0.596704 0.000000
0.426184 0.601373 0.000000
0.464302 0.612451 0.000000
0.504723 0.623377 0.000000
0.546777 0.634150 0.000000
0.589807 0.644800 0.000000
0.633783 0.655268 0.000000
0.678126 0.665797 0.000000
0.722225 0.676265 0.000000
0.759762 0.680507 0.000000
0.796353 0.683467 0.000000
0.830533 0.689509 0.000000
0.861936 0.696590 0.000000
0.890837 0.704250 0.000000
0.917540 0.712947 0.000000
0.942199 0.723354 0.071931
0.964843 0.735927 0.178744
0.985138 0.750851 0.258732
1.000000 0.768063 0.335790
1.000000 0.787778 0.415259
0.000000 0.646082 0.000000
0.000000 0.648127 0.000000
0.000000 0.649958 0.000000
0.000000 0.651270 0.000000
0.085847 0.651514 0.000000
0.131594 0.650599 0.000000
0.170962 0.648951 0.000000
0.208896 0.646754 0.000000
0.246281 0.644343 0.000000
0.283421 0.641688 0.000000
0.320287 0.638941 0.000000
0.357031 0.635645 0.000000
0.393133 0.631922 0.000000
0.428412 0.627619 0.007874
0.464485 0.637140 0.000000
0.502892 0.647608 0.000000
0.543175 0.658289 0.000000
0.584710 0.668879 0.000000
0.627222 0.679469 0.000000
0.670375 0.690089 0.000000
0.713497 0.700587 0.000000
0.756222 0.710842 0.000000
0.794186 0.717128 0.000000
0.827695 0.718807 0.000000
0.860472 0.724300 0.000000
0.890623 0.731716 0.000000
0.918334 0.739956 0.000000
0.943755 0.749508 0.000000
0.966949 0.760861 0.148409
0.987549 0.774289 0.240024
1.000000 0.789700 0.322820
1.000000 0.807706 0.406409
0.000000 0.689235 0.000000
0.000000 0.690211 0.000000
0.000000 0.690639 0.000000
0.000000 0.690639 0.000000
0.089754 0.690089 0.000000
0.135348 0.688869 0.000000
0.175204 0.687221 0.000000
0.213870 0.685267 0.000000
0.251774 0.683192 0.000000
0.289708 0.681117 0.000000
0.327550 0.678676 0.000000
0.364935 0.675898 0.015473
0.401526 0.672419 0.036957
0.437324 0.668238 0.055055
0.472023 0.667567 0.050355
0.507988 0.676936 0.000000
0.545617 0.686152 0.000000
0.584405 0.695491 0.000000
0.624262 0.704738 0.000000
0.664607 0.713924 0.000000
0.705135 0.722957 0.000000
0.745510 0.731807 0.000000
0.785183 0.740505 0.000000
0.822202 0.747311 0.000000
0.852415 0.747402 0.000000
0.883757 0.752285 0.000000
0.912902 0.760006 0.000000
0.939696 0.768917 0.000000
0.964080 0.779263 0.064210
0.985809 0.791348 0.195407
1.000000 0.805447 0.287633
1.000000 0.821836 0.375982
0.000000 0.722560 0.000000
0.000000 0.723384 0.000000
0.000000 0.723934 0.000000
0.017731 0.724117 0.000000
0.098787 0.723445 0.000000
0.141573 0.722164 0.000000
0.181186 0.720455 0.000000
0.219028 0.718532 0.007691
0.256840 0.716457 0.023682
0.294621 0.714229 0.040253
0.332403 0.711818 0.055299
0.369665 0.709133 0.065644
0.406317 0.705867 0.072969
0.442329 0.702296 0.081453
0.477241 0.698299 0.088380
0.511467 0.701991 0.074769
0.546990 0.710475 0.007416
0.583764 0.719112 0.000000
0.621485 0.727810 0.000000
0.660121 0.736446 0.000000
0.699031 0.744991 0.000000
0.737972 0.753475 0.000000
0.776455 0.761776 0.000000
0.814145 0.769863 0.000000
0.847074 0.774136 0.000000
0.874998 0.773678 0.000000
0.905638 0.778378 0.000000
0.933928 0.786740 0.000000
0.959686 0.796353 0.000000
0.982818 0.807431 0.127199
1.000000 0.820706 0.241367
1.000000 0.835843 0.337285
0.000000 0.760342 0.081636
0.000000 0.761196 0.075929
0.009186 0.761563 0.072328
0.081086 0.761288 0.074159
0.121004 0.760372 0.076295
0.158846 0.758877 0.077821
0.195712 0.756863 0.079377
0.231754 0.754513 0.082277
0.268467 0.751888 0.085054
0.304936 0.749111 0.088655
0.341558 0.746151 0.093812
0.377966 0.743099 0.098238
0.414069 0.739651 0.103426
0.449348 0.735744 0.108309
0.483558 0.731380 0.112764
0.516564 0.726833 0.118318
0.549187 0.733455 0.098116
0.583246 0.740780 0.068757
0.618860 0.748562 0.000000
0.655695 0.756619 0.000000
0.693080 0.764828 0.000000
0.730465 0.772885 0.000000
0.767269 0.780545 0.000000
0.803464 0.787747 0.000000
0.838407 0.794461 0.000000
0.872374 0.801144 0.000000
0.899687 0.801663 0.000000
0.929229 0.806149 0.000000
0.956085 0.814878 0.000000
0.980560 0.825223 0.000000
1.000000 0.837308 0.185824
1.000000 0.851194 0.294926
0.067475 0.789639 0.115938
0.073030 0.790494 0.112886
0.082826 0.791012 0.110780
0.111482 0.790677 0.111727
0.143252 0.789853 0.112947
0.176516 0.788540 0.114168
0.210452 0.786831 0.115572
0.244999 0.784878 0.117159
0.280369 0.782712 0.120027
0.316258 0.780484 0.123384
0.352239 0.778042 0.127169
0.388464 0.775418 0.131197
0.424445 0.772641 0.136172
0.459571 0.769375 0.140810
0.493843 0.765774 0.145083
0.526879 0.761898 0.150088
0.558862 0.761196 0.149142
0.591089 0.767880 0.133059
0.624567 0.774868 0.114046
0.659236 0.782193 0.090272
0.694545 0.789548 0.045869
0.730159 0.796872 0.000000
0.765530 0.803891 0.000000
0.800198 0.810575 0.000000
0.834073 0.816892 0.000000
0.866789 0.822873 0.000000
0.898497 0.828763 0.000000
0.925505 0.830716 0.000000
0.954498 0.835782 0.000000
0.980163 0.845579 0.000000
1.000000 0.856687 0.116793
1.000000 0.869261 0.253361
0.122530 0.820401 0.155886
0.125429 0.820920 0.153201
0.128908 0.821103 0.149752
0.147738 0.820584 0.150210
0.172580 0.819547 0.150607
0.200565 0.818143 0.151278
0.230930 0.816464 0.152438
0.263066 0.814481 0.153323
0.296483 0.812497 0.155764
0.330938 0.810483 0.158541
0.365820 0.808286 0.161624
0.401434 0.806149 0.166293
0.436561 0.803738 0.170809
0.471351 0.800961 0.175265
0.504875 0.797848 0.180117
0.537682 0.794369 0.184054
0.569574 0.790829 0.188968
0.600214 0.793576 0.183627
0.631617 0.799832 0.170993
0.664149 0.806332 0.157259
0.697505 0.813046 0.141360
0.731289 0.819699 0.121950
0.764920 0.826108 0.094667
0.798154 0.832303 0.038361
0.830747 0.838132 0.000000
0.862516 0.843687 0.000000
0.893370 0.849119 0.000000
0.922942 0.854429 0.000000
0.949279 0.857633 0.000000
0.977539 0.864103 0.000000
1.000000 0.873777 0.000000
1.000000 0.885191 0.188663
0.167910 0.848508 0.194583
0.169986 0.848875 0.192935
0.171847 0.849058 0.189334
0.185550 0.848692 0.189181
0.206485 0.847990 0.190188
0.231266 0.847257 0.191714
0.259709 0.846555 0.194461
0.290440 0.845914 0.197604
0.323522 0.845304 0.202152
0.357824 0.844694 0.207156
0.392950 0.843961 0.213016
0.428412 0.843046 0.219211
0.463447 0.841825 0.225437
0.497810 0.840146 0.231754
0.531243 0.838010 0.237736
0.563500 0.835325 0.242924
0.594812 0.832486 0.248569
0.625422 0.829740 0.254612
0.654475 0.835111 0.245975
0.684565 0.840696 0.237308
0.715358 0.846433 0.227634
0.746670 0.852140 0.216983
0.777920 0.857603 0.204288
0.808957 0.862913 0.189548
0.839536 0.867918 0.170993
0.869627 0.872740 0.147311
0.899077 0.877592 0.116365
0.927550 0.882353 0.066285
0.954620 0.887144 0.000000
0.979034 0.890837 0.000000
1.000000 0.897734 0.000000
1.000000 0.906432 0.134981
0.233494 0.883116 0.253666
0.234958 0.883330 0.251652
0.236088 0.883299 0.249363
0.245335 0.882811 0.248020
0.260807 0.881987 0.248386
0.280705 0.880949 0.249424
0.304265 0.879820 0.250401
0.330571 0.878691 0.252628
0.359594 0.877531 0.255619
0.390204 0.876280 0.259648
0.421790 0.874937 0.263859
0.454139 0.873442 0.268925
0.486519 0.871794 0.273930
0.518669 0.869871 0.279637
0.550286 0.867735 0.284977
0.581353 0.865385 0.290654
