nova/tdt-studio/app/Lut_mau/luts/lut10.cube
# Created by Adobe Lightroom plugin Export LUT (1.22.0)
# www.johnrellis.com/lightroom/exportlut.htm
# Preset: Butterfly
# Color profile: /Library/Application Support/Adobe/Color/Profiles/Recommended/AdobeRGB1998.icc
LUT_3D_SIZE 8
DOMAIN_MIN 0.000000 0.000000 0.000000
DOMAIN_MAX 0.903226 0.903226 0.903226
0.000000 0.000000 0.000000
0.081910 0.000000 0.021576
0.227726 0.000000 0.046448
0.451453 0.000000 0.035096
0.663600 0.000000 0.009674
0.818570 0.000000 0.062257
0.923217 0.000000 0.134127
0.999420 0.104799 0.238529
0.008453 0.063844 0.045533
0.069612 0.067018 0.013458
0.214481 0.010376 0.018433
0.432380 0.000000 0.005341
0.648737 0.000000 0.000000
0.805722 0.000000 0.000000
0.915221 0.000000 0.112703
0.995697 0.140230 0.222721
0.000000 0.166476 0.083558
0.003174 0.165835 0.068452
0.167575 0.186069 0.000000
0.402136 0.176181 0.000000
0.628779 0.119478 0.000000
0.794064 0.083955 0.000000
0.913634 0.156252 0.000000
0.995758 0.263706 0.187503
0.000000 0.331670 0.129152
0.000000 0.331640 0.123537
0.100526 0.311345 0.082124
0.348913 0.379309 0.000000
0.622705 0.393347 0.000000
0.773220 0.358160 0.000000
0.898344 0.359075 0.000000
0.987488 0.386725 0.065797
0.000000 0.518822 0.196017
0.000000 0.517967 0.191836
0.000000 0.510521 0.137881
0.239658 0.475196 0.095491
0.535393 0.559594 0.000000
0.758846 0.568322 0.000000
0.869627 0.522972 0.000000
0.973175 0.519249 0.000000
0.000000 0.683803 0.286351
0.000000 0.688289 0.286259
0.000000 0.685328 0.275059
0.208927 0.659785 0.177768
0.421485 0.648798 0.063844
0.687984 0.709010 0.000000
0.871550 0.712306 0.000000
0.961212 0.668360 0.000000
0.000000 0.817624 0.396612
0.000000 0.818418 0.395056
0.000000 0.816068 0.386969
0.217838 0.805844 0.316442
0.408972 0.776333 0.257237
0.592340 0.786770 0.080781
0.805478 0.821561 0.000000
0.956542 0.815396 0.000000
0.229374 0.913207 0.522271
0.231113 0.913146 0.520684
0.239872 0.913573 0.515770
0.410163 0.908232 0.533989
0.453162 0.895689 0.427649
0.590723 0.877867 0.396582
0.739132 0.894285 0.317388
0.902739 0.909972 0.000000
0.000000 0.008148 0.087495
0.073182 0.007324 0.076570
0.213962 0.000000 0.078553
0.427924 0.000000 0.050172
0.644953 0.000000 0.000000
0.801633 0.000000 0.015686
0.913115 0.000000 0.119173
0.994263 0.077760 0.227207
0.000000 0.067018 0.086854
0.069337 0.067964 0.085145
0.205234 0.034150 0.076448
0.418097 0.000000 0.029694
0.636072 0.000000 0.000000
0.793973 0.000000 0.000000
0.906828 0.000000 0.098573
0.990387 0.122774 0.211704
0.000000 0.165469 0.115023
0.032136 0.170962 0.115053
0.170535 0.185550 0.072267
0.392187 0.171969 0.000000
0.613275 0.135958 0.000000
0.780636 0.102937 0.000000
0.901671 0.148653 0.000000
0.989410 0.250950 0.174868
0.000000 0.327886 0.160555
0.000000 0.330419 0.158114
0.116823 0.319310 0.125063
0.339666 0.365972 0.000000
0.598566 0.373968 0.000000
0.753902 0.345953 0.000000
0.885405 0.348669 0.000000
0.981079 0.377325 0.019501
0.000000 0.517479 0.226932
0.000000 0.516320 0.221805
0.000000 0.511467 0.196384
0.244816 0.466682 0.142702
0.524865 0.546929 0.000000
0.749050 0.558618 0.000000
0.863005 0.517113 0.000000
0.968994 0.513817 0.000000
0.000000 0.679347 0.308293
0.000000 0.679255 0.305180
0.000000 0.676905 0.294072
0.216251 0.655909 0.209018
0.420569 0.641932 0.134188
0.686397 0.705348 0.000000
0.868681 0.708644 0.000000
0.958373 0.664454 0.000000
0.000000 0.812070 0.407660
0.000000 0.811063 0.404089
0.000000 0.809476 0.397345
0.247501 0.801236 0.350866
0.411566 0.774289 0.281376
0.589563 0.782071 0.144045
0.801755 0.816953 0.000000
0.952758 0.811002 0.000000
0.207736 0.911040 0.527184
0.211673 0.911406 0.526207
0.222477 0.912108 0.521813
0.402228 0.907042 0.539300
0.467201 0.898619 0.454444
0.595300 0.879301 0.414923
0.738216 0.893278 0.313756
0.901640 0.908415 0.000000
0.000000 0.019318 0.212589
0.078981 0.009186 0.203952
0.208774 0.000000 0.181796
0.443977 0.000000 0.194827
0.650172 0.000000 0.185733
0.801450 0.000000 0.157137
0.914305 0.000000 0.110384
0.996979 0.109926 0.230930
0.000000 0.080537 0.211582
0.033143 0.075105 0.207614
0.201205 0.074922 0.186252
0.428565 0.000000 0.196536
0.640223 0.000000 0.181369
0.794278 0.000000 0.146975
0.909239 0.000000 0.089754
0.994537 0.148898 0.218051
0.000000 0.176455 0.206546
0.000000 0.180179 0.205020
0.180728 0.189822 0.200107
0.399542 0.176455 0.183566
0.622950 0.143038 0.155734
0.782925 0.141360 0.108949
0.901762 0.174594 0.000000
0.990600 0.254002 0.176944
0.000000 0.343816 0.251774
0.000000 0.346715 0.249668
0.162783 0.351568 0.243473
0.354955 0.370367 0.182101
0.593744 0.354711 0.083497
0.759854 0.346532 0.000000
0.888151 0.356909 0.000000
0.983703 0.379065 0.052125
0.000000 0.527092 0.310552
0.000000 0.528130 0.308904
0.094179 0.527550 0.302342
0.288975 0.498878 0.251713
0.537621 0.552117 0.128908
0.747311 0.549401 0.000000
0.863706 0.514244 0.000000
0.970977 0.512200 0.000000
0.000000 0.686152 0.382696
0.000000 0.686152 0.381842
0.000000 0.683223 0.374823
0.267979 0.669978 0.320348
0.433936 0.636378 0.265141
0.686976 0.702235 0.000000
0.866453 0.702541 0.000000
0.960021 0.661280 0.000000
0.000000 0.817563 0.466011
0.000000 0.816983 0.463844
0.000000 0.813748 0.457740
0.334020 0.803952 0.458839
0.435096 0.780453 0.368078
0.594446 0.779416 0.282231
0.806210 0.818204 0.000000
0.956695 0.811002 0.000000
0.170993 0.913054 0.561181
0.173526 0.912718 0.558343
0.184756 0.912963 0.552972
0.385718 0.908934 0.567864
0.491463 0.899840 0.516869
0.607416 0.881407 0.478035
0.739498 0.893156 0.336584
0.905028 0.909148 0.000000
0.000000 0.021973 0.390478
0.000000 0.000000 0.389532
0.278660 0.000000 0.377691
0.435554 0.000000 0.350286
0.667567 0.000000 0.372503
0.802762 0.000000 0.362921
0.904143 0.114473 0.362646
0.992401 0.166415 0.312718
0.000000 0.081514 0.389319
0.000000 0.083528 0.388556
0.267369 0.092866 0.380011
0.429816 0.000458 0.353704
0.660060 0.000000 0.374640
0.796201 0.000000 0.363958
0.901030 0.154879 0.354620
0.991394 0.187198 0.301183
0.000000 0.202274 0.372381
0.000000 0.200839 0.370367
0.180087 0.200748 0.376471
0.405249 0.227604 0.359716
0.634089 0.225406 0.377813
0.781460 0.242771 0.371221
0.899962 0.268559 0.338872
0.991272 0.273716 0.273899
0.000000 0.343633 0.376349
0.000000 0.346777 0.375341
0.071504 0.356390 0.371618
0.361517 0.367102 0.365637
0.589166 0.364050 0.346960
0.758083 0.367712 0.321019
0.885679 0.377600 0.281651
0.984436 0.381292 0.211398
0.000000 0.543725 0.442939
0.000000 0.546654 0.443702
0.000000 0.548302 0.436347
0.354406 0.538964 0.419593
0.544549 0.552270 0.353429
0.734707 0.529320 0.259770
0.867155 0.512474 0.188205
0.973968 0.507317 0.042969
0.000000 0.702510 0.499397
0.000000 0.705684 0.500481
0.000000 0.701198 0.492073
0.339178 0.690517 0.480293
0.476509 0.656092 0.420447
0.691005 0.703944 0.327337
0.860838 0.692439 0.160525
0.961059 0.648768 0.000000
0.000000 0.824765 0.552911
0.000000 0.825223 0.551781
0.000000 0.823301 0.547845
0.326299 0.814847 0.544335
0.482490 0.797604 0.499702
0.605188 0.776761 0.439338
0.807462 0.819089 0.278202
0.957427 0.805997 0.000000
0.034760 0.918181 0.623682
0.069337 0.918456 0.621942
0.111269 0.918761 0.613611
0.329015 0.914488 0.612360
0.569268 0.899748 0.639582
0.627283 0.885893 0.568566
0.741451 0.890440 0.480598
0.908202 0.909636 0.141390
0.000000 0.006439 0.582116
0.000000 0.000000 0.583124
0.299321 0.000000 0.582391
0.523644 0.005707 0.575433
0.650782 0.000000 0.544274
0.808103 0.162905 0.552758
0.901701 0.263157 0.543786
0.975921 0.372900 0.553491
0.000000 0.093568 0.577386
0.000000 0.093233 0.579736
0.282322 0.085084 0.581109
0.520867 0.153017 0.576226
0.645655 0.098268 0.545403
0.803616 0.221042 0.555322
0.898741 0.297765 0.547234
0.973938 0.393561 0.556756
0.000000 0.218082 0.552911
0.000000 0.216220 0.557549
0.170169 0.214542 0.567041
0.488624 0.277775 0.573053
0.625849 0.281193 0.546929
0.785214 0.338781 0.558648
0.887083 0.383246 0.553796
0.966796 0.448920 0.562554
0.000000 0.364904 0.544884
0.000000 0.364324 0.542901
0.000000 0.361547 0.537102
0.368566 0.374456 0.553429
0.592523 0.430060 0.548516
0.757412 0.458900 0.561364
0.870024 0.481361 0.558404
0.967285 0.476417 0.520378
0.000000 0.521752 0.553765
0.000000 0.523522 0.552850
0.000000 0.527977 0.548974
0.291630 0.533318 0.543114
0.533989 0.538201 0.535088
0.719295 0.537774 0.516442
0.857664 0.538445 0.487617
0.964904 0.531609 0.436255
0.000000 0.694850 0.603845
0.000000 0.696803 0.604364
0.000000 0.700862 0.605280
0.311376 0.700099 0.601678
0.522515 0.681147 0.577111
0.681544 0.695064 0.523125
0.841794 0.668666 0.420294
0.956573 0.638178 0.320409
0.000000 0.833005 0.659022
0.000000 0.832547 0.656886
0.000000 0.829374 0.651240
0.287572 0.821927 0.642206
0.519951 0.807858 0.631678
0.622980 0.777371 0.578363
0.800626 0.815763 0.498146
0.947845 0.794583 0.313481
0.000000 0.921050 0.698054
0.000000 0.921050 0.696101
0.000000 0.921263 0.688869
0.237064 0.920104 0.682277
0.519829 0.907500 0.686122
0.648463 0.892882 0.663844
0.740963 0.883391 0.610040
0.902190 0.907958 0.437873
0.000000 0.031556 0.738979
0.000000 0.001343 0.739467
0.322820 0.000000 0.739162
0.554345 0.105959 0.739284
0.702266 0.202945 0.733394
0.789364 0.223423 0.692287
0.897917 0.384619 0.695430
0.967224 0.458778 0.691066
0.000000 0.112703 0.732174
0.000000 0.111055 0.732601
0.302251 0.106813 0.734249
0.543603 0.169497 0.735988
0.697047 0.255589 0.730892
0.784634 0.267979 0.691798
0.894530 0.409186 0.697139
0.965057 0.474952 0.693080
0.000000 0.236362 0.719631
0.000000 0.217227 0.721340
0.198764 0.234989 0.725338
0.506584 0.288090 0.731380
0.687739 0.388128 0.731136
0.774166 0.386694 0.696803
0.885771 0.486213 0.706783
0.959472 0.528008 0.702144
0.000000 0.381292 0.690272
0.000000 0.377722 0.687861
0.000000 0.371954 0.697017
0.393957 0.393866 0.717159
0.663386 0.509972 0.730007
0.758236 0.520104 0.706630
0.873381 0.577142 0.719387
0.952056 0.596368 0.713008
0.000000 0.534325 0.694362
0.000000 0.533806 0.693141
0.000000 0.531426 0.688808
0.154116 0.522667 0.681331
0.541192 0.545739 0.698878
0.725948 0.614710 0.702358
0.851743 0.641840 0.714382
0.940795 0.653071 0.709468
0.000000 0.672694 0.698909
0.000000 0.674495 0.699367
0.000000 0.676722 0.697261
0.148440 0.678279 0.693202
0.468055 0.678859 0.687160
0.672206 0.685664 0.682673
0.824735 0.687648 0.669032
0.939635 0.682460 0.640070
0.000000 0.826932 0.745113
0.000000 0.828397 0.745785
0.000000 0.829862 0.745754
0.191501 0.830045 0.746517
0.512108 0.825437 0.745846
0.669032 0.806180 0.723110
0.794705 0.813809 0.676905
0.930602 0.782712 0.568505
0.000000 0.928862 0.787625
0.000000 0.928771 0.786130
0.000000 0.929015 0.780606
0.095399 0.926024 0.773007
0.476661 0.915435 0.766232
0.665095 0.901976 0.762234
0.750912 0.881102 0.724544
0.894652 0.906981 0.650019
0.000000 0.119661 0.850736
0.115389 0.113252 0.852049
0.369024 0.105989 0.851743
0.567315 0.181247 0.850309
0.729122 0.334936 0.846464
0.822324 0.359472 0.838682
0.879240 0.393622 0.794919
0.955810 0.518944 0.791623
0.000000 0.146883 0.845670
0.011475 0.148318 0.846677
0.348486 0.157778 0.846799
0.554589 0.216251 0.845426
0.720363 0.352728 0.842008
0.815702 0.382361 0.834073
0.873411 0.408911 0.791409
0.951904 0.525170 0.789090
0.000000 0.245701 0.841978
0.000000 0.249668 0.842039
0.270909 0.265049 0.841733
0.520958 0.313848 0.841672
0.703456 0.424628 0.839658
0.808377 0.479469 0.833738
0.868498 0.493355 0.798184
0.949371 0.585351 0.800137
0.000000 0.395087 0.825254
0.000000 0.391882 0.825620
0.000000 0.389075 0.829191
0.425025 0.411353 0.833860
0.665583 0.505669 0.835752
0.799161 0.595666 0.835569
0.860960 0.594629 0.808499
0.944396 0.656245 0.812894
0.000000 0.538933 0.809384
0.000000 0.535485 0.807370
0.000000 0.524285 0.802426
0.000000 0.507622 0.803708
0.549371 0.549004 0.819364
0.773465 0.670192 0.829831
0.844877 0.674434 0.811612
0.935546 0.715724 0.820462
0.000000 0.675685 0.810086
0.000000 0.675135 0.809415
0.000000 0.672572 0.807004
0.000000 0.666102 0.803006
0.335760 0.650385 0.795285
0.672114 0.685542 0.810666
0.828489 0.754391 0.818662
0.925597 0.771572 0.825162
0.000000 0.796567 0.814694
0.000000 0.797665 0.814939
0.000000 0.798672 0.813931
0.000000 0.799344 0.812222
0.365515 0.796872 0.807858
0.610834 0.795895 0.802548
0.781613 0.801266 0.799313
0.910643 0.800870 0.787900
0.000000 0.922301 0.849149
0.000000 0.922789 0.848753
0.000000 0.926757 0.849271
0.000000 0.927153 0.847959
0.392920 0.920714 0.847257
0.652277 0.913268 0.848692
0.784146 0.899474 0.834134
0.889433 0.905425 0.798795
0.173434 0.235080 0.929534
0.254917 0.237736 0.929564
0.416815 0.248112 0.927672
0.583825 0.289891 0.925139
0.728328 0.378302 0.919890
0.840757 0.523766 0.911528
0.906310 0.482490 0.908080
0.943084 0.509422 0.863828
0.176638 0.233158 0.928557
0.255222 0.235813 0.928618
0.413275 0.245335 0.926726
0.577234 0.289982 0.923552
0.722866 0.394354 0.918273
0.837186 0.533623 0.910277
0.902953 0.498329 0.906340
0.940642 0.521019 0.863218
0.000000 0.289952 0.925780
0.132906 0.294408 0.925536
0.357061 0.310185 0.923186
0.548852 0.360815 0.921630
0.707240 0.450233 0.916533
0.827878 0.570672 0.909087
0.896178 0.558709 0.904845
0.936400 0.570306 0.866148
0.000000 0.407355 0.920104
0.000000 0.410681 0.920409
0.121950 0.396429 0.920256
0.469337 0.438239 0.918181
0.670802 0.516167 0.914366
0.810941 0.619837 0.909026
0.887572 0.641077 0.904814
0.931426 0.640925 0.872709
0.000000 0.539696 0.905516
0.000000 0.536126 0.906462
0.000000 0.522393 0.907897
0.187503 0.513939 0.911192
0.571374 0.560662 0.909850
0.771695 0.655299 0.906676
0.875914 0.719753 0.904387
0.925078 0.715908 0.881010
0.000000 0.673335 0.901946
0.000000 0.670985 0.901122
0.000000 0.662745 0.898985
0.000000 0.645869 0.896239
0.190219 0.619440 0.894957
0.672816 0.680140 0.902251
0.863767 0.790677 0.907836
0.921172 0.793759 0.894469
0.000000 0.791989 0.901488
0.000000 0.791409 0.900938
0.000000 0.789212 0.899504
0.000000 0.784604 0.897917
0.000000 0.775418 0.894896
0.469581 0.761379 0.889342
0.778286 0.796292 0.898131
0.912169 0.854887 0.903593
0.000000 0.894835 0.906004
0.000000 0.895109 0.905699
0.000000 0.896818 0.905486
0.000000 0.899046 0.904784
0.000000 0.896788 0.903197
0.511589 0.892699 0.900145
0.727993 0.891234 0.896452
0.879515 0.894957 0.894072
