nova/tdt-studio/app/Lut_mau/luts/lut1.cube
# Created by Adobe Lightroom plugin Export LUT (1.22.0)
# www.johnrellis.com/lightroom/exportlut.htm
# Preset: Cinnamon
# Color profile: /Library/Application Support/Adobe/Color/Profiles/Recommended/AdobeRGB1998.icc
LUT_3D_SIZE 8
DOMAIN_MIN 0.000000 0.000000 0.000000
DOMAIN_MAX 0.903226 0.903226 0.903226
0.106233 0.089601 0.058900
0.122194 0.090852 0.059602
0.215122 0.087190 0.053376
0.371801 0.059327 0.019867
0.554467 0.034272 0.000000
0.738033 0.155215 0.000000
0.864408 0.270756 0.000000
0.963378 0.396521 0.137484
0.107362 0.102876 0.059602
0.126864 0.108888 0.056641
0.219699 0.113893 0.048280
0.373571 0.111147 0.011933
0.555444 0.123140 0.000000
0.728298 0.192966 0.000000
0.856474 0.290715 0.000000
0.958831 0.408148 0.132509
0.102785 0.182437 0.046998
0.129915 0.182498 0.048188
0.227024 0.209659 0.001617
0.400824 0.232761 0.000000
0.600610 0.273167 0.000000
0.753811 0.323735 0.000000
0.876677 0.397162 0.000000
0.968780 0.486580 0.174746
0.091157 0.318578 0.000000
0.129244 0.316655 0.002838
0.227115 0.317693 0.012055
0.406714 0.393927 0.000000
0.622034 0.441840 0.000000
0.784390 0.486610 0.000000
0.890776 0.526848 0.097444
0.971252 0.581994 0.222599
0.000000 0.489540 0.000000
0.109163 0.487373 0.000000
0.236484 0.482155 0.000000
0.379522 0.501122 0.000000
0.570397 0.558892 0.000000
0.748196 0.591455 0.000000
0.878904 0.627344 0.000000
0.971923 0.684535 0.277714
0.000000 0.646082 0.000000
0.085847 0.651514 0.000000
0.246281 0.644343 0.000000
0.393133 0.631922 0.000000
0.543175 0.658289 0.000000
0.713497 0.700587 0.000000
0.860472 0.724300 0.000000
0.966949 0.760861 0.148409
0.067475 0.789639 0.115938
0.143252 0.789853 0.112947
0.280369 0.782712 0.120027
0.424445 0.772641 0.136172
0.558862 0.761196 0.149142
0.694545 0.789548 0.045869
0.834073 0.816892 0.000000
0.954498 0.835782 0.000000
0.287327 0.909483 0.304906
0.308995 0.908568 0.299718
0.396948 0.905028 0.308843
0.515984 0.900816 0.331029
0.622400 0.885466 0.333898
0.736141 0.890776 0.349126
0.847990 0.910246 0.327337
0.953155 0.925261 0.272221
0.108186 0.089509 0.071046
0.123537 0.089052 0.072175
0.211734 0.084291 0.074189
0.365576 0.080690 0.077180
0.545434 0.074800 0.066743
0.715389 0.151247 0.052155
0.847227 0.259251 0.079744
0.951781 0.383856 0.163851
0.108095 0.101472 0.072175
0.129305 0.110140 0.077058
0.221530 0.118685 0.079377
0.373297 0.122652 0.077058
0.553216 0.134951 0.065217
0.714900 0.192905 0.046998
0.842618 0.281926 0.075929
0.947082 0.395117 0.159243
0.112123 0.185916 0.086488
0.136965 0.193668 0.081666
0.232883 0.213565 0.069276
0.402228 0.236423 0.062318
0.587060 0.269718 0.053834
0.736751 0.314519 0.043366
0.857115 0.379980 0.095796
0.955749 0.470527 0.191165
0.120180 0.323552 0.099397
0.133242 0.326299 0.076204
0.235142 0.326116 0.083040
0.397894 0.383093 0.000000
0.597894 0.420874 0.000000
0.761807 0.467903 0.010773
0.871397 0.507774 0.135073
0.959442 0.567041 0.232975
0.097719 0.497353 0.104280
0.109224 0.495247 0.058503
0.239292 0.487098 0.068971
0.376776 0.493965 0.038025
0.559869 0.547601 0.000000
0.738094 0.581567 0.000000
0.870695 0.620233 0.061830
0.965148 0.679286 0.303471
0.060761 0.644495 0.117067
0.081788 0.644343 0.068788
0.241581 0.637781 0.076875
0.389105 0.627405 0.094911
0.538994 0.652796 0.000000
0.711208 0.698177 0.000000
0.857237 0.720974 0.000000
0.962066 0.756527 0.193118
0.119753 0.781491 0.180850
0.130190 0.779629 0.147127
0.269108 0.774197 0.148623
0.416876 0.766751 0.163760
0.554345 0.755459 0.179019
0.688624 0.783841 0.115297
0.826596 0.809934 0.000000
0.947387 0.828367 0.000000
0.295293 0.903990 0.332219
0.303899 0.904631 0.317266
0.388586 0.901884 0.320989
0.509697 0.898100 0.342626
0.630335 0.891051 0.367071
0.738674 0.892180 0.375647
0.845548 0.908598 0.344823
0.949737 0.922576 0.287144
0.113039 0.087953 0.138888
0.141665 0.081483 0.153780
0.228946 0.074434 0.158083
0.354467 0.100038 0.174441
0.555779 0.000000 0.167697
0.720790 0.166781 0.192508
0.848508 0.273503 0.216342
0.950774 0.397772 0.276677
0.110597 0.109529 0.139406
0.137789 0.110597 0.154849
0.234348 0.116243 0.165347
0.369970 0.128725 0.176547
0.561944 0.138125 0.179171
0.720211 0.206699 0.193759
0.846098 0.297246 0.215885
0.948852 0.412818 0.276677
0.117525 0.177554 0.157412
0.147524 0.190768 0.166720
0.256046 0.232181 0.192020
0.421210 0.252934 0.196292
0.598840 0.283726 0.202792
0.741146 0.327581 0.210330
0.855314 0.390234 0.234501
0.951324 0.478645 0.297490
0.100526 0.344945 0.214511
0.147189 0.354925 0.214633
0.259586 0.381811 0.201144
0.431312 0.413977 0.185183
0.628321 0.449683 0.199924
0.771817 0.489052 0.249393
0.870939 0.520989 0.277623
0.956420 0.579065 0.343053
0.101808 0.517082 0.244144
0.157992 0.523796 0.243259
0.254551 0.535027 0.208316
0.408392 0.521599 0.212833
0.587274 0.573632 0.162936
0.754513 0.598505 0.158663
0.874571 0.635615 0.280461
0.960113 0.689693 0.411170
0.139864 0.662623 0.279820
0.190921 0.665919 0.279118
0.251774 0.666468 0.221927
0.405676 0.652125 0.225650
0.549737 0.660365 0.210208
0.715724 0.702480 0.152895
0.858518 0.723690 0.128389
0.959899 0.764096 0.342443
0.233860 0.792264 0.348058
0.256657 0.791440 0.338781
0.277317 0.788571 0.266789
0.423804 0.777646 0.270909
0.559686 0.763088 0.276921
0.691096 0.785672 0.249760
0.830381 0.814511 0.199466
0.951934 0.835142 0.139773
0.368780 0.903441 0.456031
0.369665 0.902861 0.440070
0.387304 0.903014 0.391150
0.509483 0.900511 0.408911
0.628534 0.892607 0.425422
0.738705 0.890959 0.440223
0.844541 0.908782 0.417700
0.948943 0.924132 0.374792
0.104402 0.082704 0.260288
0.138308 0.074403 0.280247
0.288090 0.000000 0.345922
0.409247 0.000000 0.326787
0.514916 0.172457 0.338537
0.697108 0.144228 0.341192
0.831449 0.217288 0.331456
0.934722 0.384253 0.389776
0.100893 0.109682 0.268681
0.136355 0.107088 0.285252
0.280583 0.062837 0.345892
0.416449 0.091768 0.336278
0.529412 0.201724 0.347997
0.702602 0.181033 0.339666
0.830167 0.272435 0.342199
0.934722 0.401770 0.391455
0.115053 0.186618 0.255406
0.142550 0.196780 0.265873
0.250340 0.218997 0.332372
0.436011 0.255802 0.365637
0.578210 0.296544 0.374029
0.732235 0.321172 0.360998
0.847318 0.399878 0.384619
0.942596 0.481910 0.422827
0.107210 0.313512 0.314275
0.147555 0.328038 0.325658
0.273899 0.378454 0.364904
0.472908 0.457008 0.419959
0.635706 0.477333 0.419165
0.756435 0.494179 0.413733
0.856626 0.525048 0.422217
0.945678 0.582666 0.463020
0.000000 0.551263 0.432044
0.089509 0.555322 0.429999
0.283024 0.571557 0.426764
0.459205 0.592950 0.415839
0.621180 0.610437 0.396460
0.770840 0.629999 0.418311
0.874022 0.668055 0.495460
0.950164 0.697505 0.527214
0.087709 0.688594 0.446845
0.172519 0.695674 0.450843
0.319249 0.700404 0.447120
0.445899 0.703975 0.414282
0.582788 0.685969 0.406012
0.732052 0.721523 0.375616
0.862974 0.737484 0.384924
0.953338 0.779355 0.522271
0.221592 0.802670 0.482155
0.262913 0.803525 0.482460
0.371496 0.804562 0.481880
0.448402 0.803769 0.431189
0.580011 0.787839 0.427253
0.700862 0.794095 0.411994
0.832700 0.820035 0.379034
0.950134 0.839750 0.370672
0.393103 0.909056 0.570245
0.415717 0.908751 0.570794
0.480934 0.906401 0.569390
0.511284 0.906950 0.510857
0.628046 0.898009 0.518029
0.738399 0.889799 0.531670
0.841337 0.908171 0.516991
0.945403 0.925109 0.487312
0.046571 0.070649 0.418891
0.117922 0.056184 0.436469
0.273136 0.000000 0.493446
0.531182 0.000000 0.589441
0.611658 0.000000 0.536522
0.677882 0.263432 0.519249
0.803281 0.325902 0.537499
0.918120 0.398169 0.548730
0.029694 0.103609 0.421942
0.112795 0.098177 0.439734
0.266941 0.019471 0.494362
0.522026 0.000000 0.586389
0.614221 0.075624 0.541283
0.679713 0.299748 0.525994
0.806516 0.346899 0.539666
0.919371 0.410864 0.546746
0.035004 0.191531 0.401740
0.093294 0.194430 0.424048
0.238926 0.201663 0.481147
0.490852 0.193301 0.578119
0.620356 0.284916 0.556542
0.683528 0.396307 0.544060
0.814939 0.406531 0.541039
0.922362 0.445228 0.532769
0.074800 0.301701 0.414862
0.122683 0.311437 0.423835
0.239597 0.348241 0.456153
0.442176 0.419501 0.553185
0.635859 0.488197 0.590356
0.725246 0.508263 0.575189
0.834287 0.503716 0.544396
0.926604 0.560998 0.560784
0.027466 0.473976 0.494209
0.130709 0.485145 0.502892
0.282200 0.522667 0.531121
0.476997 0.586511 0.581018
0.653712 0.649531 0.625452
0.764920 0.655909 0.618341
0.851072 0.657252 0.602930
0.934356 0.682979 0.611414
0.000000 0.705776 0.621332
0.068421 0.707729 0.620325
0.293217 0.711940 0.614252
0.475257 0.719905 0.608484
0.615961 0.725460 0.592676
0.742123 0.738460 0.578454
0.860288 0.757565 0.603967
0.943420 0.800381 0.682490
0.195407 0.813748 0.628168
0.242161 0.813291 0.626429
0.360357 0.812833 0.622004
0.499794 0.813077 0.617975
0.598810 0.811124 0.584680
0.707118 0.796384 0.569696
0.829679 0.823148 0.545922
0.940948 0.842649 0.560418
0.372625 0.909789 0.671626
0.394781 0.908995 0.670436
0.463142 0.906676 0.666957
0.565667 0.906828 0.668330
0.621942 0.905150 0.620752
0.731014 0.894804 0.621668
0.832425 0.903899 0.616083
0.936797 0.922576 0.594171
0.000000 0.013489 0.591089
0.096803 0.000000 0.602991
0.274876 0.000000 0.640375
0.497841 0.000000 0.704646
0.740963 0.000000 0.775235
0.762020 0.133547 0.700221
0.807736 0.393164 0.678492
0.888884 0.531762 0.717830
0.000000 0.087770 0.584375
0.078798 0.077028 0.595392
0.264042 0.000000 0.634211
0.488106 0.000000 0.699489
0.736507 0.000000 0.772488
0.759609 0.200473 0.699306
0.805722 0.415198 0.679408
0.889006 0.538506 0.716854
0.000000 0.184787 0.575341
0.000000 0.185397 0.586786
0.234012 0.184482 0.628595
0.463966 0.169497 0.693690
0.715145 0.176516 0.765408
0.761227 0.355840 0.708278
0.804776 0.492805 0.690791
0.893492 0.569390 0.719234
0.000000 0.304967 0.518608
0.000000 0.311162 0.531304
0.196933 0.333989 0.589532
0.423346 0.380896 0.675074
0.679347 0.449683 0.753414
0.767025 0.534417 0.728115
0.805631 0.601434 0.714290
0.904051 0.617304 0.721767
0.000000 0.441138 0.576989
0.049805 0.448432 0.582422
0.227756 0.474586 0.600946
0.398932 0.522148 0.633082
0.616266 0.605768 0.712947
0.766506 0.672450 0.743221
0.823911 0.671809 0.724849
0.916503 0.659937 0.701228
0.044862 0.616876 0.645747
0.148989 0.624842 0.651942
0.299840 0.646662 0.667475
0.471595 0.682643 0.693690
0.643885 0.730953 0.730220
0.777157 0.778988 0.765743
0.857481 0.781613 0.758297
0.930358 0.784054 0.746395
0.187808 0.828031 0.767300
0.245579 0.830289 0.769680
0.374609 0.833677 0.772274
0.515068 0.832975 0.764279
0.646204 0.832883 0.755215
0.743771 0.832364 0.735988
0.837247 0.838224 0.717250
0.936065 0.859586 0.741176
0.370611 0.917388 0.786007
0.393225 0.916503 0.784604
0.462593 0.914183 0.780270
0.560052 0.912139 0.775082
0.659022 0.909270 0.765286
0.729458 0.907164 0.729335
0.826383 0.900633 0.722713
0.929107 0.922210 0.708766
0.000000 0.000000 0.742641
0.141604 0.000000 0.749172
0.301610 0.000000 0.770352
0.490425 0.000000 0.804990
0.690913 0.000000 0.845426
0.850736 0.000000 0.871550
0.862150 0.319219 0.812192
0.901457 0.546441 0.806668
0.000000 0.029786 0.739315
0.120912 0.000000 0.745815
0.291173 0.000000 0.767575
0.481971 0.000000 0.801541
0.684779 0.000000 0.842649
0.849241 0.000000 0.871000
0.860594 0.350896 0.811978
0.899901 0.558373 0.806668
0.000000 0.174014 0.730739
0.000000 0.172061 0.737179
0.251499 0.161715 0.758816
0.456458 0.135470 0.793698
0.666896 0.131899 0.836149
0.846921 0.259800 0.872129
0.858915 0.451148 0.815793
0.898436 0.605280 0.812131
0.000000 0.301640 0.696223
0.000000 0.300755 0.704616
0.154238 0.308659 0.735256
0.404883 0.332158 0.774685
0.632441 0.381262 0.821775
0.834501 0.477790 0.869444
0.856352 0.575921 0.822477
0.895903 0.667506 0.819577
0.000000 0.432227 0.671717
0.000000 0.435065 0.673335
0.113313 0.444923 0.679500
0.317082 0.470069 0.720851
0.569787 0.535821 0.791287
0.793301 0.629053 0.851225
0.853971 0.688441 0.830869
0.892088 0.733913 0.828031
0.000000 0.583886 0.721431
0.000000 0.587121 0.723140
0.205203 0.598352 0.729152
0.365087 0.617853 0.739498
0.527123 0.649287 0.754726
0.734951 0.730739 0.818265
0.857755 0.791104 0.846555
0.905333 0.786893 0.834501
0.176577 0.739986 0.771511
0.221073 0.742855 0.773220
0.332555 0.752285 0.778927
0.469734 0.768948 0.789273
0.619654 0.794247 0.805875
0.759152 0.831785 0.833890
0.866117 0.871366 0.863645
0.930541 0.870726 0.854032
0.352178 0.915099 0.867643
0.377447 0.916136 0.868803
0.457008 0.917632 0.871275
0.563867 0.920043 0.875334
0.667323 0.919951 0.871183
0.760952 0.919066 0.860563
0.835996 0.917296 0.836851
0.924163 0.924956 0.824369
0.232273 0.000000 0.885130
0.272099 0.000000 0.887633
0.382269 0.000000 0.895628
0.529046 0.000000 0.909545
0.690272 0.000000 0.927520
0.847471 0.000000 0.947326
0.941436 0.236515 0.950164
0.945159 0.512230 0.908232
0.217502 0.000000 0.883177
0.259495 0.000000 0.885740
0.373449 0.000000 0.893950
0.522728 0.000000 0.907897
0.685725 0.000000 0.926116
0.844144 0.000000 0.946044
0.940124 0.283055 0.949584
0.944060 0.528405 0.908110
0.146456 0.183688 0.876707
0.204166 0.180148 0.879240
0.337652 0.165591 0.887694
0.499886 0.140444 0.902770
0.670253 0.133486 0.921599
0.832578 0.217136 0.941924
0.936400 0.405463 0.948516
0.941527 0.581506 0.908843
0.000000 0.307958 0.861936
0.000000 0.313420 0.864897
0.250584 0.317418 0.874571
0.449439 0.327916 0.891020
0.638392 0.358160 0.911894
0.810849 0.428107 0.934081
0.930877 0.545281 0.947417
0.938476 0.653101 0.910979
0.000000 0.474281 0.826566
0.000000 0.472663 0.830381
0.065675 0.465187 0.843320
0.313603 0.451057 0.866972
0.572900 0.503258 0.893278
0.773159 0.574884 0.920806
0.922484 0.668299 0.946319
0.935363 0.730220 0.914336
0.000000 0.609064 0.836545
0.000000 0.609003 0.836423
0.131594 0.608637 0.836027
0.284550 0.606867 0.835294
0.453101 0.611383 0.850919
0.705715 0.678370 0.896971
0.889525 0.763516 0.935241
0.933623 0.808164 0.920104
0.164248 0.743008 0.863188
0.198337 0.743648 0.863279
0.285130 0.745724 0.863554
0.396094 0.749966 0.864469
0.520562 0.757504 0.865690
0.648249 0.769711 0.867643
0.828061 0.826596 0.908904
0.933776 0.883207 0.928649
0.357092 0.863920 0.890043
0.375586 0.864622 0.890288
0.434546 0.867277 0.891325
0.525353 0.872526 0.893584
0.629908 0.880827 0.897520
0.737362 0.893675 0.904509
0.848569 0.915557 0.919036
0.941222 0.945800 0.942443
