nova/tdt-studio/app/Lut_mau/luts/lut10.cube
# Created by Adobe Lightroom plugin Export LUT (1.22.0)
# www.johnrellis.com/lightroom/exportlut.htm
# Preset: Butterfly
# Color profile: /Library/Application Support/Adobe/Color/Profiles/Recommended/AdobeRGB1998.icc
LUT_3D_SIZE 32
0.000000 0.000000 0.000000
0.012604 0.000153 0.002899
0.029480 0.000000 0.004669
0.060609 0.000153 0.012299
0.081910 0.000000 0.021576
0.108431 0.000000 0.029847
0.142306 0.000000 0.038025
0.182345 0.000000 0.042420
0.227726 0.000000 0.046448
0.278630 0.000000 0.047364
0.334112 0.000000 0.045777
0.392432 0.000000 0.041657
0.451453 0.000000 0.035096
0.509636 0.000000 0.027192
0.564935 0.000000 0.019776
0.616571 0.000000 0.012604
0.663600 0.000000 0.009674
0.705562 0.000000 0.010834
0.747799 0.000000 0.020844
0.785122 0.000000 0.039826
0.818570 0.000000 0.062257
0.848875 0.000000 0.078309
0.876066 0.000000 0.095735
0.900694 0.000000 0.114107
0.923217 0.000000 0.134127
0.944060 0.000000 0.155978
0.963622 0.000000 0.180270
0.982025 0.000000 0.207431
0.999420 0.104799 0.238529
1.000000 0.192020 0.274052
1.000000 0.258701 0.314885
1.000000 0.321050 0.361730
0.000641 0.006744 0.004852
0.008881 0.007813 0.002380
0.030274 0.006653 0.001923
0.060548 0.006165 0.008545
0.081422 0.006256 0.017762
0.107485 0.002106 0.027161
0.141024 0.000000 0.034302
0.180453 0.000000 0.039704
0.225376 0.000000 0.043977
0.275975 0.000000 0.045197
0.331182 0.000000 0.043519
0.389044 0.000000 0.039582
0.447944 0.000000 0.031983
0.505913 0.000000 0.024170
0.561242 0.000000 0.016052
0.613001 0.000000 0.008698
0.660273 0.000000 0.004700
0.702815 0.000000 0.005676
0.744442 0.000000 0.013306
0.781491 0.000000 0.030915
0.815061 0.000000 0.056641
0.845487 0.000000 0.074159
0.872984 0.000000 0.091737
0.897948 0.000000 0.110506
0.920745 0.000000 0.130495
0.941863 0.000000 0.152377
0.961730 0.000000 0.176761
0.980407 0.000000 0.203983
0.998016 0.101289 0.234928
1.000000 0.189487 0.270603
1.000000 0.256138 0.311254
1.000000 0.318273 0.358007
0.001709 0.016907 0.011566
0.007782 0.015991 0.008240
0.022919 0.018372 0.003296
0.060304 0.016999 0.003357
0.080903 0.017304 0.011505
0.106538 0.013611 0.020935
0.139528 0.000000 0.029236
0.178408 0.000000 0.035798
0.223209 0.000000 0.040070
0.273167 0.000000 0.041413
0.328191 0.000000 0.039734
0.385962 0.000000 0.035767
0.444770 0.000000 0.028168
0.502739 0.000000 0.019348
0.558160 0.000000 0.010956
0.610254 0.000000 0.002594
0.657618 0.000000 0.000000
0.700832 0.000000 0.000000
0.742184 0.000000 0.004639
0.779171 0.000000 0.021363
0.812863 0.000000 0.048859
0.843473 0.000000 0.070008
0.871092 0.000000 0.087953
0.896269 0.000000 0.106905
0.919280 0.000000 0.127413
0.940581 0.000000 0.149508
0.960601 0.000000 0.173922
0.979400 0.000000 0.201297
0.997223 0.104585 0.232395
1.000000 0.190494 0.267826
1.000000 0.256260 0.308629
1.000000 0.317845 0.355230
0.005890 0.040314 0.025757
0.009033 0.039887 0.023560
0.017823 0.038544 0.020172
0.051148 0.042603 0.008118
0.079316 0.045441 0.003937
0.104707 0.041199 0.010254
0.137148 0.026215 0.019715
0.175662 0.000000 0.027405
0.219913 0.000000 0.031739
0.269535 0.000000 0.033967
0.323949 0.000000 0.032227
0.381353 0.000000 0.027100
0.439948 0.000000 0.019348
0.497871 0.000000 0.009247
0.553643 0.000000 0.000000
0.605798 0.000000 0.000000
0.653712 0.000000 0.000000
0.697780 0.000000 0.000000
0.738613 0.000000 0.000000
0.775235 0.000000 0.000855
0.808896 0.000000 0.026276
0.839658 0.000000 0.060121
0.867796 0.000000 0.079713
0.893614 0.000000 0.100191
0.917296 0.000000 0.121462
0.939239 0.000000 0.144503
0.959716 0.000000 0.169680
0.978851 0.000000 0.197360
0.996765 0.120912 0.228977
1.000000 0.198001 0.264591
1.000000 0.260777 0.305119
1.000000 0.320073 0.351690
0.008453 0.063844 0.045533
0.010010 0.063752 0.044434
0.014496 0.064088 0.034516
0.038117 0.061585 0.033326
0.069612 0.067018 0.013458
0.100496 0.069276 0.003510
0.133303 0.064240 0.004364
0.171023 0.051179 0.013123
0.214481 0.010376 0.018433
0.263066 0.000000 0.020600
0.316899 0.000000 0.018677
0.373999 0.000000 0.014313
0.432380 0.000000 0.005341
0.490608 0.000000 0.000000
0.546868 0.000000 0.000000
0.599878 0.000000 0.000000
0.648737 0.000000 0.000000
0.694545 0.000000 0.000000
0.735286 0.000000 0.000000
0.772030 0.000000 0.000000
0.805722 0.000000 0.000000
0.836667 0.000000 0.031220
0.865049 0.000000 0.066896
0.891142 0.000000 0.089723
0.915221 0.000000 0.112703
0.937499 0.000000 0.136660
0.958221 0.000000 0.162631
0.977569 0.000000 0.191043
0.995697 0.140230 0.222721
1.000000 0.208225 0.258640
1.000000 0.267063 0.299565
1.000000 0.324041 0.346044
0.009522 0.081697 0.059571
0.009522 0.081697 0.059571
0.015412 0.081788 0.057832
0.031525 0.079835 0.045350
0.059968 0.079591 0.039124
0.086397 0.087556 0.015198
0.127626 0.093355 0.000000
0.165896 0.088014 0.000000
0.208408 0.077546 0.000000
0.256657 0.058717 0.002625
0.309850 0.000000 0.000366
0.366674 0.000000 0.000000
0.424842 0.000000 0.000000
0.483467 0.000000 0.000000
0.540063 0.000000 0.000000
0.593713 0.000000 0.000000
0.643763 0.000000 0.000000
0.690761 0.000000 0.000000
0.731624 0.000000 0.000000
0.768795 0.000000 0.000000
0.803006 0.000000 0.000000
0.834440 0.000000 0.000000
0.879820 0.000000 0.060456
0.904570 0.000000 0.088289
0.927123 0.000000 0.113741
0.947906 0.000000 0.139590
0.967193 0.031495 0.166812
0.985290 0.138216 0.196323
1.000000 0.196078 0.229038
1.000000 0.247929 0.265812
1.000000 0.298131 0.307378
1.000000 0.349310 0.354345
0.003052 0.106203 0.067720
0.003265 0.106203 0.067323
0.003693 0.106203 0.066529
0.018189 0.105837 0.059266
0.052430 0.101564 0.054627
0.074586 0.105165 0.041505
0.109743 0.116762 0.012451
0.162844 0.126467 0.000000
0.207248 0.120699 0.000000
0.254002 0.110170 0.000000
0.307561 0.095430 0.000000
0.364813 0.069368 0.000000
0.423346 0.000000 0.000000
0.482094 0.000000 0.000000
0.538872 0.000000 0.000000
0.592035 0.000000 0.000000
0.644617 0.000000 0.000000
0.691615 0.000000 0.000000
0.733028 0.000000 0.000000
0.771054 0.000000 0.000000
0.806455 0.000000 0.000000
0.839475 0.000000 0.000000
0.869688 0.000000 0.000000
0.897215 0.000000 0.060792
0.921935 0.000000 0.094148
0.944091 0.000000 0.123629
0.964233 0.114931 0.153170
0.982818 0.168887 0.183810
1.000000 0.215640 0.217502
1.000000 0.260929 0.254734
1.000000 0.306798 0.296727
1.000000 0.354742 0.343999
0.000000 0.134005 0.074922
0.000000 0.134005 0.074586
0.000000 0.133791 0.073884
0.009400 0.134981 0.071412
0.031769 0.131197 0.061097
0.065919 0.125551 0.059937
0.092561 0.134829 0.036133
0.136202 0.148989 0.000671
0.199893 0.162722 0.000000
0.248966 0.157046 0.000000
0.299840 0.147219 0.000000
0.353246 0.133516 0.000000
0.412024 0.116854 0.000000
0.470741 0.092134 0.000000
0.527947 0.044648 0.000000
0.583734 0.000000 0.000000
0.637140 0.000000 0.000000
0.684047 0.000000 0.000000
0.725765 0.000000 0.000000
0.764218 0.000000 0.000000
0.800198 0.000000 0.000000
0.833646 0.000000 0.000000
0.864408 0.000000 0.000000
0.892393 0.000000 0.000000
0.917693 0.070222 0.065858
0.940368 0.122072 0.103059
0.960998 0.162600 0.135866
0.980102 0.200229 0.168734
0.997955 0.238041 0.203525
1.000000 0.277073 0.241855
1.000000 0.318486 0.284428
1.000000 0.362829 0.332341
0.000000 0.166476 0.083558
0.000000 0.166323 0.082979
0.000000 0.166323 0.082673
0.000000 0.167269 0.080507
0.003174 0.165835 0.068452
0.051575 0.160159 0.064637
0.080720 0.155276 0.061646
0.115084 0.169894 0.026337
0.167575 0.186069 0.000000
0.242588 0.204532 0.000000
0.295933 0.198917 0.000000
0.349493 0.189212 0.000000
0.402136 0.176181 0.000000
0.459083 0.162875 0.000000
0.518120 0.149233 0.000000
0.575586 0.134615 0.000000
0.628779 0.119478 0.000000
0.676081 0.104707 0.000000
0.718318 0.091402 0.000000
0.757504 0.082765 0.000000
0.794064 0.083955 0.000000
0.828153 0.094118 0.000000
0.859434 0.111238 0.000000
0.887907 0.132845 0.000000
0.913634 0.156252 0.000000
0.936858 0.180087 0.072847
0.957977 0.206027 0.113985
0.977539 0.233371 0.150698
0.995758 0.263706 0.187503
1.000000 0.296849 0.227024
1.000000 0.333288 0.270634
1.000000 0.373510 0.319158
0.000000 0.202579 0.093080
0.000000 0.202335 0.092592
0.000000 0.202213 0.091798
0.000000 0.203128 0.089876
0.000000 0.203861 0.084596
0.008026 0.198825 0.069276
0.069947 0.191653 0.067872
0.100130 0.192020 0.059571
0.142916 0.208927 0.007599
0.202976 0.226566 0.000000
0.289342 0.249638 0.000000
0.345495 0.243534 0.000000
0.400122 0.234257 0.000000
0.454780 0.223423 0.000000
0.508232 0.210727 0.000000
0.566064 0.203311 0.000000
0.619989 0.196201 0.000000
0.668360 0.189334 0.000000
0.711360 0.183505 0.000000
0.751186 0.179904 0.000000
0.788052 0.179538 0.000000
0.822232 0.182803 0.000000
0.853635 0.189212 0.000000
0.882261 0.199100 0.000000
0.908385 0.211978 0.000000
0.932189 0.227176 0.000000
0.954009 0.245365 0.081300
0.974273 0.266575 0.126528
0.993225 0.291081 0.167849
1.000000 0.319127 0.209812
1.000000 0.351202 0.255070
1.000000 0.387610 0.305333
0.000000 0.240940 0.103243
0.000000 0.241032 0.102968
0.000000 0.240940 0.102510
0.000000 0.241520 0.100649
0.000000 0.242924 0.097841
0.000000 0.240116 0.079561
0.038911 0.233280 0.073304
0.089357 0.225132 0.071382
0.125185 0.232547 0.050050
0.175387 0.251255 0.000000
0.243076 0.270481 0.000000
0.337163 0.296269 0.000000
0.400580 0.293736 0.000000
0.456519 0.285100 0.000000
0.508904 0.274662 0.000000
0.557427 0.262852 0.000000
0.607904 0.255100 0.000000
0.657282 0.250889 0.000000
0.701472 0.246555 0.000000
0.742214 0.243717 0.000000
0.780117 0.242924 0.000000
0.815183 0.244083 0.000000
0.847471 0.247745 0.000000
0.876951 0.253880 0.000000
0.903716 0.262119 0.000000
0.928038 0.272313 0.000000
0.950378 0.285130 0.000000
0.971130 0.300847 0.093843
0.990509 0.320165 0.143252
1.000000 0.343084 0.188998
1.000000 0.370459 0.236454
1.000000 0.402655 0.288090
0.000000 0.282811 0.115114
0.000000 0.282811 0.114687
0.000000 0.282658 0.114107
0.000000 0.282963 0.112490
0.000000 0.284337 0.109773
0.000000 0.283848 0.100649
0.000000 0.277989 0.079561
0.071748 0.270054 0.077821
0.112642 0.260472 0.074922
0.154726 0.276280 0.028565
0.213779 0.298070 0.000000
0.290440 0.319951 0.000000
0.407538 0.362799 0.000000
0.477485 0.362951 0.000000
0.531151 0.353399 0.000000
0.579706 0.342504 0.000000
0.623651 0.330877 0.000000
0.663203 0.318456 0.000000
0.706935 0.314488 0.000000
0.747280 0.311467 0.000000
0.784512 0.309575 0.000000
0.818784 0.309270 0.000000
0.850187 0.310002 0.000000
0.878996 0.312688 0.000000
0.905394 0.317082 0.000000
0.929442 0.323247 0.000000
0.951537 0.331640 0.000000
0.972076 0.342748 0.035615
0.991272 0.357153 0.118441
1.000000 0.375280 0.170535
1.000000 0.397894 0.221073
1.000000 0.425605 0.274846
0.000000 0.331670 0.129152
0.000000 0.331548 0.128664
0.000000 0.331212 0.128023
0.000000 0.330999 0.126375
0.000000 0.331640 0.123537
0.000000 0.331975 0.120546
0.000000 0.327123 0.094392
0.012512 0.319249 0.084901
0.100526 0.311345 0.082124
0.142397 0.307042 0.074617
0.194217 0.330266 0.000000
0.263462 0.354803 0.000000
0.348913 0.379309 0.000000
0.454322 0.409583 0.000000
0.527794 0.413977 0.000000
0.577966 0.404456 0.000000
0.622705 0.393347 0.000000
0.661860 0.380835 0.000000
0.697230 0.367864 0.000000
0.734768 0.360388 0.000000
0.773220 0.358160 0.000000
0.808774 0.356634 0.000000
0.841215 0.356237 0.000000
0.871061 0.357031 0.000000
0.898344 0.359075 0.000000
0.923339 0.362768 0.000000
0.946258 0.368231 0.000000
0.967559 0.376013 0.000000
0.987488 0.386725 0.065797
1.000000 0.401312 0.137819
1.000000 0.419959 0.194705
1.000000 0.443793 0.251804
0.000000 0.376043 0.142947
0.000000 0.375860 0.142489
0.000000 0.375647 0.141756
0.000000 0.375891 0.140688
0.000000 0.376654 0.138125
0.000000 0.377752 0.135103
0.000000 0.376043 0.120333
0.000000 0.369787 0.093477
0.076783 0.361364 0.090608
0.131899 0.352178 0.086641
0.176364 0.355779 0.067109
0.235477 0.379980 0.000000
0.310613 0.404547 0.000000
0.398810 0.428321 0.000000
0.501457 0.456977 0.000000
0.575769 0.464607 0.000000
0.620935 0.453498 0.000000
0.660334 0.440986 0.000000
0.696010 0.427802 0.000000
0.729366 0.415351 0.000000
0.761196 0.403815 0.000000
0.798093 0.401953 0.000000
0.831876 0.400641 0.000000
0.862882 0.400122 0.000000
0.891264 0.400549 0.000000
0.917205 0.402106 0.000000
0.941070 0.405280 0.000000
0.963165 0.410437 0.000000
0.983825 0.418219 0.000000
1.000000 0.429389 0.091676
1.000000 0.444587 0.163119
1.000000 0.464607 0.226017
0.000000 0.425666 0.159548
0.000000 0.425757 0.159121
0.000000 0.425452 0.158480
0.000000 0.425177 0.157290
0.000000 0.425208 0.154788
0.000000 0.425422 0.151705
0.000000 0.425696 0.148531
0.000000 0.419440 0.113100
0.000000 0.411353 0.100374
0.115572 0.402075 0.096101
0.164950 0.391943 0.091585
0.214633 0.404395 0.051240
0.279850 0.428870 0.000000
0.358862 0.452949 0.000000
0.447730 0.475593 0.000000
0.545434 0.502007 0.000000
0.619501 0.512200 0.000000
0.659205 0.499123 0.000000
0.695094 0.485542 0.000000
0.728481 0.472663 0.000000
0.760006 0.460548 0.000000
0.789914 0.449195 0.000000
0.821683 0.443153 0.000000
0.853971 0.441566 0.000000
0.883513 0.440803 0.000000
0.910643 0.440955 0.000000
0.935698 0.442481 0.000000
0.959014 0.445869 0.000000
0.980682 0.451575 0.000000
1.000000 0.460212 0.000000
1.000000 0.472541 0.124819
1.000000 0.489509 0.198795
0.000000 0.473823 0.177432
0.000000 0.473976 0.177157
0.000000 0.473884 0.176547
0.000000 0.473548 0.175265
0.000000 0.473426 0.173037
0.000000 0.473548 0.169955
0.000000 0.474006 0.167086
0.000000 0.470619 0.145785
0.000000 0.463569 0.112245
0.089082 0.454444 0.108034
0.154421 0.443854 0.102907
0.201389 0.432166 0.097322
0.256779 0.452796 0.010712
0.325933 0.475776 0.000000
0.406195 0.497932 0.000000
0.492927 0.518730 0.000000
0.581842 0.540429 0.000000
0.657496 0.555108 0.000000
0.694148 0.541283 0.000000
0.728176 0.528313 0.000000
0.759976 0.515953 0.000000
0.790005 0.504204 0.000000
0.818357 0.493111 0.000000
0.845731 0.483284 0.000000
0.876555 0.481605 0.000000
0.904814 0.480598 0.000000
0.930877 0.480629 0.000000
0.955016 0.482185 0.000000
0.977508 0.485817 0.000000
0.998413 0.491768 0.000000
1.000000 0.500847 0.051026
1.000000 0.514305 0.162112
0.000000 0.518822 0.196017
0.000000 0.518822 0.195682
0.000000 0.518669 0.195285
0.000000 0.518212 0.193759
0.000000 0.517967 0.191836
0.000000 0.517998 0.188998
0.000000 0.517845 0.185794
0.000000 0.516777 0.177493
0.000000 0.510521 0.137881
0.007263 0.502037 0.120668
0.136507 0.492042 0.115602
0.192752 0.480842 0.109712
0.239658 0.475196 0.095491
0.300206 0.497688 0.000000
0.371862 0.519493 0.000000
0.451850 0.540032 0.000000
0.535393 0.559594 0.000000
0.617639 0.578576 0.000000
0.692775 0.595209 0.000000
0.727016 0.581262 0.000000
0.758846 0.568322 0.000000
0.788815 0.555932 0.000000
0.817044 0.544182 0.000000
0.843931 0.533257 0.000000
0.869627 0.522972 0.000000
0.897215 0.518334 0.000000
0.924437 0.517327 0.000000
0.949676 0.517479 0.000000
0.973175 0.519249 0.000000
0.995056 0.523217 0.000000
1.000000 0.529870 0.000000
1.000000 0.540368 0.110628
0.000000 0.562799 0.216617
0.000000 0.562982 0.216098
0.000000 0.577173 0.223178
0.000000 0.576715 0.221988
0.000000 0.576135 0.219821
0.000000 0.575555 0.216678
0.000000 0.574701 0.213016
0.000000 0.573510 0.209140
0.000000 0.568475 0.179355
0.000000 0.560967 0.140475
0.118624 0.550958 0.134401
0.187686 0.539513 0.128084
0.238804 0.526696 0.120851
0.288823 0.528801 0.091615
0.352941 0.549615 0.000000
0.426032 0.569635 0.000000
0.504417 0.588159 0.000000
0.582635 0.605432 0.000000
0.659022 0.622095 0.000000
0.731624 0.638331 0.000000
0.762753 0.623957 0.000000
0.792050 0.610254 0.000000
0.819699 0.597253 0.000000
0.845823 0.585199 0.000000
0.870634 0.573632 0.000000
0.894469 0.562951 0.000000
0.918425 0.554620 0.000000
0.944274 0.553002 0.000000
0.968505 0.553033 0.000000
0.991272 0.555047 0.000000
1.000000 0.559533 0.000000
1.000000 0.567254 0.000000
0.000000 0.608850 0.240543
0.000000 0.610590 0.241245
0.000000 0.612207 0.241611
0.000000 0.613672 0.241581
0.000000 0.614343 0.240482
0.000000 0.614466 0.237980
0.000000 0.613825 0.234348
0.000000 0.612848 0.230625
0.000000 0.610346 0.216831
0.000000 0.603906 0.172091
0.079744 0.595300 0.151247
0.171969 0.584802 0.144472
0.230350 0.572778 0.136812
0.277745 0.559472 0.128542
0.331609 0.570062 0.083070
0.397436 0.589319 0.000000
0.469490 0.607263 0.000000
0.543999 0.623865 0.000000
0.617762 0.639887 0.000000
0.689967 0.655390 0.000000
0.761074 0.672206 0.000000
0.790768 0.658259 0.000000
0.818509 0.644862 0.000000
0.844663 0.632197 0.000000
0.869413 0.620111 0.000000
0.893187 0.608820 0.000000
0.916228 0.598474 0.000000
0.938872 0.589380 0.000000
0.963439 0.586938 0.000000
0.987182 0.587243 0.000000
1.000000 0.589899 0.000000
1.000000 0.595270 0.000000
0.000000 0.647181 0.262852
0.000000 0.648768 0.263645
0.000000 0.650172 0.263920
0.000000 0.651484 0.263890
0.000000 0.652155 0.262821
0.000000 0.652186 0.260594
0.000000 0.651637 0.257420
0.000000 0.650568 0.253849
0.000000 0.649317 0.250126
0.000000 0.644343 0.214176
0.000000 0.637934 0.171176
0.153017 0.628595 0.164096
0.220523 0.617884 0.156069
0.273289 0.605859 0.147311
0.317723 0.592340 0.137667
0.376165 0.610101 0.073610
0.441932 0.627405 0.000000
0.511620 0.643549 0.000000
0.582269 0.658839 0.000000
0.652125 0.673610 0.000000
0.720272 0.687770 0.000000
0.786679 0.702724 0.000000
0.817777 0.691157 0.000000
0.843839 0.677913 0.000000
0.868467 0.665187 0.000000
0.892027 0.653223 0.000000
0.914824 0.642206 0.000000
0.937194 0.632288 0.000000
0.959411 0.623926 0.000000
0.982422 0.619532 0.000000
1.000000 0.620386 0.000000
1.000000 0.623621 0.000000
0.000000 0.683803 0.286351
0.000000 0.685145 0.286717
0.000000 0.686549 0.287572
0.000000 0.687587 0.287327
0.000000 0.688289 0.286259
0.000000 0.688319 0.284367
0.000000 0.687739 0.281529
0.000000 0.686732 0.278233
0.000000 0.685328 0.275059
0.000000 0.682216 0.255863
0.000000 0.676936 0.209751
0.129488 0.669398 0.186069
0.208927 0.659785 0.177768
0.266972 0.649012 0.168673
0.315557 0.637171 0.159030
0.361456 0.631708 0.139406
0.421485 0.648798 0.063844
0.486580 0.665003 0.000000
0.553887 0.680385 0.000000
0.621454 0.695003 0.000000
0.687984 0.709010 0.000000
0.753109 0.722347 0.000000
0.815335 0.735225 0.000000
0.847044 0.725429 0.000000
0.871550 0.712306 0.000000
0.894865 0.699825 0.000000
0.917327 0.688106 0.000000
0.939391 0.677607 0.000000
0.961212 0.668360 0.000000
0.983001 0.660670 0.000000
1.000000 0.654902 0.000000
1.000000 0.656062 0.000000
0.000000 0.723751 0.314824
0.000000 0.724422 0.315251
0.000000 0.724788 0.314855
0.000000 0.725063 0.314244
0.000000 0.725124 0.313024
0.000000 0.724910 0.310826
0.000000 0.724422 0.308324
0.000000 0.723445 0.305669
0.000000 0.722316 0.303227
0.059144 0.720729 0.300847
0.076661 0.716548 0.259373
0.107851 0.711238 0.213748
0.201022 0.702846 0.205386
0.264317 0.693263 0.196139
0.316167 0.682612 0.186099
0.361456 0.671015 0.175143
0.409522 0.672938 0.144472
0.468788 0.688106 0.059297
0.531060 0.702510 0.000000
0.594842 0.716091 0.000000
0.658228 0.728847 0.000000
0.720638 0.740963 0.000000
0.781399 0.752163 0.000000
0.839139 0.762417 0.000000
0.870817 0.753719 0.000000
0.893889 0.740627 0.000000
0.916197 0.728389 0.000000
0.938018 0.717342 0.000000
0.959686 0.707546 0.000000
0.981231 0.699092 0.000000
1.000000 0.692256 0.000000
1.000000 0.686885 0.000000
0.000000 0.756100 0.340124
0.000000 0.756649 0.340520
0.000000 0.757198 0.340551
0.000000 0.757443 0.339879
0.000000 0.757534 0.338689
0.000000 0.757229 0.336706
0.000000 0.756985 0.334051
0.000000 0.755917 0.331884
0.000000 0.754635 0.329961
0.000000 0.752956 0.328435
0.125429 0.749966 0.305516
0.131411 0.745907 0.259037
0.190494 0.739437 0.233188
0.258762 0.731014 0.224033
0.313634 0.721706 0.214054
0.361334 0.711666 0.203128
0.403815 0.700862 0.191867
0.454475 0.709255 0.150118
0.511864 0.723018 0.058015
0.571649 0.736080 0.000000
0.632074 0.748318 0.000000
0.692226 0.759731 0.000000
0.751186 0.770413 0.000000
0.808530 0.780240 0.000000
0.860441 0.786404 0.000000
0.892302 0.778744 0.000000
0.914427 0.766201 0.000000
0.936065 0.754574 0.000000
0.957488 0.744228 0.000000
0.978882 0.735225 0.000000
1.000000 0.727565 0.000000
1.000000 0.721553 0.000000
0.000000 0.790280 0.370428
0.000000 0.790829 0.370611
0.000000 0.791165 0.370642
0.000000 0.791196 0.369848
0.000000 0.791043 0.368566
0.000000 0.790616 0.366339
0.000000 0.790158 0.363806
0.000000 0.789212 0.361151
0.000000 0.787442 0.359655
0.000000 0.785367 0.358556
0.171267 0.782650 0.352514
0.173587 0.778897 0.310460
0.185153 0.774441 0.264530
0.255680 0.766720 0.255070
0.312108 0.758053 0.244602
0.360876 0.748592 0.233158
0.404486 0.738582 0.221622
0.444373 0.728786 0.208377
0.496132 0.741817 0.156985
0.551293 0.754299 0.057954
0.608362 0.765988 0.000000
0.665583 0.776822 0.000000
0.722347 0.786770 0.000000
0.777829 0.795743 0.000000
0.831632 0.803769 0.000000
0.882292 0.810178 0.000000
0.914061 0.803250 0.000000
0.935271 0.790982 0.000000
0.956268 0.779995 0.000000
0.977264 0.770291 0.000000
0.998169 0.761898 0.000000
1.000000 0.755154 0.000000
0.000000 0.817624 0.396612
0.000000 0.818143 0.396979
0.000000 0.818509 0.397040
0.000000 0.818540 0.396368
0.000000 0.818418 0.395056
0.000000 0.818173 0.393317
0.000000 0.817807 0.390875
0.000000 0.817472 0.388037
0.000000 0.816068 0.386969
0.000000 0.814206 0.387182
0.189364 0.811887 0.388159
0.216342 0.809049 0.361059
0.217838 0.805844 0.316442
0.257572 0.800443 0.289616
0.314855 0.792996 0.279606
0.364446 0.784939 0.268803
0.408972 0.776333 0.257237
0.449500 0.767269 0.245426
0.489967 0.764248 0.224186
0.539879 0.775906 0.170718
0.592340 0.786770 0.080781
0.646204 0.796780 0.000000
0.700008 0.805905 0.000000
0.753231 0.814176 0.000000
0.805478 0.821561 0.000000
0.856260 0.828183 0.000000
0.904173 0.833310 0.000000
0.935790 0.826902 0.000000
0.956542 0.815396 0.000000
0.977020 0.804990 0.000000
0.997589 0.795956 0.000000
1.000000 0.788510 0.000000
0.000000 0.844297 0.425483
0.000000 0.844633 0.425635
0.000000 0.844755 0.425452
0.000000 0.844694 0.424659
0.000000 0.844480 0.423468
0.000000 0.844114 0.421393
0.000000 0.843778 0.419287
0.000000 0.843381 0.416480
0.000000 0.842832 0.414466
0.001007 0.840970 0.415442
0.197910 0.838651 0.417426
0.259281 0.836210 0.409735
0.259678 0.833799 0.370489
0.263981 0.830838 0.326024
0.320165 0.824460 0.316472
0.369451 0.817472 0.306065
0.413886 0.809934 0.294926
0.454383 0.802090 0.283146
0.492042 0.794095 0.271366
0.532799 0.796384 0.241794
0.580407 0.806516 0.185977
0.630396 0.815702 0.138247
0.680903 0.824125 0.015290
0.731380 0.831785 0.000000
0.781460 0.838651 0.000000
0.830594 0.844785 0.000000
0.878782 0.850309 0.000000
0.924773 0.854643 0.000000
0.955718 0.848234 0.000000
0.975830 0.837186 0.000000
0.996033 0.827512 0.000000
1.000000 0.819455 0.000000
0.000000 0.867918 0.454047
0.000000 0.868101 0.454047
0.000000 0.868193 0.453834
0.000000 0.868193 0.453223
0.000000 0.868162 0.452155
0.000000 0.868193 0.450965
0.000000 0.868406 0.449592
0.000000 0.868742 0.448127
0.000000 0.869230 0.446571
0.089509 0.868681 0.447883
0.220768 0.867063 0.452491
0.303288 0.864897 0.458534
0.313634 0.863462 0.430457
0.314122 0.861845 0.390814
0.342107 0.858122 0.365301
0.388525 0.852384 0.355749
0.430976 0.846159 0.345251
0.470222 0.839658 0.334295
0.507134 0.832975 0.323033
0.541802 0.826108 0.311620
0.581994 0.832242 0.273564
0.626947 0.840299 0.242222
0.673030 0.847715 0.203555
0.719783 0.854459 0.149874
0.766690 0.860533 0.000000
0.813291 0.865995 0.000000
0.859373 0.870787 0.000000
0.904753 0.874998 0.000000
0.948791 0.878477 0.000000
0.978424 0.871397 0.000000
0.998077 0.860990 0.000000
1.000000 0.852140 0.000000
0.118837 0.893370 0.490089
0.120302 0.893492 0.490120
0.120607 0.893492 0.489815
0.121309 0.893370 0.489113
0.122560 0.893278 0.488106
0.123720 0.893126 0.486732
0.126497 0.893095 0.485176
0.130495 0.893156 0.483436
0.135866 0.893309 0.481514
0.141665 0.893553 0.479561
0.243534 0.891539 0.484382
0.322393 0.888945 0.491218
0.360906 0.886748 0.482826
0.359991 0.885496 0.448157
0.360601 0.883879 0.407996
0.403449 0.879026 0.399054
