nova/tdt-studio/app/Lut_mau/luts/lut2.cube
# Created by Adobe Lightroom plugin Export LUT (1.22.0)
# www.johnrellis.com/lightroom/exportlut.htm
# Preset: Honey
# Color profile: /Library/Application Support/Adobe/Color/Profiles/Recommended/AdobeRGB1998.icc
LUT_3D_SIZE 5
DOMAIN_MIN 0.000000 0.000000 0.000000
DOMAIN_MAX 0.903226 0.903226 0.903226
0.092226 0.129397 0.119966
0.125978 0.131258 0.117800
0.420203 0.115480 0.096834
0.726009 0.137942 0.033051
0.936095 0.313481 0.113649
0.089082 0.153292 0.115999
0.133089 0.164920 0.113497
0.440833 0.209537 0.084962
0.732479 0.254643 0.010468
0.941619 0.389593 0.134096
0.041688 0.362036 0.080842
0.155459 0.344244 0.086061
0.415625 0.390509 0.000000
0.748501 0.482216 0.000000
0.941619 0.563745 0.190585
0.076173 0.621241 0.000000
0.201816 0.603357 0.000000
0.377234 0.556542 0.000000
0.660609 0.613825 0.000000
0.926574 0.719112 0.100832
0.278202 0.872679 0.109651
0.343816 0.864164 0.093324
0.484749 0.828794 0.000000
0.688045 0.835966 0.000000
0.919921 0.879423 0.000000
0.080781 0.133425 0.145144
0.128908 0.128298 0.158389
0.429816 0.000000 0.160220
0.709133 0.111238 0.177279
0.922911 0.307378 0.229160
0.060029 0.178622 0.163027
0.148165 0.188449 0.179995
0.448096 0.199374 0.178927
0.718685 0.244236 0.185214
0.925536 0.380468 0.242527
0.000000 0.408057 0.153780
0.164706 0.408362 0.176364
0.437263 0.411810 0.140505
0.748836 0.494820 0.226261
0.933257 0.566247 0.299046
0.000000 0.656306 0.137575
0.216617 0.643671 0.177432
0.386542 0.575433 0.145022
0.671260 0.627375 0.000000
0.925231 0.726558 0.265934
0.281987 0.883360 0.246342
0.346685 0.874784 0.233982
0.496101 0.848020 0.193240
0.687312 0.841886 0.106844
0.921508 0.882994 0.000000
0.000000 0.216526 0.411322
0.000000 0.177188 0.443244
0.489021 0.216922 0.493782
0.746426 0.307012 0.507256
0.916258 0.327886 0.465827
0.000000 0.304875 0.410468
0.094514 0.297795 0.448310
0.502495 0.325902 0.507439
0.739284 0.360540 0.501274
0.908354 0.397894 0.473121
0.000000 0.501152 0.463386
0.087495 0.509453 0.478187
0.522332 0.527398 0.530449
0.734249 0.524712 0.500877
0.916167 0.574487 0.507164
0.000000 0.730251 0.443244
0.193820 0.723751 0.448341
0.494392 0.698116 0.478828
0.703029 0.682124 0.413367
0.919738 0.765164 0.555993
0.179538 0.912810 0.438941
0.289311 0.909087 0.439704
0.510155 0.884672 0.457649
0.661372 0.842954 0.362554
0.911650 0.882811 0.311284
0.000000 0.390051 0.700649
0.000000 0.361089 0.717281
0.505333 0.411109 0.764767
0.763699 0.515587 0.782956
0.908782 0.690517 0.813382
0.000000 0.469429 0.693935
0.112001 0.459480 0.712001
0.508324 0.471717 0.760037
0.761624 0.567132 0.782071
0.906279 0.699825 0.809659
0.000000 0.598779 0.684230
0.117250 0.599603 0.688808
0.524193 0.618189 0.737026
0.760128 0.682338 0.784054
0.903288 0.721553 0.792111
0.000000 0.786007 0.727108
0.222293 0.783841 0.730648
0.519799 0.783047 0.748562
0.761807 0.798276 0.789731
0.901518 0.778622 0.749203
0.306706 0.950225 0.727626
0.387671 0.946654 0.729763
0.552483 0.935668 0.732082
0.706355 0.904265 0.710750
0.895537 0.894804 0.625910
0.285283 0.628901 0.907561
0.354681 0.617121 0.911681
0.551354 0.614527 0.923857
0.801328 0.739620 0.935271
0.906401 0.787198 0.937163
0.353643 0.676234 0.902647
0.407446 0.665858 0.907012
0.554192 0.643610 0.921416
0.800534 0.757046 0.933898
0.905913 0.802731 0.937255
0.208957 0.748135 0.888151
0.339391 0.744961 0.892607
0.598810 0.754482 0.909056
0.791958 0.798459 0.930785
0.906584 0.847929 0.939879
0.247776 0.863523 0.897826
0.334295 0.859648 0.897551
0.516686 0.848020 0.897795
0.763882 0.854704 0.919310
0.910369 0.906889 0.946685
0.373907 0.976867 0.914549
0.430762 0.974365 0.915282
0.578698 0.966796 0.918791
0.753384 0.955688 0.926116
0.909545 0.957031 0.948180
