nova/tdt-studio/app/Lut_mau/luts/lut2.cube
# Created by Adobe Lightroom plugin Export LUT (1.22.0)
# www.johnrellis.com/lightroom/exportlut.htm
# Preset: Honey
# Color profile: /Library/Application Support/Adobe/Color/Profiles/Recommended/AdobeRGB1998.icc
LUT_3D_SIZE 8
DOMAIN_MIN 0.000000 0.000000 0.000000
DOMAIN_MAX 0.903226 0.903226 0.903226
0.092226 0.129397 0.119966
0.091432 0.128908 0.119631
0.151797 0.132448 0.116670
0.319188 0.127871 0.106325
0.513634 0.100496 0.085023
0.688258 0.118929 0.047883
0.822904 0.203738 0.030488
0.936095 0.313481 0.113649
0.091676 0.128298 0.119295
0.092744 0.129549 0.119142
0.155093 0.143679 0.115206
0.319249 0.150729 0.104158
0.511131 0.140352 0.082643
0.679866 0.159915 0.043366
0.814939 0.228061 0.021912
0.931365 0.328893 0.110109
0.087282 0.171603 0.113771
0.099397 0.169802 0.113954
0.159701 0.186923 0.109407
0.344793 0.227268 0.092012
0.541375 0.244694 0.064820
0.698238 0.272404 0.009277
0.831968 0.329351 0.044160
0.940459 0.408453 0.136873
0.068391 0.291325 0.096376
0.099611 0.285161 0.097780
0.167056 0.274907 0.098421
0.328222 0.320592 0.063996
0.552667 0.371435 0.000000
0.730312 0.424323 0.000000
0.842954 0.455055 0.081422
0.941894 0.508659 0.169070
0.003174 0.440070 0.052644
0.095308 0.433570 0.057893
0.187533 0.412512 0.066621
0.307622 0.416449 0.024933
0.487221 0.450294 0.000000
0.673762 0.496376 0.000000
0.835080 0.566064 0.060517
0.942565 0.622583 0.220523
0.050233 0.580377 0.000000
0.118471 0.580163 0.000000
0.215976 0.558953 0.000000
0.306310 0.521630 0.000000
0.458350 0.544274 0.000000
0.626429 0.579461 0.000000
0.791165 0.629969 0.000000
0.932891 0.704891 0.160739
0.145785 0.727230 0.000000
0.182040 0.724269 0.000000
0.264927 0.706752 0.000000
0.358343 0.677455 0.000000
0.460517 0.654139 0.000000
0.614466 0.685786 0.000000
0.761990 0.719203 0.000000
0.903410 0.761471 0.000000
0.278202 0.872679 0.109651
0.299168 0.869993 0.104494
0.363165 0.861753 0.089296
0.451270 0.849271 0.056306
0.529168 0.818021 0.000000
0.652461 0.828580 0.000000
0.792874 0.857450 0.000000
0.919921 0.879423 0.000000
0.091676 0.128481 0.119081
0.091737 0.127901 0.119326
0.153445 0.120668 0.120027
0.316320 0.112490 0.118929
0.506584 0.079896 0.109743
0.671901 0.102205 0.100099
0.807767 0.189761 0.104463
0.925231 0.302953 0.149722
0.090425 0.129763 0.120150
0.093385 0.130922 0.121553
0.159426 0.137789 0.121981
0.322301 0.139467 0.118196
0.509453 0.128389 0.108553
0.670527 0.149630 0.099214
0.802823 0.217319 0.102327
0.920378 0.317906 0.146242
0.075868 0.180087 0.120668
0.094606 0.184604 0.121859
0.168490 0.195132 0.117220
0.352544 0.227543 0.115694
0.533989 0.238132 0.105287
0.685206 0.262547 0.098909
0.814023 0.314458 0.110811
0.927947 0.395453 0.165957
0.000000 0.303624 0.106172
0.088624 0.302617 0.114076
0.168276 0.285191 0.115053
0.328832 0.321965 0.087953
0.537926 0.360540 0.076143
0.707790 0.406073 0.105226
0.824399 0.438727 0.129183
0.930297 0.496407 0.192386
0.000000 0.456214 0.094240
0.084016 0.448798 0.094881
0.189487 0.425727 0.096895
0.305852 0.418097 0.082216
0.483772 0.447944 0.000000
0.667872 0.491127 0.000000
0.828367 0.562005 0.136416
0.935454 0.616205 0.245182
0.010071 0.587396 0.071168
0.109010 0.581903 0.070680
0.212955 0.561456 0.069429
0.307591 0.526085 0.067689
0.456367 0.544274 0.000000
0.627283 0.580926 0.000000
0.789517 0.628870 0.000000
0.928679 0.702449 0.202457
0.135927 0.725307 0.060670
0.171389 0.719631 0.053529
0.258244 0.703456 0.016602
0.355077 0.676692 0.000000
0.455604 0.651362 0.000000
0.609522 0.681941 0.000000
0.755673 0.713069 0.000000
0.896513 0.754391 0.000000
0.269871 0.870207 0.150149
0.292607 0.868406 0.147829
0.358068 0.860563 0.135988
0.447364 0.848264 0.115297
0.536492 0.827756 0.064912
0.653315 0.831571 0.000000
0.790005 0.855924 0.000000
0.916106 0.876127 0.000000
0.068147 0.138918 0.168429
0.074647 0.129000 0.175204
0.160861 0.131289 0.189822
0.347417 0.109590 0.213657
0.528771 0.000000 0.188968
0.680079 0.092226 0.209934
0.811124 0.198367 0.225711
0.925597 0.316686 0.265660
0.062776 0.156374 0.173526
0.077516 0.151247 0.183230
0.167514 0.151369 0.197024
0.348302 0.136507 0.211582
0.523186 0.098909 0.200381
0.678462 0.147433 0.210788
0.808164 0.226963 0.224887
0.923430 0.334417 0.265110
0.000000 0.211460 0.192996
0.058167 0.216739 0.199374
0.188388 0.225467 0.218601
0.367559 0.232242 0.216587
0.548882 0.243351 0.219089
0.692042 0.270512 0.223056
0.814450 0.322972 0.237095
0.924987 0.404578 0.277989
0.000000 0.346685 0.197696
0.000000 0.350958 0.198459
0.199527 0.356756 0.217075
0.373266 0.363684 0.198367
0.575738 0.397436 0.234623
0.713039 0.420203 0.249088
0.826169 0.452247 0.264286
0.928893 0.508873 0.306676
0.000000 0.494026 0.178653
0.000000 0.495888 0.179965
0.214847 0.489906 0.214206
0.331792 0.456428 0.196292
0.519951 0.483986 0.164614
0.690852 0.518914 0.204532
0.836240 0.588098 0.303227
0.931792 0.625269 0.349187
0.000000 0.623468 0.150301
0.000000 0.623011 0.165469
0.235996 0.608972 0.209873
0.338445 0.570214 0.190433
0.470039 0.565026 0.161715
0.640864 0.597833 0.108217
0.796170 0.640436 0.171481
0.928985 0.716487 0.337133
0.000000 0.754147 0.176791
0.155154 0.750546 0.201328
0.275822 0.734432 0.212741
0.372229 0.704982 0.188693
0.457343 0.661952 0.153811
0.613336 0.692195 0.098939
0.764340 0.724788 0.000000
0.904326 0.766476 0.145296
0.258518 0.883238 0.256565
0.296635 0.879759 0.269230
0.359747 0.870726 0.255985
0.450538 0.859770 0.239750
0.538476 0.837949 0.204227
0.647883 0.833799 0.159548
0.788052 0.858885 0.088228
0.917754 0.880003 0.000000
0.000000 0.181094 0.317174
0.000000 0.166445 0.329625
0.154665 0.160342 0.362493
0.371862 0.165499 0.384527
0.572778 0.214664 0.414740
0.704341 0.187259 0.391119
0.810117 0.180362 0.357427
0.912108 0.318181 0.391730
0.000000 0.215610 0.326940
0.000000 0.206210 0.338750
0.156924 0.188907 0.368902
0.379187 0.201389 0.391272
0.573358 0.243809 0.417243
0.700740 0.213321 0.387762
0.804135 0.225101 0.361608
0.911833 0.336461 0.391669
0.000000 0.282444 0.332403
0.000000 0.284611 0.338506
0.180911 0.285008 0.373114
0.396521 0.300847 0.407843
0.574792 0.317632 0.418769
0.699275 0.288273 0.380438
0.810391 0.345251 0.389593
0.918761 0.415412 0.410468
0.000000 0.400641 0.369543
0.000000 0.405554 0.375952
0.180941 0.418280 0.397131
0.422187 0.429938 0.432868
0.578180 0.429023 0.419165
0.703578 0.438483 0.409918
0.815885 0.464607 0.410529
0.920775 0.517327 0.433143
0.000000 0.559960 0.371954
0.000000 0.559167 0.372930
0.208072 0.558068 0.382635
0.417945 0.549798 0.414801
0.564172 0.542809 0.383368
0.718166 0.577295 0.430945
0.830411 0.605127 0.453468
0.924498 0.635950 0.472084
0.000000 0.676631 0.346746
0.000000 0.679957 0.352575
0.226230 0.673976 0.362066
0.414343 0.654994 0.394415
0.505760 0.611627 0.350103
0.668666 0.638270 0.325170
0.810239 0.673304 0.383520
0.926970 0.744259 0.505394
0.000000 0.788144 0.333867
0.000000 0.787289 0.336248
0.243839 0.781888 0.342687
0.419776 0.760342 0.377630
0.500114 0.716640 0.329534
0.623926 0.715602 0.292088
0.774166 0.742794 0.257176
0.907927 0.780850 0.346838
0.168215 0.907012 0.354833
0.208743 0.905852 0.354833
0.331914 0.898314 0.373266
0.462074 0.882170 0.393561
0.546105 0.859434 0.352514
0.636500 0.837736 0.302373
0.781796 0.862852 0.275212
0.916960 0.884367 0.232883
0.000000 0.258274 0.500267
0.000000 0.245945 0.509545
0.000000 0.212772 0.536767
0.403540 0.260655 0.579126
0.590936 0.295109 0.595697
0.727749 0.396033 0.610712
0.828244 0.422217 0.603174
0.916167 0.442786 0.590356
0.000000 0.296330 0.503593
0.000000 0.286107 0.513451
0.000000 0.241825 0.540368
0.407294 0.292210 0.580957
0.592157 0.326299 0.597284
0.727901 0.419928 0.613825
0.826963 0.434150 0.602380
0.915251 0.448035 0.586267
0.000000 0.365789 0.491829
0.000000 0.368261 0.502800
0.169314 0.363745 0.536095
0.410498 0.373785 0.582269
0.594446 0.411109 0.601221
0.724208 0.483192 0.618555
0.820035 0.463416 0.593011
0.910735 0.457710 0.565209
0.000000 0.462196 0.514214
0.000000 0.463935 0.517754
0.173190 0.471077 0.531212
0.423560 0.486244 0.574487
0.601923 0.519768 0.611200
0.717861 0.537407 0.611780
0.811643 0.497780 0.566217
0.904936 0.511803 0.549584
0.000000 0.592401 0.547906
0.000000 0.594659 0.551751
0.195590 0.599542 0.564050
0.425574 0.606470 0.586358
0.604913 0.617212 0.617426
0.711452 0.606195 0.593652
0.812436 0.606348 0.575799
0.910887 0.630671 0.576684
0.000000 0.717647 0.538537
0.000000 0.719844 0.542809
0.253574 0.721187 0.552850
0.431342 0.712154 0.560937
0.573114 0.692805 0.572930
0.690181 0.685451 0.537774
0.821683 0.723476 0.593774
0.917418 0.757717 0.628260
0.000000 0.825925 0.524498
0.121126 0.823972 0.525414
0.283787 0.817990 0.528313
0.424689 0.807767 0.531975
0.554528 0.782345 0.538384
0.628168 0.739467 0.472480
0.779294 0.763607 0.448798
0.906157 0.799435 0.529351
0.207889 0.922789 0.525475
0.242710 0.921202 0.525383
0.331395 0.916075 0.524132
0.439673 0.910369 0.522026
0.562463 0.888670 0.526299
0.635492 0.857084 0.459022
0.765530 0.864469 0.423133
0.908965 0.885527 0.396674
0.000000 0.364874 0.668971
0.000000 0.355627 0.674678
0.000000 0.318761 0.691646
0.372656 0.348577 0.722377
0.626612 0.448798 0.756924
0.736934 0.473610 0.753567
0.834684 0.580011 0.764858
0.911284 0.650660 0.781399
0.000000 0.393927 0.663966
0.000000 0.385443 0.669123
0.000000 0.353826 0.687800
0.372839 0.368933 0.718227
0.623651 0.464515 0.753017
0.734737 0.490059 0.751705
0.833158 0.590997 0.764797
0.910216 0.653285 0.779599
0.000000 0.465064 0.658259
0.000000 0.465614 0.664546
0.199161 0.458473 0.685878
0.383459 0.438209 0.717708
0.624750 0.524712 0.752132
0.735897 0.551934 0.754452
0.832761 0.633906 0.770474
0.908843 0.667109 0.776669
0.000000 0.542077 0.651209
0.000000 0.541985 0.652125
0.204227 0.546868 0.665126
0.444556 0.561364 0.708888
0.624628 0.601465 0.751583
0.741787 0.636774 0.763333
0.835172 0.695857 0.781399
0.908019 0.683406 0.766781
0.000000 0.639338 0.671443
0.000000 0.639857 0.673304
0.211429 0.641108 0.679561
0.416815 0.643641 0.691035
0.603479 0.662226 0.727352
0.737484 0.702083 0.760983
0.825498 0.714717 0.762570
0.903258 0.675593 0.723140
0.000000 0.748653 0.692256
0.000000 0.750149 0.695277
0.253605 0.750637 0.702083
0.438422 0.751125 0.713649
0.593988 0.753445 0.730617
0.734554 0.767453 0.760250
0.817929 0.752316 0.734737
0.904784 0.753262 0.719844
0.155856 0.850065 0.687495
0.219120 0.851408 0.691066
0.348241 0.853208 0.699855
0.488472 0.857176 0.716121
0.601038 0.846159 0.717342
0.699001 0.821744 0.712825
0.794430 0.807095 0.667414
0.907225 0.843412 0.729641
0.285863 0.945129 0.690089
0.313207 0.943755 0.690394
0.390204 0.939361 0.691096
0.487861 0.933043 0.692195
0.580804 0.922301 0.685298
0.674830 0.899229 0.671504
0.749386 0.871794 0.596429
0.898985 0.892607 0.579187
0.000000 0.486458 0.801358
0.000000 0.481361 0.805173
0.098054 0.459419 0.815793
0.368566 0.450538 0.832853
0.608392 0.531792 0.849912
0.767666 0.634424 0.868101
0.837613 0.642573 0.862425
0.904570 0.732906 0.872496
0.000000 0.508537 0.797635
0.000000 0.503380 0.801266
0.166262 0.482887 0.812070
0.369055 0.464149 0.829404
0.606744 0.542565 0.846952
0.766629 0.643122 0.866209
0.835294 0.648768 0.860227
0.902953 0.735195 0.870817
0.000000 0.566125 0.792172
0.137819 0.567071 0.795621
0.284977 0.557000 0.806729
0.406897 0.531029 0.825315
0.610101 0.586633 0.844572
0.769253 0.680354 0.866636
0.836515 0.685603 0.862547
0.903624 0.760708 0.875029
0.000000 0.626123 0.777523
0.000000 0.625696 0.780331
0.290105 0.627619 0.792355
0.472999 0.633417 0.814755
0.606104 0.640925 0.840299
0.767727 0.724239 0.865873
0.838804 0.736385 0.866423
0.904234 0.794675 0.879850
0.000000 0.698817 0.781033
0.000000 0.697749 0.781094
0.238987 0.695125 0.782376
0.411170 0.692561 0.787381
0.608453 0.711849 0.823301
0.752377 0.757168 0.858335
0.838285 0.783993 0.867430
0.904387 0.830655 0.883452
0.000000 0.788357 0.797818
0.076356 0.787686 0.798428
0.275944 0.785397 0.800626
0.429999 0.781857 0.804685
0.570642 0.778134 0.810666
0.728450 0.796963 0.841398
0.840818 0.836728 0.871763
0.903075 0.847074 0.874235
0.154147 0.877745 0.813901
0.211856 0.877409 0.814908
0.333227 0.875517 0.817807
0.466316 0.872587 0.823209
0.595361 0.869200 0.831113
0.719966 0.868772 0.844236
0.835874 0.878569 0.868101
0.898863 0.861662 0.842466
0.331273 0.945342 0.804074
0.356481 0.945220 0.805570
0.434119 0.945922 0.812009
0.532158 0.946197 0.821073
0.638453 0.946899 0.833890
0.726589 0.939361 0.835233
0.797543 0.918151 0.819577
0.889403 0.909239 0.773587
0.285283 0.628901 0.907561
0.308629 0.625757 0.909056
0.374701 0.613458 0.913024
0.471473 0.598169 0.920623
0.635218 0.646693 0.926604
0.772824 0.720058 0.933288
0.862089 0.781216 0.939269
0.906401 0.787198 0.937163
0.308690 0.643244 0.905516
0.329503 0.640284 0.907042
0.390509 0.628534 0.911254
0.481575 0.613123 0.918822
0.634943 0.653864 0.925505
0.772183 0.725216 0.932494
0.861875 0.785702 0.938781
0.905821 0.790707 0.936675
0.347387 0.684016 0.900938
0.383459 0.686305 0.902220
0.434302 0.675563 0.906401
0.515373 0.663142 0.915251
0.635859 0.679866 0.923796
0.771786 0.744717 0.931304
0.863554 0.804898 0.939086
0.905638 0.807156 0.937163
0.262882 0.721157 0.893797
0.309697 0.722072 0.895293
0.432410 0.726375 0.899657
0.549981 0.728725 0.908476
0.632776 0.717494 0.920653
0.768856 0.772396 0.930053
0.867185 0.834531 0.940795
0.906279 0.833310 0.938903
0.181338 0.778317 0.886320
0.224216 0.777646 0.886595
0.330480 0.773739 0.887755
0.484260 0.770413 0.897093
0.646418 0.781949 0.911101
0.752193 0.795804 0.926513
0.864286 0.857359 0.940520
0.907378 0.864286 0.941405
0.228397 0.844694 0.894377
0.259709 0.843381 0.894163
0.344884 0.839231 0.893797
0.452155 0.832578 0.893797
0.565454 0.824216 0.894255
0.740475 0.839719 0.917113
0.856229 0.879728 0.939483
0.910063 0.899107 0.945922
0.291142 0.915831 0.905547
0.315251 0.914733 0.905486
0.386511 0.911223 0.905577
0.483284 0.905791 0.906340
0.589502 0.898497 0.907713
0.698390 0.890562 0.910033
0.833005 0.900481 0.928862
0.911589 0.930114 0.949187
0.373907 0.976867 0.914549
0.391760 0.976104 0.914733
0.448035 0.973571 0.915557
0.531487 0.969451 0.917479
0.627649 0.963806 0.920378
0.728328 0.957244 0.924681
0.825986 0.952117 0.931945
0.909545 0.957031 0.948180
