nova/tdt-studio/app/Lut_mau/luts/lut2.cube
# Created by Adobe Lightroom plugin Export LUT (1.22.0)
# www.johnrellis.com/lightroom/exportlut.htm
# Preset: Honey
# Color profile: /Library/Application Support/Adobe/Color/Profiles/Recommended/AdobeRGB1998.icc
LUT_3D_SIZE 32
0.092226 0.129397 0.119966
0.091890 0.129427 0.119966
0.091249 0.129305 0.119966
0.090364 0.129000 0.119814
0.091432 0.128908 0.119631
0.096315 0.129152 0.119112
0.107607 0.129885 0.118593
0.125978 0.131258 0.117800
0.151797 0.132448 0.116670
0.184634 0.133364 0.115023
0.224674 0.133181 0.112947
0.269871 0.131411 0.110048
0.319188 0.127871 0.106325
0.370153 0.122377 0.101991
0.420203 0.115480 0.096834
0.468177 0.107851 0.091066
0.513634 0.100496 0.085023
0.556390 0.096315 0.078492
0.601465 0.097322 0.070130
0.646815 0.105715 0.060914
0.688258 0.118929 0.047883
0.726009 0.137942 0.033051
0.760555 0.158236 0.023224
0.792599 0.180606 0.021759
0.822904 0.203738 0.030488
0.852140 0.228122 0.050141
0.880858 0.254520 0.068574
0.908873 0.282872 0.088472
0.936095 0.313481 0.113649
0.962097 0.347326 0.142977
0.986206 0.384680 0.179538
1.000000 0.426215 0.223758
0.092256 0.129183 0.119966
0.091615 0.129061 0.119997
0.091310 0.128908 0.120027
0.090394 0.128817 0.119844
0.091432 0.128908 0.119631
0.096559 0.129488 0.119081
0.107759 0.130434 0.118563
0.126101 0.132021 0.117739
0.151492 0.133425 0.116579
0.184237 0.134554 0.114931
0.223545 0.134829 0.112825
0.268772 0.133516 0.109895
0.317418 0.130465 0.106233
0.368109 0.125460 0.101900
0.417823 0.119020 0.096803
0.465675 0.111604 0.091127
0.511131 0.105592 0.085054
0.553765 0.101900 0.078279
0.598718 0.102296 0.070497
0.643244 0.109773 0.061402
0.684291 0.122683 0.048463
0.721981 0.139773 0.033875
0.756466 0.159640 0.022339
0.788724 0.181247 0.021241
0.819272 0.204013 0.025788
0.848722 0.228122 0.045563
0.877684 0.254032 0.065522
0.906035 0.281834 0.086030
0.933623 0.312413 0.110292
0.959960 0.346014 0.139986
0.984405 0.383124 0.176089
1.000000 0.424170 0.219486
0.092103 0.128634 0.119844
0.091798 0.128450 0.119844
0.091127 0.128542 0.119844
0.090517 0.128420 0.119692
0.091493 0.128908 0.119417
0.096834 0.129671 0.119051
0.108186 0.131136 0.118471
0.126192 0.132937 0.117647
0.151492 0.134920 0.116426
0.184207 0.136416 0.114748
0.223239 0.137118 0.112612
0.268406 0.136446 0.109621
0.317052 0.133486 0.106172
0.367376 0.129244 0.101595
0.417060 0.123354 0.096712
0.464820 0.117067 0.090974
0.510063 0.111971 0.084901
0.552789 0.108278 0.078126
0.597772 0.109438 0.070588
0.641566 0.116121 0.061494
0.682521 0.128725 0.048646
0.720119 0.144839 0.032288
0.754635 0.164218 0.021790
0.786954 0.184970 0.018708
0.817472 0.206912 0.025879
0.847013 0.230472 0.042603
0.876097 0.255955 0.064851
0.904601 0.283421 0.084962
0.932341 0.313817 0.109468
0.958831 0.346960 0.139101
0.983429 0.383825 0.174411
1.000000 0.424445 0.217960
0.091981 0.127871 0.119692
0.091646 0.127901 0.119722
0.091310 0.127932 0.119722
0.090608 0.127993 0.119722
0.092134 0.129030 0.119417
0.097627 0.130526 0.118776
0.109285 0.132906 0.118074
0.127657 0.135500 0.117159
0.153109 0.138277 0.115846
0.185519 0.140566 0.114260
0.224918 0.141939 0.112001
0.269505 0.141909 0.108949
0.317815 0.140566 0.105318
0.368109 0.137270 0.100832
0.417365 0.132570 0.095857
0.464942 0.127749 0.090242
0.509972 0.123537 0.084108
0.552270 0.121370 0.077546
0.597192 0.123964 0.069306
0.639704 0.130251 0.060517
0.679835 0.141024 0.046967
0.717037 0.155917 0.030610
0.751766 0.173800 0.021149
0.784512 0.193301 0.018799
0.815793 0.214878 0.023377
0.846098 0.238010 0.041779
0.875700 0.263127 0.064424
0.904479 0.290471 0.085756
0.932250 0.320195 0.110231
0.958587 0.352605 0.139712
0.983001 0.388495 0.174746
1.000000 0.428168 0.217868
0.091676 0.128298 0.119295
0.091676 0.128298 0.119295
0.091371 0.128328 0.119081
0.091646 0.128695 0.119051
0.092744 0.129549 0.119142
0.098482 0.132540 0.118563
0.110597 0.136080 0.117739
0.129397 0.139925 0.116670
0.155093 0.143679 0.115206
0.187381 0.147158 0.113466
0.226658 0.149538 0.111055
0.271183 0.150851 0.107973
0.319249 0.150729 0.104158
0.369146 0.148959 0.099733
0.418463 0.146090 0.094728
0.466011 0.142947 0.088869
0.511131 0.140352 0.082643
0.554772 0.140108 0.075654
0.599054 0.142641 0.067903
0.640772 0.149447 0.058900
0.679866 0.159915 0.043366
0.716609 0.173312 0.028321
0.750912 0.189517 0.018158
0.783658 0.207797 0.015442
0.814939 0.228061 0.021912
0.845274 0.250187 0.040925
0.874876 0.274083 0.064912
0.903624 0.300298 0.085542
0.931365 0.328893 0.110109
0.957671 0.360388 0.139803
0.982086 0.395270 0.175357
1.000000 0.433936 0.217685
0.091066 0.131655 0.118593
0.091402 0.131624 0.118593
0.091707 0.131777 0.118563
0.092378 0.131716 0.118563
0.094667 0.133150 0.118379
0.099153 0.135439 0.118074
0.111604 0.140597 0.117281
0.131106 0.146059 0.115755
0.158755 0.151797 0.114168
0.191928 0.156588 0.112123
0.231327 0.160494 0.109621
0.275822 0.163058 0.106477
0.323796 0.164431 0.102541
0.373358 0.164248 0.097749
0.422248 0.162966 0.092683
0.469490 0.161929 0.086580
0.514397 0.160800 0.080262
0.559442 0.161990 0.072847
0.602594 0.165988 0.065003
0.643610 0.173159 0.054292
0.682368 0.183169 0.037293
0.718715 0.195682 0.023865
0.778225 0.228458 0.018860
0.809140 0.246616 0.028504
0.838437 0.266056 0.047120
0.866606 0.286656 0.067384
0.893828 0.309178 0.085603
0.920165 0.333867 0.107332
0.945434 0.360937 0.132723
0.969360 0.391089 0.163638
0.991272 0.424353 0.199985
1.000000 0.461463 0.242802
0.090211 0.140169 0.117586
0.090913 0.140108 0.117586
0.091585 0.140017 0.117556
0.093294 0.140047 0.117342
0.096315 0.140780 0.117189
0.102846 0.143893 0.116732
0.113405 0.148043 0.116243
0.134279 0.155459 0.114595
0.162509 0.162844 0.112673
0.200229 0.170413 0.110140
0.244938 0.177127 0.106844
0.290562 0.181216 0.103456
0.338781 0.183932 0.099031
0.387793 0.185000 0.094087
0.435523 0.185183 0.088350
0.481086 0.185245 0.082338
0.525414 0.186069 0.075685
0.571893 0.189853 0.067170
0.614466 0.195132 0.058961
0.655573 0.203250 0.043000
0.695064 0.214572 0.025513
0.732753 0.228275 0.016052
0.768582 0.244907 0.012909
0.802365 0.263188 0.020722
0.834043 0.282506 0.042359
0.863584 0.303014 0.065919
0.891478 0.324804 0.085481
0.918090 0.348150 0.107179
0.943511 0.373907 0.132937
0.967376 0.402502 0.163668
0.989410 0.434394 0.199222
1.000000 0.470039 0.242191
0.089082 0.153292 0.115999
0.090120 0.153201 0.115999
0.091188 0.152956 0.115999
0.093874 0.152712 0.115969
0.097749 0.152163 0.115938
0.104555 0.154665 0.115511
0.116274 0.159396 0.114656
0.133089 0.164920 0.113497
0.161318 0.173526 0.111299
0.197208 0.182620 0.108492
0.242252 0.191806 0.104891
0.294743 0.200626 0.100649
0.345464 0.205631 0.095674
0.393927 0.208164 0.090364
0.440833 0.209537 0.084962
0.485634 0.210727 0.078645
0.532799 0.213779 0.071015
0.576562 0.217929 0.062989
0.617456 0.223575 0.051087
0.657252 0.231296 0.034730
0.695705 0.241825 0.019745
0.732479 0.254643 0.010468
0.767605 0.269474 0.009247
0.800900 0.286168 0.019593
0.832242 0.304295 0.041108
0.861692 0.323125 0.065980
0.889494 0.343420 0.085878
0.916136 0.365179 0.107759
0.941619 0.389593 0.134096
0.965606 0.416724 0.164187
0.987701 0.447181 0.200320
1.000000 0.481239 0.242893
0.087282 0.171603 0.113771
0.088716 0.171481 0.113741
0.090486 0.171206 0.113741
0.093935 0.170657 0.113741
0.099397 0.169802 0.113954
0.105959 0.169070 0.113893
0.118563 0.174044 0.112917
0.136049 0.180209 0.111513
0.159701 0.186923 0.109407
0.194308 0.196262 0.106477
0.237644 0.207095 0.102510
0.288731 0.217502 0.097597
0.344793 0.227268 0.092012
0.402655 0.235508 0.085908
0.448585 0.237766 0.079744
0.495888 0.240909 0.072724
0.541375 0.244694 0.064820
0.583154 0.249332 0.054627
0.622461 0.254643 0.040040
0.661006 0.262333 0.023163
0.698238 0.272404 0.009277
0.734157 0.284092 0.003479
0.768521 0.297673 0.005768
0.801175 0.312840 0.016632
0.831968 0.329351 0.044160
0.861082 0.346624 0.067994
0.888731 0.365332 0.088319
0.915160 0.385657 0.110811
0.940459 0.408453 0.136873
0.964263 0.433906 0.167178
0.986267 0.462684 0.202976
1.000000 0.495003 0.244846
0.084871 0.195010 0.110994
0.086397 0.194675 0.111025
0.088655 0.194278 0.111025
0.093629 0.193362 0.111086
0.100465 0.192142 0.111330
0.108553 0.190524 0.111391
0.119875 0.191836 0.111116
0.138064 0.198062 0.109285
0.161929 0.205356 0.107118
0.191806 0.212985 0.104036
0.231601 0.222049 0.099947
0.280705 0.234165 0.094575
0.335485 0.245548 0.088167
0.393286 0.256046 0.080751
0.454261 0.267124 0.072389
0.507927 0.275181 0.064393
0.551629 0.279271 0.054566
0.592065 0.283696 0.039368
0.630213 0.289372 0.023499
0.667201 0.296422 0.010468
0.702754 0.305333 0.000061
0.736873 0.315496 0.000000
0.769558 0.327337 0.003204
0.800870 0.340581 0.016449
0.830808 0.355138 0.045960
0.859495 0.370886 0.070161
0.887114 0.388037 0.090272
0.913695 0.407294 0.113405
0.939178 0.428992 0.140108
0.963165 0.453437 0.171267
0.985260 0.481025 0.207614
1.000000 0.512108 0.250309
0.081147 0.221897 0.107607
0.083589 0.221469 0.107637
0.086275 0.221134 0.107668
0.092226 0.219974 0.107759
0.100496 0.218540 0.108064
0.110903 0.216587 0.108186
0.122103 0.213779 0.108583
0.139712 0.218479 0.107149
0.163607 0.226047 0.104433
0.193545 0.234470 0.101106
0.228885 0.242679 0.096651
0.272007 0.250645 0.090883
0.326116 0.264103 0.083192
0.385779 0.277775 0.073548
0.445747 0.290105 0.063142
0.503899 0.302007 0.049073
0.558373 0.314183 0.034424
0.599207 0.319615 0.022156
0.636072 0.324590 0.008179
0.671778 0.331029 0.000000
0.706325 0.338994 0.000000
0.739559 0.348180 0.000000
0.771633 0.359106 0.001648
0.802335 0.371099 0.021942
0.831754 0.384436 0.053101
0.859861 0.398566 0.075013
0.886961 0.414130 0.095796
0.913146 0.431739 0.118898
0.938231 0.451728 0.145388
0.961975 0.474434 0.176089
0.983917 0.500206 0.212100
1.000000 0.529717 0.254704
0.076143 0.252750 0.103090
0.078767 0.252384 0.103120
0.082612 0.251682 0.103212
0.089845 0.250675 0.103548
0.100526 0.248692 0.103761
0.112490 0.246189 0.104250
0.125765 0.243107 0.104768
0.140841 0.241337 0.104616
0.165042 0.248814 0.101656
0.194430 0.257328 0.097719
0.229862 0.266361 0.092561
0.271733 0.276219 0.085695
0.334936 0.294926 0.070741
0.396124 0.310948 0.053864
0.457069 0.325261 0.021973
0.515343 0.338415 0.000000
0.569787 0.351843 0.000000
0.619959 0.365606 0.000000
0.663844 0.377752 0.000000
0.696529 0.382666 0.000000
0.728023 0.388617 0.000000
0.758419 0.395850 0.003326
0.787686 0.404303 0.025452
0.816007 0.414099 0.055329
0.843473 0.425147 0.074739
0.869932 0.437446 0.093263
0.895445 0.451118 0.113619
0.920012 0.466743 0.136690
0.943572 0.484535 0.162814
0.965911 0.505241 0.193454
0.986481 0.528985 0.229191
1.000000 0.556237 0.271366
0.068391 0.291325 0.096376
0.072053 0.290684 0.096498
0.076875 0.289891 0.096681
0.086763 0.287968 0.097292
0.099611 0.285161 0.097780
0.114107 0.281621 0.098390
0.129671 0.277592 0.099275
0.145571 0.272923 0.100221
0.167056 0.274907 0.098421
0.197116 0.283909 0.093843
0.234745 0.296147 0.087007
0.279210 0.308873 0.077455
0.328222 0.320592 0.063996
0.377691 0.326635 0.037629
0.438666 0.343053 0.000000
0.497688 0.357580 0.000000
0.552667 0.371435 0.000000
0.603601 0.385199 0.000000
0.651331 0.399786 0.000000
0.695583 0.414923 0.000000
0.730312 0.424323 0.000000
0.759884 0.430152 0.008789
0.788418 0.437263 0.035248
0.816068 0.445533 0.063905
0.842954 0.455055 0.081422
0.868986 0.465766 0.099702
0.894163 0.478157 0.120394
0.918486 0.492195 0.142916
0.941894 0.508659 0.169070
0.964111 0.527886 0.199527
0.984680 0.550072 0.235019
1.000000 0.575769 0.276799
0.059388 0.325994 0.089357
0.064881 0.325292 0.089509
0.070832 0.324407 0.089723
0.082918 0.322515 0.090181
0.097902 0.319554 0.090913
0.114961 0.315435 0.091890
0.132265 0.311009 0.093080
0.150179 0.306493 0.094087
0.168399 0.301915 0.095003
0.198581 0.311223 0.089998
0.234775 0.322240 0.082551
0.276768 0.334142 0.072114
0.323857 0.346258 0.055207
0.373785 0.356847 0.012421
0.418616 0.358373 0.000000
0.477607 0.374212 0.000000
0.533196 0.388647 0.000000
0.585199 0.402747 0.000000
0.634180 0.417578 0.000000
0.680049 0.432990 0.000000
0.722621 0.448920 0.000000
0.762020 0.465400 0.021637
0.790005 0.471382 0.054017
0.817197 0.478401 0.072847
0.843595 0.486610 0.090761
0.869230 0.496132 0.108400
0.893950 0.507042 0.128908
0.917998 0.519799 0.151308
0.941070 0.534874 0.177554
0.963073 0.552636 0.208011
0.983398 0.573449 0.243778
1.000000 0.597498 0.285405
0.041688 0.362036 0.080842
0.053559 0.361761 0.080873
0.063569 0.361089 0.081056
0.078279 0.359380 0.081575
0.096254 0.356909 0.082551
0.115694 0.353246 0.083284
0.135500 0.349126 0.084627
0.155459 0.344244 0.086061
0.175387 0.338659 0.087282
0.198886 0.337560 0.086213
0.233799 0.347845 0.078340
0.273625 0.358770 0.067353
0.318242 0.370214 0.044190
0.366674 0.381445 0.000000
0.415625 0.390509 0.000000
0.456550 0.389227 0.000000
0.512505 0.403906 0.000000
0.565515 0.418677 0.000000
0.615686 0.433875 0.000000
0.663478 0.449836 0.000000
0.707576 0.465919 0.000000
0.748501 0.482216 0.000000
0.786343 0.498817 0.023224
0.818418 0.511772 0.084840
0.844419 0.518761 0.101900
0.869749 0.527306 0.119814
0.894499 0.537316 0.140352
0.918486 0.549493 0.163973
0.941619 0.563745 0.190585
0.963470 0.580743 0.221592
0.983642 0.600580 0.258335
1.000000 0.623560 0.300786
0.020111 0.402777 0.068818
0.035554 0.402502 0.068849
0.052857 0.401892 0.069123
0.074495 0.400031 0.069917
0.095155 0.397192 0.071107
0.117189 0.393317 0.072236
0.138979 0.388922 0.073793
0.160922 0.383551 0.075685
0.182467 0.377386 0.077577
0.203372 0.370184 0.079500
0.233707 0.374426 0.073701
0.271580 0.384161 0.062257
0.313115 0.394018 0.032563
0.358160 0.403937 0.000000
0.405524 0.413458 0.000000
0.452674 0.420966 0.000000
0.490272 0.417762 0.000000
0.543389 0.431739 0.000000
0.595514 0.448219 0.000000
0.645686 0.465522 0.000000
0.692287 0.482643 0.000000
0.735409 0.499519 0.000000
0.775082 0.516381 0.000000
0.811856 0.533501 0.043153
0.845762 0.551019 0.109682
0.872374 0.561028 0.136080
0.896605 0.569970 0.156069
0.920073 0.580835 0.179171
0.942565 0.593805 0.205936
0.963775 0.609064 0.236851
0.983276 0.627070 0.272404
1.000000 0.647974 0.313909
0.003174 0.440070 0.052644
0.022004 0.439338 0.052644
0.046357 0.438453 0.053559
0.071931 0.436591 0.055543
0.095308 0.433570 0.057893
0.118624 0.429603 0.059968
0.141787 0.424842 0.062013
0.164828 0.419165 0.064424
0.187533 0.412512 0.066621
0.209262 0.405066 0.069429
0.231601 0.398138 0.070649
0.267826 0.407263 0.058076
0.307622 0.416449 0.024933
0.350408 0.425788 0.000000
0.395514 0.434821 0.000000
0.441901 0.443427 0.000000
0.487221 0.450294 0.000000
0.522118 0.445991 0.000000
0.572930 0.459754 0.000000
0.624994 0.478126 0.000000
0.673762 0.496376 0.000000
0.718898 0.514000 0.000000
0.760647 0.531273 0.000000
0.799252 0.548577 0.000000
0.835080 0.566064 0.060517
0.868009 0.583917 0.123629
0.897307 0.601038 0.171023
0.920439 0.610803 0.193912
0.942565 0.622583 0.220523
0.963378 0.636683 0.251408
0.982544 0.653285 0.286900
0.999573 0.672724 0.328374
0.000000 0.475868 0.020447
0.016358 0.475685 0.021485
0.048615 0.487922 0.011902
0.076081 0.485817 0.014252
0.100832 0.482704 0.018219
0.125582 0.478126 0.022553
0.150546 0.472602 0.027008
0.174746 0.466133 0.033692
0.198550 0.458778 0.041444
0.221714 0.450416 0.048615
0.243687 0.441108 0.053712
0.271946 0.439460 0.044953
0.310521 0.447639 0.006714
0.351720 0.456062 0.000000
0.394934 0.464210 0.000000
0.439612 0.472328 0.000000
0.485145 0.480385 0.000000
0.528283 0.486549 0.000000
0.560388 0.480964 0.000000
0.609277 0.494606 0.000000
0.659907 0.513970 0.000000
0.706935 0.532433 0.000000
0.750118 0.550134 0.000000
0.790066 0.567376 0.000000
0.826719 0.584314 0.000000
0.860594 0.601221 0.082490
0.891508 0.618494 0.144015
0.919402 0.636896 0.198337
0.942657 0.651667 0.237003
0.962921 0.664149 0.267124
0.981598 0.679255 0.302068
0.998230 0.696895 0.342626
0.004669 0.514366 0.000000
0.024567 0.515496 0.000000
0.054444 0.516411 0.000000
0.079103 0.516014 0.000000
0.104036 0.514122 0.000000
0.129488 0.510552 0.000000
0.154604 0.505364 0.000000
0.178988 0.499092 0.003388
0.203311 0.491859 0.009766
0.226810 0.483619 0.016449
0.249454 0.474372 0.023407
0.270603 0.464179 0.031769
0.305486 0.468971 0.000885
0.344884 0.476783 0.000000
0.386358 0.484565 0.000000
0.429236 0.492226 0.000000
0.472877 0.499916 0.000000
0.516930 0.507866 0.000000
0.558679 0.514275 0.000000
0.589288 0.508873 0.000000
0.636591 0.522362 0.000000
0.686580 0.542931 0.000000
0.732631 0.562249 0.000000
0.775051 0.580713 0.000000
0.814054 0.598352 0.000000
0.850156 0.615717 0.000000
0.883116 0.633143 0.098726
0.912963 0.651301 0.164889
0.939452 0.670497 0.223514
0.962341 0.690974 0.281865
0.980713 0.705196 0.318547
0.996887 0.721431 0.358465
0.020294 0.547295 0.000000
0.044068 0.548302 0.000000
0.064149 0.549218 0.000000
0.085145 0.548974 0.000000
0.110048 0.546990 0.000000
0.135103 0.543328 0.000000
0.159945 0.538445 0.000000
0.184543 0.532250 0.000000
0.208865 0.525292 0.000000
0.232853 0.517235 0.000000
0.255985 0.508354 0.000000
0.277958 0.498360 0.000000
0.302068 0.491279 0.000000
0.340337 0.498787 0.000000
0.380346 0.506249 0.000000
0.421729 0.513664 0.000000
0.463996 0.521172 0.000000
0.506737 0.528862 0.000000
0.549493 0.537102 0.000000
0.589990 0.543755 0.000000
0.619562 0.538720 0.000000
0.664546 0.551385 0.000000
0.713619 0.572930 0.000000
0.758785 0.592859 0.000000
0.800290 0.611658 0.000000
0.838529 0.629694 0.000000
0.873686 0.647425 0.000000
0.905577 0.665370 0.120424
0.933928 0.684169 0.189487
0.958465 0.703914 0.252903
0.978943 0.724880 0.316533
0.995270 0.745022 0.374273
0.050233 0.580377 0.000000
0.063386 0.581659 0.000000
0.075593 0.582483 0.000000
0.095277 0.582025 0.000000
0.118471 0.580163 0.000000
0.142275 0.576867 0.000000
0.166842 0.571893 0.000000
0.191409 0.566033 0.000000
0.215976 0.558953 0.000000
0.239689 0.551385 0.000000
0.263249 0.542412 0.000000
0.285466 0.532738 0.000000
0.306310 0.521630 0.000000
0.336980 0.521416 0.000000
0.376013 0.528771 0.000000
0.416602 0.536400 0.000000
0.458350 0.544274 0.000000
0.500755 0.552667 0.000000
0.543389 0.561578 0.000000
0.585992 0.571283 0.000000
0.626429 0.579461 0.000000
0.655268 0.574731 0.000000
0.698116 0.586511 0.000000
0.746670 0.609155 0.000000
0.791165 0.629969 0.000000
0.831998 0.649409 0.000000
0.869352 0.668025 0.000000
0.903105 0.686336 0.065400
0.932891 0.704891 0.160739
0.958434 0.724025 0.232914
0.979553 0.744015 0.301488
0.996185 0.765133 0.370367
0.076173 0.621241 0.000000
0.084718 0.621241 0.000000
0.093263 0.621210 0.000000
0.109957 0.620020 0.000000
0.130953 0.617487 0.000000
0.153567 0.613825 0.000000
0.177554 0.609064 0.000000
0.201816 0.603357 0.000000
0.226108 0.596979 0.000000
0.250614 0.589746 0.000000
0.274418 0.581567 0.000000
0.297673 0.572168 0.000000
0.319066 0.561456 0.000000
0.339147 0.549554 0.000000
0.377234 0.556542 0.000000
0.416907 0.563867 0.000000
0.457618 0.571527 0.000000
0.498909 0.579492 0.000000
0.540307 0.588128 0.000000
0.581628 0.597101 0.000000
0.622431 0.606500 0.000000
0.660609 0.613825 0.000000
0.687434 0.608179 0.000000
0.726864 0.617578 0.000000
0.774289 0.640406 0.000000
0.817838 0.661463 0.000000
0.858000 0.681239 0.000000
0.894408 0.700343 0.000000
0.926574 0.719112 0.100832
0.954162 0.737942 0.192721
0.976959 0.757290 0.269444
0.995056 0.777584 0.343389
0.096803 0.655055 0.000000
0.103029 0.655329 0.000000
0.110903 0.655329 0.000000
0.125582 0.654231 0.000000
0.144442 0.651911 0.000000
0.165774 0.648432 0.000000
0.188540 0.643854 0.000000
0.212070 0.638483 0.000000
0.236301 0.632319 0.000000
0.260655 0.625330 0.000000
0.284672 0.617548 0.000000
0.307805 0.608728 0.000000
0.329992 0.598505 0.000000
0.350805 0.587152 0.000000
0.377142 0.582177 0.000000
0.416205 0.589563 0.000000
0.456245 0.597253 0.000000
0.496681 0.605280 0.000000
0.537316 0.613764 0.000000
0.577630 0.622522 0.000000
0.617792 0.631800 0.000000
0.657679 0.641352 0.000000
0.694759 0.648829 0.000000
0.720394 0.643091 0.000000
0.753872 0.647120 0.000000
0.800565 0.670436 0.000000
0.843870 0.692073 0.000000
0.883238 0.712306 0.000000
0.918181 0.731685 0.000000
0.948333 0.750698 0.135744
0.973388 0.769833 0.227909
0.993378 0.789731 0.310216
0.123415 0.694453 0.000000
0.128817 0.694850 0.000000
0.135164 0.694728 0.000000
0.147311 0.693385 0.000000
0.164004 0.691005 0.000000
0.183413 0.687465 0.000000
0.204654 0.682979 0.000000
0.227329 0.677516 0.000000
0.250523 0.671229 0.000000
0.274205 0.664057 0.000000
0.297917 0.656123 0.000000
0.321080 0.647395 0.000000
0.343206 0.637598 0.000000
0.364324 0.626734 0.000000
0.383948 0.614588 0.000000
0.416876 0.616144 0.000000
0.455299 0.622766 0.000000
0.494392 0.629969 0.000000
0.533623 0.637934 0.000000
0.573297 0.646571 0.000000
0.612909 0.655665 0.000000
0.651972 0.665095 0.000000
0.690486 0.674525 0.000000
0.725917 0.681331 0.000000
0.749813 0.674800 0.000000
0.784115 0.680201 0.000000
0.830289 0.703822 0.000000
0.872435 0.725338 0.000000
0.910063 0.745510 0.000000
0.942718 0.764675 0.000000
0.970031 0.783658 0.178134
0.991852 0.803128 0.273136
0.145785 0.727230 0.000000
0.150698 0.727687 0.000000
0.156374 0.727657 0.000000
0.166629 0.726528 0.000000
0.182040 0.724269 0.000000
0.200107 0.721035 0.000000
0.220371 0.717098 0.000000
0.241917 0.712367 0.000000
0.264927 0.706752 0.000000
0.288334 0.700618 0.000000
0.312016 0.693629 0.000000
0.335454 0.685908 0.000000
0.358343 0.677455 0.000000
0.380194 0.667750 0.000000
0.400916 0.656977 0.000000
0.422675 0.647669 0.000000
0.460517 0.654139 0.000000
0.498817 0.661158 0.000000
0.537224 0.668788 0.000000
0.575952 0.677028 0.000000
0.614466 0.685786 0.000000
0.652888 0.694759 0.000000
0.690669 0.703822 0.000000
0.727810 0.712856 0.000000
0.761990 0.719203 0.000000
0.784878 0.712551 0.000000
0.817136 0.716213 0.000000
0.862669 0.739895 0.000000
0.903410 0.761471 0.000000
0.938659 0.781369 0.000000
0.968170 0.800504 0.113466
0.991577 0.819455 0.235599
0.172641 0.762448 0.000000
0.176669 0.762661 0.000000
0.181613 0.762264 0.000000
0.190829 0.761105 0.000000
0.203861 0.758816 0.000000
0.220249 0.755825 0.000000
0.239017 0.752041 0.000000
0.259403 0.747646 0.000000
0.281468 0.742519 0.000000
0.304326 0.737057 0.000000
0.327764 0.730831 0.000000
0.351232 0.724300 0.000000
0.374365 0.716762 0.000000
0.396887 0.708309 0.000000
0.418311 0.698817 0.000000
0.438483 0.688380 0.000000
0.466987 0.686061 0.000000
0.504112 0.692683 0.000000
0.541711 0.699855 0.000000
0.579461 0.707698 0.000000
0.617273 0.716091 0.000000
0.654841 0.724697 0.000000
0.691981 0.733394 0.000000
0.728573 0.742092 0.000000
0.764553 0.750607 0.000000
0.797635 0.756497 0.000000
0.819608 0.749691 0.000000
0.850187 0.751858 0.000000
0.893675 0.774533 0.000000
0.932219 0.795743 0.000000
0.964446 0.815213 0.000000
0.989990 0.833860 0.177157
0.200656 0.796262 0.000000
0.203922 0.796292 0.000000
0.208042 0.795987 0.000000
0.216556 0.795010 0.000000
0.228611 0.793210 0.000000
0.243961 0.791135 0.000000
0.262364 0.788724 0.000000
0.282811 0.785916 0.000000
0.305119 0.782834 0.000000
0.328466 0.779385 0.000000
0.352514 0.775479 0.000000
0.376959 0.770779 0.000000
0.401038 0.765499 0.000000
0.424506 0.759121 0.000000
0.447089 0.751675 0.000000
0.468330 0.743191 0.000000
0.488594 0.733852 0.000000
0.523156 0.738430 0.000000
0.559930 0.745205 0.000000
0.596796 0.752529 0.000000
0.633661 0.760281 0.000000
0.670375 0.768246 0.000000
0.706722 0.776242 0.000000
0.742519 0.784146 0.000000
0.777829 0.791897 0.000000
0.812650 0.799496 0.000000
0.844541 0.804623 0.000000
0.865110 0.797360 0.000000
0.893706 0.798367 0.000000
0.932525 0.818051 0.000000
0.966278 0.837400 0.000000
0.992554 0.855070 0.118410
0.241733 0.838254 0.059602
0.244724 0.838224 0.060121
0.247898 0.837827 0.059541
0.254795 0.836759 0.054932
0.265385 0.834989 0.045686
0.278874 0.832853 0.033082
0.295079 0.830320 0.019654
0.313451 0.827481 0.002960
0.333745 0.824247 0.000000
0.355444 0.820706 0.000000
0.377935 0.816678 0.000000
0.401129 0.812192 0.000000
0.424262 0.807126 0.000000
0.447059 0.801450 0.000000
0.469276 0.795041 0.000000
0.491005 0.787961 0.000000
