nova/tdt-studio/app/Lut_mau/luts/lut3.cube
# Created by Adobe Lightroom plugin Export LUT (1.22.0)
# www.johnrellis.com/lightroom/exportlut.htm
# Photo: Portraits (2 of 3).jpg
# Color profile: /Library/Application Support/Adobe/Color/Profiles/Recommended/AdobeRGB1998.icc
LUT_3D_SIZE 8
DOMAIN_MIN 0.000000 0.000000 0.000000
DOMAIN_MAX 0.903226 0.903226 0.903226
0.000000 0.000000 0.000000
0.090639 0.000000 0.000885
0.288090 0.000000 0.000000
0.553368 0.000000 0.000000
0.779904 0.000000 0.000000
0.902556 0.000000 0.000000
0.990143 0.000000 0.000000
1.000000 0.000000 0.000000
0.000000 0.086091 0.000000
0.085573 0.090089 0.000000
0.278050 0.102419 0.000000
0.540917 0.116426 0.000000
0.767544 0.123842 0.000000
0.893828 0.082490 0.000000
0.985077 0.000000 0.000000
1.000000 0.000000 0.000000
0.000000 0.261112 0.000000
0.088380 0.253819 0.000000
0.254337 0.255436 0.000000
0.480812 0.307347 0.000000
0.710719 0.331182 0.000000
0.865232 0.310552 0.000000
0.978149 0.278843 0.000000
1.000000 0.241611 0.000000
0.000000 0.449531 0.000000
0.068788 0.430823 0.000000
0.260716 0.415717 0.000000
0.461616 0.461799 0.000000
0.711238 0.519463 0.000000
0.869749 0.498054 0.000000
0.975921 0.456001 0.000000
1.000000 0.410498 0.000000
0.000000 0.651057 0.000000
0.000000 0.636713 0.000000
0.265385 0.621180 0.000000
0.453498 0.627985 0.000000
0.659510 0.659510 0.000000
0.834379 0.653864 0.000000
0.950072 0.610468 0.000000
1.000000 0.560082 0.000000
0.000000 0.769711 0.000000
0.000000 0.771847 0.000000
0.221683 0.768734 0.000000
0.416632 0.758053 0.000000
0.592828 0.761532 0.000000
0.772122 0.772213 0.000000
0.921996 0.755184 0.000000
1.000000 0.702571 0.000000
0.000000 0.881743 0.000000
0.000000 0.884764 0.000000
0.141512 0.878538 0.000000
0.369055 0.864622 0.000000
0.530205 0.845914 0.000000
0.691066 0.847745 0.000000
0.848508 0.848631 0.000000
0.978637 0.826383 0.000000
0.000000 0.972808 0.000000
0.000000 0.971191 0.000000
0.000000 0.965667 0.000000
0.314092 0.957641 0.000000
0.484810 0.943603 0.000000
0.636439 0.934905 0.000000
0.784878 0.932830 0.000000
0.927581 0.927642 0.000000
0.000000 0.000000 0.094942
0.090700 0.000000 0.091676
0.269291 0.000000 0.101472
0.520897 0.000000 0.026856
0.744747 0.000000 0.000000
0.878996 0.000000 0.000000
0.976837 0.000000 0.000000
1.000000 0.000000 0.000000
0.000000 0.084016 0.085878
0.084504 0.084504 0.084504
0.265599 0.073487 0.073213
0.510124 0.000000 0.000000
0.739010 0.000000 0.000000
0.874907 0.000000 0.000000
0.974304 0.000000 0.000000
1.000000 0.000000 0.000000
0.000000 0.248997 0.088716
0.005615 0.250156 0.003326
0.247623 0.247837 0.000000
0.475471 0.288029 0.000000
0.703059 0.302007 0.000000
0.856504 0.279484 0.000000
0.965362 0.247074 0.000000
1.000000 0.210697 0.000000
0.000000 0.447364 0.000000
0.000000 0.441505 0.000000
0.249973 0.426368 0.000000
0.450813 0.450904 0.000000
0.687678 0.493233 0.000000
0.847135 0.472572 0.000000
0.960021 0.435462 0.000000
1.000000 0.394049 0.000000
0.000000 0.641077 0.000000
0.000000 0.636347 0.000000
0.236698 0.623316 0.000000
0.434516 0.614099 0.000000
0.636805 0.636805 0.000000
0.816617 0.635035 0.000000
0.937102 0.595209 0.000000
1.000000 0.548394 0.000000
0.000000 0.767453 0.000000
0.000000 0.767208 0.000000
0.179385 0.760616 0.000000
0.397955 0.748501 0.000000
0.579126 0.750484 0.000000
0.762905 0.763027 0.000000
0.914672 0.746181 0.000000
1.000000 0.694301 0.000000
0.000000 0.882597 0.000000
0.000000 0.884001 0.000000
0.040711 0.878355 0.000000
0.353307 0.865446 0.000000
0.523735 0.847501 0.000000
0.689204 0.849119 0.000000
0.850980 0.851102 0.000000
0.982422 0.827512 0.000000
0.000000 0.970184 0.000000
0.000000 0.969329 0.000000
0.000000 0.964935 0.000000
0.294285 0.957122 0.000000
0.476448 0.945495 0.000000
0.631678 0.935119 0.000000
0.782101 0.932097 0.000000
0.926574 0.926635 0.000000
0.000000 0.000000 0.279820
0.114260 0.000000 0.280095
0.276799 0.000000 0.276707
0.511070 0.000000 0.307805
0.739223 0.000000 0.284916
0.878355 0.000000 0.230350
0.975708 0.000000 0.202640
1.000000 0.000000 0.173251
0.000000 0.089906 0.266300
0.063508 0.062593 0.273716
0.270726 0.000000 0.270848
0.503014 0.000000 0.286931
0.734493 0.000000 0.260288
0.873014 0.000000 0.219333
0.972076 0.000000 0.192844
1.000000 0.000000 0.161868
0.000000 0.259037 0.258946
0.000000 0.256779 0.256687
0.241733 0.241733 0.241733
0.474830 0.229313 0.229038
0.703120 0.205692 0.205875
0.854246 0.183963 0.183871
0.963714 0.162051 0.163058
1.000000 0.131807 0.132143
0.000000 0.452094 0.264225
0.000000 0.449226 0.245304
0.160739 0.446387 0.160311
0.449897 0.449958 0.141970
0.690455 0.464942 0.142580
0.846586 0.437049 0.129366
0.958556 0.401678 0.104768
1.000000 0.362402 0.028748
0.000000 0.641169 0.227115
0.000000 0.641779 0.195346
0.000000 0.638148 0.000000
0.398505 0.616236 0.000000
0.635187 0.635340 0.000000
0.817044 0.619013 0.000000
0.935637 0.574182 0.000000
1.000000 0.525689 0.000000
0.000000 0.771298 0.121340
0.000000 0.774929 0.000000
0.000000 0.772061 0.000000
0.349767 0.757473 0.000000
0.559655 0.749447 0.000000
0.760464 0.760525 0.000000
0.914977 0.736751 0.000000
1.000000 0.680903 0.000000
0.000000 0.887419 0.000000
0.000000 0.889555 0.000000
0.000000 0.884398 0.000000
0.291142 0.871061 0.000000
0.498573 0.852201 0.000000
0.678279 0.849577 0.000000
0.851316 0.851347 0.000000
0.985290 0.822904 0.000000
0.000000 0.974578 0.000000
0.000000 0.974121 0.000000
0.000000 0.969146 0.000000
0.211795 0.963592 0.000000
0.443885 0.950805 0.000000
0.615015 0.937743 0.000000
0.776547 0.934691 0.000000
0.927947 0.928038 0.000000
0.000000 0.000000 0.513054
0.134554 0.000000 0.518791
0.331823 0.000000 0.526757
0.519982 0.000000 0.520012
0.718624 0.000000 0.507408
0.864134 0.000000 0.461585
0.969177 0.000000 0.424811
1.000000 0.000000 0.422065
0.000000 0.000000 0.505089
0.000000 0.000000 0.514488
0.310338 0.000000 0.521691
0.512535 0.000000 0.512505
0.713893 0.000000 0.496803
0.860594 0.000000 0.453986
0.964660 0.000000 0.422522
1.000000 0.000000 0.424781
0.000000 0.277806 0.482856
0.000000 0.257908 0.480781
0.203891 0.203372 0.487587
0.483864 0.167422 0.483803
0.687526 0.067994 0.455360
0.845579 0.125246 0.436042
0.954833 0.242130 0.441199
1.000000 0.263706 0.426642
0.000000 0.463355 0.463355
0.000000 0.457496 0.457740
0.096193 0.453315 0.453407
0.443488 0.443488 0.443488
0.683497 0.447242 0.447150
0.839078 0.442267 0.442420
0.951293 0.431281 0.431281
1.000000 0.404578 0.404608
0.000000 0.662776 0.456794
0.000000 0.659876 0.447181
0.000000 0.655268 0.414801
0.347509 0.644221 0.347601
0.637079 0.637049 0.338231
0.813962 0.606958 0.366674
0.931884 0.570397 0.361944
1.000000 0.526787 0.332738
0.000000 0.778958 0.389166
0.000000 0.781643 0.379217
0.000000 0.781796 0.337316
0.256107 0.774289 0.256291
0.526543 0.751644 0.202457
0.761105 0.761135 0.232120
0.914733 0.725887 0.245975
1.000000 0.669825 0.235447
0.000000 0.888853 0.320256
0.000000 0.891722 0.307927
0.000000 0.890074 0.251743
0.135012 0.880491 0.136934
0.451179 0.860197 0.000000
0.657099 0.847990 0.000000
0.848600 0.848631 0.000000
0.984497 0.812039 0.000000
0.000000 0.975311 0.223087
0.000000 0.975463 0.201022
0.000000 0.973510 0.059785
0.000000 0.966888 0.000000
0.374090 0.953155 0.000000
0.578607 0.936797 0.000000
0.759213 0.931243 0.000000
0.924529 0.924590 0.000000
0.000000 0.000000 0.706905
0.107637 0.000000 0.707485
0.320653 0.000000 0.708644
0.516381 0.000000 0.716396
0.701625 0.000000 0.701442
0.837675 0.000000 0.644709
0.948394 0.000000 0.590295
1.000000 0.000000 0.553674
0.000000 0.000000 0.691035
0.000000 0.000000 0.696742
0.292088 0.000000 0.700343
0.500084 0.000000 0.705165
0.692103 0.000000 0.692195
0.832639 0.000000 0.637415
0.944884 0.000000 0.586358
1.000000 0.000000 0.553155
0.000000 0.226993 0.677211
0.000000 0.196475 0.678798
0.160769 0.160433 0.679103
0.456672 0.105318 0.684688
0.673640 0.000000 0.673457
0.822080 0.000000 0.620813
0.940307 0.072908 0.586786
1.000000 0.262882 0.575830
0.000000 0.444495 0.649165
0.000000 0.433387 0.644343
0.000000 0.402777 0.641688
0.386755 0.386877 0.659785
0.665400 0.397314 0.665248
0.815946 0.414984 0.624445
0.931456 0.473701 0.625147
1.000000 0.522393 0.633875
0.000000 0.638392 0.638483
0.000000 0.637659 0.637690
0.000000 0.635248 0.635096
0.345769 0.633387 0.633265
0.623865 0.623865 0.623865
0.790402 0.627008 0.627070
0.910979 0.622797 0.622858
1.000000 0.605371 0.605432
0.000000 0.796689 0.601587
0.000000 0.798276 0.599512
0.000000 0.795743 0.587152
0.283696 0.786587 0.566735
0.537438 0.767788 0.537377
0.760800 0.760861 0.533989
0.901915 0.735592 0.562982
0.995087 0.699947 0.549340
0.000000 0.898863 0.531304
0.000000 0.900877 0.527855
0.000000 0.898528 0.510002
0.117525 0.889555 0.477363
0.429694 0.873106 0.429877
0.632380 0.849149 0.356695
0.850858 0.850950 0.400549
0.982208 0.807553 0.399695
0.000000 0.980774 0.454475
0.000000 0.980377 0.447242
0.000000 0.978729 0.421576
0.000000 0.972656 0.368231
0.290806 0.963226 0.290959
0.537163 0.947051 0.208103
0.740719 0.933562 0.152377
0.926299 0.926360 0.170504
0.000000 0.000000 0.831235
0.000000 0.000000 0.833738
0.287785 0.000000 0.834928
0.469917 0.000000 0.836759
0.652064 0.000000 0.838376
0.821439 0.000000 0.821347
0.932494 0.000000 0.757046
1.000000 0.000000 0.695064
0.000000 0.000000 0.818875
0.000000 0.000000 0.823606
0.258671 0.000000 0.824430
0.453040 0.000000 0.825162
0.640162 0.000000 0.827939
0.813260 0.000000 0.813230
0.927245 0.000000 0.751156
1.000000 0.000000 0.691402
0.000000 0.162661 0.815763
0.000000 0.154849 0.814328
0.127779 0.126558 0.812833
0.405066 0.000000 0.804623
0.614557 0.000000 0.810086
0.801175 0.000000 0.801144
0.922301 0.000000 0.744900
1.000000 0.000000 0.694636
0.000000 0.382605 0.776516
0.000000 0.370794 0.773587
0.000000 0.342138 0.780484
0.340124 0.340032 0.793271
0.600031 0.363317 0.803708
0.798032 0.361425 0.797971
0.915435 0.376013 0.745968
1.000000 0.425818 0.715663
0.000000 0.575616 0.765866
0.000000 0.571740 0.765438
0.000000 0.558923 0.763882
0.244755 0.541924 0.762142
0.564416 0.564294 0.771572
0.773983 0.582330 0.773892
0.892302 0.586603 0.739956
0.985138 0.621942 0.738094
0.000000 0.754452 0.754391
0.000000 0.757839 0.757717
0.000000 0.757717 0.757809
0.240146 0.756100 0.756039
0.542840 0.752224 0.752285
0.747250 0.747158 0.747219
0.879118 0.754452 0.754482
0.972717 0.748287 0.748287
0.000000 0.897520 0.716487
0.000000 0.900694 0.717891
0.000000 0.899229 0.713283
0.196475 0.889189 0.701228
0.477668 0.871672 0.685267
0.659174 0.849393 0.659236
0.841764 0.841733 0.654383
0.960510 0.815976 0.669398
0.000000 0.982818 0.639826
0.000000 0.982238 0.636622
0.000000 0.979767 0.625330
0.000000 0.974395 0.606043
0.336126 0.963287 0.585321
0.560632 0.948272 0.560662
0.724453 0.929381 0.479377
0.924071 0.924102 0.523430
0.000000 0.000000 0.922423
0.000000 0.000000 0.923491
0.249485 0.000000 0.922637
0.421607 0.000000 0.923308
0.586999 0.000000 0.923400
0.751797 0.000000 0.920867
0.909911 0.000000 0.909758
1.000000 0.000000 0.847684
0.000000 0.000000 0.915404
0.000000 0.000000 0.917662
0.221988 0.000000 0.917723
0.408820 0.000000 0.918425
0.579156 0.000000 0.918639
0.747494 0.000000 0.917571
0.906676 0.000000 0.906615
1.000000 0.000000 0.844724
0.000000 0.127382 0.914794
0.000000 0.119905 0.914519
0.086946 0.085267 0.912078
0.368688 0.000000 0.909300
0.558373 0.000000 0.909056
0.737911 0.000000 0.910643
0.903777 0.000000 0.903655
1.000000 0.000000 0.843229
0.000000 0.328161 0.894926
0.000000 0.317723 0.893004
0.000000 0.302007 0.894774
0.307713 0.307073 0.899046
0.540978 0.321996 0.903044
0.737423 0.362127 0.907225
0.899260 0.351385 0.899229
0.994934 0.352697 0.842863
0.000000 0.515160 0.876493
0.000000 0.509606 0.875242
0.000000 0.491981 0.872801
0.188815 0.484718 0.877256
0.516136 0.515862 0.883146
0.724300 0.554040 0.888151
0.882506 0.555932 0.882536
0.977600 0.546715 0.834989
0.000000 0.687434 0.864408
0.000000 0.687068 0.865904
0.000000 0.681117 0.865202
0.006531 0.672297 0.862943
0.453498 0.668544 0.857908
0.702235 0.702113 0.864256
0.868132 0.722133 0.868101
0.962402 0.719417 0.839322
0.000000 0.857603 0.857664
0.000000 0.859739 0.859770
0.000000 0.858488 0.858488
0.000000 0.853666 0.853727
0.451850 0.846952 0.847013
0.671656 0.840635 0.840665
0.834684 0.834623 0.834653
0.944060 0.839841 0.839902
0.000000 0.981048 0.811490
0.000000 0.980713 0.810330
0.000000 0.977447 0.804776
0.000000 0.972198 0.798917
0.412238 0.960754 0.793729
0.615930 0.945342 0.785000
0.758724 0.925841 0.758755
0.916716 0.916686 0.751675
0.000000 0.000000 0.996033
0.000000 0.000000 0.996429
0.212467 0.000000 0.995514
0.379156 0.000000 0.994659
0.531548 0.000000 0.992401
0.682612 0.000000 0.990387
0.831693 0.000000 0.985840
0.979065 0.000000 0.978973
0.000000 0.000000 0.991913
0.000000 0.000000 0.992950
0.185641 0.000000 0.992279
0.367285 0.000000 0.991180
0.524743 0.000000 0.989563
0.679408 0.000000 0.988830
0.830350 0.000000 0.984924
0.977539 0.000000 0.977447
0.000000 0.085634 0.991974
0.000000 0.072663 0.991058
0.000000 0.000000 0.988464
0.331121 0.000000 0.986786
0.507103 0.000000 0.985351
0.670802 0.000000 0.984649
0.828305 0.000000 0.983124
0.976806 0.000000 0.976745
0.000000 0.278721 0.981537
0.000000 0.274876 0.980163
0.000000 0.272801 0.980194
0.276188 0.275669 0.981567
0.489815 0.283238 0.981750
0.667903 0.306218 0.981292
0.828550 0.337682 0.979126
0.972381 0.311864 0.972290
0.000000 0.457252 0.970245
0.000000 0.453559 0.970245
0.000000 0.444068 0.970336
0.193454 0.452125 0.971588
0.471382 0.471138 0.971313
0.662196 0.497963 0.969818
0.826749 0.538720 0.968658
0.962127 0.523186 0.962097
0.000000 0.623621 0.959289
0.000000 0.622126 0.960204
0.000000 0.613489 0.959472
0.000000 0.599390 0.957305
0.405402 0.610498 0.955596
0.655970 0.655818 0.956451
0.824735 0.692744 0.957519
0.952514 0.691615 0.952453
0.000000 0.786130 0.952483
0.000000 0.786038 0.953246
0.000000 0.781521 0.951781
0.000000 0.773556 0.947875
0.344121 0.767544 0.941588
0.583429 0.765194 0.933867
0.790738 0.790646 0.933471
0.934844 0.809415 0.934844
0.000000 0.940612 0.940581
0.000000 0.940032 0.940124
0.000000 0.938628 0.938628
0.000000 0.935943 0.935943
0.334234 0.931731 0.931701
0.592828 0.926177 0.926207
0.773251 0.919677 0.919707
0.914031 0.914000 0.914031
