nova/tdt-studio/app/Lut_mau/luts/lut3.cube
# Created by Adobe Lightroom plugin Export LUT (1.22.0)
# www.johnrellis.com/lightroom/exportlut.htm
# Photo: Portraits (2 of 3).jpg
# Color profile: /Library/Application Support/Adobe/Color/Profiles/Recommended/AdobeRGB1998.icc
LUT_3D_SIZE 32
0.000000 0.000000 0.000000
0.000000 0.000000 0.000000
0.001343 0.000000 0.000000
0.038972 0.000000 0.000488
0.090639 0.000000 0.000885
0.134615 0.000000 0.000000
0.182467 0.000000 0.000000
0.233494 0.000000 0.000000
0.288090 0.000000 0.000000
0.347570 0.000000 0.000000
0.412329 0.000000 0.000000
0.481239 0.000000 0.000000
0.553368 0.000000 0.000000
0.621942 0.000000 0.000000
0.682307 0.000000 0.000000
0.735348 0.000000 0.000000
0.779904 0.000000 0.000000
0.816800 0.000000 0.000000
0.848112 0.000000 0.000000
0.876371 0.000000 0.000000
0.902556 0.000000 0.000000
0.926726 0.000000 0.000000
0.949279 0.000000 0.000000
0.970397 0.000000 0.000000
0.990143 0.000000 0.000000
1.000000 0.000000 0.000000
1.000000 0.000000 0.000000
1.000000 0.000000 0.000000
1.000000 0.000000 0.000000
1.000000 0.000000 0.000000
1.000000 0.000000 0.000000
1.000000 0.000000 0.000000
0.000000 0.000000 0.000000
0.000000 0.000000 0.000000
0.001343 0.000000 0.000000
0.041688 0.000000 0.000458
0.090639 0.000000 0.000885
0.133333 0.000000 0.000000
0.180301 0.000000 0.000000
0.231174 0.000000 0.000000
0.286412 0.000000 0.000000
0.345983 0.000000 0.000000
0.410681 0.000000 0.000000
0.479500 0.000000 0.000000
0.551873 0.000000 0.000000
0.620478 0.000000 0.000000
0.680751 0.000000 0.000000
0.733761 0.000000 0.000000
0.778134 0.000000 0.000000
0.815183 0.000000 0.000000
0.846372 0.000000 0.000000
0.874601 0.000000 0.000000
0.900816 0.000000 0.000000
0.925170 0.000000 0.000000
0.947875 0.000000 0.000000
0.969116 0.000000 0.000000
0.988983 0.000000 0.000000
1.000000 0.000000 0.000000
1.000000 0.000000 0.000000
1.000000 0.000000 0.000000
1.000000 0.000000 0.000000
1.000000 0.000000 0.000000
1.000000 0.000000 0.000000
1.000000 0.000000 0.000000
0.000000 0.001190 0.000000
0.000000 0.002411 0.000000
0.001038 0.002197 0.000000
0.043580 0.000000 0.000000
0.090333 0.000000 0.000000
0.132448 0.000000 0.000000
0.178897 0.000000 0.000000
0.229587 0.000000 0.000000
0.284794 0.000000 0.000000
0.344274 0.000000 0.000000
0.408667 0.000000 0.000000
0.477668 0.000000 0.000000
0.549676 0.000000 0.000000
0.618433 0.000000 0.000000
0.678737 0.000000 0.000000
0.731746 0.000000 0.000000
0.776181 0.000000 0.000000
0.813077 0.000000 0.000000
0.844205 0.000000 0.000000
0.872404 0.000000 0.000000
0.898772 0.000000 0.000000
0.923217 0.000000 0.000000
0.946075 0.000000 0.000000
0.967529 0.000000 0.000000
0.987518 0.000000 0.000000
1.000000 0.000000 0.000000
1.000000 0.000000 0.000000
1.000000 0.000000 0.000000
1.000000 0.000000 0.000000
1.000000 0.000000 0.000000
1.000000 0.000000 0.000000
1.000000 0.000000 0.000000
0.000000 0.043305 0.000000
0.000000 0.046906 0.000000
0.000000 0.050507 0.000000
0.038880 0.052766 0.000000
0.088930 0.048859 0.000000
0.130343 0.043732 0.000000
0.176211 0.033417 0.000000
0.226902 0.018982 0.000000
0.281926 0.000000 0.000000
0.341588 0.000000 0.000000
0.406134 0.000000 0.000000
0.474952 0.000000 0.000000
0.546715 0.000000 0.000000
0.615747 0.000000 0.000000
0.676478 0.000000 0.000000
0.729274 0.000000 0.000000
0.773861 0.000000 0.000000
0.811185 0.000000 0.000000
0.842618 0.000000 0.000000
0.871244 0.000000 0.000000
0.898100 0.000000 0.000000
0.922789 0.000000 0.000000
0.945830 0.000000 0.000000
0.967437 0.000000 0.000000
0.987732 0.000000 0.000000
1.000000 0.000000 0.000000
1.000000 0.000000 0.000000
1.000000 0.000000 0.000000
1.000000 0.000000 0.000000
1.000000 0.000000 0.000000
1.000000 0.000000 0.000000
1.000000 0.000000 0.000000
0.000000 0.086091 0.000000
0.000000 0.087343 0.000000
0.000000 0.089265 0.000000
0.024506 0.089723 0.000000
0.085573 0.090089 0.000000
0.126833 0.092561 0.000000
0.173190 0.096803 0.000000
0.223239 0.099794 0.000000
0.278050 0.102419 0.000000
0.337102 0.105287 0.000000
0.401251 0.107607 0.000000
0.469917 0.111635 0.000000
0.540917 0.116426 0.000000
0.610010 0.120882 0.000000
0.670039 0.122042 0.000000
0.722560 0.123568 0.000000
0.767544 0.123842 0.000000
0.805142 0.122621 0.000000
0.837247 0.111452 0.000000
0.866514 0.098909 0.000000
0.893828 0.082490 0.000000
0.919005 0.060395 0.000000
0.942535 0.007965 0.000000
0.964508 0.000000 0.000000
0.985077 0.000000 0.000000
1.000000 0.000000 0.000000
1.000000 0.000000 0.000000
1.000000 0.000000 0.000000
1.000000 0.000000 0.000000
1.000000 0.000000 0.000000
1.000000 0.000000 0.000000
1.000000 0.000000 0.000000
0.000000 0.123384 0.000000
0.000000 0.124666 0.000000
0.000000 0.126497 0.000000
0.007141 0.127199 0.000000
0.084230 0.126894 0.000000
0.124483 0.127993 0.000000
0.168429 0.134066 0.000000
0.219120 0.142672 0.000000
0.274479 0.150851 0.000000
0.333593 0.158694 0.000000
0.397467 0.166903 0.000000
0.465492 0.175387 0.000000
0.535851 0.184054 0.000000
0.604059 0.190097 0.000000
0.663935 0.193362 0.000000
0.716732 0.194827 0.000000
0.762325 0.194247 0.000000
0.801053 0.188724 0.000000
0.834623 0.179812 0.000000
0.865354 0.170535 0.000000
0.894011 0.160494 0.000000
0.922057 0.149142 0.000000
0.950713 0.139956 0.000000
0.972992 0.127260 0.000000
0.993683 0.113466 0.000000
1.000000 0.099001 0.000000
1.000000 0.082368 0.000000
1.000000 0.060487 0.000000
1.000000 0.007355 0.000000
1.000000 0.000000 0.000000
1.000000 0.000000 0.000000
1.000000 0.000000 0.000000
0.000000 0.167391 0.000000
0.000000 0.166934 0.000000
0.000000 0.166781 0.000000
0.000000 0.165591 0.000000
0.081117 0.163333 0.000000
0.123232 0.163027 0.000000
0.162387 0.165042 0.000000
0.206882 0.172519 0.000000
0.258701 0.183261 0.000000
0.314427 0.193545 0.000000
0.372168 0.202976 0.000000
0.432959 0.212192 0.000000
0.495033 0.220798 0.000000
0.558526 0.228183 0.000000
0.617792 0.233097 0.000000
0.674647 0.237186 0.000000
0.724269 0.238132 0.000000
0.765805 0.233402 0.000000
0.801633 0.227024 0.000000
0.839658 0.220676 0.000000
0.873686 0.213474 0.000000
0.904387 0.204990 0.000000
0.932097 0.196414 0.000000
0.959075 0.187076 0.000000
0.983520 0.178103 0.000000
1.000000 0.168124 0.000000
1.000000 0.157870 0.000000
1.000000 0.146883 0.000000
1.000000 0.134951 0.000000
1.000000 0.122042 0.000000
1.000000 0.106813 0.000000
1.000000 0.090181 0.000000
0.000000 0.212558 0.000000
0.000000 0.211917 0.000000
0.000000 0.211368 0.000000
0.000000 0.209354 0.000000
0.083253 0.207095 0.000000
0.127230 0.204288 0.000000
0.168032 0.206577 0.000000
0.207828 0.209659 0.000000
0.253971 0.218112 0.000000
0.308293 0.231022 0.000000
0.365759 0.243351 0.000000
0.426978 0.255711 0.000000
0.489113 0.266331 0.000000
0.552178 0.276036 0.000000
0.611719 0.282536 0.000000
0.668788 0.287297 0.000000
0.718166 0.286259 0.000000
0.760403 0.281804 0.000000
0.796841 0.275731 0.000000
0.835355 0.270207 0.000000
0.869657 0.263981 0.000000
0.900694 0.255772 0.000000
0.929015 0.247715 0.000000
0.956176 0.239384 0.000000
0.980835 0.230747 0.000000
1.000000 0.221622 0.000000
1.000000 0.212528 0.000000
1.000000 0.202365 0.000000
1.000000 0.192874 0.000000
1.000000 0.182284 0.000000
1.000000 0.171603 0.000000
1.000000 0.159792 0.000000
0.000000 0.261112 0.000000
0.000000 0.259831 0.000000
0.000000 0.258427 0.000000
0.000000 0.256229 0.000000
0.088380 0.253819 0.000000
0.134493 0.250706 0.000000
0.174441 0.250095 0.000000
0.214511 0.252689 0.000000
0.254337 0.255436 0.000000
0.300694 0.263859 0.000000
0.357794 0.279057 0.000000
0.418402 0.293767 0.000000
0.480812 0.307347 0.000000
0.544396 0.319554 0.000000
0.604578 0.326909 0.000000
0.660853 0.330968 0.000000
0.710719 0.331182 0.000000
0.753933 0.327611 0.000000
0.790982 0.321660 0.000000
0.830076 0.316930 0.000000
0.865232 0.310552 0.000000
0.896941 0.303197 0.000000
0.925841 0.295384 0.000000
0.953277 0.287449 0.000000
0.978149 0.278843 0.000000
1.000000 0.269596 0.000000
1.000000 0.260807 0.000000
1.000000 0.251072 0.000000
1.000000 0.241611 0.000000
1.000000 0.231724 0.000000
1.000000 0.221592 0.000000
1.000000 0.211093 0.000000
0.000000 0.311650 0.000000
0.000000 0.310155 0.000000
0.000000 0.308690 0.000000
0.000000 0.306340 0.000000
0.096284 0.303838 0.000000
0.143282 0.300359 0.000000
0.182650 0.296178 0.000000
0.223301 0.298650 0.000000
0.264378 0.302556 0.000000
0.306249 0.306615 0.000000
0.354620 0.315740 0.000000
0.417243 0.334600 0.000000
0.480629 0.350591 0.000000
0.544884 0.364385 0.000000
0.605493 0.373388 0.000000
0.662776 0.378729 0.000000
0.713008 0.379248 0.000000
0.756161 0.376074 0.000000
0.793637 0.370001 0.000000
0.832639 0.364935 0.000000
0.867765 0.358709 0.000000
0.899809 0.351324 0.000000
0.928985 0.343114 0.000000
0.955779 0.334783 0.000000
0.980224 0.325689 0.000000
1.000000 0.316197 0.000000
1.000000 0.306737 0.000000
1.000000 0.297002 0.000000
1.000000 0.286992 0.000000
1.000000 0.277226 0.000000
1.000000 0.267063 0.000000
1.000000 0.256657 0.000000
0.000000 0.362646 0.000000
0.000000 0.361181 0.000000
0.000000 0.359472 0.000000
0.000000 0.356664 0.000000
0.099611 0.353094 0.000000
0.147890 0.349065 0.000000
0.188907 0.344488 0.000000
0.227237 0.342290 0.000000
0.268864 0.345983 0.000000
0.311620 0.350469 0.000000
0.355505 0.355657 0.000000
0.404578 0.364263 0.000000
0.469612 0.384466 0.000000
0.532799 0.399786 0.000000
0.594110 0.411200 0.000000
0.652094 0.418647 0.000000
0.703761 0.420935 0.000000
0.748165 0.418799 0.000000
0.786526 0.413001 0.000000
0.826352 0.408637 0.000000
0.862242 0.402625 0.000000
0.894896 0.395148 0.000000
0.924529 0.387274 0.000000
0.951690 0.378149 0.000000
0.976379 0.368872 0.000000
0.998718 0.359289 0.000000
1.000000 0.349523 0.000000
1.000000 0.339666 0.000000
1.000000 0.329320 0.000000
1.000000 0.319188 0.000000
1.000000 0.308721 0.000000
1.000000 0.298192 0.000000
0.000000 0.418067 0.000000
0.000000 0.416144 0.000000
0.000000 0.414038 0.000000
0.000000 0.410468 0.000000
0.090425 0.406592 0.000000
0.146975 0.401923 0.000000
0.191745 0.397101 0.000000
0.232120 0.392370 0.000000
0.273991 0.393744 0.000000
0.318791 0.399023 0.000000
0.364416 0.405097 0.000000
0.413611 0.413611 0.000000
0.491524 0.446693 0.000000
0.563958 0.469734 0.000000
0.625940 0.480781 0.000000
0.681025 0.485328 0.000000
0.729610 0.484596 0.000000
0.772671 0.480385 0.000000
0.810666 0.473365 0.000000
0.845670 0.465492 0.000000
0.877714 0.456336 0.000000
0.906828 0.446448 0.000000
0.933715 0.436255 0.000000
0.958618 0.425849 0.000000
0.981506 0.415290 0.000000
1.000000 0.403876 0.000000
1.000000 0.392798 0.000000
1.000000 0.382086 0.000000
1.000000 0.371191 0.000000
1.000000 0.360113 0.000000
1.000000 0.349248 0.000000
1.000000 0.338323 0.000000
0.000000 0.449531 0.000000
0.000000 0.445411 0.000000
0.000000 0.441047 0.000000
0.000000 0.436225 0.000000
0.068788 0.430823 0.000000
0.133547 0.428168 0.000000
0.181216 0.424903 0.000000
0.222629 0.420722 0.000000
0.260716 0.415717 0.000000
0.307500 0.425940 0.000000
0.356512 0.437293 0.000000
0.407782 0.448981 0.000000
0.461616 0.461799 0.000000
0.519188 0.475441 0.000000
0.593988 0.501793 0.000000
0.656001 0.514031 0.000000
0.711238 0.519463 0.000000
0.757443 0.517937 0.000000
0.798642 0.513085 0.000000
0.835996 0.506279 0.000000
0.869749 0.498054 0.000000
0.899657 0.487831 0.000000
0.927123 0.477699 0.000000
0.952575 0.466865 0.000000
0.975921 0.456001 0.000000
0.996582 0.444648 0.000000
1.000000 0.433112 0.000000
1.000000 0.421881 0.000000
1.000000 0.410498 0.000000
1.000000 0.399298 0.000000
1.000000 0.387976 0.000000
1.000000 0.376928 0.000000
0.000000 0.505150 0.000000
0.000000 0.500328 0.000000
0.000000 0.495491 0.000000
0.000000 0.490120 0.000000
0.019928 0.484169 0.000000
0.126467 0.480720 0.000000
0.179751 0.476661 0.000000
0.224735 0.471992 0.000000
0.264988 0.466407 0.000000
0.308415 0.469673 0.000000
0.357458 0.480568 0.000000
0.408545 0.492287 0.000000
0.461341 0.504265 0.000000
0.517144 0.517144 0.000000
0.574426 0.529595 0.000000
0.642115 0.549035 0.000000
0.698177 0.556451 0.000000
0.746059 0.556695 0.000000
0.788083 0.552514 0.000000
0.825956 0.545953 0.000000
0.860472 0.537774 0.000000
0.891417 0.528161 0.000000
0.919677 0.517662 0.000000
0.945556 0.506706 0.000000
0.969726 0.495888 0.000000
0.991150 0.483986 0.000000
1.000000 0.472267 0.000000
1.000000 0.460578 0.000000
1.000000 0.448920 0.000000
1.000000 0.437201 0.000000
1.000000 0.425635 0.000000
1.000000 0.414313 0.000000
0.000000 0.557092 0.000000
0.000000 0.552148 0.000000
0.000000 0.547021 0.000000
0.000000 0.541619 0.000000
0.000000 0.535576 0.000000
0.114717 0.531762 0.000000
0.174563 0.527398 0.000000
0.223423 0.522332 0.000000
0.266545 0.516808 0.000000
0.310094 0.516625 0.000000
0.356725 0.523003 0.000000
0.406897 0.533715 0.000000
0.458289 0.544335 0.000000
0.512108 0.555932 0.000000
0.567346 0.567376 0.000000
0.623896 0.578424 0.000000
0.686519 0.593042 0.000000
0.734890 0.594263 0.000000
0.777401 0.590845 0.000000
0.815976 0.584771 0.000000
0.850889 0.576623 0.000000
0.882628 0.567071 0.000000
0.911620 0.556817 0.000000
0.938842 0.545922 0.000000
0.963836 0.534844 0.000000
0.986053 0.522942 0.000000
1.000000 0.511040 0.000000
1.000000 0.498970 0.000000
1.000000 0.487068 0.000000
1.000000 0.475196 0.000000
1.000000 0.463600 0.000000
1.000000 0.451942 0.000000
0.000000 0.611383 0.000000
0.000000 0.607568 0.000000
0.000000 0.603845 0.000000
0.000000 0.599756 0.000000
0.000000 0.594903 0.000000
0.096407 0.591638 0.000000
0.169802 0.587823 0.000000
0.223911 0.583642 0.000000
0.271672 0.578485 0.000000
0.317784 0.577661 0.000000
0.361456 0.576074 0.000000
0.411505 0.585077 0.000000
0.462837 0.594476 0.000000
0.514916 0.604059 0.000000
0.568170 0.613336 0.000000
0.622370 0.622431 0.000000
0.677241 0.630945 0.000000
0.730617 0.637018 0.000000
0.772915 0.633112 0.000000
0.810605 0.626184 0.000000
0.844968 0.617334 0.000000
0.876402 0.607141 0.000000
0.905852 0.596612 0.000000
0.933074 0.585473 0.000000
0.958068 0.573663 0.000000
0.980621 0.561303 0.000000
1.000000 0.548760 0.000000
1.000000 0.536217 0.000000
1.000000 0.523857 0.000000
1.000000 0.511864 0.000000
1.000000 0.499886 0.000000
1.000000 0.487831 0.000000
0.000000 0.651057 0.000000
0.000000 0.647883 0.000000
0.000000 0.644678 0.000000
0.000000 0.640955 0.000000
0.000000 0.636713 0.000000
0.063966 0.633631 0.000000
0.155978 0.630030 0.000000
0.215213 0.625849 0.000000
0.265385 0.621180 0.000000
0.313237 0.619989 0.000000
0.358221 0.618524 0.000000
0.403601 0.619348 0.000000
0.453498 0.627985 0.000000
0.504143 0.636286 0.000000
0.555566 0.644556 0.000000
0.607294 0.652399 0.000000
0.659510 0.659510 0.000000
0.709865 0.664210 0.000000
0.759213 0.667292 0.000000
0.799130 0.662196 0.000000
0.834379 0.653864 0.000000
0.867094 0.644434 0.000000
0.897124 0.633906 0.000000
0.924712 0.622492 0.000000
0.950072 0.610468 0.000000
0.973175 0.597955 0.000000
0.994598 0.585199 0.000000
1.000000 0.572473 0.000000
1.000000 0.560082 0.000000
1.000000 0.547845 0.000000
1.000000 0.535515 0.000000
1.000000 0.523186 0.000000
0.000000 0.691798 0.000000
0.000000 0.691341 0.000000
0.000000 0.685756 0.000000
0.000000 0.685481 0.000000
0.000000 0.684779 0.000000
0.000000 0.683284 0.000000
0.140993 0.681392 0.000000
0.208835 0.680201 0.000000
0.264103 0.678553 0.000000
0.314153 0.676234 0.000000
0.360906 0.673274 0.000000
0.404761 0.669093 0.000000
0.451118 0.670893 0.000000
0.499947 0.676753 0.000000
0.549187 0.682460 0.000000
0.596643 0.685878 0.000000
0.644556 0.689235 0.000000
0.692409 0.692592 0.000000
0.740658 0.695705 0.000000
0.786343 0.696101 0.000000
0.823667 0.689540 0.000000
0.856107 0.679561 0.000000
0.886168 0.668635 0.000000
0.913451 0.656764 0.000000
0.938781 0.644465 0.000000
0.962554 0.631922 0.000000
0.984771 0.619318 0.000000
1.000000 0.606897 0.000000
1.000000 0.594324 0.000000
1.000000 0.581659 0.000000
1.000000 0.569024 0.000000
1.000000 0.556359 0.000000
0.000000 0.705226 0.000000
0.000000 0.706294 0.000000
0.000000 0.707485 0.000000
0.000000 0.708980 0.000000
0.000000 0.709987 0.000000
0.000000 0.710658 0.000000
0.117067 0.710842 0.000000
0.192416 0.710475 0.000000
0.250828 0.709438 0.000000
0.302373 0.707820 0.000000
0.350347 0.705653 0.000000
0.395300 0.701991 0.000000
0.438148 0.697993 0.000000
0.485420 0.702602 0.000000
0.533318 0.707790 0.000000
0.579583 0.710780 0.000000
0.626246 0.713924 0.000000
0.673304 0.717372 0.000000
0.720668 0.720699 0.000000
0.766720 0.722499 0.000000
0.810513 0.722042 0.000000
0.846403 0.715023 0.000000
0.877134 0.704372 0.000000
0.905150 0.692500 0.000000
0.931212 0.680079 0.000000
0.955779 0.667720 0.000000
0.978943 0.655238 0.000000
1.000000 0.642481 0.000000
1.000000 0.629694 0.000000
1.000000 0.616693 0.000000
1.000000 0.603662 0.000000
1.000000 0.590906 0.000000
0.000000 0.739101 0.000000
0.000000 0.739864 0.000000
0.000000 0.740597 0.000000
0.000000 0.741543 0.000000
0.000000 0.742245 0.000000
0.000000 0.742306 0.000000
0.083742 0.742031 0.000000
0.175113 0.741299 0.000000
0.236790 0.740108 0.000000
0.290227 0.738155 0.000000
0.338933 0.735805 0.000000
0.384161 0.732387 0.000000
0.427497 0.728481 0.000000
0.470344 0.726619 0.000000
0.517357 0.731228 0.000000
0.562982 0.734310 0.000000
0.608576 0.737423 0.000000
0.654170 0.740444 0.000000
0.699916 0.743130 0.000000
0.744594 0.744656 0.000000
0.789151 0.745907 0.000000
0.831327 0.745052 0.000000
0.866209 0.737728 0.000000
0.894957 0.726253 0.000000
0.922362 0.714595 0.000000
0.947784 0.702358 0.000000
0.971466 0.689723 0.000000
0.993500 0.676844 0.000000
1.000000 0.663722 0.000000
1.000000 0.650599 0.000000
1.000000 0.637598 0.000000
1.000000 0.624628 0.000000
0.000000 0.769711 0.000000
0.000000 0.770291 0.000000
0.000000 0.770901 0.000000
0.000000 0.771572 0.000000
0.000000 0.771847 0.000000
0.000000 0.771817 0.000000
0.000000 0.771359 0.000000
0.153902 0.770321 0.000000
0.221683 0.768734 0.000000
0.277073 0.766720 0.000000
0.326818 0.764309 0.000000
0.372930 0.761379 0.000000
0.416632 0.758053 0.000000
0.458747 0.754330 0.000000
0.502586 0.755123 0.000000
0.547601 0.758389 0.000000
0.592828 0.761532 0.000000
0.637751 0.764614 0.000000
0.682795 0.767514 0.000000
0.727474 0.770016 0.000000
0.772122 0.772213 0.000000
0.816739 0.774197 0.000000
0.859678 0.774319 0.000000
0.893828 0.766903 0.000000
0.921996 0.755184 0.000000
0.947997 0.742824 0.000000
0.972045 0.729763 0.000000
0.994324 0.716335 0.000000
1.000000 0.702571 0.000000
1.000000 0.689204 0.000000
1.000000 0.675654 0.000000
1.000000 0.662013 0.000000
0.000000 0.810178 0.000000
0.000000 0.811063 0.000000
0.000000 0.811917 0.000000
0.000000 0.812039 0.000000
0.000000 0.811948 0.000000
0.000000 0.811307 0.000000
0.000000 0.810391 0.000000
0.131685 0.808286 0.000000
0.207858 0.805692 0.000000
0.265965 0.802762 0.000000
0.316564 0.799619 0.000000
0.363958 0.795499 0.000000
0.407996 0.791165 0.000000
0.449866 0.786557 0.000000
0.490181 0.781460 0.000000
0.533837 0.782986 0.000000
0.577295 0.784878 0.000000
0.620630 0.786679 0.000000
0.663630 0.788327 0.000000
0.707149 0.790341 0.000000
0.750759 0.792599 0.000000
0.794553 0.794644 0.000000
0.837980 0.796262 0.000000
0.878965 0.795499 0.000000
0.911681 0.787564 0.000000
0.938231 0.775235 0.000000
0.962799 0.762203 0.000000
0.985870 0.749020 0.000000
1.000000 0.735927 0.000000
1.000000 0.722377 0.000000
1.000000 0.708553 0.000000
1.000000 0.694667 0.000000
0.000000 0.835752 0.000000
0.000000 0.836576 0.000000
0.000000 0.837369 0.000000
0.000000 0.837400 0.000000
0.000000 0.837156 0.000000
0.000000 0.836576 0.000000
0.000000 0.835691 0.000000
0.099153 0.833463 0.000000
0.188388 0.830900 0.000000
0.250217 0.828000 0.000000
0.302953 0.824704 0.000000
0.350378 0.820829 0.000000
0.394995 0.816556 0.000000
0.437446 0.811887 0.000000
0.477913 0.806973 0.000000
0.517937 0.803525 0.000000
0.560449 0.804990 0.000000
0.602899 0.806424 0.000000
0.645563 0.808347 0.000000
0.688472 0.810727 0.000000
0.731075 0.812741 0.000000
0.773404 0.814389 0.000000
0.815396 0.815610 0.000000
0.857206 0.816251 0.000000
0.888243 0.807279 0.000000
0.920287 0.799924 0.000000
0.947417 0.788937 0.000000
0.972442 0.777066 0.000000
0.995483 0.764584 0.000000
1.000000 0.751980 0.000000
1.000000 0.738827 0.000000
1.000000 0.725521 0.000000
0.000000 0.860472 0.000000
0.000000 0.861418 0.000000
0.000000 0.862333 0.000000
0.000000 0.863005 0.000000
0.000000 0.863310 0.000000
0.000000 0.861875 0.000000
0.000000 0.860136 0.000000
0.032441 0.858061 0.000000
0.167422 0.855741 0.000000
0.233494 0.852201 0.000000
0.287846 0.848386 0.000000
0.336309 0.844327 0.000000
0.381689 0.839933 0.000000
0.423835 0.835019 0.000000
0.464393 0.829892 0.000000
0.503410 0.824826 0.000000
0.543725 0.823331 0.000000
0.585260 0.824582 0.000000
0.626429 0.825742 0.000000
0.667201 0.826658 0.000000
0.707881 0.827390 0.000000
0.748501 0.828214 0.000000
0.788754 0.828611 0.000000
0.828458 0.828489 0.000000
0.868070 0.828428 0.000000
0.907622 0.828153 0.000000
0.938415 0.820218 0.000000
0.963928 0.808530 0.000000
0.986877 0.795529 0.000000
1.000000 0.782895 0.000000
1.000000 0.770321 0.000000
1.000000 0.757351 0.000000
0.000000 0.881743 0.000000
0.000000 0.882811 0.000000
0.000000 0.883757 0.000000
0.000000 0.884428 0.000000
0.000000 0.884764 0.000000
0.000000 0.883665 0.000000
0.000000 0.882200 0.000000
0.000000 0.880491 0.000000
0.141512 0.878538 0.000000
0.215457 0.875303 0.000000
0.272343 0.871977 0.000000
0.322759 0.868437 0.000000
0.369055 0.864622 0.000000
0.411872 0.860349 0.000000
0.452888 0.855833 0.000000
0.492317 0.850980 0.000000
0.530205 0.845914 0.000000
0.570977 0.846311 0.000000
0.611322 0.846952 0.000000
0.651392 0.847471 0.000000
0.691066 0.847745 0.000000
0.730648 0.848081 0.000000
0.770413 0.848692 0.000000
0.809751 0.848905 0.000000
0.848508 0.848631 0.000000
0.887175 0.848142 0.000000
0.924987 0.847166 0.000000
0.953918 0.838193 0.000000
0.978637 0.826383 0.000000
1.000000 0.814725 0.000000
1.000000 0.802243 0.000000
1.000000 0.788998 0.000000
0.000000 0.903655 0.000000
0.000000 0.904448 0.000000
0.000000 0.905119 0.000000
0.000000 0.905577 0.000000
0.000000 0.905791 0.000000
0.000000 0.904723 0.000000
0.000000 0.903410 0.000000
0.000000 0.901823 0.000000
0.110597 0.900023 0.000000
0.195560 0.897093 0.000000
0.256413 0.893889 0.000000
0.308019 0.890532 0.000000
0.354955 0.886870 0.000000
0.398840 0.882750 0.000000
0.440101 0.878447 0.000000
0.479469 0.873930 0.000000
0.517754 0.869078 0.000000
0.555657 0.865599 0.000000
0.595483 0.865843 0.000000
0.634852 0.866270 0.000000
0.674311 0.866789 0.000000
0.713436 0.867247 0.000000
0.752041 0.867277 0.000000
0.790036 0.866880 0.000000
0.827512 0.865904 0.000000
0.864744 0.864866 0.000000
0.901640 0.863462 0.000000
0.938872 0.862608 0.000000
0.967895 0.854582 0.000000
0.993622 0.844083 0.000000
1.000000 0.831693 0.000000
1.000000 0.818631 0.000000
0.000000 0.924407 0.000000
0.000000 0.925200 0.000000
0.000000 0.925963 0.000000
0.000000 0.926452 0.000000
0.000000 0.926787 0.000000
0.000000 0.926452 0.000000
0.000000 0.925933 0.000000
0.000000 0.925170 0.000000
0.059419 0.924224 0.000000
0.174289 0.922759 0.000000
0.240818 0.920958 0.000000
0.295109 0.919036 0.000000
0.343999 0.916747 0.000000
0.389258 0.913512 0.000000
0.431586 0.910033 0.000000
0.472297 0.906218 0.000000
0.511803 0.902586 0.000000
0.549950 0.899046 0.000000
0.588891 0.897826 0.000000
0.628595 0.898222 0.000000
0.667659 0.898314 0.000000
0.706630 0.898589 0.000000
0.745052 0.898314 0.000000
0.782742 0.897520 0.000000
0.820005 0.896330 0.000000
0.857877 0.896117 0.000000
0.895232 0.895323 0.000000
0.931945 0.893950 0.000000
0.967620 0.891905 0.000000
0.996307 0.883604 0.000000
1.000000 0.872801 0.000000
1.000000 0.859983 0.000000
0.000000 0.955200 0.000000
0.000000 0.954925 0.000000
0.000000 0.954559 0.000000
0.000000 0.954101 0.000000
0.000000 0.953429 0.000000
0.000000 0.951995 0.000000
0.000000 0.950439 0.000000
0.000000 0.948699 0.000000
0.000000 0.946715 0.000000
0.148775 0.944640 0.000000
0.222141 0.942199 0.000000
0.279057 0.939696 0.000000
0.328985 0.937133 0.000000
0.374884 0.934356 0.000000
0.418097 0.931243 0.000000
