nova/tdt-studio/app/Lut_mau/luts/lut3.cube
# Created by Adobe Lightroom plugin Export LUT (1.22.0)
# www.johnrellis.com/lightroom/exportlut.htm
# Photo: Portraits (2 of 3).jpg
# Color profile: /Library/Application Support/Adobe/Color/Profiles/Recommended/AdobeRGB1998.icc
LUT_3D_SIZE 5
DOMAIN_MIN 0.000000 0.000000 0.000000
DOMAIN_MAX 0.903226 0.903226 0.903226
0.000000 0.000000 0.000000
0.233494 0.000000 0.000000
0.682307 0.000000 0.000000
0.926726 0.000000 0.000000
1.000000 0.000000 0.000000
0.000000 0.212558 0.000000
0.207828 0.209659 0.000000
0.611719 0.282536 0.000000
0.900694 0.255772 0.000000
1.000000 0.192874 0.000000
0.000000 0.557092 0.000000
0.223423 0.522332 0.000000
0.567346 0.567376 0.000000
0.882628 0.567071 0.000000
1.000000 0.487068 0.000000
0.000000 0.810178 0.000000
0.131685 0.808286 0.000000
0.490181 0.781460 0.000000
0.794553 0.794644 0.000000
1.000000 0.735927 0.000000
0.000000 0.972808 0.000000
0.000000 0.967285 0.000000
0.403510 0.949554 0.000000
0.674311 0.935027 0.000000
0.927581 0.927642 0.000000
0.000000 0.000000 0.228214
0.224857 0.000000 0.224582
0.649653 0.000000 0.246494
0.911467 0.000000 0.159518
1.000000 0.000000 0.095888
0.000000 0.212924 0.212711
0.203586 0.203586 0.203586
0.619379 0.170871 0.170932
0.895140 0.116976 0.117250
1.000000 0.000000 0.000000
0.000000 0.558068 0.197543
0.000000 0.546288 0.000000
0.553063 0.553124 0.000000
0.866819 0.529931 0.000000
1.000000 0.454170 0.000000
0.000000 0.808347 0.000000
0.000000 0.805997 0.000000
0.454444 0.776577 0.000000
0.783841 0.783963 0.000000
1.000000 0.719020 0.000000
0.000000 0.972351 0.000000
0.000000 0.968109 0.000000
0.358038 0.952056 0.000000
0.658381 0.932799 0.000000
0.924285 0.924346 0.000000
0.000000 0.000000 0.622095
0.282383 0.000000 0.625727
0.619043 0.000000 0.618891
0.878355 0.000000 0.540307
1.000000 0.000000 0.484932
0.000000 0.202396 0.609857
0.132082 0.132265 0.607935
0.599786 0.000000 0.599756
0.872465 0.000000 0.527947
1.000000 0.261295 0.517082
0.000000 0.559289 0.559350
0.000000 0.550134 0.549981
0.541161 0.541161 0.541161
0.846708 0.546502 0.546563
1.000000 0.520928 0.521019
0.000000 0.825589 0.486336
0.000000 0.824277 0.462989
0.379339 0.804379 0.379431
0.787320 0.787381 0.360357
1.000000 0.707332 0.367254
0.000000 0.978119 0.350195
0.000000 0.976959 0.310094
0.124331 0.967193 0.125612
0.607019 0.938811 0.000000
0.926818 0.926879 0.000000
0.000000 0.000000 0.852232
0.228794 0.000000 0.853605
0.542596 0.000000 0.856474
0.842924 0.000000 0.842893
1.000000 0.000000 0.731899
0.000000 0.091585 0.841733
0.000000 0.000000 0.839902
0.510582 0.000000 0.840757
0.834684 0.000000 0.834623
1.000000 0.000000 0.730556
0.000000 0.465705 0.798489
0.000000 0.440101 0.793759
0.440162 0.439765 0.811490
0.815763 0.476631 0.815732
0.994018 0.511192 0.750790
0.000000 0.791287 0.791348
0.000000 0.791104 0.791226
0.395819 0.783536 0.783627
0.774563 0.774502 0.774533
0.965454 0.773831 0.773892
0.000000 0.983703 0.684871
0.000000 0.981689 0.676356
0.181155 0.970214 0.650904
0.619043 0.943389 0.619043
0.922240 0.922271 0.589899
0.000000 0.000000 0.996033
0.162478 0.000000 0.995727
0.456001 0.000000 0.993683
0.720516 0.000000 0.989776
0.979065 0.000000 0.978973
0.000000 0.000000 0.992401
0.000000 0.000000 0.990204
0.428290 0.000000 0.985840
0.712642 0.000000 0.985443
0.977844 0.000000 0.977691
0.000000 0.374060 0.977844
0.000000 0.359045 0.975341
0.370947 0.370642 0.976471
0.708034 0.418402 0.975830
0.968719 0.433234 0.968627
0.000000 0.667628 0.960296
0.000000 0.660975 0.959808
0.185092 0.640314 0.953246
0.691829 0.691676 0.950988
0.947570 0.720089 0.947509
0.000000 0.940612 0.940581
0.000000 0.939086 0.939086
0.000000 0.933898 0.933928
0.642206 0.924529 0.924559
0.914031 0.914000 0.914031
