nova/tdt-studio/app/Lut_mau/luts/lut4.cube
# Created by Adobe Lightroom plugin Export LUT (1.22.0)
# www.johnrellis.com/lightroom/exportlut.htm
# Photo: Portraits (2 of 3).jpg
# Color profile: /Library/Application Support/Adobe/Color/Profiles/Recommended/AdobeRGB1998.icc
LUT_3D_SIZE 8
DOMAIN_MIN 0.000000 0.000000 0.000000
DOMAIN_MAX 0.903226 0.903226 0.903226
0.000000 0.000000 0.000000
0.090639 0.000000 0.000885
0.288090 0.000000 0.000000
0.553368 0.000000 0.000000
0.781247 0.000000 0.000000
0.911711 0.000000 0.000000
1.000000 0.000000 0.000000
1.000000 0.000000 0.000000
0.000000 0.086091 0.000000
0.085573 0.090089 0.000000
0.278050 0.102419 0.000000
0.540917 0.116426 0.000000
0.772671 0.125673 0.000000
0.906615 0.083406 0.000000
1.000000 0.000000 0.000000
1.000000 0.000000 0.000000
0.000000 0.261112 0.000000
0.088380 0.253819 0.000000
0.257572 0.258579 0.000000
0.500237 0.320439 0.000000
0.740475 0.344976 0.000000
0.890501 0.319982 0.000000
0.996429 0.284642 0.000000
1.000000 0.246128 0.000000
0.000000 0.463355 0.000000
0.072480 0.452430 0.000000
0.276738 0.440803 0.000000
0.486580 0.486702 0.000000
0.734096 0.536217 0.000000
0.888365 0.508598 0.000000
0.992187 0.463905 0.000000
1.000000 0.416815 0.000000
0.000000 0.676814 0.000000
0.000000 0.668605 0.000000
0.280735 0.656519 0.000000
0.476326 0.659419 0.000000
0.688014 0.688106 0.000000
0.864164 0.677333 0.000000
0.975525 0.627100 0.000000
1.000000 0.571740 0.000000
0.000000 0.809354 0.000000
0.000000 0.809201 0.000000
0.232853 0.804166 0.000000
0.436042 0.793179 0.000000
0.620264 0.796872 0.000000
0.807980 0.808072 0.000000
0.956023 0.783352 0.000000
1.000000 0.721218 0.000000
0.000000 0.918822 0.000000
0.000000 0.919402 0.000000
0.150271 0.914183 0.000000
0.386206 0.903868 0.000000
0.557977 0.889647 0.000000
0.727932 0.892729 0.000000
0.893492 0.893553 0.000000
1.000000 0.862272 0.000000
0.000000 1.000000 0.000000
0.000000 1.000000 0.000000
0.000000 1.000000 0.000000
0.327062 0.994079 0.000000
0.506157 0.984192 0.000000
0.664881 0.976349 0.000000
0.818296 0.972473 0.000000
0.965301 0.965362 0.000000
0.000000 0.000000 0.094942
0.090700 0.000000 0.091676
0.269657 0.000000 0.101686
0.528038 0.000000 0.027985
0.762753 0.000000 0.000000
0.901152 0.000000 0.000000
0.998779 0.000000 0.000000
1.000000 0.000000 0.000000
0.000000 0.084016 0.085878
0.084504 0.084504 0.084504
0.266941 0.074342 0.073335
0.521477 0.000000 0.000000
0.758999 0.000000 0.000000
0.898558 0.000000 0.000000
0.997162 0.000000 0.000000
1.000000 0.000000 0.000000
0.000000 0.251682 0.089631
0.002899 0.254002 0.003479
0.255863 0.255894 0.000000
0.501122 0.303655 0.000000
0.738918 0.317845 0.000000
0.887755 0.291356 0.000000
0.991485 0.257298 0.000000
1.000000 0.220279 0.000000
0.000000 0.466987 0.000000
0.000000 0.464302 0.000000
0.264958 0.452033 0.000000
0.482948 0.482948 0.000000
0.725185 0.520134 0.000000
0.878874 0.490944 0.000000
0.985779 0.448493 0.000000
1.000000 0.403723 0.000000
0.000000 0.676143 0.000000
0.000000 0.672541 0.000000
0.251499 0.661402 0.000000
0.463142 0.654261 0.000000
0.678614 0.678737 0.000000
0.857511 0.666987 0.000000
0.970825 0.617395 0.000000
1.000000 0.563104 0.000000
0.000000 0.810666 0.000000
0.000000 0.809506 0.000000
0.190463 0.802884 0.000000
0.421302 0.790768 0.000000
0.611963 0.792721 0.000000
0.804501 0.804593 0.000000
0.953704 0.778531 0.000000
1.000000 0.715785 0.000000
0.000000 0.920500 0.000000
0.000000 0.920317 0.000000
0.067903 0.915312 0.000000
0.370764 0.905303 0.000000
0.551354 0.891173 0.000000
0.725460 0.893523 0.000000
0.894530 0.894591 0.000000
1.000000 0.861631 0.000000
0.000000 1.000000 0.000000
0.000000 1.000000 0.000000
0.000000 1.000000 0.000000
0.308324 0.994568 0.000000
0.497597 0.985443 0.000000
0.660151 0.976684 0.000000
0.816190 0.972473 0.000000
0.965087 0.965179 0.000000
0.000000 0.000000 0.279820
0.114260 0.000000 0.280095
0.277287 0.000000 0.277256
0.519097 0.000000 0.312657
0.757961 0.000000 0.294621
0.900969 0.000000 0.251469
0.997436 0.000000 0.235935
1.000000 0.000000 0.218814
0.000000 0.089906 0.266697
0.063508 0.062593 0.273716
0.273045 0.000000 0.273228
0.516594 0.000000 0.294713
0.756802 0.000000 0.272770
0.897887 0.000000 0.244114
0.995453 0.000000 0.228641
1.000000 0.000000 0.210910
0.000000 0.261997 0.261814
0.000000 0.261143 0.261479
0.251041 0.251041 0.251041
0.503807 0.244663 0.244511
0.740627 0.228672 0.228550
0.887114 0.215915 0.215885
0.990204 0.205264 0.205142
1.000000 0.189151 0.188846
0.000000 0.477302 0.278874
0.000000 0.477302 0.260807
0.172976 0.477455 0.172885
0.484993 0.485206 0.155245
0.728939 0.493629 0.166995
0.878996 0.461006 0.168673
0.984741 0.424262 0.162051
1.000000 0.386053 0.141573
0.000000 0.681727 0.241947
0.000000 0.682612 0.209689
0.000000 0.680262 0.000000
0.427863 0.659236 0.000000
0.679500 0.679622 0.000000
0.859281 0.653559 0.000000
0.970367 0.601709 0.000000
1.000000 0.548028 0.000000
0.000000 0.816342 0.137514
0.000000 0.817899 0.050507
0.000000 0.814603 0.000000
0.375006 0.800778 0.000000
0.594385 0.793729 0.000000
0.804227 0.804349 0.000000
0.954498 0.770962 0.000000
1.000000 0.705440 0.000000
0.000000 0.925200 0.000000
0.000000 0.925963 0.000000
0.000000 0.921660 0.000000
0.313512 0.911070 0.000000
0.527367 0.896086 0.000000
0.715694 0.894408 0.000000
0.894957 0.895018 0.000000
1.000000 0.856992 0.000000
0.000000 1.000000 0.000000
0.000000 1.000000 0.000000
0.000000 1.000000 0.000000
0.234592 0.999115 0.000000
0.466529 0.989288 0.000000
0.643702 0.978485 0.000000
0.810117 0.973846 0.000000
0.965637 0.965728 0.000000
0.000000 0.000000 0.513054
0.134554 0.000000 0.518791
0.333501 0.000000 0.529747
0.528923 0.000000 0.528862
0.735195 0.000000 0.519585
0.884794 0.000000 0.476875
0.987823 0.000000 0.451087
1.000000 0.171481 0.472114
0.000000 0.000000 0.506798
0.000000 0.000000 0.514916
0.312993 0.000000 0.526146
0.524987 0.000000 0.525109
0.733272 0.000000 0.510979
0.883177 0.000000 0.472084
0.984802 0.000000 0.455543
1.000000 0.259648 0.485481
0.000000 0.280766 0.487617
0.000000 0.261845 0.487587
0.211154 0.210361 0.502647
0.508537 0.178286 0.508690
0.722774 0.127016 0.483772
0.874327 0.216373 0.471595
0.974456 0.344640 0.497841
1.000000 0.375982 0.495186
0.000000 0.485695 0.485878
0.000000 0.483558 0.483589
0.107912 0.483314 0.483253
0.476905 0.476905 0.476905
0.715663 0.487495 0.487617
0.864714 0.492042 0.491920
0.970001 0.489876 0.490028
1.000000 0.473548 0.473732
0.000000 0.700557 0.483528
0.000000 0.699458 0.475135
0.000000 0.696651 0.445441
0.388586 0.685115 0.388861
0.679835 0.680018 0.386725
0.850401 0.649897 0.430213
0.959564 0.618402 0.438819
1.000000 0.579217 0.419989
0.000000 0.824277 0.415259
0.000000 0.825315 0.405951
0.000000 0.824277 0.369146
0.312322 0.815824 0.312261
0.566278 0.794980 0.259709
0.804593 0.804593 0.306859
0.950011 0.765194 0.338842
1.000000 0.708553 0.344396
0.000000 0.928008 0.343084
0.000000 0.928954 0.332067
0.000000 0.927062 0.290471
0.227909 0.919066 0.228275
0.492073 0.903258 0.163027
0.699672 0.893828 0.129274
0.893919 0.894011 0.185214
1.000000 0.850309 0.203403
0.000000 1.000000 0.250523
0.000000 1.000000 0.234409
0.000000 1.000000 0.168307
0.000000 1.000000 0.000000
0.415747 0.992645 0.000000
0.614984 0.979797 0.000000
0.798337 0.973205 0.000000
0.964630 0.964691 0.000000
0.000000 0.000000 0.709224
0.107088 0.000000 0.710689
0.323827 0.000000 0.715938
0.525292 0.000000 0.728573
0.721096 0.000000 0.721035
0.861479 0.000000 0.664546
0.970214 0.000000 0.611719
1.000000 0.000000 0.586114
0.000000 0.000000 0.699794
0.000000 0.000000 0.704219
0.296971 0.000000 0.711055
0.512810 0.000000 0.722316
0.716426 0.000000 0.716426
0.859007 0.000000 0.659907
0.968170 0.000000 0.610925
1.000000 0.101015 0.591363
0.000000 0.232059 0.688167
0.000000 0.202579 0.691737
0.171298 0.170809 0.697444
0.475715 0.131441 0.709468
0.706600 0.000000 0.706508
0.852171 0.000000 0.649805
0.962524 0.239811 0.621820
1.000000 0.387182 0.626276
0.000000 0.460548 0.671443
0.000000 0.451637 0.669642
0.000000 0.423957 0.670008
0.418463 0.418372 0.688746
0.697322 0.442420 0.697353
0.842405 0.473213 0.661067
0.949310 0.540673 0.669856
1.000000 0.596002 0.687007
0.000000 0.673152 0.673152
0.000000 0.673243 0.673243
0.000000 0.673121 0.673274
0.401099 0.673121 0.673213
0.668940 0.668940 0.668940
0.825254 0.679744 0.679744
0.935302 0.684291 0.684352
1.000000 0.677028 0.677089
0.000000 0.837858 0.635309
0.000000 0.838132 0.632990
0.000000 0.834806 0.623499
0.368658 0.823972 0.613672
0.599634 0.805722 0.599603
0.802518 0.802518 0.603784
0.930022 0.783413 0.639368
1.000000 0.757382 0.638239
0.000000 0.934874 0.559228
0.000000 0.935241 0.556237
0.000000 0.932341 0.544915
0.276219 0.923491 0.533227
0.520287 0.908415 0.520348
0.689845 0.890715 0.458534
0.893278 0.893278 0.520226
1.000000 0.854582 0.539239
0.000000 1.000000 0.481270
0.000000 1.000000 0.476387
0.000000 1.000000 0.461158
0.048493 1.000000 0.440681
0.422827 0.994629 0.423041
0.601648 0.983429 0.354528
0.789761 0.972534 0.335149
0.963867 0.963928 0.383124
0.000000 0.000000 0.835508
0.003388 0.000000 0.837613
0.290196 0.000000 0.840574
0.475349 0.000000 0.845762
0.663355 0.000000 0.852171
0.842527 0.000000 0.842435
0.954650 0.000000 0.778012
1.000000 0.000000 0.717311
0.000000 0.000000 0.828580
0.000000 0.000000 0.831693
0.262760 0.000000 0.834745
0.461982 0.000000 0.839628
0.656245 0.000000 0.847105
0.838560 0.000000 0.838590
0.951904 0.000000 0.775143
1.000000 0.000000 0.717342
0.000000 0.169192 0.825162
0.000000 0.162936 0.825223
0.141634 0.140841 0.827115
0.422339 0.089448 0.828061
0.639612 0.011170 0.837369
0.832151 0.000000 0.831937
0.947051 0.089143 0.772702
1.000000 0.257328 0.727932
0.000000 0.396277 0.797635
0.000000 0.386877 0.797635
0.000000 0.365515 0.805539
0.374395 0.374365 0.817258
0.631037 0.412360 0.828672
0.826688 0.430060 0.826627
0.936736 0.457435 0.778103
1.000000 0.519493 0.756466
0.000000 0.600031 0.795560
0.000000 0.596765 0.795468
0.000000 0.587274 0.794919
0.315740 0.579522 0.793606
0.616266 0.616144 0.803983
0.811063 0.642725 0.811032
0.919707 0.656245 0.785367
0.999664 0.696498 0.789487
0.000000 0.794186 0.794278
0.000000 0.795743 0.795773
0.000000 0.796017 0.796017
0.351781 0.795285 0.795285
0.612238 0.793973 0.793912
0.793393 0.793332 0.793362
0.910613 0.805722 0.805783
0.989715 0.807065 0.807095
0.000000 0.935363 0.751919
0.000000 0.936126 0.752438
0.000000 0.933440 0.751339
0.365148 0.923278 0.749691
0.581048 0.908202 0.746517
0.733028 0.890837 0.733089
0.888212 0.888212 0.738216
0.985687 0.870848 0.761135
0.000000 1.000000 0.670924
0.000000 1.000000 0.669306
0.000000 1.000000 0.665095
0.219181 1.000000 0.663447
0.496803 0.990906 0.670253
0.668635 0.977630 0.668696
0.795529 0.965728 0.613733
0.960906 0.960906 0.666499
0.000000 0.000000 0.929503
0.000000 0.000000 0.930358
0.252842 0.000000 0.930907
0.427283 0.000000 0.933104
0.596338 0.000000 0.935851
0.766171 0.000000 0.936645
0.930144 0.000000 0.930022
1.000000 0.000000 0.866117
0.000000 0.000000 0.925780
0.000000 0.000000 0.927214
0.227115 0.000000 0.928283
0.416144 0.000000 0.930571
0.590692 0.000000 0.933379
0.763790 0.000000 0.934966
0.928435 0.000000 0.928405
1.000000 0.000000 0.864958
0.000000 0.139620 0.924407
0.000000 0.134279 0.924590
0.113680 0.111696 0.924468
0.382788 0.061860 0.925109
0.576562 0.000000 0.927733
0.759365 0.081880 0.930785
0.925780 0.060121 0.925658
1.000000 0.188113 0.865354
0.000000 0.344213 0.911254
0.000000 0.337591 0.910857
0.000000 0.332006 0.913146
0.344396 0.343908 0.916960
0.570764 0.372595 0.921233
0.764981 0.432685 0.925841
0.920500 0.439368 0.920409
1.000000 0.460517 0.868620
0.000000 0.533776 0.898466
0.000000 0.529747 0.897856
0.000000 0.517449 0.896361
0.289586 0.526604 0.899962
0.571221 0.571069 0.905547
0.764279 0.617853 0.911833
0.909758 0.629969 0.909697
0.994354 0.635431 0.870024
0.000000 0.714931 0.893950
0.000000 0.714351 0.894499
0.000000 0.711177 0.893767
0.261173 0.709895 0.891508
0.533196 0.715145 0.886900
0.752224 0.752163 0.893462
0.900114 0.777218 0.900114
0.981537 0.783749 0.879393
0.000000 0.891447 0.891447
0.000000 0.892149 0.892241
0.000000 0.891447 0.891478
0.303807 0.888975 0.888914
0.562768 0.885588 0.885618
0.744839 0.883116 0.883146
0.883207 0.883177 0.883177
0.971160 0.893492 0.893492
0.000000 1.000000 0.843870
0.000000 1.000000 0.843442
0.000000 1.000000 0.841978
0.331640 0.998688 0.843503
0.568444 0.987121 0.847227
0.721645 0.974609 0.846830
0.835782 0.961151 0.835843
0.957214 0.957214 0.841245
0.000000 0.000000 1.000000
0.000000 0.000000 1.000000
0.216648 0.000000 1.000000
0.384375 0.000000 1.000000
0.539574 0.000000 1.000000
0.694087 0.000000 1.000000
0.846342 0.000000 0.999603
0.995148 0.000000 0.995026
0.000000 0.000000 1.000000
0.000000 0.000000 1.000000
0.192813 0.000000 1.000000
0.374640 0.000000 1.000000
0.534874 0.000000 1.000000
0.692317 0.000000 1.000000
0.845914 0.000000 0.998901
0.994171 0.000000 0.994079
0.000000 0.113222 1.000000
0.000000 0.107210 1.000000
0.083894 0.081941 0.999207
0.347082 0.000000 0.998779
0.523766 0.000000 0.998444
0.689418 0.060639 0.998260
0.846342 0.150332 0.996796
0.992187 0.165621 0.992187
0.000000 0.311040 0.994354
0.000000 0.309880 0.993774
0.000000 0.312047 0.993866
0.322332 0.321904 0.994507
0.522637 0.342809 0.994507
0.697200 0.385809 0.993866
0.852171 0.437324 0.991913
0.987457 0.440375 0.987396
0.000000 0.480049 0.986358
0.000000 0.478798 0.986419
0.000000 0.480018 0.986481
0.327092 0.511345 0.986145
0.537591 0.537346 0.985779
0.709834 0.573816 0.984802
0.859037 0.621454 0.983978
0.980011 0.620325 0.979980
0.000000 0.647059 0.979553
0.000000 0.646326 0.979828
0.000000 0.642817 0.979126
0.184909 0.641810 0.977050
0.508171 0.669306 0.974640
0.716915 0.716793 0.974487
0.862852 0.755276 0.975463
0.973053 0.763180 0.972961
0.000000 0.810452 0.974487
0.000000 0.810483 0.974670
0.000000 0.809293 0.973663
0.206210 0.809781 0.971008
0.491493 0.814206 0.966674
0.676905 0.819638 0.961364
0.848478 0.848417 0.961395
0.964050 0.870237 0.964019
0.000000 0.966857 0.966857
0.000000 0.966583 0.966613
0.000000 0.965667 0.965698
0.232700 0.963867 0.963867
0.519219 0.961181 0.961212
0.704280 0.958129 0.958160
0.846586 0.955047 0.955077
0.954833 0.954803 0.954833
