nova/tdt-studio/app/Lut_mau/luts/lut4.cube
# Created by Adobe Lightroom plugin Export LUT (1.22.0)
# www.johnrellis.com/lightroom/exportlut.htm
# Photo: Portraits (2 of 3).jpg
# Color profile: /Library/Application Support/Adobe/Color/Profiles/Recommended/AdobeRGB1998.icc
LUT_3D_SIZE 32
0.000000 0.000000 0.000000
0.000000 0.000000 0.000000
0.001343 0.000000 0.000000
0.038972 0.000000 0.000488
0.090639 0.000000 0.000885
0.134615 0.000000 0.000000
0.182467 0.000000 0.000000
0.233494 0.000000 0.000000
0.288090 0.000000 0.000000
0.347570 0.000000 0.000000
0.412329 0.000000 0.000000
0.481239 0.000000 0.000000
0.553368 0.000000 0.000000
0.621942 0.000000 0.000000
0.682307 0.000000 0.000000
0.735622 0.000000 0.000000
0.781247 0.000000 0.000000
0.819974 0.000000 0.000000
0.853330 0.000000 0.000000
0.883665 0.000000 0.000000
0.911711 0.000000 0.000000
0.937560 0.000000 0.000000
0.961486 0.000000 0.000000
0.983673 0.000000 0.000000
1.000000 0.000000 0.000000
1.000000 0.000000 0.000000
1.000000 0.000000 0.000000
1.000000 0.000000 0.000000
1.000000 0.000000 0.000000
1.000000 0.000000 0.000000
1.000000 0.000000 0.000000
1.000000 0.000000 0.000000
0.000000 0.000000 0.000000
0.000000 0.000000 0.000000
0.001343 0.000000 0.000000
0.041688 0.000000 0.000458
0.090639 0.000000 0.000885
0.133333 0.000000 0.000000
0.180301 0.000000 0.000000
0.231174 0.000000 0.000000
0.286412 0.000000 0.000000
0.345983 0.000000 0.000000
0.410681 0.000000 0.000000
0.479500 0.000000 0.000000
0.551873 0.000000 0.000000
0.620478 0.000000 0.000000
0.680751 0.000000 0.000000
0.734279 0.000000 0.000000
0.780026 0.000000 0.000000
0.818784 0.000000 0.000000
0.852232 0.000000 0.000000
0.882628 0.000000 0.000000
0.910765 0.000000 0.000000
0.936706 0.000000 0.000000
0.960723 0.000000 0.000000
0.982971 0.000000 0.000000
1.000000 0.000000 0.000000
1.000000 0.000000 0.000000
1.000000 0.000000 0.000000
1.000000 0.000000 0.000000
1.000000 0.000000 0.000000
1.000000 0.000000 0.000000
1.000000 0.000000 0.000000
1.000000 0.000000 0.000000
0.000000 0.001190 0.000000
0.000000 0.002411 0.000000
0.001038 0.002197 0.000000
0.043580 0.000000 0.000000
0.090333 0.000000 0.000000
0.132448 0.000000 0.000000
0.178897 0.000000 0.000000
0.229587 0.000000 0.000000
0.284794 0.000000 0.000000
0.344274 0.000000 0.000000
0.408667 0.000000 0.000000
0.477668 0.000000 0.000000
0.549676 0.000000 0.000000
0.618433 0.000000 0.000000
0.678950 0.000000 0.000000
0.732631 0.000000 0.000000
0.778531 0.000000 0.000000
0.817411 0.000000 0.000000
0.850950 0.000000 0.000000
0.881376 0.000000 0.000000
0.909636 0.000000 0.000000
0.935637 0.000000 0.000000
0.959808 0.000000 0.000000
0.982177 0.000000 0.000000
1.000000 0.000000 0.000000
1.000000 0.000000 0.000000
1.000000 0.000000 0.000000
1.000000 0.000000 0.000000
1.000000 0.000000 0.000000
1.000000 0.000000 0.000000
1.000000 0.000000 0.000000
1.000000 0.000000 0.000000
0.000000 0.043305 0.000000
0.000000 0.046906 0.000000
0.000000 0.050507 0.000000
0.038880 0.052766 0.000000
0.088930 0.048859 0.000000
0.130343 0.043732 0.000000
0.176211 0.033417 0.000000
0.226902 0.018982 0.000000
0.281926 0.000000 0.000000
0.341588 0.000000 0.000000
0.406134 0.000000 0.000000
0.474952 0.000000 0.000000
0.546715 0.000000 0.000000
0.615747 0.000000 0.000000
0.676600 0.000000 0.000000
0.730617 0.000000 0.000000
0.776852 0.000000 0.000000
0.816098 0.000000 0.000000
0.849882 0.000000 0.000000
0.880583 0.000000 0.000000
0.909056 0.000000 0.000000
0.935271 0.000000 0.000000
0.959503 0.000000 0.000000
0.981964 0.000000 0.000000
1.000000 0.000000 0.000000
1.000000 0.000000 0.000000
1.000000 0.000000 0.000000
1.000000 0.000000 0.000000
1.000000 0.000000 0.000000
1.000000 0.000000 0.000000
1.000000 0.000000 0.000000
1.000000 0.000000 0.000000
0.000000 0.086091 0.000000
0.000000 0.087343 0.000000
0.000000 0.089265 0.000000
0.024506 0.089723 0.000000
0.085573 0.090089 0.000000
0.126833 0.092561 0.000000
0.173190 0.096803 0.000000
0.223239 0.099794 0.000000
0.278050 0.102419 0.000000
0.337102 0.105287 0.000000
0.401251 0.107607 0.000000
0.469917 0.111635 0.000000
0.540917 0.116426 0.000000
0.610193 0.120668 0.000000
0.671534 0.122805 0.000000
0.725765 0.124880 0.000000
0.772671 0.125673 0.000000
0.812284 0.124788 0.000000
0.846647 0.112734 0.000000
0.877806 0.100130 0.000000
0.906615 0.083406 0.000000
0.933135 0.065064 0.000000
0.957671 0.014405 0.000000
0.980346 0.000000 0.000000
1.000000 0.000000 0.000000
1.000000 0.000000 0.000000
1.000000 0.000000 0.000000
1.000000 0.000000 0.000000
1.000000 0.000000 0.000000
1.000000 0.000000 0.000000
1.000000 0.000000 0.000000
1.000000 0.000000 0.000000
0.000000 0.123384 0.000000
0.000000 0.124666 0.000000
0.000000 0.126497 0.000000
0.007141 0.127199 0.000000
0.084230 0.126894 0.000000
0.124483 0.127993 0.000000
0.168429 0.134066 0.000000
0.219120 0.142672 0.000000
0.274479 0.150851 0.000000
0.333593 0.158694 0.000000
0.397467 0.166903 0.000000
0.465492 0.175387 0.000000
0.536065 0.184054 0.000000
0.605402 0.190524 0.000000
0.666896 0.194461 0.000000
0.721798 0.196628 0.000000
0.769009 0.196963 0.000000
0.809628 0.190524 0.000000
0.844755 0.181979 0.000000
0.876738 0.173007 0.000000
0.906279 0.163088 0.000000
0.934264 0.151888 0.000000
0.961334 0.141970 0.000000
0.984100 0.130037 0.000000
1.000000 0.116487 0.000000
1.000000 0.101534 0.000000
1.000000 0.086488 0.000000
1.000000 0.066987 0.000000
1.000000 0.019867 0.000000
1.000000 0.000000 0.000000
1.000000 0.000000 0.000000
1.000000 0.000000 0.000000
0.000000 0.167391 0.000000
0.000000 0.166934 0.000000
0.000000 0.166781 0.000000
0.000000 0.165591 0.000000
0.081117 0.163333 0.000000
0.123232 0.163027 0.000000
0.162387 0.165042 0.000000
0.207095 0.172763 0.000000
0.259983 0.183963 0.000000
0.317296 0.195560 0.000000
0.377905 0.206607 0.000000
0.442542 0.217655 0.000000
0.509575 0.227939 0.000000
0.578058 0.237491 0.000000
0.640467 0.243351 0.000000
0.698451 0.247379 0.000000
0.748623 0.246708 0.000000
0.791073 0.241520 0.000000
0.827787 0.234592 0.000000
0.863615 0.227420 0.000000
0.895903 0.219333 0.000000
0.925261 0.210147 0.000000
0.951904 0.201144 0.000000
0.977111 0.191470 0.000000
0.999908 0.182223 0.000000
1.000000 0.172396 0.000000
1.000000 0.161257 0.000000
1.000000 0.150393 0.000000
1.000000 0.138430 0.000000
1.000000 0.126009 0.000000
1.000000 0.112306 0.000000
1.000000 0.095125 0.000000
0.000000 0.212558 0.000000
0.000000 0.211917 0.000000
0.000000 0.211368 0.000000
0.000000 0.209354 0.000000
0.083253 0.207095 0.000000
0.127230 0.204288 0.000000
0.168154 0.206882 0.000000
0.208377 0.210208 0.000000
0.255924 0.219883 0.000000
0.312413 0.234287 0.000000
0.373480 0.248539 0.000000
0.438636 0.263127 0.000000
0.506004 0.276371 0.000000
0.574182 0.287938 0.000000
0.636774 0.295537 0.000000
0.694820 0.298283 0.000000
0.744930 0.296757 0.000000
0.787716 0.292149 0.000000
0.824643 0.285832 0.000000
0.860838 0.278752 0.000000
0.893370 0.271122 0.000000
0.922911 0.262669 0.000000
0.949981 0.253788 0.000000
0.975250 0.244999 0.000000
0.998199 0.235508 0.000000
1.000000 0.226474 0.000000
1.000000 0.216678 0.000000
1.000000 0.206851 0.000000
1.000000 0.196872 0.000000
1.000000 0.186313 0.000000
1.000000 0.175326 0.000000
1.000000 0.163272 0.000000
0.000000 0.261112 0.000000
0.000000 0.259831 0.000000
0.000000 0.258427 0.000000
0.000000 0.256229 0.000000
0.088380 0.253819 0.000000
0.134676 0.250767 0.000000
0.174960 0.250553 0.000000
0.215915 0.254215 0.000000
0.257572 0.258579 0.000000
0.306615 0.268986 0.000000
0.367559 0.286900 0.000000
0.432471 0.303960 0.000000
0.500237 0.320439 0.000000
0.569512 0.334417 0.000000
0.632441 0.342199 0.000000
0.689998 0.345830 0.000000
0.740475 0.344976 0.000000
0.783719 0.340948 0.000000
0.821134 0.334142 0.000000
0.857633 0.327489 0.000000
0.890501 0.319982 0.000000
0.920500 0.311833 0.000000
0.947875 0.302892 0.000000
0.973297 0.293919 0.000000
0.996429 0.284642 0.000000
1.000000 0.275242 0.000000
1.000000 0.265568 0.000000
1.000000 0.255711 0.000000
1.000000 0.246128 0.000000
1.000000 0.235782 0.000000
1.000000 0.225406 0.000000
1.000000 0.214664 0.000000
0.000000 0.311650 0.000000
0.000000 0.310155 0.000000
0.000000 0.308690 0.000000
0.000000 0.306340 0.000000
0.096284 0.303838 0.000000
0.143648 0.300969 0.000000
0.183505 0.297368 0.000000
0.225101 0.300999 0.000000
0.268009 0.306310 0.000000
0.312016 0.312352 0.000000
0.363561 0.323796 0.000000
0.430243 0.345220 0.000000
0.498665 0.363836 0.000000
0.568017 0.379919 0.000000
0.631708 0.389441 0.000000
0.689998 0.394385 0.000000
0.740444 0.394415 0.000000
0.783749 0.389929 0.000000
0.821286 0.383185 0.000000
0.857725 0.376410 0.000000
0.890837 0.368475 0.000000
0.920989 0.359869 0.000000
0.948486 0.350805 0.000000
0.973693 0.341283 0.000000
0.996674 0.331762 0.000000
1.000000 0.321782 0.000000
1.000000 0.311833 0.000000
1.000000 0.301762 0.000000
1.000000 0.291539 0.000000
1.000000 0.281437 0.000000
1.000000 0.270848 0.000000
1.000000 0.260319 0.000000
0.000000 0.362646 0.000000
0.000000 0.361486 0.000000
0.000000 0.359869 0.000000
0.000000 0.357610 0.000000
0.100587 0.354864 0.000000
0.148928 0.352056 0.000000
0.190890 0.348730 0.000000
0.230930 0.347845 0.000000
0.274693 0.353246 0.000000
0.320012 0.359960 0.000000
0.367224 0.367285 0.000000
0.420691 0.378820 0.000000
0.491218 0.402167 0.000000
0.560388 0.420508 0.000000
0.624201 0.432227 0.000000
0.682979 0.438727 0.000000
0.734676 0.439612 0.000000
0.778744 0.435737 0.000000
0.816861 0.429023 0.000000
0.853666 0.422339 0.000000
0.887266 0.414435 0.000000
0.917754 0.405463 0.000000
0.945586 0.396063 0.000000
0.971008 0.386358 0.000000
0.994171 0.376287 0.000000
1.000000 0.365850 0.000000
1.000000 0.355505 0.000000
1.000000 0.345129 0.000000
1.000000 0.334447 0.000000
1.000000 0.323919 0.000000
1.000000 0.313024 0.000000
1.000000 0.302464 0.000000
0.000000 0.419196 0.000000
0.000000 0.417792 0.000000
0.000000 0.416327 0.000000
0.000000 0.413642 0.000000
0.091981 0.411139 0.000000
0.149142 0.407691 0.000000
0.195315 0.404273 0.000000
0.237095 0.400916 0.000000
0.280980 0.403601 0.000000
0.328161 0.410925 0.000000
0.377020 0.419074 0.000000
0.429084 0.429084 0.000000
0.499550 0.454017 0.000000
0.575097 0.478920 0.000000
0.638636 0.490639 0.000000
0.695613 0.495857 0.000000
0.745266 0.495247 0.000000
0.788876 0.490455 0.000000
0.826963 0.483009 0.000000
0.861723 0.474372 0.000000
0.893431 0.464485 0.000000
0.922362 0.454261 0.000000
0.948943 0.443458 0.000000
0.973297 0.432624 0.000000
0.995697 0.421637 0.000000
1.000000 0.410224 0.000000
1.000000 0.398779 0.000000
1.000000 0.387671 0.000000
1.000000 0.376501 0.000000
1.000000 0.365270 0.000000
1.000000 0.354162 0.000000
1.000000 0.342748 0.000000
0.000000 0.463355 0.000000
0.000000 0.461158 0.000000
0.000000 0.458595 0.000000
0.000000 0.455665 0.000000
0.072480 0.452430 0.000000
0.140658 0.450446 0.000000
0.191470 0.447822 0.000000
0.235416 0.444526 0.000000
0.276738 0.440803 0.000000
0.325414 0.450690 0.000000
0.376654 0.461769 0.000000
0.430152 0.473762 0.000000
0.486580 0.486702 0.000000
0.546319 0.500328 0.000000
0.620020 0.523705 0.000000
0.680720 0.533623 0.000000
0.734096 0.536217 0.000000
0.779263 0.532952 0.000000
0.819211 0.526421 0.000000
0.855467 0.518120 0.000000
0.888365 0.508598 0.000000
0.917754 0.498024 0.000000
0.944732 0.486824 0.000000
0.969451 0.475410 0.000000
0.992187 0.463905 0.000000
1.000000 0.452094 0.000000
1.000000 0.440284 0.000000
1.000000 0.428534 0.000000
1.000000 0.416815 0.000000
1.000000 0.404974 0.000000
1.000000 0.393469 0.000000
1.000000 0.381903 0.000000
0.000000 0.523186 0.000000
0.000000 0.520531 0.000000
0.000000 0.517876 0.000000
0.000000 0.514641 0.000000
0.028534 0.510704 0.000000
0.133211 0.508476 0.000000
0.190402 0.505394 0.000000
0.238743 0.501884 0.000000
0.282689 0.497841 0.000000
0.328374 0.500008 0.000000
0.380102 0.510796 0.000000
0.433417 0.522362 0.000000
0.488594 0.533806 0.000000
0.545769 0.545922 0.000000
0.604852 0.557610 0.000000
0.671778 0.574151 0.000000
0.725551 0.578210 0.000000
0.771542 0.575799 0.000000
0.812070 0.569451 0.000000
0.848783 0.561273 0.000000
0.882261 0.551537 0.000000
0.912505 0.540734 0.000000
0.940032 0.529320 0.000000
0.965148 0.517479 0.000000
0.988312 0.505486 0.000000
1.000000 0.493172 0.000000
1.000000 0.480903 0.000000
1.000000 0.468513 0.000000
1.000000 0.456367 0.000000
1.000000 0.444099 0.000000
1.000000 0.431922 0.000000
1.000000 0.419867 0.000000
0.000000 0.579187 0.000000
0.000000 0.576684 0.000000
0.000000 0.573938 0.000000
0.000000 0.570947 0.000000
0.000000 0.567102 0.000000
0.121614 0.564660 0.000000
0.186007 0.561486 0.000000
0.238621 0.557855 0.000000
0.285710 0.553765 0.000000
0.331365 0.551995 0.000000
0.379980 0.557214 0.000000
0.432349 0.567163 0.000000
0.486030 0.577173 0.000000
0.541405 0.587823 0.000000
0.598260 0.598199 0.000000
0.656458 0.608545 0.000000
0.717464 0.619837 0.000000
0.763851 0.617762 0.000000
0.804868 0.611719 0.000000
0.842100 0.603571 0.000000
0.875914 0.593744 0.000000
0.906737 0.582757 0.000000
0.934844 0.571221 0.000000
0.960815 0.559136 0.000000
0.984558 0.546563 0.000000
1.000000 0.533806 0.000000
1.000000 0.520897 0.000000
1.000000 0.508202 0.000000
1.000000 0.495399 0.000000
1.000000 0.482826 0.000000
1.000000 0.470344 0.000000
1.000000 0.457710 0.000000
0.000000 0.633143 0.000000
0.000000 0.630915 0.000000
0.000000 0.628992 0.000000
0.000000 0.626459 0.000000
0.000000 0.623438 0.000000
0.103120 0.620996 0.000000
0.178500 0.618280 0.000000
0.235996 0.615015 0.000000
0.286870 0.611017 0.000000
0.334783 0.609003 0.000000
0.380499 0.606226 0.000000
0.432471 0.614343 0.000000
0.485115 0.623316 0.000000
0.539025 0.632197 0.000000
0.593805 0.641016 0.000000
0.649592 0.649531 0.000000
0.705684 0.657313 0.000000
0.758877 0.661646 0.000000
0.800351 0.655665 0.000000
0.837461 0.646906 0.000000
0.871183 0.636561 0.000000
0.902007 0.624994 0.000000
0.930571 0.613001 0.000000
0.956695 0.600397 0.000000
0.980621 0.587396 0.000000
1.000000 0.573907 0.000000
1.000000 0.560510 0.000000
1.000000 0.547112 0.000000
1.000000 0.533867 0.000000
1.000000 0.520714 0.000000
1.000000 0.507652 0.000000
1.000000 0.494606 0.000000
0.000000 0.676814 0.000000
0.000000 0.675166 0.000000
0.000000 0.673487 0.000000
0.000000 0.671260 0.000000
0.000000 0.668605 0.000000
0.065919 0.666407 0.000000
0.164065 0.663569 0.000000
0.227634 0.660243 0.000000
0.280735 0.656519 0.000000
0.330510 0.654231 0.000000
0.377539 0.651606 0.000000
0.424537 0.651606 0.000000
0.476326 0.659419 0.000000
0.528405 0.666987 0.000000
0.581170 0.674372 0.000000
0.634302 0.681422 0.000000
0.688014 0.688106 0.000000
0.741115 0.693416 0.000000
0.790677 0.694942 0.000000
0.829740 0.687556 0.000000
0.864164 0.677333 0.000000
0.895781 0.665980 0.000000
0.924773 0.653590 0.000000
0.951263 0.640711 0.000000
0.975525 0.627100 0.000000
0.997681 0.613336 0.000000
1.000000 0.599298 0.000000
1.000000 0.585473 0.000000
1.000000 0.571740 0.000000
1.000000 0.558160 0.000000
1.000000 0.544518 0.000000
1.000000 0.530938 0.000000
0.000000 0.717891 0.000000
0.000000 0.717433 0.000000
0.000000 0.714656 0.000000
0.000000 0.714199 0.000000
0.000000 0.713252 0.000000
0.000000 0.711788 0.000000
0.147433 0.709804 0.000000
0.217807 0.708034 0.000000
0.275029 0.705898 0.000000
0.326909 0.703120 0.000000
0.375128 0.699977 0.000000
0.420996 0.695918 0.000000
0.469154 0.697780 0.000000
0.519860 0.703548 0.000000
0.570703 0.709285 0.000000
0.620966 0.713802 0.000000
0.671717 0.718318 0.000000
0.722530 0.722530 0.000000
0.773587 0.726558 0.000000
0.820340 0.726131 0.000000
0.856901 0.717556 0.000000
0.888731 0.705592 0.000000
0.917998 0.692805 0.000000
0.944579 0.679316 0.000000
0.969024 0.665583 0.000000
0.991638 0.651301 0.000000
1.000000 0.637110 0.000000
1.000000 0.622919 0.000000
1.000000 0.608759 0.000000
1.000000 0.594537 0.000000
1.000000 0.580438 0.000000
1.000000 0.566369 0.000000
0.000000 0.744015 0.000000
0.000000 0.744350 0.000000
0.000000 0.744686 0.000000
0.000000 0.745113 0.000000
0.000000 0.744900 0.000000
0.000000 0.744503 0.000000
0.122286 0.743618 0.000000
0.201938 0.742275 0.000000
0.262608 0.740475 0.000000
0.315770 0.738216 0.000000
0.365209 0.735531 0.000000
0.412177 0.731868 0.000000
0.456794 0.727871 0.000000
0.506035 0.732387 0.000000
0.555749 0.737362 0.000000
0.604791 0.741390 0.000000
0.653925 0.745388 0.000000
0.703365 0.749355 0.000000
0.753109 0.753170 0.000000
0.802274 0.756069 0.000000
0.847257 0.754788 0.000000
0.882139 0.745357 0.000000
0.911894 0.732448 0.000000
0.939055 0.718654 0.000000
0.964019 0.704341 0.000000
0.987152 0.690059 0.000000
1.000000 0.675410 0.000000
1.000000 0.660761 0.000000
1.000000 0.646113 0.000000
1.000000 0.631312 0.000000
1.000000 0.616785 0.000000
1.000000 0.602258 0.000000
0.000000 0.778073 0.000000
0.000000 0.778225 0.000000
0.000000 0.778439 0.000000
0.000000 0.778531 0.000000
0.000000 0.778286 0.000000
0.000000 0.777707 0.000000
0.088380 0.776638 0.000000
0.183688 0.775235 0.000000
0.248386 0.773404 0.000000
0.303868 0.771145 0.000000
0.354345 0.768460 0.000000
0.401587 0.765133 0.000000
0.446876 0.761410 0.000000
0.492012 0.759609 0.000000
0.540673 0.764034 0.000000
0.588495 0.767666 0.000000
0.636561 0.771298 0.000000
0.684657 0.774746 0.000000
0.732662 0.777951 0.000000
0.780423 0.780545 0.000000
0.828031 0.782773 0.000000
0.871550 0.781094 0.000000
0.904967 0.770840 0.000000
0.932647 0.756954 0.000000
0.958404 0.742733 0.000000
0.982116 0.727993 0.000000
1.000000 0.713008 0.000000
1.000000 0.698024 0.000000
1.000000 0.682795 0.000000
1.000000 0.667720 0.000000
1.000000 0.652735 0.000000
1.000000 0.637629 0.000000
0.000000 0.809354 0.000000
0.000000 0.809415 0.000000
0.000000 0.809567 0.000000
0.000000 0.809598 0.000000
0.000000 0.809201 0.000000
0.000000 0.808591 0.000000
0.000000 0.807523 0.000000
0.162478 0.806088 0.000000
0.232853 0.804166 0.000000
0.290196 0.801968 0.000000
0.341985 0.799435 0.000000
0.390295 0.796475 0.000000
0.436042 0.793179 0.000000
0.480232 0.789487 0.000000
0.525902 0.790219 0.000000
0.573205 0.793606 0.000000
0.620264 0.796872 0.000000
0.667353 0.800107 0.000000
0.714351 0.803067 0.000000
0.761227 0.805692 0.000000
0.807980 0.808072 0.000000
0.854673 0.810086 0.000000
0.897856 0.808804 0.000000
0.929808 0.797940 0.000000
0.956023 0.783352 0.000000
0.980163 0.768154 0.000000
1.000000 0.752651 0.000000
1.000000 0.736995 0.000000
1.000000 0.721218 0.000000
1.000000 0.705592 0.000000
1.000000 0.689937 0.000000
1.000000 0.674220 0.000000
0.000000 0.843595 0.000000
0.000000 0.843961 0.000000
0.000000 0.844175 0.000000
0.000000 0.844022 0.000000
0.000000 0.843473 0.000000
0.000000 0.842679 0.000000
0.000000 0.841550 0.000000
0.138827 0.839658 0.000000
0.216526 0.837491 0.000000
0.277165 0.834928 0.000000
0.330388 0.832120 0.000000
0.379461 0.828855 0.000000
0.425849 0.825254 0.000000
0.470069 0.821317 0.000000
0.512779 0.817105 0.000000
0.558648 0.819150 0.000000
0.604517 0.821592 0.000000
0.650202 0.823911 0.000000
0.695583 0.826078 0.000000
0.741176 0.828275 0.000000
0.786679 0.830411 0.000000
0.832120 0.832273 0.000000
0.877409 0.833738 0.000000
0.919402 0.832120 0.000000
0.949645 0.820523 0.000000
0.974151 0.805112 0.000000
0.996704 0.789212 0.000000
1.000000 0.773312 0.000000
1.000000 0.757351 0.000000
1.000000 0.741329 0.000000
1.000000 0.725246 0.000000
1.000000 0.709071 0.000000
0.000000 0.870329 0.000000
0.000000 0.870603 0.000000
0.000000 0.870909 0.000000
0.000000 0.870634 0.000000
0.000000 0.870146 0.000000
0.000000 0.869291 0.000000
0.000000 0.868254 0.000000
0.106722 0.866484 0.000000
0.197055 0.864439 0.000000
0.261418 0.861967 0.000000
0.316258 0.859312 0.000000
0.366155 0.856199 0.000000
0.412757 0.852811 0.000000
0.457832 0.849058 0.000000
0.500603 0.845090 0.000000
0.543328 0.842527 0.000000
0.588312 0.844450 0.000000
0.632929 0.846403 0.000000
0.677516 0.848386 0.000000
0.722316 0.850462 0.000000
0.766598 0.852262 0.000000
0.810788 0.853666 0.000000
0.854704 0.854765 0.000000
0.898253 0.855436 0.000000
0.936187 0.850950 0.000000
0.964996 0.839017 0.000000
0.988861 0.823697 0.000000
1.000000 0.807919 0.000000
1.000000 0.791867 0.000000
1.000000 0.775723 0.000000
1.000000 0.759518 0.000000
1.000000 0.743191 0.000000
0.000000 0.895750 0.000000
0.000000 0.896086 0.000000
0.000000 0.896422 0.000000
0.000000 0.896391 0.000000
0.000000 0.896117 0.000000
0.000000 0.895079 0.000000
0.000000 0.893675 0.000000
0.048280 0.892088 0.000000
0.175753 0.890196 0.000000
0.244663 0.887602 0.000000
0.301152 0.884855 0.000000
0.352026 0.881804 0.000000
0.399542 0.878538 0.000000
0.444587 0.874846 0.000000
0.487770 0.871031 0.000000
0.529412 0.867063 0.000000
0.572259 0.866300 0.000000
0.616052 0.867796 0.000000
0.659663 0.869230 0.000000
0.702907 0.870481 0.000000
0.745754 0.871489 0.000000
0.788602 0.872404 0.000000
0.831052 0.873014 0.000000
0.873167 0.873228 0.000000
0.915038 0.873259 0.000000
0.956054 0.872465 0.000000
0.983124 0.859495 0.000000
1.000000 0.843626 0.000000
1.000000 0.827054 0.000000
1.000000 0.810605 0.000000
1.000000 0.794217 0.000000
1.000000 0.777615 0.000000
0.000000 0.918822 0.000000
0.000000 0.919188 0.000000
0.000000 0.919493 0.000000
0.000000 0.919554 0.000000
0.000000 0.919402 0.000000
0.000000 0.918425 0.000000
0.000000 0.917266 0.000000
0.000000 0.915801 0.000000
0.150271 0.914183 0.000000
0.226322 0.911864 0.000000
0.285283 0.909453 0.000000
0.337896 0.906767 0.000000
0.386206 0.903868 0.000000
0.431739 0.900603 0.000000
0.475349 0.897185 0.000000
0.517357 0.893553 0.000000
0.557977 0.889647 0.000000
0.600916 0.890349 0.000000
0.643610 0.891356 0.000000
0.685939 0.892149 0.000000
0.727932 0.892729 0.000000
0.769741 0.893217 0.000000
0.811276 0.893675 0.000000
0.852567 0.893797 0.000000
0.893492 0.893553 0.000000
0.934051 0.893095 0.000000
0.974182 0.892210 0.000000
0.999573 0.878416 0.000000
1.000000 0.862272 0.000000
1.000000 0.845762 0.000000
1.000000 0.828946 0.000000
1.000000 0.811917 0.000000
0.000000 0.941375 0.000000
0.000000 0.941619 0.000000
0.000000 0.941772 0.000000
0.000000 0.941741 0.000000
0.000000 0.941558 0.000000
0.000000 0.940734 0.000000
0.000000 0.939635 0.000000
0.000000 0.938354 0.000000
0.117983 0.936889 0.000000
0.205722 0.934783 0.000000
0.268620 0.932525 0.000000
0.322820 0.929992 0.000000
0.371923 0.927337 0.000000
0.417975 0.924376 0.000000
0.461952 0.921202 0.000000
0.504234 0.917784 0.000000
0.545098 0.914214 0.000000
0.585626 0.911650 0.000000
0.627710 0.912200 0.000000
0.669215 0.912718 0.000000
0.710597 0.913176 0.000000
0.751644 0.913451 0.000000
0.792172 0.913481 0.000000
0.832395 0.913176 0.000000
0.872099 0.912535 0.000000
0.911559 0.911681 0.000000
0.950652 0.910582 0.000000
0.989624 0.909392 0.000000
1.000000 0.896208 0.000000
1.000000 0.880156 0.000000
1.000000 0.862974 0.000000
1.000000 0.845701 0.000000
0.000000 0.962615 0.000000
0.000000 0.962860 0.000000
0.000000 0.963043 0.000000
0.000000 0.963104 0.000000
0.000000 0.962890 0.000000
0.000000 0.962432 0.000000
0.000000 0.961700 0.000000
0.000000 0.960815 0.000000
0.070192 0.959747 0.000000
0.183230 0.958373 0.000000
0.251652 0.956725 0.000000
0.308049 0.954925 0.000000
0.358526 0.952911 0.000000
0.405585 0.950408 0.000000
0.450202 0.947662 0.000000
0.492897 0.944732 0.000000
0.534356 0.941772 0.000000
0.574640 0.938720 0.000000
0.615320 0.937652 0.000000
0.656611 0.937835 0.000000
0.697230 0.937804 0.000000
0.737636 0.937743 0.000000
0.777584 0.937346 0.000000
0.817014 0.936614 0.000000
0.856016 0.935607 0.000000
0.894926 0.934783 0.000000
0.933471 0.933562 0.000000
0.971557 0.932006 0.000000
1.000000 0.930053 0.000000
1.000000 0.916960 0.000000
1.000000 0.900328 0.000000
1.000000 0.882597 0.000000
0.000000 0.986969 0.000000
0.000000 0.986786 0.000000
0.000000 0.986572 0.000000
0.000000 0.986236 0.000000
0.000000 0.985687 0.000000
0.000000 0.984833 0.000000
0.000000 0.983764 0.000000
0.000000 0.982544 0.000000
0.000000 0.981140 0.000000
0.157595 0.979553 0.000000
0.232456 0.977783 0.000000
0.291264 0.975891 0.000000
0.342992 0.973877 0.000000
0.390997 0.971649 0.000000
0.435920 0.969207 0.000000
