nova/tdt-studio/app/Lut_mau/luts/lut4.cube
# Created by Adobe Lightroom plugin Export LUT (1.22.0)
# www.johnrellis.com/lightroom/exportlut.htm
# Photo: Portraits (2 of 3).jpg
# Color profile: /Library/Application Support/Adobe/Color/Profiles/Recommended/AdobeRGB1998.icc
LUT_3D_SIZE 5
DOMAIN_MIN 0.000000 0.000000 0.000000
DOMAIN_MAX 0.903226 0.903226 0.903226
0.000000 0.000000 0.000000
0.233494 0.000000 0.000000
0.682307 0.000000 0.000000
0.937560 0.000000 0.000000
1.000000 0.000000 0.000000
0.000000 0.212558 0.000000
0.208377 0.210208 0.000000
0.636774 0.295537 0.000000
0.922911 0.262669 0.000000
1.000000 0.196872 0.000000
0.000000 0.579187 0.000000
0.238621 0.557855 0.000000
0.598260 0.598199 0.000000
0.906737 0.582757 0.000000
1.000000 0.495399 0.000000
0.000000 0.843595 0.000000
0.138827 0.839658 0.000000
0.512779 0.817105 0.000000
0.832120 0.832273 0.000000
1.000000 0.757351 0.000000
0.000000 1.000000 0.000000
0.000000 1.000000 0.000000
0.421057 0.988891 0.000000
0.703914 0.975769 0.000000
0.965301 0.965362 0.000000
0.000000 0.000000 0.228214
0.224857 0.000000 0.224582
0.660670 0.000000 0.251255
0.931609 0.000000 0.179873
1.000000 0.000000 0.145174
0.000000 0.213565 0.213443
0.206546 0.206546 0.206546
0.646021 0.182254 0.182010
0.922026 0.145968 0.147127
1.000000 0.112337 0.112428
0.000000 0.589197 0.208865
0.000000 0.585016 0.000000
0.594598 0.594629 0.000000
0.901549 0.554437 0.000000
1.000000 0.471199 0.000000
0.000000 0.847654 0.000000
0.000000 0.844663 0.000000
0.481575 0.819852 0.000000
0.828672 0.828763 0.000000
1.000000 0.745510 0.000000
0.000000 1.000000 0.000000
0.000000 1.000000 0.000000
0.377783 0.991974 0.000000
0.689967 0.975921 0.000000
0.964599 0.964691 0.000000
0.000000 0.000000 0.623041
0.285008 0.000000 0.630610
0.636347 0.000000 0.636316
0.901549 0.000000 0.558434
1.000000 0.007782 0.525719
0.000000 0.203098 0.612085
0.137179 0.136355 0.618402
0.626276 0.000000 0.626062
0.897765 0.000000 0.554894
1.000000 0.378302 0.571740
0.000000 0.590234 0.590295
0.000000 0.587762 0.587762
0.584009 0.584009 0.584009
0.874052 0.601678 0.601831
1.000000 0.591577 0.591577
0.000000 0.862089 0.511650
0.000000 0.860258 0.491798
0.448493 0.841062 0.448676
0.829465 0.829465 0.449134
1.000000 0.756771 0.485267
0.000000 1.000000 0.375830
0.000000 1.000000 0.348669
0.273320 1.000000 0.273625
0.649317 0.979065 0.109957
0.964874 0.964904 0.180179
0.000000 0.000000 0.859190
0.231662 0.000000 0.861845
0.551995 0.000000 0.870146
0.865751 0.000000 0.865690
1.000000 0.000000 0.753170
0.000000 0.100832 0.852506
0.033478 0.025177 0.853605
0.526726 0.000000 0.861295
0.860990 0.000000 0.860960
1.000000 0.072694 0.756527
0.000000 0.483223 0.822965
0.000000 0.462593 0.820859
0.489967 0.489784 0.837797
0.846281 0.544732 0.846220
1.000000 0.595636 0.791897
0.000000 0.824674 0.824643
0.000000 0.824704 0.824735
0.485725 0.821195 0.821256
0.819577 0.819516 0.819547
0.984558 0.831571 0.831571
0.000000 1.000000 0.716670
0.000000 1.000000 0.713466
0.403784 0.996735 0.715846
0.716732 0.973388 0.716823
0.959930 0.959930 0.717281
0.000000 0.000000 1.000000
0.166720 0.000000 1.000000
0.462409 0.000000 1.000000
0.732876 0.000000 1.000000
0.995148 0.000000 0.995026
0.000000 0.000000 1.000000
0.000000 0.000000 1.000000
0.442176 0.000000 0.998810
0.729915 0.000000 0.999023
0.993194 0.000000 0.993103
0.000000 0.399756 0.991333
0.000000 0.400122 0.990265
0.430060 0.429847 0.990478
0.744106 0.500084 0.989349
0.984222 0.538994 0.984192
0.000000 0.690059 0.979400
0.000000 0.687221 0.978820
0.358770 0.688960 0.973877
0.752651 0.752560 0.971160
0.970489 0.791257 0.970459
0.000000 0.966857 0.966857
0.000000 0.965942 0.966003
0.397894 0.962554 0.962585
0.743038 0.957305 0.957336
0.954833 0.954803 0.954833
