nova/tdt-studio/app/Lut_mau/luts/lut5.cube
# Created by Adobe Lightroom plugin Export LUT (1.22.0)
# www.johnrellis.com/lightroom/exportlut.htm
# Photo: Portraits (3 of 3).jpg
# Color profile: /Library/Application Support/Adobe/Color/Profiles/Recommended/AdobeRGB1998.icc
LUT_3D_SIZE 32
0.118807 0.081300 0.070680
0.124788 0.081697 0.071412
0.132387 0.081880 0.072053
0.148257 0.082185 0.073243
0.171298 0.081086 0.073579
0.199008 0.077455 0.073121
0.232578 0.069154 0.071656
0.273045 0.048554 0.069001
0.321538 0.000000 0.064912
0.377508 0.000000 0.058717
0.440223 0.000000 0.042512
0.507408 0.000000 0.012390
0.575738 0.000000 0.000000
0.643000 0.000000 0.000000
0.707729 0.000000 0.000000
0.765896 0.000000 0.000000
0.816678 0.000000 0.000000
0.859983 0.000000 0.000000
0.897673 0.042359 0.000000
0.933379 0.139986 0.000000
0.964050 0.192691 0.000000
0.990082 0.234592 0.000000
1.000000 0.269108 0.000000
1.000000 0.298436 0.000000
1.000000 0.323369 0.000000
1.000000 0.345373 0.000000
1.000000 0.365576 0.000000
1.000000 0.383551 0.000000
1.000000 0.400092 0.000000
1.000000 0.415320 0.000000
1.000000 0.429389 0.000000
1.000000 0.442023 0.000000
0.120760 0.085969 0.072602
0.124453 0.086305 0.072389
0.132784 0.086610 0.072297
0.148806 0.086519 0.073518
0.171878 0.085756 0.074159
0.199649 0.082673 0.073304
0.233188 0.075380 0.071778
0.273716 0.061036 0.069093
0.321996 0.006744 0.065003
0.378302 0.000000 0.058564
0.440772 0.000000 0.040742
0.507378 0.000000 0.011505
0.575372 0.000000 0.000000
0.642817 0.000000 0.000000
0.707149 0.000000 0.000000
0.765133 0.000000 0.000000
0.815854 0.000000 0.000000
0.859220 0.000000 0.000000
0.897032 0.079683 0.000000
0.932372 0.150790 0.000000
0.962982 0.200534 0.000000
0.989075 0.240208 0.000000
1.000000 0.273381 0.000000
1.000000 0.301793 0.000000
1.000000 0.326543 0.000000
1.000000 0.348394 0.000000
1.000000 0.367681 0.000000
1.000000 0.385779 0.000000
1.000000 0.402136 0.000000
1.000000 0.417121 0.000000
1.000000 0.430976 0.000000
1.000000 0.443488 0.000000
0.123262 0.092256 0.075715
0.126070 0.091585 0.075654
0.131563 0.092592 0.074556
0.148501 0.093782 0.074525
0.172671 0.092134 0.074495
0.200656 0.089448 0.073945
0.234134 0.083467 0.072023
0.274540 0.071504 0.069703
0.323125 0.038575 0.065034
0.379095 0.000000 0.058534
0.441718 0.000000 0.039734
0.508415 0.000000 0.009644
0.576135 0.000000 0.000000
0.643427 0.000000 0.000000
0.707576 0.000000 0.000000
0.765560 0.000000 0.000000
0.816037 0.000000 0.000000
0.859190 0.000000 0.000000
0.897124 0.109163 0.000000
0.932158 0.166140 0.000000
0.962585 0.211063 0.000000
0.988586 0.248569 0.000000
1.000000 0.280583 0.000000
1.000000 0.307683 0.000000
1.000000 0.331823 0.000000
1.000000 0.352697 0.000000
1.000000 0.372015 0.000000
1.000000 0.389441 0.000000
1.000000 0.405493 0.000000
1.000000 0.420142 0.000000
1.000000 0.433722 0.000000
1.000000 0.446052 0.000000
0.128695 0.104341 0.081331
0.130159 0.104067 0.080049
0.133974 0.103212 0.081209
0.145449 0.106325 0.078309
0.170565 0.108492 0.076539
0.202213 0.104402 0.074952
0.236820 0.099397 0.072877
0.277806 0.091127 0.069581
0.326329 0.076814 0.064607
0.382513 0.042969 0.057435
0.445014 0.000000 0.036683
0.511467 0.000000 0.004669
0.579034 0.000000 0.000000
0.645655 0.000000 0.000000
0.709651 0.000000 0.000000
0.766873 0.000000 0.000000
0.816983 0.000000 0.000000
0.859800 0.101320 0.000000
0.897673 0.152224 0.000000
0.932036 0.195712 0.000000
0.962066 0.233341 0.000000
0.987915 0.266758 0.000000
1.000000 0.295995 0.000000
1.000000 0.321050 0.000000
1.000000 0.343450 0.000000
1.000000 0.363531 0.000000
1.000000 0.381476 0.000000
1.000000 0.398322 0.000000
1.000000 0.413489 0.000000
1.000000 0.427497 0.000000
1.000000 0.440345 0.000000
1.000000 0.452003 0.000000
0.133211 0.121950 0.087404
0.134524 0.121309 0.086000
0.136965 0.120455 0.085420
0.144625 0.120180 0.085969
0.162661 0.125429 0.081575
0.194949 0.129732 0.076783
0.233616 0.126772 0.074037
0.282139 0.118441 0.069459
0.331243 0.110719 0.063844
0.387457 0.100435 0.054322
0.449866 0.086091 0.029786
0.516167 0.067781 0.000000
0.583246 0.042512 0.000000
0.649531 0.037720 0.000000
0.712825 0.068788 0.000000
0.769711 0.100435 0.000000
0.819181 0.134432 0.000000
0.861418 0.167819 0.000000
0.899260 0.201511 0.000000
0.932952 0.234440 0.000000
0.962463 0.265873 0.000000
0.987884 0.293919 0.000000
1.000000 0.319249 0.000000
1.000000 0.341405 0.000000
1.000000 0.361639 0.000000
1.000000 0.379736 0.000000
1.000000 0.396216 0.000000
1.000000 0.411353 0.000000
1.000000 0.425422 0.000000
1.000000 0.438544 0.000000
1.000000 0.450446 0.000000
1.000000 0.461341 0.000000
0.136751 0.143191 0.093568
0.138003 0.142672 0.092256
0.139590 0.141604 0.090455
0.146273 0.138857 0.091341
0.158053 0.141848 0.089540
0.182284 0.149416 0.083162
0.222599 0.157290 0.075990
0.269841 0.158236 0.070863
0.329747 0.154299 0.063020
0.395239 0.148287 0.047639
0.457832 0.145541 0.017731
0.523766 0.143618 0.000000
0.590478 0.144747 0.000000
0.656153 0.151369 0.000000
0.718593 0.164492 0.000000
0.774350 0.182956 0.000000
0.822721 0.204257 0.000000
0.864378 0.227909 0.000000
0.901701 0.253117 0.000000
0.934691 0.278996 0.000000
0.963561 0.304234 0.000000
0.988617 0.327581 0.000000
1.000000 0.357519 0.000000
1.000000 0.375738 0.000000
1.000000 0.392218 0.000000
1.000000 0.407019 0.000000
1.000000 0.420935 0.000000
1.000000 0.433539 0.000000
1.000000 0.445777 0.000000
1.000000 0.457038 0.000000
1.000000 0.467445 0.000000
1.000000 0.476997 0.000000
0.139864 0.170291 0.100618
0.140993 0.169467 0.099214
0.142824 0.168276 0.097353
0.146944 0.165866 0.095003
0.158358 0.161288 0.098726
0.175143 0.169833 0.093233
0.206058 0.180728 0.084749
0.255955 0.194095 0.072633
0.313451 0.201816 0.063539
0.384344 0.206760 0.041199
0.466133 0.207919 0.000000
0.538537 0.210300 0.000000
0.604547 0.216892 0.000000
0.669368 0.226688 0.000000
0.729671 0.239353 0.000000
0.783200 0.254215 0.000000
0.829618 0.270329 0.000000
0.870878 0.288762 0.000000
0.907164 0.308721 0.000000
0.939361 0.329717 0.000000
0.967773 0.350072 0.000000
0.992462 0.369146 0.000000
1.000000 0.386969 0.000000
1.000000 0.402960 0.000000
1.000000 0.417548 0.000000
1.000000 0.430549 0.000000
1.000000 0.442573 0.000000
1.000000 0.453681 0.000000
1.000000 0.464149 0.000000
1.000000 0.474067 0.000000
1.000000 0.483192 0.000000
1.000000 0.491646 0.000000
0.142184 0.201999 0.108705
0.143374 0.201205 0.107027
0.145083 0.199924 0.104921
0.148745 0.197360 0.101472
0.158755 0.192782 0.102327
0.172793 0.191897 0.104189
0.195590 0.204135 0.096345
0.233402 0.218448 0.085420
0.292668 0.237949 0.067262
0.359838 0.253758 0.044221
0.439033 0.267094 0.000000
0.525963 0.277470 0.000000
0.615015 0.285161 0.000000
0.678981 0.295811 0.000000
0.737575 0.307652 0.000000
0.789425 0.319738 0.000000
0.835203 0.332860 0.000000
0.875059 0.347143 0.000000
0.909880 0.361822 0.000000
0.941009 0.377386 0.000000
0.968505 0.393286 0.000000
0.992584 0.408331 0.000000
1.000000 0.422217 0.000000
1.000000 0.435065 0.000000
1.000000 0.446723 0.000000
1.000000 0.457496 0.000000
1.000000 0.467292 0.000000
1.000000 0.476478 0.000000
1.000000 0.485328 0.000000
1.000000 0.493629 0.000000
1.000000 0.501610 0.000000
1.000000 0.508873 0.000000
0.143465 0.241367 0.118410
0.144961 0.240360 0.116732
0.146944 0.239078 0.114687
0.150759 0.236545 0.110842
0.157473 0.232334 0.106813
0.173495 0.225772 0.112428
0.191470 0.231662 0.110018
0.221103 0.247471 0.099489
0.266758 0.265232 0.084810
0.335546 0.291478 0.054170
0.410651 0.313603 0.000000
0.496071 0.333898 0.000000
0.585321 0.351293 0.000000
0.673335 0.366003 0.000000
0.747402 0.376257 0.000000
0.797787 0.385809 0.000000
0.842069 0.395514 0.000000
0.880186 0.405463 0.000000
0.913542 0.415747 0.000000
0.943389 0.426947 0.000000
0.969940 0.438514 0.000000
0.993225 0.449714 0.000000
1.000000 0.460182 0.000000
1.000000 0.470008 0.000000
1.000000 0.478920 0.000000
1.000000 0.486976 0.000000
1.000000 0.494636 0.000000
1.000000 0.501854 0.000000
1.000000 0.508995 0.000000
1.000000 0.515801 0.000000
1.000000 0.522271 0.000000
1.000000 0.528313 0.000000
0.143374 0.288243 0.130617
0.144930 0.287419 0.128969
0.146944 0.286015 0.126497
0.151156 0.283299 0.121889
0.157443 0.279118 0.115694
0.172213 0.272801 0.117372
0.191379 0.264836 0.124636
0.215213 0.280156 0.115633
0.252537 0.299229 0.102235
0.305638 0.319951 0.081636
0.383124 0.351080 0.013397
0.463691 0.376867 0.000000
0.552453 0.402350 0.000000
0.641627 0.424018 0.000000
0.726833 0.441321 0.000000
0.799649 0.451362 0.000000
0.849912 0.457374 0.000000
0.886351 0.463386 0.000000
0.918151 0.470039 0.000000
0.946654 0.477363 0.000000
0.971954 0.484840 0.000000
0.994110 0.492500 0.000000
1.000000 0.499489 0.000000
1.000000 0.505943 0.000000
1.000000 0.512139 0.000000
1.000000 0.517906 0.000000
1.000000 0.523552 0.000000
1.000000 0.529076 0.000000
1.000000 0.534417 0.000000
1.000000 0.539818 0.000000
1.000000 0.544945 0.000000
1.000000 0.549676 0.057679
0.140139 0.341375 0.145937
0.141939 0.340459 0.143923
0.144198 0.338903 0.140871
0.149111 0.336217 0.135439
0.156222 0.332128 0.128206
0.167056 0.326452 0.122805
0.189975 0.318395 0.130678
0.212619 0.316533 0.134157
0.244022 0.335943 0.121462
0.289433 0.357336 0.103578
0.349615 0.380072 0.075685
0.430457 0.410285 0.000000
0.518425 0.441901 0.000000
0.609400 0.470649 0.000000
0.697383 0.493812 0.000000
0.774380 0.508537 0.000000
0.837888 0.516289 0.000000
0.889860 0.520043 0.000000
0.922393 0.522881 0.000000
0.949584 0.526696 0.000000
0.973693 0.530846 0.000000
0.994965 0.535180 0.000000
1.000000 0.539422 0.000000
1.000000 0.543359 0.000000
1.000000 0.547112 0.000000
1.000000 0.550622 0.000000
1.000000 0.554162 0.000000
1.000000 0.557733 0.000000
1.000000 0.561456 0.000000
1.000000 0.565148 0.000000
1.000000 0.568811 0.064424
1.000000 0.572442 0.104829
0.133059 0.399390 0.164370
0.135073 0.398322 0.162020
0.138064 0.397040 0.159365
0.144015 0.394263 0.153384
0.152041 0.390143 0.144594
0.162356 0.384649 0.134218
0.184604 0.377142 0.137240
0.211276 0.367681 0.146944
0.239170 0.375402 0.143618
0.278325 0.396796 0.127504
0.331426 0.419562 0.104707
0.399023 0.444160 0.067048
0.489845 0.480293 0.000000
0.585534 0.515740 0.000000
0.675959 0.544305 0.000000
0.756802 0.563653 0.000000
0.823667 0.574640 0.000000
0.877989 0.580377 0.000000
0.922820 0.582361 0.000000
0.958129 0.581750 0.000000
0.980133 0.582116 0.000000
0.999542 0.582757 0.000000
1.000000 0.583520 0.000000
1.000000 0.584405 0.000000
1.000000 0.585412 0.000000
1.000000 0.586511 0.000000
1.000000 0.587823 0.000000
1.000000 0.589380 0.000000
1.000000 0.591272 0.025544
1.000000 0.593225 0.090028
1.000000 0.595453 0.122683
1.000000 0.597589 0.147768
0.120760 0.462837 0.188144
0.123445 0.461891 0.185672
0.127016 0.460578 0.182437
0.134432 0.457618 0.175662
0.144564 0.453193 0.165621
0.156802 0.447791 0.154086
0.174472 0.440650 0.145693
0.206729 0.431067 0.155978
0.236820 0.420142 0.167788
0.271885 0.440131 0.154879
0.320378 0.464118 0.135683
0.382361 0.488655 0.108156
0.456733 0.513298 0.059266
0.540368 0.536980 0.000000
0.638392 0.572717 0.000000
0.723903 0.598657 0.000000
0.796475 0.614618 0.000000
0.855131 0.623255 0.000000
0.903899 0.628046 0.000000
0.943969 0.629480 0.000000
0.976410 0.627527 0.000000
0.999878 0.624262 0.000000
1.000000 0.622705 0.000000
1.000000 0.621363 0.000000
1.000000 0.620325 0.000000
1.000000 0.619562 0.000000
1.000000 0.619165 0.000000
1.000000 0.619104 0.075654
1.000000 0.619409 0.108858
1.000000 0.620111 0.136721
1.000000 0.621027 0.160220
1.000000 0.622126 0.182101
0.104585 0.522301 0.214786
0.108492 0.521324 0.212009
0.113191 0.520256 0.209049
0.122499 0.517693 0.202274
0.135012 0.513390 0.191409
0.149630 0.508080 0.178531
0.165621 0.502434 0.163882
0.198184 0.494331 0.167819
0.233951 0.484657 0.179873
0.267643 0.482246 0.186374
0.310857 0.504417 0.169558
0.366766 0.527428 0.147860
0.434333 0.550256 0.117494
0.511437 0.572595 0.064240
0.594049 0.593500 0.000000
0.688106 0.624384 0.000000
0.765866 0.645869 0.000000
0.829679 0.658595 0.000000
0.882750 0.666407 0.000000
0.926787 0.670619 0.000000
0.962493 0.670954 0.000000
0.991119 0.667842 0.000000
1.000000 0.662318 0.000000
1.000000 0.657984 0.000000
1.000000 0.655177 0.032746
1.000000 0.652674 0.083528
1.000000 0.650660 0.111086
1.000000 0.649134 0.134279
1.000000 0.648157 0.156558
1.000000 0.647578 0.177798
1.000000 0.647395 0.197879
1.000000 0.647333 0.216434
0.086488 0.580774 0.245518
0.091493 0.580255 0.243778
0.097597 0.579004 0.240116
0.109163 0.576928 0.233341
0.125032 0.573297 0.222538
0.142428 0.568688 0.208988
0.161044 0.562829 0.193149
0.186404 0.555871 0.183017
0.228305 0.546777 0.195224
0.266423 0.536645 0.208713
0.305058 0.543969 0.205722
0.355657 0.565057 0.187778
0.417212 0.586419 0.164614
0.488197 0.607233 0.133028
0.565576 0.626917 0.083070
0.645624 0.644923 0.000000
0.732540 0.669490 0.000000
0.802121 0.687098 0.000000
0.859678 0.698268 0.000000
0.908019 0.705562 0.000000
0.947265 0.708644 0.000000
0.978607 0.707515 0.000000
1.000000 0.703334 0.000000
1.000000 0.697047 0.091707
1.000000 0.689296 0.132540
1.000000 0.685328 0.150118
1.000000 0.682002 0.166415
1.000000 0.679347 0.184634
1.000000 0.677211 0.202487
1.000000 0.675502 0.219730
1.000000 0.674403 0.237949
1.000000 0.673426 0.254948
0.068421 0.636683 0.280339
0.075868 0.636103 0.278080
0.082856 0.635157 0.274815
0.098116 0.633356 0.268437
0.116945 0.630060 0.257755
0.137667 0.625940 0.244327
0.158328 0.620783 0.228000
0.179355 0.614862 0.209995
0.221622 0.606775 0.214481
0.264836 0.597131 0.227665
0.303716 0.586267 0.241825
0.348974 0.602747 0.228580
0.405005 0.621820 0.209903
0.469764 0.640650 0.186038
0.541131 0.658320 0.154360
0.615961 0.674586 0.110201
0.691768 0.689113 0.000000
0.772549 0.710414 0.000000
0.834470 0.723995 0.000000
0.887480 0.734951 0.000000
0.930968 0.741146 0.000000
0.965545 0.742489 0.000000
0.993011 0.740047 0.086091
1.000000 0.735012 0.130068
1.000000 0.728176 0.165835
1.000000 0.720394 0.195651
1.000000 0.713039 0.218265
1.000000 0.709255 0.232334
1.000000 0.705959 0.246830
1.000000 0.703243 0.261845
1.000000 0.701045 0.277775
1.000000 0.699153 0.292424
0.061311 0.687434 0.315709
0.068757 0.686732 0.312932
0.078065 0.686000 0.310674
0.094697 0.684199 0.303838
0.115267 0.681422 0.294163
0.137484 0.677821 0.281621
0.159792 0.673304 0.265934
0.181857 0.667781 0.247349
0.213016 0.661067 0.236423
0.262181 0.652125 0.248844
0.305119 0.642084 0.262455
0.345739 0.638209 0.269902
0.396551 0.655726 0.253849
0.455940 0.672633 0.234623
0.521324 0.688411 0.211398
0.590753 0.702876 0.182101
0.662226 0.715969 0.143557
0.733089 0.727993 0.082826
0.809018 0.747463 0.000000
0.864591 0.758572 0.000000
0.912566 0.768093 0.000000
0.950866 0.772274 0.073243
0.980987 0.771939 0.122560
1.000000 0.768460 0.160403
1.000000 0.762722 0.192416
1.000000 0.755703 0.222293
1.000000 0.747860 0.248631
1.000000 0.739834 0.273014
1.000000 0.733883 0.290227
1.000000 0.730312 0.303532
1.000000 0.727230 0.316777
1.000000 0.724605 0.330449
0.077974 0.732631 0.350713
0.084504 0.732326 0.348913
0.097292 0.738491 0.352148
0.111147 0.736995 0.346288
0.130190 0.734554 0.337469
0.150332 0.731289 0.325536
0.171908 0.727199 0.310582
0.193973 0.722377 0.293156
0.216068 0.716762 0.273228
0.263554 0.709071 0.278477
0.310796 0.699977 0.290867
0.353216 0.689906 0.304326
0.397314 0.693721 0.302251
0.451301 0.708278 0.286015
0.511376 0.721981 0.267094
0.575341 0.734615 0.244450
0.642115 0.746120 0.217502
0.709224 0.756558 0.184604
0.774533 0.766079 0.140291
0.845731 0.784482 0.067353
0.894682 0.792508 0.069062
0.936553 0.799496 0.116915
0.969421 0.801236 0.155673
0.995392 0.799191 0.189761
1.000000 0.794461 0.221286
1.000000 0.788113 0.249577
1.000000 0.780789 0.275700
1.000000 0.773007 0.299962
1.000000 0.765133 0.322545
1.000000 0.757290 0.343816
1.000000 0.752834 0.356725
1.000000 0.749569 0.369024
0.114260 0.774899 0.386816
0.119051 0.775387 0.386145
0.125216 0.775570 0.384222
0.136690 0.775051 0.379889
0.152071 0.773739 0.372686
0.170169 0.771267 0.362493
0.189700 0.768063 0.349371
0.210025 0.764065 0.333440
0.231449 0.759518 0.315953
0.263371 0.753719 0.305882
0.313725 0.745724 0.317144
0.358862 0.736873 0.329534
0.399451 0.727169 0.342840
0.447059 0.737575 0.331792
0.501518 0.749783 0.316289
0.560510 0.761044 0.297795
0.622339 0.771328 0.276463
0.685603 0.780667 0.251682
0.748653 0.789456 0.222782
0.809201 0.797971 0.186130
0.876036 0.815640 0.139651
0.918975 0.820737 0.140871
0.955596 0.825406 0.176730
0.984192 0.825437 0.211429
1.000000 0.822232 0.242893
1.000000 0.816953 0.272251
1.000000 0.810391 0.299413
1.000000 0.803220 0.324834
1.000000 0.795804 0.348608
1.000000 0.788296 0.370611
1.000000 0.780911 0.390906
1.000000 0.773983 0.408270
0.153658 0.810758 0.420172
0.157778 0.811093 0.419440
0.162600 0.811429 0.418189
0.171756 0.811032 0.414771
0.183993 0.809903 0.408392
0.199039 0.807919 0.399176
0.215824 0.805234 0.387915
0.233829 0.801938 0.373877
0.253147 0.798215 0.358282
0.273655 0.793851 0.340764
0.320165 0.787350 0.346654
0.367254 0.779721 0.357885
0.409461 0.771206 0.370001
0.449775 0.766690 0.377173
0.498726 0.777310 0.363714
0.552178 0.787259 0.348577
0.609155 0.796506 0.331212
0.668177 0.805142 0.311742
0.727932 0.813107 0.288762
0.786343 0.820676 0.262455
0.841550 0.827878 0.231937
0.900969 0.842283 0.197665
0.940642 0.846220 0.195071
0.972229 0.848661 0.229679
0.996979 0.847196 0.262028
1.000000 0.843046 0.292515
1.000000 0.837339 0.320897
1.000000 0.830808 0.347662
1.000000 0.823789 0.372747
1.000000 0.816739 0.396582
1.000000 0.809628 0.417914
1.000000 0.802609 0.437201
0.197208 0.843900 0.453956
0.200778 0.844266 0.453468
0.204776 0.844450 0.452338
0.212161 0.844236 0.449195
0.221988 0.843229 0.443641
0.234562 0.841611 0.436011
0.248631 0.839322 0.426032
0.264591 0.836576 0.414099
0.282322 0.833310 0.400397
0.300816 0.829709 0.385168
0.331090 0.824826 0.377691
0.378546 0.818021 0.388220
0.421973 0.810575 0.399359
0.461494 0.802548 0.411200
0.502525 0.803922 0.410498
0.550774 0.813046 0.397803
0.603021 0.821653 0.383734
0.657679 0.829709 0.367834
0.713466 0.837156 0.350011
0.768948 0.844053 0.330144
0.822080 0.850523 0.307439
0.872099 0.856565 0.281651
0.924132 0.867247 0.254337
0.960906 0.870329 0.249424
0.987915 0.870726 0.283696
1.000000 0.867918 0.315801
1.000000 0.863096 0.346471
1.000000 0.857176 0.374823
1.000000 0.850645 0.401495
1.000000 0.843931 0.426429
1.000000 0.837278 0.449531
1.000000 0.830625 0.470466
0.248661 0.876524 0.490425
0.250706 0.876555 0.489570
0.253666 0.876432 0.488411
0.258976 0.875883 0.485359
0.266880 0.874876 0.480385
0.277165 0.873411 0.473701
0.289403 0.871519 0.465339
0.303593 0.869291 0.455329
0.319036 0.866697 0.443702
0.335851 0.863737 0.430671
0.353948 0.860380 0.416571
0.397131 0.854734 0.423102
0.440558 0.848173 0.433478
0.480476 0.841032 0.444434
0.517052 0.833433 0.456123
0.558892 0.839506 0.448127
0.605097 0.847013 0.436286
0.654231 0.854063 0.422858
0.705013 0.860410 0.408148
0.756039 0.866209 0.391516
0.805509 0.871489 0.373297
0.852689 0.876280 0.352514
0.897154 0.880705 0.329534
0.942412 0.888029 0.306004
0.977081 0.890501 0.297368
1.000000 0.889281 0.331456
1.000000 0.885527 0.363775
1.000000 0.880339 0.394079
1.000000 0.874327 0.422461
1.000000 0.867979 0.449104
1.000000 0.861631 0.474311
1.000000 0.855253 0.496498
0.298924 0.903288 0.523919
0.301366 0.903319 0.523552
0.303502 0.903288 0.522515
0.308263 0.902831 0.520012
0.315129 0.902007 0.515923
0.323369 0.900755 0.510124
0.333715 0.899199 0.502831
0.345525 0.897307 0.494301
0.359533 0.895109 0.484688
0.374823 0.892638 0.473793
0.391241 0.889891 0.461952
0.418830 0.885954 0.457862
0.461189 0.880217 0.467445
0.500847 0.873960 0.477852
0.537560 0.867399 0.488899
0.572595 0.863371 0.496162
0.612970 0.869963 0.486275
0.656367 0.876036 0.474983
0.701564 0.881529 0.462867
0.747524 0.886503 0.449409
0.792782 0.890929 0.434607
0.836698 0.894957 0.417792
0.878599 0.898650 0.399573
0.918517 0.901946 0.378576
0.957397 0.905882 0.354498
0.990723 0.908812 0.347539
1.000000 0.905760 0.377813
1.000000 0.901396 0.410376
1.000000 0.895964 0.441016
1.000000 0.890013 0.470130
1.000000 0.883940 0.496651
1.000000 0.877867 0.520836
0.357549 0.927611 0.560052
0.359075 0.927703 0.559564
0.361212 0.927611 0.558862
0.364752 0.927184 0.556603
0.370123 0.926452 0.553063
0.376989 0.925353 0.548272
0.385626 0.924010 0.542199
0.396002 0.922362 0.535119
0.407385 0.920378 0.526604
0.420722 0.918242 0.517540
0.435279 0.915801 0.507713
0.450813 0.913085 0.497505
0.488167 0.908202 0.504387
0.526146 0.902647 0.514000
0.561608 0.896788 0.524071
0.594781 0.890593 0.534813
0.627771 0.890501 0.535210
0.664515 0.895537 0.525628
0.703517 0.900206 0.515221
0.743771 0.904448 0.503807
0.784268 0.908293 0.491737
0.824063 0.911711 0.477974
0.862669 0.914733 0.462928
0.899840 0.917388 0.445686
0.935576 0.919646 0.426062
0.970520 0.922240 0.405035
1.000000 0.925719 0.400763
1.000000 0.921141 0.426123
1.000000 0.916228 0.458961
1.000000 0.910643 0.489998
1.000000 0.904784 0.518639
1.000000 0.898863 0.544152
0.413458 0.946563 0.593011
0.414984 0.946593 0.592706
0.417090 0.946532 0.592309
0.420203 0.946197 0.590539
0.424994 0.945586 0.587823
0.430976 0.944732 0.583917
0.438605 0.943603 0.579156
0.447456 0.942290 0.573419
0.458137 0.940734 0.567102
0.470161 0.938994 0.560021
0.483253 0.937041 0.552483
0.497688 0.934844 0.544640
0.522057 0.931609 0.543786
0.557549 0.926879 0.553063
0.591394 0.921843 0.562829
0.623163 0.916625 0.573053
0.652857 0.911223 0.583734
0.682826 0.914153 0.578393
0.715053 0.918059 0.569940
0.748928 0.921691 0.560662
0.783383 0.924926 0.550561
0.818051 0.927855 0.539086
0.852384 0.930388 0.526390
0.885985 0.932586 0.512169
0.918791 0.934417 0.496132
0.950713 0.935973 0.478157
0.981842 0.937224 0.457710
1.000000 0.941161 0.455695
1.000000 0.935424 0.477638
1.000000 0.930205 0.510765
1.000000 0.924498 0.541100
1.000000 0.918669 0.568444
0.474342 0.962524 0.627436
0.475685 0.962524 0.627283
0.476844 0.962402 0.626551
0.479500 0.962066 0.625238
0.483558 0.961517 0.623102
0.488685 0.960754 0.620020
0.495338 0.959808 0.616327
0.503044 0.958648 0.611841
0.512444 0.957366 0.607050
0.523339 0.955901 0.601953
0.535271 0.954284 0.596399
0.548425 0.952483 0.590845
0.562341 0.950500 0.585138
0.593378 0.946502 0.592859
0.624140 0.942199 0.601740
0.653437 0.937743 0.611231
0.680964 0.933165 0.621088
0.706752 0.930114 0.628290
0.732509 0.933471 0.621363
0.759854 0.936584 0.613825
0.788418 0.939422 0.605768
0.817624 0.941955 0.596857
0.847044 0.944182 0.586603
0.876463 0.946075 0.575158
0.905669 0.947692 0.561883
0.934539 0.948974 0.547051
0.963073 0.950042 0.530358
0.991363 0.950805 0.511040
1.000000 0.954650 0.510033
1.000000 0.948119 0.528008
1.000000 0.942535 0.560113
1.000000 0.936797 0.588678
0.535271 0.975189 0.661219
0.536278 0.975158 0.661067
0.537743 0.975036 0.660761
0.539727 0.974792 0.659602
0.543389 0.974334 0.658045
0.548363 0.973754 0.656031
0.554711 0.973053 0.653681
0.562402 0.972259 0.650996
0.571679 0.971313 0.648219
0.582086 0.970275 0.645136
0.593439 0.969055 0.641901
0.605707 0.967681 0.638544
0.618585 0.966186 0.635279
0.638666 0.963684 0.637354
0.665949 0.960082 0.645960
0.691676 0.956359 0.654719
0.716182 0.952575 0.663874
0.739132 0.948852 0.673426
0.760037 0.948516 0.675380
0.781003 0.951202 0.669581
0.803250 0.953613 0.663203
0.826535 0.955810 0.656092
0.850431 0.957702 0.648219
0.874754 0.959380 0.639063
0.899443 0.960754 0.628840
0.924254 0.961913 0.617243
0.949218 0.962799 0.604028
0.974334 0.963439 0.589227
0.999573 0.963745 0.571771
1.000000 0.967376 0.570336
1.000000 0.960235 0.583612
1.000000 0.954437 0.613062
0.601251 0.986053 0.697993
0.602167 0.985992 0.697932
0.603021 0.985901 0.697536
0.604791 0.985657 0.696742
0.607630 0.985260 0.695521
0.611505 0.984741 0.693935
0.616693 0.984100 0.692226
0.622736 0.983368 0.690120
0.630182 0.982483 0.687953
0.638819 0.981506 0.685847
0.648005 0.980407 0.683406
0.658289 0.979156 0.681239
0.669001 0.977813 0.678950
0.680507 0.976318 0.676997
0.703212 0.973327 0.684382
