nova/tdt-studio/app/Lut_mau/luts/lut5.cube
# Created by Adobe Lightroom plugin Export LUT (1.22.0)
# www.johnrellis.com/lightroom/exportlut.htm
# Photo: Portraits (3 of 3).jpg
# Color profile: /Library/Application Support/Adobe/Color/Profiles/Recommended/AdobeRGB1998.icc
LUT_3D_SIZE 5
DOMAIN_MIN 0.000000 0.000000 0.000000
DOMAIN_MAX 0.903226 0.903226 0.903226
0.118807 0.081300 0.070680
0.273045 0.048554 0.069001
0.707729 0.000000 0.000000
0.990082 0.234592 0.000000
1.000000 0.400092 0.000000
0.142184 0.201999 0.108705
0.233402 0.218448 0.085420
0.737575 0.307652 0.000000
0.992584 0.408331 0.000000
1.000000 0.485328 0.000000
0.086488 0.580774 0.245518
0.186404 0.555871 0.183017
0.565576 0.626917 0.083070
0.978607 0.707515 0.000000
1.000000 0.677211 0.202487
0.248661 0.876524 0.490425
0.303593 0.869291 0.455329
0.517052 0.833433 0.456123
0.852689 0.876280 0.352514
1.000000 0.874327 0.422461
0.658167 0.994049 0.730831
0.676997 0.991791 0.725826
0.736019 0.983276 0.717861
0.852873 0.975189 0.751369
0.970123 0.982513 0.697017
0.080659 0.092012 0.247044
0.269932 0.067872 0.238651
0.668757 0.000000 0.202182
0.966094 0.217411 0.215702
1.000000 0.427802 0.258457
0.121431 0.244358 0.246891
0.294102 0.274876 0.274327
0.690639 0.291051 0.249912
0.970733 0.405035 0.247379
1.000000 0.510918 0.294865
0.000000 0.621729 0.376776
0.305760 0.618036 0.395422
0.590082 0.640436 0.325414
0.970703 0.709621 0.379339
1.000000 0.701961 0.428504
0.294255 0.885527 0.560906
0.435157 0.876555 0.570855
0.570733 0.844877 0.539544
0.854643 0.876585 0.480323
1.000000 0.879759 0.558984
0.676600 0.993469 0.755337
0.721431 0.988159 0.765042
0.769253 0.981781 0.755673
0.865782 0.973236 0.784451
0.970520 0.981933 0.740169
0.000000 0.115724 0.697780
0.200931 0.071962 0.696040
0.714137 0.000000 0.691188
0.962890 0.295720 0.655848
1.000000 0.507286 0.605982
0.000000 0.406043 0.676814
0.153811 0.312810 0.685328
0.712947 0.361028 0.691096
0.948913 0.460548 0.650782
1.000000 0.611872 0.635828
0.000000 0.705074 0.671717
0.265782 0.708919 0.674922
0.742580 0.750851 0.718074
0.928985 0.737514 0.686641
1.000000 0.767697 0.699580
0.235630 0.917601 0.710872
0.441047 0.907530 0.714504
0.741787 0.883268 0.746212
0.874418 0.886137 0.716091
1.000000 0.902556 0.782376
0.655116 1.000000 0.800320
0.718288 0.993530 0.811795
0.841886 0.977844 0.845426
0.892027 0.968261 0.850980
0.971893 0.979858 0.829068
0.000000 0.184482 0.919951
0.000000 0.188418 0.918914
0.685939 0.273960 0.914855
0.940581 0.469093 0.904875
1.000000 0.719081 0.869108
0.000000 0.471901 0.907744
0.000000 0.393683 0.910765
0.688594 0.477241 0.907134
0.933043 0.598199 0.899748
1.000000 0.759426 0.872435
0.150332 0.774594 0.885801
0.400488 0.775937 0.883635
0.710689 0.753811 0.890379
0.920775 0.797360 0.892760
1.000000 0.839750 0.878233
0.363622 0.925628 0.884092
0.508293 0.920348 0.882963
0.756130 0.912200 0.884642
0.928313 0.926543 0.906767
0.993988 0.920745 0.895048
0.621454 1.000000 0.888731
0.689906 1.000000 0.891447
0.830076 0.989319 0.902678
0.930205 0.976013 0.922515
0.976196 0.979400 0.914549
0.000000 0.335332 1.000000
0.154788 0.364263 1.000000
0.631617 0.478431 1.000000
0.884154 0.662562 0.992859
0.998444 0.759396 0.985595
0.162142 0.542077 1.000000
0.299016 0.518425 1.000000
0.665187 0.601343 0.998474
0.887999 0.725490 0.989044
0.995239 0.796841 0.983368
0.554955 0.808133 0.987701
0.644648 0.814969 0.985992
0.740749 0.793576 0.986450
0.900572 0.842649 0.981750
0.989319 0.876768 0.979858
0.597498 0.915648 0.982116
0.660182 0.916045 0.980804
0.800870 0.921843 0.977630
0.913787 0.925872 0.977813
0.986664 0.945251 0.980011
0.705135 0.994049 0.981201
0.745357 0.991821 0.980591
0.844114 0.987091 0.979431
0.929931 0.984344 0.978790
0.988098 0.987671 0.984070
