nova/tdt-studio/app/Lut_mau/luts/lut5.cube
# Created by Adobe Lightroom plugin Export LUT (1.22.0)
# www.johnrellis.com/lightroom/exportlut.htm
# Photo: Portraits (3 of 3).jpg
# Color profile: /Library/Application Support/Adobe/Color/Profiles/Recommended/AdobeRGB1998.icc
LUT_3D_SIZE 8
DOMAIN_MIN 0.000000 0.000000 0.000000
DOMAIN_MAX 0.903226 0.903226 0.903226
0.118807 0.081300 0.070680
0.171298 0.081086 0.073579
0.321538 0.000000 0.064912
0.575738 0.000000 0.000000
0.816678 0.000000 0.000000
0.964050 0.192691 0.000000
1.000000 0.323369 0.000000
1.000000 0.400092 0.000000
0.133211 0.121950 0.087404
0.162661 0.125429 0.081575
0.331243 0.110719 0.063844
0.583246 0.042512 0.000000
0.819181 0.134432 0.000000
0.962463 0.265873 0.000000
1.000000 0.361639 0.000000
1.000000 0.425422 0.000000
0.143465 0.241367 0.118410
0.157473 0.232334 0.106813
0.266758 0.265232 0.084810
0.585321 0.351293 0.000000
0.842069 0.395514 0.000000
0.969940 0.438514 0.000000
1.000000 0.478920 0.000000
1.000000 0.508995 0.000000
0.120760 0.462837 0.188144
0.144564 0.453193 0.165621
0.236820 0.420142 0.167788
0.456733 0.513298 0.059266
0.796475 0.614618 0.000000
0.976410 0.627527 0.000000
1.000000 0.620325 0.000000
1.000000 0.619409 0.108858
0.061311 0.687434 0.315709
0.115267 0.681422 0.294163
0.213016 0.661067 0.236423
0.396551 0.655726 0.253849
0.662226 0.715969 0.143557
0.912566 0.768093 0.000000
1.000000 0.762722 0.192416
1.000000 0.733883 0.290227
0.197208 0.843900 0.453956
0.221988 0.843229 0.443641
0.282322 0.833310 0.400397
0.421973 0.810575 0.399359
0.603021 0.821653 0.383734
0.822080 0.850523 0.307439
0.987915 0.870726 0.283696
1.000000 0.850645 0.401495
0.413458 0.946563 0.593011
0.424994 0.945586 0.587823
0.458137 0.940734 0.567102
0.522057 0.931609 0.543786
0.652857 0.911223 0.583734
0.783383 0.924926 0.550561
0.918791 0.934417 0.496132
1.000000 0.935424 0.477638
0.658167 0.994049 0.730831
0.663722 0.993347 0.729244
0.683436 0.991058 0.724666
0.717281 0.987213 0.720241
0.774502 0.977996 0.734035
0.838895 0.973266 0.755489
0.899138 0.979736 0.734249
0.970123 0.982513 0.697017
0.121096 0.087892 0.122866
0.171237 0.083406 0.120699
0.304479 0.020600 0.111574
0.543389 0.000000 0.107210
0.795132 0.000000 0.052888
0.951354 0.181765 0.000000
1.000000 0.321996 0.000000
1.000000 0.405737 0.000000
0.130587 0.132235 0.124178
0.177737 0.133883 0.127077
0.311559 0.127291 0.124269
0.556664 0.085328 0.108766
0.801511 0.129213 0.039765
0.952117 0.259281 0.000000
1.000000 0.361181 0.000000
1.000000 0.430488 0.000000
0.144808 0.256870 0.154604
0.191318 0.257725 0.165774
0.281468 0.275303 0.143191
0.588556 0.347295 0.109621
0.826169 0.387945 0.008179
0.959777 0.433509 0.000000
1.000000 0.477913 0.000000
1.000000 0.513695 0.112154
0.126925 0.477089 0.237247
0.184817 0.474922 0.240604
0.260227 0.444953 0.217533
0.462745 0.514061 0.158724
0.789700 0.606073 0.076967
0.969818 0.620905 0.136477
1.000000 0.620264 0.166232
1.000000 0.624018 0.218906
0.115816 0.696590 0.364233
0.179965 0.692073 0.357641
0.246952 0.671687 0.295781
0.408331 0.655299 0.306218
0.661616 0.713161 0.221897
0.908934 0.765042 0.186221
1.000000 0.762387 0.284245
1.000000 0.739071 0.357244
0.242374 0.845029 0.486885
0.270726 0.842466 0.479927
0.320165 0.832731 0.440070
0.436896 0.811765 0.427314
0.607996 0.819608 0.419837
0.821866 0.849699 0.355291
0.985138 0.869963 0.342687
1.000000 0.851804 0.448432
0.441657 0.944030 0.613275
0.450050 0.942473 0.607111
0.480812 0.937957 0.587701
0.533684 0.930236 0.560388
0.661006 0.910552 0.598016
0.785183 0.923003 0.570916
0.917144 0.932830 0.520012
1.000000 0.934356 0.505852
0.670039 0.992370 0.740993
0.675715 0.991760 0.739620
0.694484 0.989624 0.735073
0.726680 0.985931 0.730556
0.783505 0.978149 0.745418
0.843992 0.972686 0.766323
0.900664 0.979065 0.744411
0.969787 0.981964 0.708095
0.000000 0.093568 0.313512
0.136477 0.088624 0.309850
0.318914 0.031159 0.302373
0.577600 0.000000 0.323064
0.780941 0.000000 0.250248
0.930785 0.162722 0.274510
1.000000 0.339117 0.292302
1.000000 0.441718 0.323308
0.105745 0.169650 0.301793
0.145113 0.145510 0.303044
0.321202 0.139223 0.305516
0.567529 0.000000 0.312230
0.769314 0.000000 0.267430
0.931731 0.251102 0.282933
1.000000 0.378729 0.298955
1.000000 0.466133 0.330724
0.091066 0.302373 0.310063
0.161654 0.307073 0.312291
0.349828 0.347082 0.347997
0.573419 0.344244 0.324254
0.797482 0.380224 0.319463
0.940215 0.437201 0.321569
1.000000 0.496498 0.336248
1.000000 0.545342 0.365332
0.000000 0.531182 0.373358
0.128511 0.531914 0.375311
0.350866 0.537163 0.400031
0.511894 0.554437 0.362554
0.809628 0.619562 0.382330
0.950439 0.631373 0.401068
1.000000 0.641138 0.408911
1.000000 0.653895 0.431281
0.000000 0.726070 0.458106
0.167544 0.724605 0.462501
0.378637 0.718044 0.479103
0.471901 0.681514 0.454078
0.687892 0.729915 0.407843
0.911131 0.772824 0.420569
1.000000 0.774166 0.493263
1.000000 0.764248 0.525597
0.230716 0.859007 0.548394
0.302708 0.856382 0.553857
0.448585 0.846647 0.565606
0.501793 0.829191 0.522667
0.639246 0.821805 0.528771
0.826871 0.851591 0.485664
0.978332 0.871366 0.497078
1.000000 0.861357 0.586175
0.448157 0.949248 0.650629
0.488197 0.946014 0.656336
0.575860 0.937163 0.666072
0.611444 0.929625 0.640223
0.695918 0.913420 0.649714
0.799039 0.921080 0.639643
0.918059 0.932799 0.605371
1.000000 0.935760 0.609216
0.670893 0.993927 0.757626
0.689937 0.991699 0.762478
0.735439 0.986206 0.773037
0.762570 0.983124 0.768368
0.801877 0.977325 0.771725
0.857420 0.970184 0.795926
0.907286 0.977569 0.778927
0.970336 0.981415 0.750240
0.000000 0.105348 0.587823
0.000000 0.100282 0.587396
0.325475 0.000000 0.586206
0.583673 0.000000 0.581170
0.821897 0.000000 0.600763
0.937774 0.129000 0.538323
1.000000 0.294285 0.485603
1.000000 0.502525 0.530816
0.000000 0.204440 0.577874
0.000000 0.164797 0.579675
0.321294 0.153780 0.582574
0.584405 0.121614 0.581811
0.817227 0.184115 0.596460
0.932586 0.234958 0.533776
1.000000 0.350347 0.487617
1.000000 0.522820 0.534752
0.000000 0.410163 0.564813
0.000000 0.410864 0.564965
0.293828 0.357763 0.580682
0.591577 0.386358 0.589044
0.802914 0.410834 0.581628
0.918730 0.419287 0.522210
1.000000 0.527733 0.538598
1.000000 0.599603 0.563012
0.000000 0.586145 0.570916
0.000000 0.588739 0.572045
0.328313 0.603235 0.582544
0.630335 0.649836 0.624170
0.794125 0.631891 0.594751
0.916625 0.645502 0.587762
0.996521 0.671809 0.593805
1.000000 0.700893 0.611261
0.000000 0.776150 0.610895
0.000000 0.773800 0.609400
0.368444 0.767788 0.611505
0.623468 0.760952 0.641535
0.740352 0.763760 0.614618
0.915282 0.796139 0.644923
0.992401 0.801328 0.672633
1.000000 0.800473 0.677272
0.187015 0.884001 0.645777
0.280369 0.882506 0.648951
0.468299 0.872343 0.658595
0.653010 0.857511 0.683528
0.708400 0.832242 0.666316
0.843992 0.861112 0.642115
0.970123 0.879301 0.668025
1.000000 0.879393 0.727504
0.438300 0.958373 0.705653
0.481178 0.955505 0.709621
0.596979 0.945800 0.723781
0.715663 0.932647 0.743404
0.749599 0.922118 0.723323
0.823392 0.920165 0.726070
0.921172 0.933165 0.704128
1.000000 0.938018 0.721370
0.664912 0.997925 0.784482
0.684962 0.995850 0.788571
0.742763 0.989136 0.802152
0.810666 0.980316 0.822263
0.832853 0.976532 0.814694
0.874876 0.969268 0.830869
0.916655 0.975463 0.824002
0.971496 0.980591 0.804501
0.000000 0.129915 0.779232
0.000000 0.125948 0.778927
0.276555 0.079683 0.777981
0.611231 0.000000 0.778592
0.810391 0.129976 0.772763
0.939452 0.363958 0.762722
1.000000 0.464729 0.723720
1.000000 0.567712 0.701137
0.000000 0.232334 0.772671
0.000000 0.193088 0.774350
0.272038 0.188327 0.774777
0.607416 0.201114 0.775937
0.808225 0.256382 0.771267
0.936400 0.425238 0.763088
1.000000 0.501457 0.724605
1.000000 0.589441 0.703609
0.000000 0.492012 0.756344
0.000000 0.484840 0.757473
0.242741 0.393469 0.764981
0.596979 0.433387 0.768917
0.802121 0.474434 0.767361
0.926055 0.574762 0.765530
0.991150 0.594934 0.726223
1.000000 0.647059 0.708064
0.000000 0.659327 0.747127
0.000000 0.659174 0.746700
0.345312 0.662562 0.748043
0.595666 0.646021 0.763516
0.802670 0.678462 0.770291
0.912016 0.697169 0.759792
0.977447 0.690455 0.721920
1.000000 0.732845 0.724788
0.000000 0.791714 0.747311
0.000000 0.791592 0.747616
0.384710 0.791501 0.749905
0.633051 0.797177 0.760281
0.820523 0.822202 0.788937
0.903624 0.806455 0.766049
0.970703 0.808957 0.760586
1.000000 0.821836 0.768246
0.096101 0.907622 0.762234
0.230716 0.906371 0.762844
0.446754 0.898802 0.763729
0.655940 0.885008 0.769039
0.803922 0.874632 0.787808
0.870054 0.877012 0.771298
0.965820 0.894560 0.801633
1.000000 0.899809 0.827359
0.420386 0.969879 0.779446
0.464973 0.966918 0.780758
0.585138 0.957427 0.786221
0.717830 0.944366 0.797726
0.822477 0.931365 0.816526
0.853300 0.918975 0.806516
0.926940 0.934356 0.793759
0.998444 0.942382 0.818906
0.646754 1.000000 0.820951
0.667384 1.000000 0.823423
0.727871 0.994232 0.832273
0.805814 0.985290 0.849241
0.870359 0.976226 0.868315
0.891417 0.971710 0.863737
0.925933 0.973022 0.867369
0.972900 0.979553 0.854978
0.000000 0.171420 0.899199
0.000000 0.172061 0.898955
0.215000 0.167544 0.897337
0.571862 0.193484 0.895598
0.799069 0.315373 0.892851
0.924376 0.413245 0.885679
0.989807 0.586969 0.860594
1.000000 0.689662 0.841672
0.000000 0.267216 0.894377
0.000000 0.237217 0.894926
0.219333 0.246555 0.893919
0.571008 0.282231 0.892393
0.797971 0.385382 0.890043
0.921477 0.464271 0.883482
0.987182 0.616144 0.860990
1.000000 0.703883 0.842771
0.000000 0.537163 0.881132
0.000000 0.516655 0.882231
0.236484 0.441199 0.886229
0.576562 0.480934 0.885039
0.797391 0.553857 0.884031
0.914611 0.601129 0.879362
0.979980 0.698787 0.864317
1.000000 0.747677 0.847227
0.000000 0.713802 0.867582
0.193759 0.710719 0.867430
0.447486 0.706142 0.868467
0.601526 0.671992 0.875395
0.800046 0.712612 0.878050
0.909056 0.738766 0.877562
0.971435 0.792325 0.872404
1.000000 0.802121 0.852934
0.150790 0.817960 0.862791
0.256168 0.817533 0.862425
0.455940 0.816953 0.861387
0.653162 0.820523 0.861723
0.798459 0.817319 0.872221
0.906401 0.838407 0.878050
0.963195 0.848875 0.870420
1.000000 0.845823 0.851133
0.289525 0.906584 0.861631
0.354101 0.905455 0.861784
0.511070 0.900877 0.861570
0.677089 0.896056 0.863005
0.812436 0.897063 0.869444
0.913787 0.911955 0.889097
0.957671 0.903319 0.875608
0.997345 0.906340 0.876158
0.438453 0.977142 0.866270
0.479713 0.975158 0.866758
0.589502 0.968475 0.867887
0.714443 0.959838 0.871000
0.826719 0.947997 0.874937
0.904540 0.939849 0.887938
0.939300 0.941375 0.877806
0.993011 0.952209 0.900664
0.627649 1.000000 0.873442
0.649226 1.000000 0.874479
0.712947 1.000000 0.878416
0.793668 0.992035 0.886351
0.865721 0.982971 0.897856
0.919310 0.975463 0.911955
0.937865 0.971069 0.909972
0.975433 0.979339 0.903471
0.000000 0.237522 0.971038
0.000000 0.243778 0.971008
0.192782 0.263920 0.969299
0.533623 0.316930 0.966064
0.753109 0.424079 0.960967
0.890105 0.544823 0.954955
0.974273 0.619196 0.949157
1.000000 0.739803 0.923796
0.000000 0.318334 0.967376
0.000000 0.302861 0.967834
0.212680 0.325109 0.966247
0.537804 0.375555 0.962890
0.753231 0.468849 0.957885
0.888701 0.574975 0.952117
0.971588 0.638025 0.946654
1.000000 0.748257 0.922911
0.037140 0.558160 0.957794
0.142031 0.543999 0.958282
0.292393 0.497932 0.959686
0.567529 0.538262 0.956359
0.764065 0.602441 0.951812
0.890654 0.675441 0.947814
0.967041 0.714107 0.944152
1.000000 0.796414 0.926940
0.376043 0.738888 0.946014
0.429511 0.739773 0.945312
0.545953 0.736660 0.944427
0.622736 0.701625 0.947173
0.783139 0.735622 0.944823
0.896788 0.782315 0.943755
0.961913 0.801175 0.941863
0.999145 0.850340 0.932433
0.373236 0.834165 0.938170
0.419593 0.834348 0.937316
0.545800 0.836393 0.934997
0.702419 0.836637 0.934417
0.795560 0.825925 0.937530
0.897246 0.852903 0.938903
0.957244 0.866636 0.939178
0.993957 0.896147 0.937987
0.448981 0.903593 0.935210
0.486397 0.902953 0.934813
0.590326 0.901305 0.933501
0.710750 0.900755 0.932128
0.818479 0.904540 0.931365
0.900023 0.908171 0.937407
0.957366 0.920928 0.941863
0.990631 0.927947 0.939849
0.535698 0.964050 0.935088
0.564416 0.962890 0.934997
0.643519 0.958923 0.934264
0.741665 0.954192 0.933623
0.833799 0.950591 0.933471
0.906554 0.951141 0.936492
0.960967 0.959716 0.948211
0.988037 0.956237 0.942138
0.635737 1.000000 0.934264
0.654170 1.000000 0.934325
0.713985 1.000000 0.935485
0.788540 0.996674 0.937163
0.859342 0.990234 0.940429
0.917266 0.983673 0.943877
0.958160 0.978759 0.950866
0.979400 0.980743 0.946319
0.000000 0.335332 1.000000
0.000000 0.344152 1.000000
0.258244 0.374273 1.000000
0.526146 0.435828 1.000000
0.722011 0.527733 1.000000
0.857939 0.636316 0.994476
0.940398 0.712581 0.989380
0.998444 0.759396 0.985595
0.000000 0.399908 1.000000
0.000000 0.396277 1.000000
0.289433 0.424903 1.000000
0.538598 0.479896 1.000000
0.727749 0.562402 0.999268
0.859403 0.658686 0.992981
0.940246 0.727352 0.988159
0.997284 0.769406 0.984619
0.268711 0.591547 1.000000
0.296513 0.584405 1.000000
0.384405 0.562707 1.000000
0.588891 0.605859 0.999115
0.750301 0.661921 0.994232
0.866026 0.725795 0.989166
0.941588 0.777462 0.985260
0.994324 0.806668 0.982666
0.546227 0.768307 0.990387
0.558312 0.765042 0.990570
0.593988 0.751766 0.990906
0.656672 0.734340 0.991485
0.780972 0.765438 0.988159
0.877775 0.804257 0.984741
0.945220 0.838804 0.982208
0.990936 0.854307 0.980743
0.547906 0.844205 0.985412
0.578515 0.845212 0.985077
0.661830 0.848264 0.983673
0.764126 0.857328 0.981750
0.807034 0.842679 0.982696
0.887907 0.864836 0.980743
0.949462 0.889464 0.979736
0.988037 0.898711 0.979370
0.579126 0.902434 0.982238
0.600488 0.902617 0.981750
0.664820 0.903716 0.980377
0.750118 0.907439 0.978424
0.841581 0.913359 0.976898
0.897459 0.912749 0.978210
0.952697 0.929290 0.979065
0.986908 0.937591 0.979919
0.639124 0.951232 0.980896
0.655665 0.950866 0.980560
0.707301 0.950042 0.979614
0.779629 0.950164 0.978332
0.850889 0.952239 0.976989
0.909026 0.956237 0.976257
0.953796 0.958618 0.978912
0.986419 0.965637 0.980774
0.705135 0.994049 0.981201
0.717647 0.993317 0.980987
0.757748 0.991180 0.980438
0.814817 0.988373 0.979767
0.871611 0.985992 0.979095
0.919493 0.984527 0.978759
0.958007 0.984436 0.979461
0.988098 0.987671 0.984070
