nova/tdt-studio/app/Lut_mau/luts/lut6.cube
# Created by Adobe Lightroom plugin Export LUT (1.22.0)
# www.johnrellis.com/lightroom/exportlut.htm
# Preset: Endless-Games_Free-LR-Presets.co
# Color profile: /Library/Application Support/Adobe/Color/Profiles/Recommended/AdobeRGB1998.icc
LUT_3D_SIZE 32
0.116762 0.104982 0.071015
0.117952 0.105257 0.070924
0.119814 0.105623 0.071138
0.124605 0.106172 0.071534
0.135134 0.106905 0.071626
0.152590 0.107179 0.071260
0.177859 0.106722 0.070253
0.212039 0.105623 0.067994
0.252811 0.104646 0.064607
0.296086 0.104982 0.059052
0.339239 0.108003 0.046693
0.380194 0.114351 0.028443
0.418433 0.123476 0.009613
0.454383 0.134646 0.000000
0.488167 0.147005 0.000000
0.520378 0.159457 0.000000
0.551507 0.171450 0.000000
0.581872 0.183627 0.000000
0.611566 0.195529 0.000000
0.646174 0.208652 0.000000
0.679896 0.221744 0.008545
0.711604 0.234653 0.061891
0.740932 0.247776 0.091188
0.768185 0.260685 0.120607
0.793942 0.274022 0.149569
0.818204 0.287877 0.181827
0.841672 0.302983 0.216648
0.864286 0.319310 0.254978
0.885985 0.337224 0.296788
0.906676 0.357610 0.342504
0.926329 0.380438 0.391180
0.944793 0.406592 0.441047
0.117067 0.106142 0.071199
0.118257 0.106416 0.071107
0.119875 0.106874 0.071321
0.125124 0.107515 0.071351
0.135988 0.108644 0.071351
0.153994 0.109468 0.070863
0.179721 0.109773 0.069642
0.213443 0.109682 0.067659
0.253910 0.109712 0.063630
0.297032 0.111421 0.057221
0.339605 0.114717 0.043702
0.379950 0.121248 0.025513
0.418128 0.130617 0.006348
0.453712 0.141573 0.000000
0.487312 0.153414 0.000000
0.519280 0.164920 0.000000
0.550286 0.176608 0.000000
0.580652 0.188418 0.000000
0.610193 0.199893 0.000000
0.644373 0.212070 0.000000
0.677485 0.224491 0.003326
0.708827 0.236881 0.058320
0.738033 0.249393 0.088075
0.765408 0.261814 0.116274
0.791165 0.274846 0.145846
0.815671 0.288457 0.177951
0.839445 0.303014 0.212070
0.862211 0.319280 0.251041
0.884245 0.336858 0.292332
0.905150 0.356847 0.338262
0.924956 0.379370 0.387030
0.943572 0.405310 0.437385
0.117800 0.107973 0.071290
0.118746 0.108278 0.071199
0.120424 0.108186 0.071138
0.125521 0.109590 0.071412
0.137118 0.111238 0.071290
0.155581 0.112795 0.070680
0.182040 0.113954 0.068849
0.215854 0.115023 0.066621
0.256352 0.116854 0.062074
0.298711 0.119265 0.054963
0.341161 0.124300 0.039704
0.381201 0.131258 0.021057
0.418799 0.139925 0.002106
0.454414 0.151003 0.000000
0.487678 0.161746 0.000000
0.519799 0.173312 0.000000
0.550622 0.184207 0.000000
0.580682 0.195163 0.000000
0.610071 0.205509 0.000000
0.644099 0.217502 0.000000
0.676844 0.229526 0.000244
0.707942 0.241215 0.056550
0.737118 0.253178 0.086702
0.764462 0.265141 0.115175
0.790158 0.277653 0.145113
0.814755 0.290715 0.176394
0.838499 0.304967 0.210880
0.861418 0.320806 0.249454
0.883452 0.338293 0.291325
0.904448 0.357946 0.337011
0.924315 0.380163 0.385595
0.943023 0.405646 0.435706
0.118959 0.113588 0.071199
0.120363 0.113802 0.071077
0.122438 0.114107 0.070954
0.127321 0.114992 0.070924
0.138796 0.117830 0.070619
0.159060 0.121370 0.069490
0.186007 0.124392 0.067597
0.221286 0.127871 0.064240
0.261967 0.131716 0.059297
0.304784 0.136873 0.047272
0.346075 0.143221 0.028534
0.385321 0.150881 0.008972
0.422309 0.160037 0.000000
0.456977 0.169467 0.000000
0.490120 0.179538 0.000000
0.521691 0.189670 0.000000
0.552331 0.199619 0.000000
0.582147 0.209049 0.000000
0.612085 0.218814 0.000000
0.644770 0.229496 0.000000
0.676570 0.240208 0.000000
0.706996 0.250736 0.052186
0.735927 0.261601 0.086305
0.763607 0.273045 0.114839
0.789822 0.284703 0.145144
0.814847 0.297551 0.177829
0.838926 0.311315 0.213077
0.861875 0.326726 0.252201
0.883909 0.343603 0.293980
0.904723 0.362554 0.339178
0.924315 0.383978 0.387182
0.942748 0.408515 0.436316
0.120089 0.125551 0.070436
0.121920 0.125856 0.070283
0.124666 0.126009 0.070497
0.130953 0.126955 0.069978
0.141573 0.129000 0.069368
0.160952 0.133577 0.067994
0.190249 0.140322 0.065064
0.227756 0.147372 0.060578
0.268223 0.154147 0.051179
0.310002 0.161624 0.033783
0.351110 0.169619 0.013825
0.390234 0.177859 0.000000
0.427161 0.186770 0.000000
0.461524 0.196170 0.000000
0.494179 0.204746 0.000000
0.525719 0.213535 0.000000
0.556237 0.221866 0.000000
0.585809 0.230014 0.000000
0.616663 0.238712 0.000000
0.648432 0.247745 0.000000
0.679225 0.256870 0.000000
0.709071 0.266056 0.053498
0.737453 0.275578 0.087709
0.764675 0.285771 0.117098
0.790677 0.296422 0.147860
0.815488 0.308019 0.180941
0.839475 0.320897 0.215946
0.862181 0.335058 0.255070
0.884001 0.351019 0.296422
0.904570 0.369055 0.341497
0.924132 0.389410 0.388556
0.942473 0.413153 0.437263
0.120546 0.145632 0.068177
0.123079 0.145968 0.067964
0.127138 0.146242 0.067689
0.134798 0.146822 0.067536
0.147494 0.148806 0.066712
0.165591 0.152468 0.065400
0.193729 0.160281 0.061738
0.232151 0.171176 0.053132
0.276402 0.183078 0.034058
0.318853 0.192996 0.012451
0.358770 0.202152 0.000000
0.396704 0.210636 0.000000
0.432990 0.219303 0.000000
0.467536 0.227543 0.000000
0.500450 0.235294 0.000000
0.532372 0.242832 0.000000
0.562676 0.249729 0.000000
0.592126 0.256291 0.000000
0.623468 0.263706 0.000000
0.654444 0.270970 0.000000
0.684596 0.278508 0.000000
0.713893 0.286229 0.060945
0.763119 0.305577 0.121706
0.788571 0.314824 0.152804
0.812345 0.324559 0.185306
0.834836 0.335241 0.218936
0.856138 0.346868 0.254673
0.876493 0.359838 0.292515
0.895933 0.374640 0.333196
0.914580 0.391577 0.375952
0.932189 0.411048 0.420203
0.948913 0.433722 0.463874
0.120119 0.178378 0.062226
0.124117 0.178378 0.062013
0.129397 0.178836 0.061555
0.140322 0.179263 0.061128
0.155581 0.180270 0.060121
0.177371 0.184634 0.057099
0.204349 0.190768 0.050843
0.241398 0.202579 0.035554
0.285374 0.216953 0.010834
0.331212 0.231754 0.000000
0.375463 0.245151 0.000000
0.412390 0.253056 0.000000
0.447364 0.260502 0.000000
0.480934 0.267094 0.000000
0.512871 0.273045 0.000000
0.543511 0.278416 0.000000
0.573785 0.283360 0.000000
0.605280 0.289036 0.000000
0.637354 0.294926 0.000000
0.668513 0.300725 0.000000
0.699184 0.307073 0.024628
0.729366 0.314122 0.082094
0.758450 0.322210 0.116915
0.785946 0.330785 0.151095
0.811337 0.340063 0.186618
0.834562 0.349798 0.222232
0.856138 0.360449 0.258549
0.876402 0.372137 0.296330
0.895781 0.385565 0.336339
0.914031 0.401068 0.378729
0.931548 0.419165 0.421790
0.948180 0.440528 0.464576
0.119265 0.217258 0.046113
0.124361 0.217350 0.046357
0.130983 0.217502 0.045167
0.144503 0.217777 0.043702
0.163241 0.218235 0.040711
0.185977 0.220523 0.035554
0.214511 0.226688 0.026398
0.247105 0.234684 0.012451
0.287358 0.248386 0.000000
0.331579 0.263951 0.000000
0.375463 0.278294 0.000000
0.418036 0.291173 0.000000
0.456031 0.300145 0.000000
0.488869 0.305730 0.000000
0.520256 0.309972 0.000000
0.550561 0.313603 0.000000
0.581262 0.317479 0.000000
0.612909 0.321996 0.000000
0.643732 0.325994 0.000000
0.673854 0.329595 0.000000
0.704067 0.334356 0.045747
0.733577 0.339239 0.089479
0.761776 0.345220 0.123781
0.788266 0.352026 0.158572
0.812924 0.359472 0.193668
0.835599 0.367651 0.229191
0.856779 0.376593 0.264866
0.876768 0.386725 0.302098
0.895781 0.398657 0.341802
0.913909 0.412757 0.383032
0.931243 0.429511 0.425208
0.947692 0.449561 0.467262
0.118013 0.262394 0.010254
0.124178 0.262333 0.010498
0.132998 0.262272 0.009155
0.148959 0.262272 0.007446
0.170443 0.262669 0.003723
0.195010 0.262608 0.000061
0.223758 0.266819 0.000000
0.256748 0.274601 0.000000
0.292210 0.283604 0.000000
0.333288 0.297795 0.000000
0.376440 0.313085 0.000000
0.417884 0.325658 0.000000
0.458473 0.336889 0.000000
0.497627 0.345861 0.000000
0.530083 0.349828 0.000000
0.560632 0.352361 0.000000
0.592218 0.355230 0.000000
0.622797 0.357733 0.000000
0.651820 0.359319 0.000000
0.680964 0.361608 0.007233
0.709865 0.364233 0.074067
0.738338 0.367529 0.108034
0.765896 0.371740 0.139956
0.791867 0.376532 0.172732
0.816098 0.381781 0.205814
0.838193 0.387945 0.239658
0.858640 0.395270 0.275608
0.878111 0.403845 0.311681
0.896635 0.414221 0.350286
0.914336 0.426825 0.390234
0.931243 0.442145 0.431342
0.947509 0.460639 0.471504
0.117281 0.309545 0.000000
0.124910 0.309331 0.000000
0.134279 0.309392 0.000000
0.153109 0.308995 0.000000
0.177157 0.308812 0.000000
0.203769 0.308476 0.000000
0.231693 0.308202 0.000000
0.264530 0.314946 0.000000
0.299626 0.323278 0.000000
0.335973 0.332830 0.000000
0.375799 0.345678 0.000000
0.417945 0.359930 0.000000
0.457771 0.370733 0.000000
0.496712 0.379644 0.000000
0.536187 0.387884 0.000000
0.574701 0.394263 0.000000
0.605432 0.395117 0.000000
0.634760 0.394995 0.000000
0.662837 0.394903 0.000000
0.690394 0.395178 0.065522
0.717647 0.396033 0.100221
0.744320 0.397436 0.130770
0.770047 0.399634 0.161044
0.794461 0.402441 0.192020
0.817502 0.405982 0.223636
0.839231 0.410315 0.255344
0.859709 0.415595 0.288365
0.879271 0.422309 0.322332
0.897642 0.431250 0.360082
0.915068 0.442695 0.399695
0.931853 0.456886 0.439643
0.947906 0.474342 0.478737
0.118379 0.354864 0.000000
0.127077 0.354742 0.000000
0.138033 0.354467 0.000000
0.157351 0.354162 0.000000
0.183566 0.353765 0.000000
0.211643 0.353552 0.000000
0.240604 0.353033 0.000000
0.271122 0.354986 0.000000
0.305577 0.362371 0.000000
0.341161 0.371008 0.000000
0.377905 0.380529 0.000000
0.416754 0.392157 0.000000
0.458595 0.405524 0.000000
0.498787 0.415381 0.000000
0.537804 0.423072 0.000000
0.576165 0.428565 0.000000
0.613672 0.432197 0.000000
0.646052 0.432654 0.000000
0.672663 0.430335 0.060975
0.698939 0.428717 0.096498
0.724971 0.427863 0.126955
0.750515 0.427832 0.156405
0.775143 0.428565 0.186740
0.798703 0.430091 0.216434
0.820737 0.432197 0.247684
0.841581 0.435096 0.278050
0.861265 0.438972 0.309361
0.880064 0.444282 0.342260
0.898131 0.451484 0.376745
0.915465 0.460792 0.412482
0.932219 0.472816 0.448463
0.947997 0.488685 0.485695
0.124361 0.398657 0.000000
0.133120 0.398749 0.000000
0.143923 0.398444 0.000000
0.163546 0.398199 0.000000
0.190494 0.397589 0.000000
0.218997 0.397009 0.000000
0.248661 0.396490 0.000000
0.278416 0.396124 0.000000
0.310796 0.400458 0.000000
0.345678 0.407965 0.000000
0.381476 0.416754 0.000000
0.420020 0.428138 0.000000
0.474800 0.454475 0.000000
0.518578 0.466377 0.000000
0.557916 0.471962 0.000000
0.596155 0.475380 0.000000
0.633082 0.476814 0.044190
0.667506 0.476570 0.093263
0.699519 0.475471 0.128267
0.724544 0.471962 0.157351
0.747707 0.468666 0.183841
0.770260 0.466499 0.210880
0.791867 0.464912 0.237308
0.812619 0.464454 0.264866
0.832364 0.464851 0.293187
0.851164 0.466224 0.321294
0.868986 0.468879 0.350317
0.886229 0.472786 0.379644
0.902800 0.478676 0.410346
0.918975 0.486793 0.441779
0.934661 0.497627 0.473457
0.949889 0.511681 0.505699
0.136141 0.446021 0.000000
0.144442 0.445716 0.000000
0.154940 0.445228 0.000000
0.174838 0.444251 0.000000
0.200351 0.443061 0.000000
0.228641 0.441810 0.000000
0.257847 0.440589 0.000000
0.287480 0.439643 0.000000
0.317021 0.439033 0.000000
0.352544 0.447913 0.000000
0.389868 0.458228 0.000000
0.428748 0.469520 0.000000
0.469459 0.481239 0.000000
0.512139 0.492714 0.000000
0.556298 0.502953 0.000000
0.594324 0.506126 0.031403
0.630732 0.506798 0.087953
0.664424 0.505852 0.121157
0.696040 0.503990 0.152773
0.726375 0.502220 0.184329
0.754299 0.500450 0.215091
0.775570 0.496651 0.240604
0.796017 0.493812 0.266239
0.815671 0.492012 0.292638
0.834562 0.491157 0.318791
0.852506 0.491402 0.345281
0.869780 0.492775 0.372198
0.886412 0.495766 0.400122
0.902556 0.500542 0.428412
0.918425 0.507591 0.457496
0.933837 0.517418 0.487221
0.948791 0.530571 0.517815
0.149691 0.483009 0.000000
0.158450 0.482643 0.000000
0.167758 0.482216 0.000000
0.185733 0.481331 0.000000
0.209720 0.480171 0.000000
0.237247 0.479225 0.000000
0.266117 0.478889 0.000000
0.295262 0.478706 0.000000
0.324865 0.478767 0.000000
0.355993 0.481422 0.000000
0.391760 0.490028 0.000000
0.428870 0.499672 0.000000
0.467323 0.509483 0.000000
0.507530 0.519249 0.000000
0.549554 0.528313 0.001617
0.592493 0.535637 0.087068
0.628046 0.535821 0.118990
0.661189 0.534203 0.148135
0.692500 0.531792 0.177401
0.722560 0.529442 0.206546
0.751217 0.527398 0.238010
0.778378 0.525872 0.269780
0.800809 0.523430 0.297917
0.819638 0.520409 0.322484
0.837613 0.518517 0.347265
0.854765 0.517662 0.372351
0.871305 0.518120 0.397345
0.887327 0.520073 0.422827
0.903014 0.523980 0.448798
0.918425 0.530175 0.475624
0.933501 0.539055 0.503014
0.948150 0.551293 0.531853
0.170138 0.520317 0.000000
0.176608 0.520195 0.000000
0.184390 0.519799 0.000000
0.201114 0.519158 0.000000
0.223117 0.518090 0.000000
0.248295 0.516869 0.000000
0.275456 0.515709 0.000000
0.303563 0.514794 0.000000
0.331792 0.514305 0.000000
0.360449 0.514275 0.000000
0.392920 0.519127 0.000000
0.428290 0.527245 0.000000
0.464912 0.535821 0.000000
0.503197 0.544427 0.000000
0.542962 0.552270 0.073121
0.584314 0.559289 0.110567
0.626123 0.564538 0.150484
0.658686 0.562341 0.175814
0.689448 0.559442 0.202853
0.719234 0.556451 0.230442
0.747585 0.553826 0.259770
0.774441 0.551568 0.290349
0.799466 0.549889 0.321355
0.822782 0.548974 0.352605
0.840726 0.546471 0.376989
0.857267 0.544854 0.400336
0.873411 0.544457 0.423377
0.889036 0.545953 0.447608
0.904448 0.549401 0.471992
0.919615 0.555169 0.496925
0.934356 0.563714 0.522942
0.948577 0.575677 0.550591
0.191623 0.554376 0.000000
0.197177 0.554284 0.000000
0.203952 0.554131 0.000000
0.218387 0.553460 0.000000
0.238010 0.552483 0.000000
0.260960 0.551507 0.000000
0.286229 0.550500 0.000000
0.312779 0.549676 0.000000
0.340154 0.548882 0.000000
0.367468 0.548363 0.000000
0.395178 0.547784 0.000000
0.428443 0.554070 0.000000
0.463020 0.560723 0.000000
0.498726 0.567620 0.070527
0.535821 0.574243 0.104768
0.574731 0.580346 0.135500
0.615320 0.585870 0.165103
0.655268 0.589532 0.202213
0.686610 0.586786 0.229618
0.716487 0.583734 0.256626
0.745052 0.580804 0.284703
0.771969 0.578119 0.314549
0.796994 0.575982 0.344121
0.820340 0.574426 0.373724
0.841855 0.573785 0.403876
0.861112 0.573816 0.431281
0.876524 0.572717 0.452094
0.891569 0.573358 0.473518
0.906310 0.576043 0.495247
0.920714 0.580865 0.517876
0.934722 0.588434 0.541680
0.948333 0.599176 0.566949
0.212192 0.583825 0.000000
0.216739 0.583673 0.000000
0.222995 0.583276 0.000000
0.234806 0.582666 0.000000
0.252201 0.581811 0.000000
0.273106 0.580713 0.000000
0.296025 0.579614 0.000000
0.320714 0.578607 0.000000
0.346227 0.577661 0.000000
0.372259 0.576806 0.000000
0.398840 0.576074 0.000000
0.427131 0.577264 0.022614
0.460212 0.583337 0.077150
0.494118 0.589441 0.106996
0.529412 0.595239 0.134829
0.565759 0.600610 0.162142
0.603906 0.605432 0.189120
0.643702 0.610071 0.216983
0.682185 0.612879 0.252140
0.713069 0.610437 0.280888
0.741390 0.606958 0.307378
0.768063 0.603845 0.335271
0.793179 0.601068 0.363531
0.816617 0.599023 0.392004
0.838376 0.597803 0.419928
0.858518 0.597711 0.447272
0.877256 0.599023 0.473701
0.893248 0.600458 0.496315
0.907439 0.602350 0.516442
0.921386 0.606561 0.537316
0.934905 0.613367 0.559594
0.947997 0.623438 0.583886
0.232883 0.611353 0.066163
0.236973 0.611383 0.067170
0.250553 0.621851 0.094148
0.260716 0.621180 0.094820
0.275456 0.620233 0.095521
0.293278 0.618891 0.096376
0.313878 0.617426 0.097597
0.336095 0.615900 0.099031
0.359930 0.614435 0.101198
0.384375 0.613123 0.105928
0.409461 0.611872 0.110506
0.435004 0.610468 0.115023
0.464240 0.612757 0.131014
0.496376 0.617609 0.154788
0.529747 0.622248 0.178317
0.564477 0.626673 0.201846
0.600702 0.630823 0.226719
0.638178 0.634577 0.252354
0.676997 0.638209 0.278386
0.713558 0.640101 0.311925
0.742916 0.637324 0.340734
0.768826 0.633204 0.366125
0.793332 0.629511 0.391791
0.816129 0.626581 0.417060
0.837217 0.624201 0.441749
0.856870 0.622950 0.465400
0.875181 0.623011 0.488655
0.892302 0.624903 0.512291
0.908446 0.628901 0.536187
0.921965 0.632593 0.556298
0.934936 0.638575 0.577295
0.947387 0.647791 0.600671
0.254673 0.639521 0.128115
0.259007 0.640772 0.131258
0.264714 0.641840 0.134157
0.274266 0.642573 0.137240
0.287785 0.642634 0.140322
0.304204 0.641993 0.141390
0.322789 0.640833 0.143099
0.343420 0.639460 0.144015
0.365179 0.638209 0.146548
0.388251 0.636805 0.149599
0.411994 0.635492 0.152956
0.436378 0.634119 0.157046
0.461128 0.632471 0.161074
0.491524 0.636378 0.181338
0.523033 0.640589 0.202914
0.555932 0.644556 0.225162
0.590204 0.648402 0.248447
0.625818 0.652003 0.271946
0.662684 0.655543 0.297307
0.700587 0.659144 0.323369
0.736233 0.661097 0.355383
0.764950 0.659052 0.386206
0.789578 0.655055 0.410346
0.812680 0.651575 0.433845
0.834012 0.648737 0.456947
0.853910 0.646998 0.479530
0.872465 0.646448 0.501579
0.889799 0.647669 0.524224
0.906065 0.650996 0.547448
0.921202 0.656733 0.571466
0.934905 0.664363 0.595575
0.946807 0.672480 0.617823
0.272221 0.662379 0.171817
0.275883 0.663416 0.175357
0.280705 0.664454 0.177188
0.289067 0.665095 0.180667
0.301061 0.665187 0.182589
0.315404 0.664607 0.184329
0.332403 0.663569 0.185367
0.350988 0.662409 0.186313
0.371221 0.661128 0.188693
0.392767 0.659907 0.190555
0.415259 0.658686 0.194125
0.438605 0.657313 0.197177
0.462196 0.655695 0.201083
0.487892 0.655451 0.208774
0.517937 0.659266 0.229160
0.549248 0.662959 0.249973
0.581903 0.666468 0.271733
0.615747 0.669947 0.294469
0.650904 0.673335 0.317998
0.687129 0.676783 0.342382
0.723781 0.680262 0.367895
0.758480 0.682643 0.397650
0.786435 0.681056 0.428382
0.809506 0.677089 0.450813
0.831052 0.673701 0.472084
0.851041 0.671229 0.493233
0.869688 0.669978 0.514061
0.887114 0.670466 0.535790
0.903471 0.672969 0.557946
0.918730 0.677790 0.581292
0.932830 0.685267 0.605982
0.945647 0.695460 0.632685
0.288701 0.684596 0.214450
0.291875 0.685603 0.216434
0.296056 0.686549 0.219333
0.303563 0.687129 0.221866
0.314122 0.687190 0.223575
0.327123 0.686702 0.225071
0.341985 0.685817 0.225895
0.358892 0.684688 0.227054
0.377569 0.683467 0.228733
0.397589 0.682277 0.231083
0.418708 0.681056 0.233707
0.440742 0.679713 0.236515
0.463386 0.678157 0.239536
0.486763 0.676417 0.242374
0.513695 0.677852 0.255436
0.543877 0.681483 0.275792
0.575463 0.685176 0.297551
0.608484 0.688960 0.319982
0.642664 0.692775 0.343755
0.677882 0.696681 0.368322
0.713710 0.700649 0.392828
0.749783 0.704646 0.417731
0.783658 0.707362 0.444526
0.810391 0.706416 0.474220
0.831968 0.702663 0.494728
0.851926 0.699794 0.514855
0.870420 0.698054 0.534905
0.887694 0.697993 0.555352
0.903838 0.699947 0.576928
0.918791 0.704097 0.599451
0.932555 0.710597 0.623621
0.945006 0.719905 0.650202
0.308476 0.710628 0.265476
0.310887 0.710994 0.266728
0.313787 0.711269 0.267216
0.319921 0.711208 0.268528
0.328771 0.710933 0.269596
0.340124 0.710201 0.270146
0.353643 0.709377 0.270909
0.369116 0.708400 0.272343
0.386297 0.707546 0.273869
0.404944 0.706600 0.275975
0.424964 0.705623 0.279301
0.445960 0.704494 0.281804
0.467781 0.703090 0.284764
0.490211 0.701472 0.287175
0.513298 0.699580 0.290074
0.541985 0.702480 0.307805
0.572168 0.705745 0.328161
0.603754 0.709133 0.349096
0.636378 0.712520 0.370367
0.669764 0.715938 0.392859
0.703731 0.719387 0.414527
0.737942 0.722805 0.436225
0.771969 0.726223 0.457435
0.804044 0.728664 0.479988
0.829160 0.727840 0.508324
0.849149 0.724300 0.527276
0.867826 0.721920 0.546746
0.885222 0.721157 0.566583
0.901427 0.722316 0.587671
0.916472 0.725521 0.609857
0.930297 0.731106 0.633845
0.942748 0.739132 0.659937
0.324010 0.731746 0.306096
0.326177 0.732113 0.307073
0.328923 0.732448 0.308263
0.334264 0.732418 0.309056
0.342168 0.732174 0.310063
0.352209 0.731502 0.310857
0.364172 0.730678 0.311070
0.378241 0.729732 0.311742
0.394079 0.728786 0.313054
0.411322 0.727871 0.315221
0.430060 0.726925 0.317327
0.449866 0.725826 0.320073
0.470436 0.724636 0.322667
0.492103 0.723171 0.324865
0.514305 0.721584 0.327825
0.538842 0.721065 0.334508
0.568048 0.724208 0.353552
0.598444 0.727443 0.373266
0.629938 0.730678 0.394079
0.662135 0.734066 0.414496
0.695003 0.737423 0.434821
0.728084 0.740841 0.455116
0.760922 0.744320 0.475044
0.793423 0.747707 0.494087
0.821836 0.748165 0.509636
0.845457 0.747677 0.537011
0.864469 0.744839 0.556542
0.882017 0.743343 0.576074
0.898405 0.743648 0.596582
0.913664 0.745998 0.618555
0.927672 0.750759 0.642634
0.940124 0.757565 0.668452
0.343328 0.755795 0.354314
0.345312 0.756222 0.355291
0.347570 0.756435 0.356359
0.352209 0.756283 0.356786
0.358923 0.755795 0.356542
0.367620 0.755062 0.356786
0.378241 0.754086 0.356542
0.390539 0.752956 0.356420
0.404730 0.751766 0.356634
0.420417 0.750515 0.357824
0.437507 0.749203 0.358648
0.455818 0.747951 0.359838
0.475166 0.746548 0.361669
0.495460 0.744900 0.362860
0.516503 0.743038 0.364630
0.538415 0.740963 0.366247
0.564202 0.741604 0.377081
0.593225 0.744259 0.394690
0.623377 0.747250 0.412940
0.654597 0.750454 0.431952
0.686305 0.753750 0.451209
0.718227 0.757107 0.470008
0.749966 0.760250 0.488472
0.781064 0.763272 0.506188
0.811215 0.766140 0.523095
0.839994 0.768734 0.540185
0.861814 0.768307 0.566918
0.879728 0.766506 0.587396
0.896086 0.765835 0.607263
0.911345 0.767208 0.628717
0.925261 0.770779 0.652369
0.937774 0.776364 0.677821
0.359380 0.775479 0.390875
0.361242 0.775906 0.392126
0.363378 0.776120 0.392889
0.367529 0.775998 0.393408
0.373510 0.775601 0.393500
0.381353 0.774960 0.393408
0.390997 0.774136 0.393652
0.402258 0.773251 0.393652
0.415320 0.772244 0.394476
0.429969 0.771298 0.395483
0.445960 0.770352 0.396490
0.463355 0.769345 0.398230
0.481788 0.768215 0.399786
0.501213 0.766903 0.401495
0.521508 0.765377 0.403204
0.542565 0.763699 0.404883
0.564691 0.761837 0.406683
0.592493 0.764004 0.421759
0.621576 0.766720 0.438483
0.651698 0.769619 0.455695
0.682307 0.772610 0.473243
0.713069 0.775631 0.490364
0.743618 0.778561 0.507195
0.773465 0.781430 0.523766
0.802640 0.784146 0.539971
0.830716 0.786862 0.555749
0.857633 0.789639 0.571710
0.877836 0.789792 0.598535
0.894804 0.789395 0.620966
0.909972 0.789975 0.642573
0.923644 0.792264 0.665553
0.936004 0.796811 0.690791
0.378515 0.796017 0.428321
0.380194 0.796262 0.428901
0.382055 0.796292 0.429389
0.385443 0.796078 0.429358
0.390539 0.795621 0.429328
0.397345 0.794919 0.429053
0.405829 0.794125 0.428779
0.416022 0.793240 0.428748
0.427924 0.792355 0.429236
0.441444 0.791531 0.430152
0.456367 0.790677 0.431464
0.472633 0.789914 0.432654
0.490150 0.788998 0.434546
0.508629 0.787900 0.436164
0.527916 0.786587 0.437659
0.548119 0.785092 0.439490
0.569177 0.783413 0.440894
0.592462 0.782803 0.446296
0.620691 0.785183 0.460945
0.649653 0.787808 0.476661
0.679194 0.790463 0.492592
0.708827 0.793210 0.508476
0.738186 0.795926 0.524407
0.767086 0.798550 0.539971
0.795193 0.801114 0.555596
0.822202 0.803647 0.570916
0.848234 0.806241 0.586358
0.872923 0.808957 0.601831
0.891966 0.809903 0.628443
0.907683 0.810575 0.653101
0.921324 0.811734 0.675807
0.933745 0.815122 0.700404
0.398718 0.815244 0.460853
0.400092 0.815396 0.461494
0.401648 0.815396 0.461524
0.404730 0.815274 0.461677
0.409674 0.814969 0.462165
0.416052 0.814694 0.462440
0.424414 0.814481 0.463447
0.434546 0.814328 0.464973
0.446326 0.814298 0.466651
0.459754 0.814267 0.469215
0.474525 0.814237 0.471839
0.490486 0.814176 0.474403
0.507530 0.813931 0.477028
0.525505 0.813382 0.479591
0.544121 0.812589 0.481636
0.563409 0.811429 0.483314
0.583429 0.810147 0.485267
0.604242 0.808865 0.487098
0.629206 0.809506 0.496040
0.657069 0.811704 0.509880
0.685359 0.813931 0.524010
0.713710 0.816251 0.538659
0.741634 0.818479 0.553185
0.769039 0.820737 0.567712
0.795590 0.822934 0.582574
0.821164 0.825162 0.597162
0.845579 0.827481 0.612085
0.868833 0.829862 0.627405
0.890623 0.832273 0.642512
0.907469 0.833433 0.668666
0.921294 0.834897 0.695125
0.933227 0.837034 0.718990
0.429206 0.838254 0.500999
0.430243 0.838346 0.501152
0.431525 0.838285 0.501274
0.434119 0.838041 0.501244
0.438056 0.837705 0.500969
0.443549 0.837247 0.501183
0.450629 0.836820 0.501488
0.459113 0.836423 0.501854
0.469429 0.836027 0.502983
0.481209 0.835660 0.504295
0.494179 0.835264 0.505577
0.508507 0.834836 0.507378
0.523888 0.834348 0.508965
0.540276 0.833646 0.510704
0.557488 0.832822 0.512413
