nova/tdt-studio/app/Lut_mau/luts/lut6.cube
# Created by Adobe Lightroom plugin Export LUT (1.22.0)
# www.johnrellis.com/lightroom/exportlut.htm
# Preset: Endless-Games_Free-LR-Presets.co
# Color profile: /Library/Application Support/Adobe/Color/Profiles/Recommended/AdobeRGB1998.icc
LUT_3D_SIZE 5
DOMAIN_MIN 0.000000 0.000000 0.000000
DOMAIN_MAX 0.903226 0.903226 0.903226
0.116762 0.104982 0.071015
0.212039 0.105623 0.067994
0.488167 0.147005 0.000000
0.711604 0.234653 0.061891
0.885985 0.337224 0.296788
0.119265 0.217258 0.046113
0.247105 0.234684 0.012451
0.520256 0.309972 0.000000
0.733577 0.339239 0.089479
0.895781 0.398657 0.341802
0.170138 0.520317 0.000000
0.303563 0.514794 0.000000
0.542962 0.552270 0.073121
0.774441 0.551568 0.290349
0.904448 0.549401 0.471992
0.308476 0.710628 0.265476
0.369116 0.708400 0.272343
0.513298 0.699580 0.290074
0.737942 0.722805 0.436225
0.901427 0.722316 0.587671
0.456336 0.856870 0.530877
0.483955 0.855589 0.532677
0.566827 0.848417 0.533104
0.716518 0.850584 0.576806
0.877989 0.862303 0.674952
0.134463 0.104036 0.141787
0.228855 0.092348 0.141787
0.464546 0.124697 0.182376
0.658747 0.259007 0.256046
0.855619 0.365057 0.411994
0.127687 0.219791 0.147158
0.260868 0.241611 0.166476
0.478859 0.283818 0.198489
0.684871 0.348760 0.290288
0.864958 0.417121 0.440833
0.179660 0.515373 0.229099
0.305913 0.510918 0.235599
0.517418 0.532494 0.294316
0.746639 0.550195 0.431739
0.887999 0.560815 0.535363
0.320958 0.706416 0.403937
0.382635 0.703578 0.419379
0.514672 0.695521 0.422614
0.730831 0.717159 0.513970
0.894285 0.727840 0.631220
0.486824 0.852628 0.580255
0.510887 0.851438 0.580957
0.592584 0.849027 0.587304
0.725368 0.849180 0.615015
0.878355 0.862394 0.705318
0.116182 0.049714 0.555383
0.274540 0.011139 0.547448
0.483253 0.144778 0.539696
0.691615 0.309148 0.553155
0.835752 0.412879 0.577539
0.060548 0.273533 0.549310
0.269047 0.278233 0.543542
0.482979 0.313298 0.542779
0.676509 0.390814 0.555474
0.827543 0.452979 0.583978
0.182650 0.522484 0.555749
0.305821 0.522026 0.556329
0.518303 0.545769 0.585260
0.677150 0.541955 0.586725
0.846891 0.571374 0.630610
0.335058 0.703334 0.584771
0.399634 0.698177 0.590021
0.547143 0.693019 0.611597
0.724025 0.708980 0.646448
0.879911 0.738491 0.725216
0.505303 0.847745 0.658747
0.544152 0.845884 0.669886
0.632807 0.841703 0.689113
0.730495 0.838743 0.689570
0.874540 0.857633 0.764614
0.148440 0.124758 0.772274
0.274754 0.160250 0.768917
0.477760 0.252811 0.758602
0.695308 0.337499 0.750332
0.869535 0.478828 0.754696
0.211795 0.332525 0.764553
0.305272 0.343206 0.761593
0.487007 0.376165 0.752804
0.691249 0.415747 0.746273
0.864530 0.518273 0.759335
0.302953 0.539178 0.761868
0.381292 0.547234 0.759396
0.532738 0.559655 0.750362
0.688655 0.558190 0.742733
0.848203 0.600183 0.762112
0.384253 0.701167 0.762905
0.439643 0.699428 0.761044
0.574548 0.699367 0.762295
0.727687 0.711208 0.778683
0.844175 0.706722 0.777340
0.542473 0.845670 0.782071
0.573785 0.844022 0.785550
0.657099 0.841276 0.795377
0.754025 0.838743 0.803555
0.872160 0.854429 0.835203
0.213718 0.272648 0.907164
0.292454 0.295109 0.905516
0.462654 0.356298 0.901274
0.656641 0.418158 0.894041
0.845945 0.475196 0.890288
0.281895 0.394781 0.901854
0.339757 0.405158 0.900542
0.486946 0.437110 0.896941
0.663386 0.469490 0.889738
0.843320 0.509819 0.887480
0.413611 0.567315 0.895659
0.460395 0.575586 0.893492
0.558007 0.581445 0.889830
0.688289 0.583978 0.884154
0.843259 0.603571 0.885893
0.494514 0.696376 0.895171
0.527489 0.698695 0.893645
0.621942 0.707546 0.891844
0.732418 0.714748 0.889067
0.854337 0.728939 0.893584
0.587732 0.837705 0.898650
0.609644 0.837339 0.898039
0.680415 0.838682 0.898344
0.771328 0.840879 0.899046
0.868009 0.848569 0.903807
