nova/tdt-studio/app/Lut_mau/luts/lut6.cube
# Created by Adobe Lightroom plugin Export LUT (1.22.0)
# www.johnrellis.com/lightroom/exportlut.htm
# Preset: Endless-Games_Free-LR-Presets.co
# Color profile: /Library/Application Support/Adobe/Color/Profiles/Recommended/AdobeRGB1998.icc
LUT_3D_SIZE 8
DOMAIN_MIN 0.000000 0.000000 0.000000
DOMAIN_MAX 0.903226 0.903226 0.903226
0.116762 0.104982 0.071015
0.135134 0.106905 0.071626
0.252811 0.104646 0.064607
0.418433 0.123476 0.009613
0.551507 0.171450 0.000000
0.679896 0.221744 0.008545
0.793942 0.274022 0.149569
0.885985 0.337224 0.296788
0.120089 0.125551 0.070436
0.141573 0.129000 0.069368
0.268223 0.154147 0.051179
0.427161 0.186770 0.000000
0.556237 0.221866 0.000000
0.679225 0.256870 0.000000
0.790677 0.296422 0.147860
0.884001 0.351019 0.296422
0.118013 0.262394 0.010254
0.170443 0.262669 0.003723
0.292210 0.283604 0.000000
0.458473 0.336889 0.000000
0.592218 0.355230 0.000000
0.709865 0.364233 0.074067
0.816098 0.381781 0.205814
0.896635 0.414221 0.350286
0.136141 0.446021 0.000000
0.200351 0.443061 0.000000
0.317021 0.439033 0.000000
0.469459 0.481239 0.000000
0.630732 0.506798 0.087953
0.754299 0.500450 0.215091
0.834562 0.491157 0.318791
0.902556 0.500542 0.428412
0.212192 0.583825 0.000000
0.252201 0.581811 0.000000
0.346227 0.577661 0.000000
0.460212 0.583337 0.077150
0.603906 0.605432 0.189120
0.741390 0.606958 0.307378
0.838376 0.597803 0.419928
0.907439 0.602350 0.516442
0.288701 0.684596 0.214450
0.314122 0.687190 0.223575
0.377569 0.683467 0.228733
0.463386 0.678157 0.239536
0.575463 0.685176 0.297551
0.713710 0.700649 0.392828
0.831968 0.702663 0.494728
0.903838 0.699947 0.576928
0.359380 0.775479 0.390875
0.373510 0.775601 0.393500
0.415320 0.772244 0.394476
0.481788 0.768215 0.399786
0.564691 0.761837 0.406683
0.682307 0.772610 0.473243
0.802640 0.784146 0.539971
0.894804 0.789395 0.620966
0.456336 0.856870 0.530877
0.464363 0.856382 0.531060
0.493538 0.855344 0.533837
0.544884 0.854520 0.540978
0.602411 0.847349 0.537865
0.689906 0.848539 0.562921
0.791989 0.855985 0.618341
0.877989 0.862303 0.674952
0.120851 0.106416 0.081727
0.138125 0.105745 0.081941
0.238865 0.096345 0.088441
0.392218 0.095857 0.085725
0.528801 0.160281 0.090547
0.653986 0.224002 0.125307
0.771786 0.280552 0.204227
0.871122 0.342290 0.328527
0.121035 0.125948 0.082063
0.144289 0.129183 0.083619
0.251011 0.137942 0.084779
0.406195 0.163790 0.079896
0.537682 0.211917 0.087587
0.658595 0.258549 0.127291
0.771145 0.302068 0.205325
0.869169 0.354681 0.327184
0.118013 0.255100 0.081453
0.161227 0.257755 0.073610
0.285740 0.274876 0.066590
0.447181 0.322972 0.059998
0.572686 0.344640 0.096468
0.688106 0.360479 0.156802
0.792874 0.380407 0.248447
0.881407 0.414343 0.372259
0.129671 0.437171 0.039521
0.192630 0.435706 0.024262
0.312810 0.434272 0.017212
0.453559 0.464240 0.084169
0.602716 0.489754 0.164553
0.725582 0.489357 0.254612
0.813565 0.485023 0.339544
0.890105 0.497353 0.439216
0.218692 0.579126 0.133761
0.254887 0.576562 0.133608
0.344274 0.571283 0.135409
0.450996 0.571893 0.156893
0.588556 0.593408 0.239109
0.726284 0.599420 0.343236
0.827909 0.595087 0.442969
0.899748 0.600641 0.526116
0.291783 0.678309 0.267613
0.312993 0.677516 0.268803
0.374487 0.674311 0.272404
0.458900 0.670527 0.282017
0.569329 0.678370 0.332982
0.708095 0.696407 0.423163
0.826230 0.700160 0.512657
0.899229 0.698848 0.586175
0.360235 0.768124 0.413031
0.371893 0.766659 0.411505
0.413550 0.764340 0.413550
0.480110 0.762020 0.420813
0.562921 0.757351 0.428656
0.678676 0.767575 0.486397
0.797452 0.778866 0.547448
0.889982 0.784878 0.623682
0.459083 0.852628 0.540612
0.467811 0.852628 0.541680
0.496773 0.851926 0.544579
0.547539 0.851469 0.551537
0.612238 0.849302 0.558434
0.693874 0.848508 0.576745
0.791836 0.854398 0.626215
0.876280 0.860288 0.679438
0.141878 0.100649 0.188418
0.181399 0.093721 0.185855
0.274052 0.079805 0.184237
0.422065 0.079713 0.227237
0.524590 0.173617 0.242405
0.620325 0.256321 0.286290
0.743771 0.316411 0.357794
0.852110 0.377874 0.446693
0.124208 0.141268 0.183841
0.169833 0.136233 0.183474
0.276188 0.134279 0.186374
0.415167 0.160647 0.219821
0.517327 0.222171 0.242466
0.623926 0.283055 0.291539
0.745541 0.334203 0.360815
0.852537 0.389990 0.449287
0.126589 0.267094 0.193698
0.173831 0.269444 0.196658
0.306798 0.294835 0.227939
0.422400 0.307347 0.239170
0.541344 0.341833 0.282597
0.655512 0.372198 0.333104
0.764920 0.401404 0.396735
0.861753 0.439033 0.474434
0.146120 0.441413 0.249851
0.203281 0.441291 0.250278
0.321965 0.446235 0.262028
0.449836 0.465248 0.295872
0.591333 0.491066 0.364599
0.700038 0.493019 0.413306
0.794125 0.498146 0.462318
0.877195 0.515526 0.518883
0.220951 0.578576 0.317449
0.260533 0.577050 0.322210
0.351232 0.573846 0.337255
0.447242 0.570062 0.338994
0.582116 0.592859 0.404639
0.714717 0.601556 0.473030
0.817990 0.606104 0.533318
0.888853 0.613153 0.581079
0.295750 0.677516 0.398230
0.321355 0.676204 0.405921
0.385138 0.672084 0.419348
0.461494 0.667628 0.419532
0.563226 0.670832 0.442573
0.699550 0.690211 0.505150
0.816587 0.699977 0.571679
0.893309 0.708461 0.634241
0.378393 0.767788 0.492744
0.395178 0.765988 0.498207
0.435798 0.762295 0.502556
0.494148 0.758846 0.502953
0.570245 0.754025 0.503899
0.680903 0.763149 0.542779
0.798001 0.778256 0.597528
0.887755 0.789761 0.668391
0.485206 0.849821 0.585565
0.496254 0.848508 0.588800
0.520653 0.847379 0.589410
0.568780 0.848051 0.596429
0.626978 0.846067 0.600214
0.700587 0.845212 0.611139
0.795407 0.852689 0.658625
0.876738 0.860441 0.709621
0.126284 0.071382 0.452216
0.189578 0.055573 0.450690
0.305089 0.010712 0.440558
0.420935 0.083803 0.439490
0.557061 0.191287 0.474495
0.649470 0.276555 0.472847
0.736416 0.338781 0.490639
0.825345 0.396918 0.529046
0.079133 0.141543 0.447822
0.170169 0.139162 0.446357
0.300694 0.141451 0.440040
0.420630 0.170779 0.441169
0.555169 0.247501 0.476478
0.643061 0.307408 0.473304
0.730373 0.357244 0.491432
0.821317 0.408240 0.529778
0.060090 0.305150 0.452277
0.161379 0.303288 0.451453
0.301579 0.306767 0.448585
0.423224 0.323033 0.454200
0.542535 0.363714 0.478798
0.632532 0.392554 0.487373
0.724178 0.421515 0.510094
0.831846 0.459083 0.553094
0.131899 0.451209 0.464424
0.195499 0.450996 0.465095
0.317906 0.456062 0.473274
0.450660 0.481453 0.507134
0.545190 0.478920 0.504509
0.648890 0.488563 0.521080
0.754055 0.503990 0.547814
0.851377 0.530144 0.586664
0.222049 0.582513 0.499336
0.259586 0.580346 0.499550
0.352392 0.578027 0.505272
0.460304 0.582116 0.523339
0.578119 0.593500 0.544488
0.703944 0.606653 0.581323
0.796994 0.612482 0.609003
0.872587 0.622553 0.637018
0.305364 0.681239 0.527062
0.333593 0.682460 0.533257
0.401831 0.677424 0.541985
0.487800 0.673304 0.555962
0.568780 0.668177 0.553063
0.698817 0.688746 0.596033
0.808682 0.704036 0.644923
0.885740 0.719905 0.694972
0.390997 0.767849 0.567590
0.409277 0.767056 0.571893
0.463111 0.763821 0.584710
0.531182 0.759823 0.597498
0.595575 0.755642 0.595178
0.688808 0.759823 0.612940
0.797757 0.776577 0.659358
0.882597 0.792660 0.720180
0.503197 0.850736 0.634699
0.515770 0.850065 0.638727
0.552911 0.847196 0.649531
0.599268 0.844724 0.658228
0.648768 0.843046 0.659174
0.710811 0.841611 0.662135
0.798550 0.849821 0.701930
0.876555 0.860014 0.748745
0.125643 0.041505 0.627497
0.188754 0.036194 0.626184
0.306676 0.069520 0.619898
0.424628 0.135592 0.611810
0.548760 0.208743 0.612085
0.677272 0.300389 0.615991
0.770474 0.373510 0.614557
0.847074 0.431098 0.625574
0.104494 0.156100 0.623804
0.179904 0.159762 0.623621
0.304936 0.175509 0.618524
0.423804 0.209751 0.610254
0.547051 0.259586 0.611017
0.675746 0.334112 0.617029
0.767361 0.394141 0.616083
0.844572 0.443641 0.627161
0.136446 0.327916 0.620478
0.202121 0.331762 0.618433
0.314336 0.338598 0.614008
0.428016 0.352209 0.609552
0.544396 0.372473 0.609400
0.669093 0.417395 0.619318
0.754574 0.447913 0.617914
0.834318 0.477821 0.628931
0.186282 0.468605 0.622034
0.233829 0.469520 0.620935
0.339971 0.476051 0.620600
0.450263 0.486275 0.619989
0.555352 0.491951 0.619989
0.661067 0.509117 0.625757
0.738216 0.513664 0.622248
0.821408 0.525200 0.631861
0.242222 0.581598 0.622705
0.276066 0.581476 0.622705
0.363073 0.581262 0.622980
0.469825 0.585870 0.629084
0.585504 0.598901 0.646204
0.662379 0.589166 0.638300
0.752285 0.592370 0.646693
0.843503 0.608423 0.670314
0.320653 0.676967 0.626398
0.343297 0.675868 0.627131
0.407904 0.671962 0.629267
0.495247 0.669337 0.636469
0.586114 0.669459 0.646113
0.693507 0.683070 0.668757
0.799222 0.703822 0.709377
0.872923 0.717372 0.738888
0.409735 0.766018 0.646876
0.425269 0.764614 0.648432
0.474678 0.761044 0.654902
0.545464 0.757229 0.665949
0.617609 0.754086 0.674342
0.686458 0.750607 0.671656
0.793423 0.771664 0.716762
0.876188 0.791745 0.766079
0.513542 0.846708 0.690486
0.524285 0.845823 0.692714
0.558648 0.843198 0.700008
0.614191 0.842466 0.714565
0.667048 0.839780 0.721340
0.720760 0.838407 0.720729
0.796658 0.844175 0.742763
0.874174 0.857053 0.785000
0.145357 0.106905 0.749203
0.197086 0.117678 0.747982
0.305272 0.152621 0.742428
0.422583 0.209232 0.736263
0.541924 0.265354 0.728420
0.670253 0.316014 0.726101
0.783047 0.396277 0.722591
0.868772 0.474617 0.731838
0.155306 0.199161 0.742977
0.203891 0.205417 0.741726
0.308904 0.227481 0.737575
0.423651 0.263890 0.731777
0.540551 0.303746 0.724239
0.667201 0.344366 0.723201
0.780575 0.415351 0.722408
0.866148 0.485817 0.732387
0.224033 0.366094 0.739010
0.254978 0.368170 0.737850
0.337285 0.376349 0.734676
0.439002 0.390723 0.729946
0.547265 0.406226 0.722774
0.666529 0.426642 0.722469
0.777829 0.475868 0.727443
0.860166 0.523491 0.736965
0.272984 0.489998 0.742428
0.302647 0.492439 0.740139
0.384710 0.503075 0.735409
0.475776 0.513542 0.733516
0.570001 0.517418 0.729458
0.673915 0.523400 0.728878
0.778103 0.554131 0.739742
0.852110 0.573083 0.742336
0.309758 0.586114 0.737240
0.335271 0.587366 0.736873
0.408301 0.591974 0.735866
0.503563 0.600732 0.736568
0.592889 0.604730 0.734768
0.679042 0.603723 0.733120
0.768215 0.615656 0.739773
0.835813 0.614557 0.734981
0.352239 0.677302 0.734646
0.374151 0.678004 0.735378
0.435523 0.677546 0.735286
0.519463 0.677607 0.736202
0.607263 0.679561 0.740200
0.702846 0.690303 0.755093
0.767056 0.681758 0.747829
0.844999 0.689387 0.759182
0.438819 0.767880 0.742245
0.455268 0.767605 0.743709
0.502708 0.764950 0.746334
0.567559 0.761868 0.750332
0.637324 0.759365 0.754910
0.708339 0.758328 0.760159
0.793454 0.771359 0.780636
0.873655 0.795285 0.817044
0.536828 0.846067 0.763638
0.546166 0.845243 0.764584
0.577020 0.843015 0.768185
0.624689 0.841245 0.774685
0.679561 0.839292 0.781460
0.735500 0.837675 0.786191
0.792660 0.837827 0.786435
0.872801 0.855253 0.825528
0.169986 0.192416 0.842649
0.209842 0.204471 0.843198
0.303838 0.235721 0.840177
0.413581 0.280430 0.835904
0.529046 0.325994 0.829557
0.648615 0.366094 0.823087
0.768246 0.403540 0.820340
0.863005 0.478737 0.815396
0.189395 0.254765 0.836149
0.225315 0.263066 0.836515
0.311772 0.284245 0.834134
0.416236 0.316197 0.829587
0.527825 0.350408 0.823209
0.643610 0.381445 0.816159
0.760800 0.412360 0.813230
0.856718 0.479896 0.809506
0.268376 0.398566 0.834470
0.290349 0.401190 0.833799
0.354040 0.408881 0.830869
0.443061 0.422705 0.826871
0.543389 0.436988 0.820462
0.650477 0.452094 0.814572
0.762997 0.473365 0.814786
0.858366 0.529503 0.817411
0.347875 0.516136 0.834409
0.367956 0.519280 0.832517
0.424018 0.527367 0.828458
0.493233 0.531975 0.826047
0.575860 0.535210 0.821286
0.667659 0.539513 0.816800
0.768032 0.550866 0.818662
0.858549 0.589837 0.825406
0.380438 0.594995 0.830930
0.397772 0.596307 0.829526
0.454231 0.602747 0.826932
0.531121 0.611536 0.823362
0.603235 0.613489 0.819181
0.678614 0.611292 0.814633
0.765469 0.615106 0.815305
0.855497 0.648554 0.829709
0.418921 0.674800 0.827420
0.435218 0.675746 0.827176
0.485695 0.679011 0.826322
0.556786 0.684443 0.826444
0.633783 0.690333 0.827207
0.707515 0.694148 0.826841
0.777890 0.694301 0.826017
0.853056 0.709804 0.834653
0.469245 0.760983 0.828885
0.483772 0.761532 0.829374
0.524834 0.761410 0.829221
0.584039 0.761746 0.829618
0.649836 0.761227 0.829343
0.720394 0.763058 0.831601
0.794491 0.772152 0.840726
0.849638 0.766232 0.835752
0.549950 0.841978 0.832700
0.559197 0.841611 0.833158
0.594842 0.842649 0.837186
0.641382 0.841886 0.840330
0.694759 0.840726 0.843565
0.749294 0.840055 0.846586
0.802976 0.840085 0.848203
0.871366 0.853178 0.865660
0.213718 0.272648 0.907164
0.241306 0.280949 0.907195
0.313603 0.301915 0.904906
0.410071 0.337011 0.902739
0.517144 0.375219 0.899321
0.628565 0.409735 0.895018
0.740871 0.443946 0.892241
0.845945 0.475196 0.890288
0.233738 0.315007 0.904295
0.258518 0.321599 0.904356
0.325200 0.337987 0.902495
0.416724 0.365026 0.900053
0.520806 0.396612 0.896818
0.629572 0.425452 0.892638
0.739071 0.454017 0.889555
0.843137 0.481880 0.887755
0.299535 0.421607 0.899992
0.316808 0.424689 0.899809
0.367376 0.431189 0.897612
0.449928 0.449714 0.897246
0.542382 0.465675 0.893980
0.640467 0.480140 0.889525
0.742489 0.497841 0.886839
0.841947 0.518669 0.886107
0.391180 0.530907 0.896361
0.403998 0.532799 0.896422
0.439887 0.534874 0.894926
0.502190 0.541222 0.893675
0.579065 0.548058 0.891447
0.662776 0.553674 0.888243
0.751827 0.561151 0.885893
0.843290 0.574365 0.886381
0.435065 0.603113 0.895445
0.450874 0.606226 0.895415
0.492958 0.612207 0.893431
0.553765 0.620294 0.891020
0.612390 0.620661 0.888670
0.681727 0.621027 0.885832
0.759243 0.623377 0.883818
0.844968 0.636927 0.886839
0.476661 0.674800 0.893706
0.487068 0.675441 0.893004
0.522118 0.678279 0.891447
0.577508 0.683803 0.890227
0.642878 0.690303 0.888792
0.709621 0.695583 0.888243
0.778714 0.700343 0.888914
0.853300 0.712184 0.892912
0.527764 0.753414 0.894408
0.536187 0.753597 0.894011
0.564874 0.754635 0.893065
0.612909 0.757900 0.892729
0.672389 0.762753 0.892821
0.737942 0.770230 0.894408
0.800351 0.777188 0.896239
0.856748 0.777279 0.895140
0.587732 0.837705 0.898650
0.594049 0.837461 0.898375
0.617182 0.837369 0.898039
0.656764 0.838163 0.898192
0.705348 0.839109 0.898405
0.757870 0.840391 0.898833
0.812100 0.842863 0.900145
0.868009 0.848569 0.903807
