nova/tdt-studio/app/Lut_mau/luts/lut7.cube
# Created by Adobe Lightroom plugin Export LUT (1.22.0)
# www.johnrellis.com/lightroom/exportlut.htm
# Preset: INFEUNCER CGP - 01
# Color profile: /Library/Application Support/Adobe/Color/Profiles/Recommended/AdobeRGB1998.icc
LUT_3D_SIZE 5
DOMAIN_MIN 0.000000 0.000000 0.000000
DOMAIN_MAX 0.903226 0.903226 0.903226
0.049042 0.061341 0.081270
0.195987 0.049256 0.100679
0.626093 0.000000 0.115938
0.933867 0.173342 0.235386
1.000000 0.560876 0.553552
0.000000 0.271336 0.226535
0.196445 0.187350 0.145205
0.653254 0.221378 0.127169
0.922850 0.343175 0.249546
0.995422 0.626886 0.597742
0.566430 0.828122 0.766384
0.516747 0.720058 0.674067
0.750637 0.655146 0.474678
0.911803 0.641230 0.381231
0.975463 0.730159 0.649836
0.824460 0.918425 0.908568
0.829099 0.909850 0.906035
0.630060 0.779355 0.758694
0.885740 0.843473 0.786893
0.950378 0.840116 0.771969
0.888792 0.941680 0.940917
0.895598 0.940551 0.942748
0.897246 0.932677 0.940063
0.782162 0.874907 0.870268
0.931548 0.918303 0.910521
0.011322 0.072908 0.151492
0.276036 0.000000 0.166934
0.601465 0.000000 0.125124
0.901183 0.208377 0.207706
1.000000 0.525933 0.507500
0.000000 0.267887 0.264317
0.234470 0.243778 0.240330
0.639246 0.255467 0.182589
0.899077 0.350195 0.227573
0.994354 0.580163 0.534142
0.624903 0.842100 0.795468
0.592432 0.757076 0.727840
0.733211 0.640833 0.538994
0.892332 0.626459 0.400610
0.975036 0.720241 0.631495
0.838773 0.921294 0.914702
0.843290 0.913695 0.912688
0.688777 0.806058 0.798123
0.884306 0.847105 0.811063
0.947692 0.842252 0.780606
0.890806 0.942382 0.941863
0.897673 0.941344 0.943755
0.904509 0.936187 0.944030
0.795285 0.878508 0.879149
0.932036 0.920531 0.916075
0.000000 0.090608 0.326696
0.244816 0.000000 0.484474
0.828794 0.000000 0.464851
0.895567 0.195438 0.302403
1.000000 0.532769 0.514061
0.000000 0.158511 0.291752
0.196353 0.237919 0.470741
0.765560 0.314061 0.480049
0.888731 0.355627 0.357610
0.995453 0.580499 0.540002
0.456397 0.814054 0.796414
0.644923 0.811948 0.807462
0.719326 0.698085 0.687709
0.875669 0.654170 0.577844
0.977386 0.708034 0.623682
0.871763 0.931731 0.930510
0.874296 0.926207 0.929015
0.830564 0.880034 0.892119
0.884947 0.862119 0.861906
0.940154 0.851255 0.811795
0.898741 0.944396 0.945312
0.904662 0.943847 0.947112
0.912688 0.941039 0.948821
0.847471 0.900633 0.908476
0.930999 0.922087 0.923613
0.000000 0.111025 0.560235
0.090425 0.096956 0.681971
0.815854 0.128023 0.845792
0.948150 0.512322 0.728725
0.986816 0.571893 0.652674
0.000000 0.169924 0.516442
0.000000 0.204501 0.645563
0.793881 0.420172 0.846067
0.929412 0.587121 0.745724
0.977813 0.597131 0.659968
0.000000 0.569940 0.714076
0.000000 0.524010 0.675959
0.683680 0.673548 0.816281
0.873533 0.683803 0.751705
0.961303 0.710353 0.731655
0.779721 0.918364 0.920806
0.812924 0.915160 0.921111
0.883330 0.918791 0.931212
0.870207 0.868009 0.882811
0.938323 0.844633 0.841642
0.903838 0.946685 0.949371
0.912688 0.946715 0.951629
0.925628 0.946563 0.955413
0.919280 0.938445 0.950072
0.931731 0.927855 0.937224
0.000000 0.165774 0.851560
0.116060 0.168856 0.878599
0.718563 0.322393 0.934051
0.944182 0.631189 0.918608
0.968536 0.736965 0.862577
0.000000 0.200839 0.821744
0.000000 0.225284 0.857145
0.687648 0.412360 0.925597
0.935058 0.691890 0.921965
0.963195 0.764340 0.872099
0.000000 0.318639 0.675837
0.000000 0.287327 0.678584
0.448554 0.470741 0.881254
0.911620 0.790585 0.930907
0.950774 0.828550 0.897093
0.518273 0.873960 0.926146
0.535454 0.865629 0.922667
0.521416 0.812741 0.902220
0.828275 0.829465 0.919677
0.936950 0.876890 0.915343
0.848142 0.948089 0.951354
0.860502 0.946960 0.951568
0.894163 0.944854 0.953094
0.927916 0.945739 0.957305
0.929503 0.934600 0.948150
