nova/tdt-studio/app/Lut_mau/luts/lut7.cube
# Created by Adobe Lightroom plugin Export LUT (1.22.0)
# www.johnrellis.com/lightroom/exportlut.htm
# Preset: INFEUNCER CGP - 01
# Color profile: /Library/Application Support/Adobe/Color/Profiles/Recommended/AdobeRGB1998.icc
LUT_3D_SIZE 8
DOMAIN_MIN 0.000000 0.000000 0.000000
DOMAIN_MAX 0.903226 0.903226 0.903226
0.049042 0.061341 0.081270
0.090028 0.068971 0.091371
0.247684 0.000000 0.103426
0.501762 0.000000 0.110903
0.748653 0.000000 0.130190
0.909758 0.066407 0.206363
0.979950 0.348974 0.342351
1.000000 0.560876 0.553552
0.050477 0.100008 0.113802
0.080293 0.094331 0.103487
0.235386 0.100038 0.106905
0.483375 0.000000 0.113161
0.731380 0.000000 0.129824
0.886015 0.131807 0.190829
0.969116 0.341863 0.317174
1.000000 0.549981 0.530846
0.000000 0.361425 0.287968
0.115358 0.286900 0.260258
0.259983 0.234806 0.165896
0.531212 0.280064 0.126131
0.756313 0.297154 0.149233
0.892515 0.353155 0.222538
0.972686 0.483558 0.384009
0.993469 0.633661 0.595819
0.382940 0.743282 0.643915
0.395361 0.699611 0.615595
0.223362 0.406928 0.367224
0.651881 0.554742 0.361120
0.818845 0.554070 0.285222
0.904509 0.566583 0.316564
0.962097 0.611444 0.450446
0.982422 0.698299 0.631647
0.677211 0.868956 0.831571
0.676631 0.857267 0.824094
0.634516 0.793606 0.768582
0.276860 0.480476 0.416358
0.804990 0.721096 0.572351
0.892760 0.691737 0.494759
0.942565 0.717891 0.521141
0.967834 0.766262 0.678889
0.800259 0.910216 0.896330
0.809781 0.909453 0.899168
0.804929 0.894377 0.889921
0.704433 0.823880 0.814725
0.490272 0.712612 0.583154
0.874754 0.825254 0.753902
0.926329 0.811246 0.727840
0.953002 0.832670 0.755795
0.861479 0.931609 0.927245
0.864622 0.930877 0.927977
0.867308 0.926085 0.926787
0.857877 0.912200 0.917266
0.732387 0.841794 0.835996
0.713802 0.846098 0.763821
0.909087 0.882292 0.853544
0.938415 0.873106 0.844999
0.888792 0.941680 0.940917
0.891081 0.941314 0.941527
0.897398 0.940185 0.943236
0.902953 0.937804 0.944182
0.888304 0.925811 0.934081
0.808164 0.886076 0.887541
0.858793 0.915007 0.888548
0.931548 0.918303 0.910521
0.040925 0.066682 0.108492
0.097658 0.066285 0.106600
0.224613 0.068513 0.105257
0.469886 0.000000 0.111971
0.717067 0.000000 0.127077
0.873899 0.018494 0.180545
0.964294 0.304753 0.298405
1.000000 0.516869 0.502220
0.031189 0.105043 0.126802
0.085481 0.108888 0.128969
0.232242 0.117464 0.121523
0.470558 0.080507 0.114168
0.712154 0.000000 0.128420
0.863584 0.148501 0.178225
0.955077 0.312444 0.284947
0.997559 0.506004 0.479408
0.052796 0.376318 0.304234
0.147219 0.304997 0.280552
0.282048 0.246586 0.204837
0.514183 0.281590 0.154849
0.724514 0.293645 0.141970
0.867491 0.335912 0.200870
0.956176 0.434272 0.325109
0.992767 0.585992 0.532830
0.385779 0.727871 0.632563
0.404425 0.686702 0.608972
0.254856 0.425177 0.388769
0.609583 0.514122 0.360967
0.765591 0.511406 0.272129
0.871427 0.521721 0.260380
0.947662 0.565118 0.380316
0.981811 0.660304 0.572778
0.685389 0.867308 0.833188
0.681331 0.855009 0.824216
0.634394 0.790341 0.766354
0.276616 0.464271 0.410986
0.785214 0.698146 0.557580
0.877623 0.674922 0.479988
0.936645 0.699397 0.483803
0.967315 0.749538 0.647333
0.797879 0.908110 0.894377
0.799954 0.904845 0.893431
0.794400 0.888914 0.883360
0.699458 0.818082 0.809293
0.481575 0.698695 0.575708
0.871641 0.822354 0.756649
0.922972 0.808408 0.726009
0.952483 0.825071 0.739254
0.857206 0.929961 0.925048
0.858213 0.928466 0.924712
0.861479 0.923583 0.923644
0.853361 0.909789 0.914549
0.730983 0.839292 0.833982
0.700710 0.837766 0.752285
0.905486 0.877195 0.847257
0.936156 0.867155 0.835599
0.887175 0.941283 0.940185
0.889830 0.941009 0.940978
0.896361 0.939879 0.942718
0.902159 0.937499 0.943755
0.894316 0.928679 0.937377
0.816953 0.890074 0.892638
0.856779 0.913787 0.887327
0.930663 0.917113 0.909361
0.000000 0.075319 0.173495
0.073976 0.074464 0.200107
0.371252 0.000000 0.198795
0.492561 0.000000 0.149416
0.737606 0.000000 0.141360
0.885100 0.213321 0.196170
0.969116 0.367590 0.325200
1.000000 0.549401 0.532036
0.000000 0.106416 0.178286
0.074006 0.119356 0.214847
0.321416 0.101259 0.203891
0.492958 0.073091 0.167605
0.727016 0.131685 0.156039
0.875425 0.249821 0.193515
0.962799 0.377325 0.316258
0.998413 0.550317 0.522820
0.000000 0.356909 0.338293
0.160189 0.376623 0.352361
0.310704 0.308843 0.293950
0.549554 0.316594 0.253117
0.748043 0.335058 0.222324
0.878599 0.386908 0.219333
0.958556 0.466377 0.344121
0.992370 0.598230 0.544701
0.535943 0.801358 0.735134
0.554101 0.775021 0.723690
0.450446 0.585809 0.559960
0.650446 0.568200 0.486732
0.772183 0.559533 0.381964
0.878386 0.553155 0.345525
0.951934 0.591058 0.408545
0.981811 0.676417 0.595544
0.731533 0.881956 0.857298
0.735286 0.873259 0.853666
0.706569 0.826230 0.816159
0.376867 0.533806 0.499519
0.804593 0.732815 0.665492
0.873075 0.705684 0.565606
0.933806 0.713924 0.538231
0.967498 0.754604 0.656794
0.818601 0.913817 0.904143
0.821653 0.910918 0.903746
0.817624 0.897093 0.895628
0.752590 0.841215 0.842741
0.513664 0.698421 0.610468
0.870024 0.826749 0.786679
0.916869 0.815396 0.750729
0.951202 0.829709 0.752132
0.867948 0.932799 0.929900
0.869596 0.931670 0.929961
0.871885 0.927214 0.928801
0.864195 0.914885 0.920653
0.767330 0.854856 0.856046
0.707301 0.837064 0.765438
0.907195 0.883299 0.865171
0.935637 0.876890 0.855131
0.889860 0.942199 0.941466
0.891600 0.941802 0.941894
0.897948 0.940642 0.943572
0.904967 0.938842 0.945251
0.900084 0.931426 0.940520
0.833219 0.896757 0.901610
0.858610 0.914214 0.891539
0.931243 0.919493 0.915129
0.000000 0.084810 0.268254
0.000000 0.085756 0.312902
0.361944 0.000000 0.402319
0.716457 0.000000 0.363256
0.721920 0.000000 0.230564
0.872282 0.168460 0.241642
0.962554 0.360174 0.310216
1.000000 0.528527 0.510399
0.000000 0.116182 0.284276
0.000000 0.123262 0.326024
0.381781 0.089998 0.433143
0.696010 0.000000 0.372930
0.726101 0.000000 0.251316
0.867765 0.227970 0.255741
0.958770 0.381506 0.310430
0.998505 0.536522 0.509880
0.000000 0.271305 0.365606
0.000000 0.264958 0.358984
0.345251 0.338537 0.464210
0.592859 0.309667 0.378759
0.744045 0.329656 0.333776
0.875578 0.400122 0.335851
0.962310 0.498573 0.386084
0.993378 0.608484 0.562005
0.274479 0.732784 0.702571
0.391333 0.729244 0.702052
0.633417 0.746365 0.740047
0.634607 0.606867 0.580804
0.760159 0.574884 0.497017
0.866484 0.567071 0.455909
0.945739 0.599969 0.468269
0.982788 0.676478 0.600397
0.784939 0.900603 0.887358
0.801663 0.898711 0.890227
0.788083 0.870756 0.871153
0.615259 0.711177 0.709194
0.804868 0.763516 0.742000
0.862852 0.738857 0.657679
0.926696 0.735256 0.630518
0.968658 0.756924 0.665614
0.851530 0.924437 0.920287
0.857603 0.923766 0.922118
0.855955 0.914214 0.917205
0.823484 0.881071 0.889921
0.583276 0.715663 0.683162
0.876097 0.844663 0.837064
0.911406 0.831174 0.791989
0.946929 0.838743 0.785336
0.880735 0.936645 0.935882
0.883207 0.936065 0.936461
0.887785 0.933440 0.936950
0.885527 0.925780 0.932921
0.834348 0.888304 0.897642
0.727413 0.840482 0.795224
0.909270 0.890532 0.885405
0.933959 0.884092 0.870237
0.896880 0.943908 0.944488
0.898955 0.943725 0.945129
0.903929 0.942931 0.946532
0.909453 0.941283 0.947784
0.908263 0.936034 0.945281
0.860868 0.909026 0.917082
0.858762 0.913787 0.896208
0.931731 0.922301 0.922210
0.000000 0.095979 0.387274
0.000000 0.097108 0.433570
0.330602 0.000000 0.592432
0.758846 0.000000 0.669245
0.890043 0.184787 0.554833
0.896483 0.000000 0.367773
0.955108 0.349035 0.400397
1.000000 0.538598 0.519677
0.000000 0.119265 0.390356
0.000000 0.127596 0.437293
0.326818 0.125429 0.595300
0.755978 0.163180 0.681300
0.876921 0.275059 0.561669
0.884337 0.173068 0.381750
0.953216 0.381415 0.415198
0.998657 0.550866 0.524743
0.000000 0.172061 0.323400
0.000000 0.193973 0.370977
0.261662 0.292332 0.566491
0.725399 0.452491 0.701930
0.826719 0.422492 0.568139
0.849973 0.348058 0.421057
0.943816 0.464912 0.456306
0.992920 0.582544 0.537774
0.000000 0.584405 0.659998
0.000000 0.577752 0.652461
0.295995 0.550195 0.624933
0.664881 0.642084 0.717861
0.745785 0.566308 0.592523
0.850034 0.561730 0.549218
0.933379 0.595026 0.549615
0.983886 0.653559 0.594659
0.597589 0.862394 0.854551
0.637812 0.859556 0.854856
0.742000 0.859770 0.864195
0.791318 0.841215 0.857328
0.780148 0.766018 0.768490
0.844816 0.733486 0.701015
0.916197 0.723995 0.669978
0.965179 0.746487 0.689937
0.841825 0.923369 0.920439
0.852415 0.923613 0.922820
0.875547 0.923613 0.928222
0.860166 0.903990 0.914031
0.707393 0.780911 0.790707
0.866087 0.847349 0.850278
0.903532 0.836484 0.812497
0.944121 0.837400 0.804746
0.894102 0.940612 0.942046
0.895598 0.940032 0.942321
0.899260 0.938048 0.942809
0.899779 0.933257 0.941039
0.880858 0.915343 0.926757
0.727016 0.820981 0.808804
0.909392 0.894591 0.899626
0.931182 0.886412 0.877348
0.902373 0.945281 0.946899
0.904051 0.945098 0.947387
0.908659 0.944488 0.948730
0.914672 0.943725 0.950530
0.915679 0.940795 0.949767
0.892576 0.924102 0.934813
0.849271 0.908659 0.895506
0.931273 0.923674 0.927489
0.000000 0.108858 0.534020
0.000000 0.109468 0.574273
0.262303 0.063783 0.699062
0.696010 0.000000 0.815518
0.907134 0.417517 0.807767
0.942687 0.471778 0.703883
0.966247 0.435798 0.590204
0.987243 0.575952 0.635340
0.000000 0.127474 0.516350
0.000000 0.132967 0.554803
0.244694 0.138613 0.687465
0.682063 0.174533 0.808774
0.898131 0.470436 0.809049
0.935088 0.496529 0.706355
0.961273 0.446998 0.589624
0.985351 0.582757 0.637293
0.000000 0.185214 0.456641
0.000000 0.203250 0.512871
0.164889 0.258824 0.658015
0.666773 0.429541 0.815244
0.879576 0.627832 0.830838
0.914336 0.585595 0.729763
0.946807 0.503044 0.604791
0.979278 0.626001 0.664149
0.000000 0.394324 0.581842
0.000000 0.373968 0.561791
0.000000 0.300908 0.491218
0.583215 0.575128 0.782254
0.859159 0.758724 0.857023
0.883635 0.670832 0.751766
0.923217 0.611627 0.659022
0.970062 0.695277 0.713893
0.359838 0.795010 0.839292
0.403723 0.792691 0.837491
0.511406 0.782528 0.829282
0.611780 0.753597 0.805539
0.809232 0.802121 0.849088
0.835203 0.726802 0.756435
0.906645 0.722927 0.733486
0.958648 0.750668 0.748898
0.751003 0.909545 0.910704
0.769070 0.909117 0.911894
0.811276 0.907012 0.913939
0.860624 0.910155 0.921569
0.866087 0.894835 0.912139
0.857481 0.853758 0.867796
0.897887 0.834257 0.832670
0.943328 0.831968 0.823911
0.880339 0.939208 0.941161
0.886107 0.939452 0.942473
0.900481 0.940063 0.945769
0.917662 0.941955 0.950774
0.911955 0.934722 0.945953
0.831052 0.873136 0.889097
0.908415 0.901793 0.911925
0.930327 0.893797 0.891539
0.906981 0.946777 0.949615
0.909575 0.946746 0.950317
0.916594 0.946715 0.952331
0.921508 0.946227 0.953857
0.924132 0.944884 0.954253
0.918822 0.939117 0.950195
0.844816 0.896971 0.901091
0.931792 0.927092 0.935515
0.000000 0.123751 0.689723
0.000000 0.124239 0.717861
0.212741 0.109316 0.793088
0.626368 0.165438 0.878386
0.875822 0.319310 0.902861
0.943877 0.631952 0.866972
0.960418 0.631159 0.801022
0.979553 0.641169 0.759609
0.000000 0.139132 0.668849
0.000000 0.143435 0.698054
0.174868 0.149722 0.778622
0.608484 0.222751 0.869688
0.865782 0.370581 0.898558
0.939269 0.649317 0.867826
0.956786 0.635828 0.799710
0.977935 0.636439 0.753567
0.000000 0.190372 0.617151
0.000000 0.185885 0.649287
0.000000 0.231571 0.744717
0.565270 0.360632 0.854337
0.845731 0.534691 0.895995
0.928222 0.728359 0.882017
0.946471 0.692653 0.819883
0.970977 0.678737 0.775418
0.000000 0.224613 0.473610
0.000000 0.209995 0.456733
0.000000 0.278691 0.613977
0.429664 0.445502 0.808499
0.815000 0.679957 0.893095
0.915801 0.804685 0.899046
0.932677 0.752499 0.841459
0.961791 0.720943 0.794705
0.000000 0.660151 0.807645
0.000000 0.647517 0.799008
0.000000 0.595666 0.763851
0.000000 0.443305 0.653864
0.713832 0.709010 0.860685
0.899046 0.844785 0.906554
0.913878 0.782040 0.844450
0.948363 0.756466 0.805844
0.607813 0.884123 0.908904
0.623438 0.882933 0.908354
0.667872 0.878386 0.906157
0.717464 0.868711 0.900511
0.744228 0.840635 0.881590
0.869780 0.869047 0.906371
0.887999 0.818814 0.851286
0.937774 0.828336 0.852689
0.822080 0.934234 0.937865
0.829679 0.933867 0.938231
0.850492 0.932677 0.939178
0.877134 0.931945 0.941131
0.904479 0.934295 0.945800
0.915770 0.932219 0.946288
0.902068 0.903410 0.918456
0.929076 0.890440 0.899016
0.889128 0.946014 0.948455
0.892454 0.945953 0.948943
0.903075 0.945983 0.950927
0.916594 0.946349 0.953826
0.929686 0.947448 0.957397
0.932616 0.946593 0.957916
0.906523 0.927520 0.941161
0.931579 0.931426 0.942504
0.000000 0.165774 0.851560
0.000000 0.167910 0.861326
0.243839 0.170443 0.886259
0.578973 0.231571 0.919890
0.822263 0.404822 0.940368
0.935119 0.572717 0.928038
0.958526 0.742245 0.900084
0.968536 0.736965 0.862577
0.000000 0.178103 0.840848
0.000000 0.182071 0.851591
0.203037 0.193088 0.879789
0.563348 0.259922 0.915587
0.816342 0.439185 0.938445
0.931579 0.593713 0.928099
0.956451 0.752316 0.901793
0.966979 0.742824 0.864225
0.000000 0.205173 0.807889
0.000000 0.213962 0.820920
0.000000 0.243595 0.856840
0.510094 0.338445 0.904875
0.801877 0.547509 0.934844
0.921447 0.662196 0.930175
0.950195 0.790341 0.909972
0.961639 0.771359 0.874510
0.000000 0.266911 0.701045
0.000000 0.272313 0.724605
0.000000 0.295232 0.796994
0.328771 0.381994 0.875242
0.751858 0.610651 0.923247
0.908965 0.739498 0.935912
0.942565 0.835569 0.921447
0.954498 0.810025 0.889647
0.000000 0.537499 0.814908
0.000000 0.517113 0.804837
0.000000 0.420325 0.746334
0.000000 0.348638 0.745388
0.571008 0.577996 0.890501
0.877073 0.796017 0.932097
0.935027 0.870756 0.931456
0.946960 0.844938 0.903624
0.362951 0.837064 0.915496
0.366644 0.832792 0.913756
0.371679 0.815518 0.907103
0.333471 0.767086 0.889464
0.000000 0.586999 0.815854
0.787106 0.787533 0.912383
0.927581 0.899535 0.940490
0.939269 0.872618 0.914336
0.745876 0.926574 0.943145
0.751919 0.926024 0.942992
0.770199 0.924132 0.942412
0.795407 0.920684 0.941192
0.818662 0.914183 0.938201
0.822354 0.894102 0.927184
0.905089 0.907713 0.939025
0.926970 0.886595 0.915282
0.848142 0.948089 0.951354
0.851896 0.947723 0.951385
0.864469 0.946624 0.951690
0.883665 0.945373 0.952483
0.904570 0.944518 0.953887
0.923796 0.945190 0.956420
0.937346 0.947662 0.960021
0.929503 0.934600 0.948150
