nova/tdt-studio/app/Lut_mau/luts/lut7.cube
# Created by Adobe Lightroom plugin Export LUT (1.22.0)
# www.johnrellis.com/lightroom/exportlut.htm
# Preset: INFEUNCER CGP - 01
# Color profile: /Library/Application Support/Adobe/Color/Profiles/Recommended/AdobeRGB1998.icc
LUT_3D_SIZE 32
0.049042 0.061341 0.081270
0.056184 0.062074 0.082399
0.061921 0.063600 0.084047
0.072084 0.066529 0.087465
0.090028 0.068971 0.091371
0.116518 0.069123 0.094820
0.152163 0.064790 0.097963
0.195987 0.049256 0.100679
0.247684 0.000000 0.103426
0.305882 0.000000 0.105531
0.369329 0.000000 0.107485
0.435492 0.000000 0.109346
0.501762 0.000000 0.110903
0.566033 0.000000 0.113069
0.626093 0.000000 0.115938
0.680629 0.000000 0.120333
0.748653 0.000000 0.130190
0.802823 0.000000 0.143679
0.845029 0.000000 0.160403
0.880308 0.000000 0.181155
0.909758 0.066407 0.206363
0.933867 0.173342 0.235386
0.952880 0.240208 0.267735
0.968017 0.297032 0.303380
0.979950 0.348974 0.342351
0.989197 0.399390 0.385809
0.996124 0.450935 0.435309
1.000000 0.504631 0.491218
1.000000 0.560876 0.553552
1.000000 0.618280 0.619776
0.997314 0.672602 0.683589
0.992523 0.721767 0.741146
0.049470 0.064912 0.084138
0.053590 0.065034 0.083772
0.060090 0.066896 0.084810
0.071015 0.070069 0.088136
0.088777 0.072816 0.091981
0.114809 0.073152 0.095399
0.150210 0.069825 0.098299
0.193149 0.060639 0.100984
0.244083 0.017151 0.103792
0.301549 0.000000 0.105715
0.364019 0.000000 0.107759
0.429358 0.000000 0.109255
0.494881 0.000000 0.110994
0.558709 0.000000 0.113039
0.618372 0.000000 0.115938
0.673213 0.000000 0.119844
0.740383 0.000000 0.128847
0.793179 0.000000 0.141085
0.835355 0.000000 0.156344
0.871305 0.000000 0.175601
0.901762 0.003571 0.198947
0.927001 0.157595 0.226688
0.947173 0.225742 0.257542
0.963409 0.283024 0.292119
0.976349 0.335393 0.329992
0.986572 0.386328 0.372747
0.994415 0.438331 0.421729
0.999573 0.492653 0.477485
1.000000 0.549767 0.540276
1.000000 0.608270 0.607538
0.997955 0.664118 0.673274
0.993286 0.714809 0.732845
0.050507 0.069703 0.088472
0.053376 0.070222 0.090059
0.058778 0.069917 0.087526
0.069154 0.073793 0.089357
0.087007 0.077211 0.092836
0.112947 0.078401 0.096193
0.147860 0.076478 0.099001
0.190616 0.068818 0.101472
0.241093 0.044617 0.104005
0.298131 0.000000 0.106142
0.360388 0.000000 0.108156
0.425635 0.000000 0.109651
0.490974 0.000000 0.111147
0.554650 0.000000 0.113466
0.614221 0.000000 0.115877
0.669947 0.000000 0.119936
0.736446 0.000000 0.128481
0.787930 0.000000 0.140047
0.829892 0.000000 0.154513
0.866178 0.000000 0.173037
0.897307 0.023163 0.195956
0.923217 0.157504 0.222812
0.943999 0.223758 0.253239
0.960815 0.279973 0.286992
0.974243 0.331487 0.324437
0.984924 0.381720 0.366583
0.993225 0.433692 0.415351
0.998871 0.487984 0.470893
1.000000 0.545098 0.533776
1.000000 0.603845 0.601434
0.998138 0.660212 0.667964
0.993561 0.711452 0.728420
0.052277 0.080629 0.098573
0.056703 0.081270 0.100465
0.058412 0.079805 0.100313
0.066957 0.080049 0.094881
0.084657 0.085023 0.095216
0.110445 0.089052 0.098054
0.145998 0.088624 0.100496
0.189242 0.084321 0.103029
0.239689 0.072938 0.105165
0.296818 0.036530 0.107179
0.358587 0.000000 0.108827
0.423377 0.000000 0.110445
0.488106 0.000000 0.112001
0.551385 0.000000 0.113771
0.610681 0.000000 0.116609
0.670649 0.000000 0.120638
0.732876 0.000000 0.128695
0.782193 0.000000 0.139528
0.822843 0.000000 0.153109
0.858518 0.000000 0.169924
0.889769 0.075319 0.191196
0.916381 0.162661 0.216892
0.938506 0.224918 0.246494
0.956786 0.280278 0.280674
0.971618 0.332616 0.319554
0.983398 0.384497 0.363684
0.992279 0.437263 0.414191
0.998199 0.491981 0.471199
1.000000 0.548516 0.534295
1.000000 0.606073 0.601465
0.997833 0.660822 0.666773
0.993530 0.710567 0.726009
0.050477 0.100008 0.113802
0.055329 0.099702 0.115450
0.060121 0.098787 0.117098
0.061036 0.090517 0.110964
0.080293 0.094331 0.103487
0.107759 0.098817 0.101534
0.141115 0.105898 0.102937
0.184543 0.105348 0.104952
0.235386 0.100038 0.106905
0.292363 0.088563 0.108675
0.354070 0.065034 0.110140
0.418677 0.000000 0.111543
0.483375 0.000000 0.113161
0.546624 0.000000 0.114687
0.606500 0.000000 0.117220
0.672114 0.000000 0.121828
0.731380 0.000000 0.129824
0.779629 0.000000 0.140261
0.820035 0.000000 0.153628
0.855222 0.024475 0.170291
0.886015 0.131807 0.190829
0.912566 0.190433 0.215671
0.934966 0.242618 0.244846
0.953735 0.292760 0.278538
0.969116 0.341863 0.317174
0.981384 0.391424 0.361395
0.990661 0.442390 0.411719
0.996948 0.494972 0.468177
1.000000 0.549981 0.530846
0.999969 0.606256 0.597681
0.997498 0.660334 0.663142
0.993378 0.709743 0.722896
0.038911 0.132876 0.136995
0.047822 0.131441 0.138064
0.057221 0.128389 0.138735
0.065370 0.118990 0.135653
0.064057 0.108431 0.119936
0.102266 0.114382 0.113771
0.144167 0.119173 0.110445
0.183261 0.128756 0.108309
0.234287 0.130190 0.109651
0.292424 0.125551 0.110964
0.354986 0.115969 0.112123
0.419867 0.100008 0.113313
0.484504 0.075898 0.114443
0.547601 0.012634 0.116243
0.609430 0.000000 0.118746
0.677333 0.000000 0.123964
0.733272 0.000000 0.131960
0.779934 0.033356 0.142550
0.819638 0.099428 0.156069
0.854673 0.144320 0.173129
0.885466 0.188113 0.194217
0.912230 0.231876 0.219821
0.964935 0.370123 0.317937
0.976928 0.411139 0.358801
0.985962 0.451820 0.402472
0.992432 0.492988 0.449439
0.996612 0.535515 0.500114
0.998413 0.579919 0.554772
0.998016 0.625544 0.612024
0.995941 0.670039 0.668147
0.992584 0.711666 0.720089
0.988525 0.748898 0.765560
0.000000 0.198184 0.179080
0.016480 0.193606 0.178958
0.041382 0.187991 0.178531
0.069825 0.173709 0.175265
0.071321 0.141909 0.154788
0.072297 0.138949 0.132479
0.146456 0.149752 0.129030
0.208042 0.153933 0.123995
0.256077 0.162692 0.116335
0.313359 0.172244 0.115206
0.379980 0.169131 0.115633
0.447272 0.162722 0.116518
0.512108 0.154452 0.117525
0.573510 0.145388 0.119081
0.645960 0.145968 0.123445
0.706966 0.152560 0.130465
0.757107 0.164401 0.140017
0.799557 0.180819 0.152499
0.836820 0.204013 0.168124
0.870787 0.233646 0.188846
0.901701 0.270573 0.215793
0.928649 0.312779 0.249577
0.950866 0.358282 0.290288
0.968109 0.404730 0.336522
0.980621 0.450721 0.386755
0.989044 0.494270 0.438056
0.994202 0.537163 0.491279
0.996735 0.580560 0.546624
0.996918 0.625147 0.604456
0.995270 0.668391 0.660487
0.992309 0.709316 0.713130
0.988495 0.746456 0.759670
0.000000 0.271336 0.226535
0.000000 0.265599 0.225650
0.022553 0.257542 0.224063
0.072847 0.238773 0.218509
0.090913 0.205600 0.203037
0.076722 0.153964 0.165316
0.092561 0.173373 0.147066
0.196445 0.187350 0.145205
0.271763 0.191073 0.139132
0.325170 0.200473 0.128237
0.381353 0.213931 0.120119
0.447181 0.216403 0.119539
0.512413 0.213748 0.120363
0.586542 0.216800 0.122835
0.653254 0.221378 0.127169
0.708186 0.226230 0.134005
0.754940 0.233463 0.143313
0.795438 0.243839 0.155398
0.831693 0.258976 0.170748
0.865171 0.280552 0.190890
0.895842 0.309148 0.216770
0.922850 0.343175 0.249546
0.945403 0.381811 0.288762
0.963165 0.422095 0.333501
0.976379 0.463081 0.382269
0.985504 0.503044 0.432502
0.991455 0.542901 0.484749
0.994659 0.584009 0.539818
0.995422 0.626886 0.597742
0.994263 0.668940 0.654353
0.991669 0.709163 0.707637
0.988067 0.745968 0.755245
0.000000 0.361425 0.287968
0.000000 0.354284 0.285985
0.037201 0.344854 0.283238
0.088502 0.322728 0.275547
0.115358 0.286900 0.260258
0.104067 0.226169 0.220279
0.083955 0.173678 0.177737
0.125856 0.217746 0.165377
0.259983 0.234806 0.165896
0.348547 0.238346 0.159030
0.404761 0.247898 0.144594
0.461311 0.260594 0.130434
0.531212 0.280064 0.126131
0.601892 0.286107 0.128664
0.661952 0.290105 0.132967
0.712428 0.293217 0.139742
0.756313 0.297154 0.149233
0.794949 0.304173 0.161379
0.829984 0.314763 0.176791
0.862577 0.330907 0.196933
0.892515 0.353155 0.222538
0.919097 0.380774 0.254795
0.941436 0.412818 0.293156
0.959228 0.447486 0.336614
0.972686 0.483558 0.384009
0.982208 0.519127 0.433356
0.988617 0.555474 0.484657
0.992279 0.593530 0.538750
0.993469 0.633661 0.595819
0.992767 0.673396 0.651728
0.990570 0.711727 0.704585
0.987396 0.747219 0.752041
0.029938 0.458747 0.360510
0.070314 0.451728 0.358038
0.092744 0.441382 0.354040
0.123629 0.418769 0.344884
0.148531 0.380468 0.326909
0.154788 0.323857 0.294835
0.114565 0.240848 0.232975
0.098054 0.214176 0.194980
0.172976 0.270237 0.186435
0.333928 0.290562 0.191257
0.441901 0.299992 0.186984
0.503014 0.312871 0.169619
0.560174 0.328557 0.152468
0.612818 0.347265 0.137972
0.668544 0.354833 0.141207
0.718135 0.357458 0.148806
0.761318 0.360723 0.158907
0.799191 0.365484 0.172030
0.832975 0.373205 0.188083
0.863706 0.384710 0.208194
0.891600 0.400946 0.233341
0.916167 0.421210 0.263554
0.937133 0.445441 0.298955
0.954284 0.472694 0.338903
0.967834 0.502403 0.383337
0.977905 0.533593 0.430549
0.985046 0.566857 0.481361
0.989410 0.602930 0.536095
0.991211 0.641505 0.594049
0.990967 0.680232 0.651148
0.989075 0.717678 0.704952
0.986084 0.752346 0.753079
0.134798 0.549401 0.436744
0.145602 0.543664 0.434485
0.157900 0.534478 0.430426
0.178042 0.513878 0.420661
0.197116 0.478645 0.402411
0.206485 0.426978 0.372839
0.173007 0.345037 0.313481
0.123354 0.252079 0.242741
0.119753 0.267735 0.214420
0.243229 0.342596 0.217380
0.436622 0.369543 0.230961
0.541619 0.373907 0.225559
0.592218 0.382300 0.203098
0.638636 0.393133 0.182071
0.680415 0.405646 0.162936
0.720729 0.417212 0.160769
0.762356 0.418219 0.170932
0.798886 0.420661 0.183688
0.831418 0.424781 0.199313
0.861295 0.432624 0.219211
0.888518 0.444831 0.244083
0.912718 0.460945 0.273686
0.933471 0.481056 0.308690
0.950561 0.504173 0.348211
0.964080 0.529503 0.391333
0.974304 0.556298 0.437201
0.981628 0.585473 0.486336
0.986358 0.617517 0.539178
0.988617 0.652399 0.595148
0.988800 0.688014 0.650904
0.987427 0.723171 0.703914
0.984863 0.756191 0.751797
0.225711 0.635615 0.519524
0.231724 0.630304 0.516960
0.238987 0.622827 0.513268
0.251438 0.605463 0.503899
0.266361 0.578485 0.489204
0.275700 0.538140 0.465003
0.267582 0.476448 0.423468
0.196780 0.374487 0.338872
0.134463 0.268009 0.255955
0.158846 0.336858 0.241825
0.328161 0.422187 0.255131
0.531579 0.447730 0.277501
0.697047 0.510399 0.321630
0.731868 0.509209 0.289738
0.762142 0.510338 0.262394
0.789578 0.514153 0.239414
0.814237 0.521874 0.226749
0.841520 0.520897 0.239292
0.866636 0.520012 0.255772
0.889738 0.523156 0.277073
0.910460 0.529931 0.302617
0.928771 0.540368 0.332647
0.944244 0.553735 0.366339
0.957183 0.570336 0.404059
0.967437 0.589380 0.445106
0.975189 0.610925 0.488869
0.980621 0.634760 0.535088
0.983917 0.660975 0.583429
0.985382 0.688991 0.632807
0.985382 0.717952 0.681392
0.984131 0.746639 0.727260
0.981964 0.774258 0.769039
0.382940 0.743282 0.643915
0.386053 0.739956 0.642359
0.388281 0.734066 0.638544
0.392950 0.721523 0.630732
0.395361 0.699611 0.615595
0.391485 0.665217 0.589929
0.376928 0.613733 0.549859
0.315679 0.525933 0.471382
0.223362 0.406928 0.367224
0.165957 0.327642 0.291783
0.232731 0.427283 0.290288
0.446387 0.526757 0.317205
0.651881 0.554742 0.361120
0.735470 0.552728 0.365179
0.768063 0.552392 0.335485
0.795193 0.552575 0.308751
0.818845 0.554070 0.285222
0.840299 0.557824 0.266026
0.861326 0.563012 0.274083
0.883970 0.563012 0.293034
0.904509 0.566583 0.316564
0.922728 0.573602 0.344579
0.938323 0.583276 0.376104
0.951476 0.596124 0.411627
0.962097 0.611444 0.450446
0.970336 0.629358 0.492103
0.976349 0.649836 0.536400
0.980255 0.673060 0.583490
0.982422 0.698299 0.631647
0.982971 0.725124 0.679866
0.982208 0.752163 0.725673
0.980468 0.778500 0.767697
0.486000 0.794186 0.714748
0.487556 0.791501 0.713344
0.487709 0.787137 0.710140
0.488319 0.777523 0.703426
0.486275 0.761013 0.690852
0.478859 0.735714 0.670375
0.462715 0.698360 0.638575
0.431403 0.640864 0.588220
0.332067 0.539788 0.486213
0.230045 0.412696 0.373053
0.201297 0.390967 0.323857
0.304479 0.497322 0.331731
0.528862 0.592401 0.365606
0.707454 0.609064 0.417853
0.775937 0.601099 0.422004
0.801175 0.595727 0.387945
0.822660 0.591791 0.358038
0.842283 0.590570 0.333471
0.861204 0.592798 0.314214
0.878721 0.601465 0.313359
0.899016 0.603265 0.334722
0.917235 0.607660 0.360937
0.932891 0.614618 0.390967
0.946227 0.624475 0.424781
0.957092 0.636896 0.461952
0.965667 0.651728 0.501915
0.972045 0.669154 0.544579
0.976440 0.689296 0.589837
0.979034 0.711757 0.636561
0.980102 0.735958 0.683345
0.979858 0.760830 0.728267
0.978576 0.785306 0.769619
0.566430 0.828122 0.766384
0.567803 0.826474 0.765652
0.566918 0.823178 0.763088
0.566094 0.815976 0.757748
0.562707 0.803891 0.748196
0.555200 0.785763 0.733028
0.541650 0.759274 0.709987
0.516747 0.720058 0.674067
0.450752 0.653925 0.604578
0.342504 0.547845 0.495308
0.231876 0.413397 0.374334
0.243259 0.458595 0.356695
0.382330 0.564141 0.377539
0.600732 0.648920 0.417853
0.750637 0.655146 0.474678
0.806668 0.642817 0.477882
0.827176 0.634333 0.441077
0.845060 0.628138 0.409827
0.862333 0.625696 0.384710
0.879515 0.627253 0.366430
0.895872 0.633936 0.360601
0.911803 0.641230 0.381231
0.927398 0.645502 0.408637
0.940826 0.652583 0.440345
0.951934 0.662409 0.475807
0.960876 0.675013 0.514794
0.967651 0.690730 0.557549
0.972473 0.709285 0.603021
0.975463 0.730159 0.649836
0.976867 0.752743 0.696407
0.976898 0.775875 0.740658
0.975921 0.798489 0.780758
0.629541 0.852232 0.804562
0.630823 0.851072 0.804257
0.631281 0.849180 0.803128
0.631189 0.844480 0.800015
0.629603 0.836515 0.794186
0.625727 0.824826 0.785153
0.617182 0.807980 0.770993
0.600305 0.782712 0.748165
0.568902 0.742916 0.709926
0.474678 0.670924 0.625360
0.354925 0.559045 0.507134
0.236515 0.419287 0.378576
0.292821 0.527489 0.391180
0.458778 0.623224 0.425177
0.657801 0.692317 0.467445
0.780819 0.690120 0.524102
0.828214 0.676600 0.528008
0.846342 0.667475 0.491798
0.862974 0.661677 0.462043
0.879545 0.660090 0.439765
0.895750 0.662379 0.424598
0.911315 0.667903 0.416175
0.923674 0.679652 0.436561
0.936858 0.684932 0.467079
0.947845 0.692744 0.501244
0.956725 0.703273 0.539055
0.963500 0.716548 0.580102
0.968444 0.732296 0.623102
0.971710 0.749996 0.666743
0.973480 0.769070 0.709682
0.973999 0.788724 0.750210
0.973541 0.808347 0.787228
0.677211 0.868956 0.831571
0.677333 0.867887 0.830991
0.677455 0.866392 0.830045
0.677424 0.862882 0.827878
0.676631 0.857267 0.824094
0.674037 0.848936 0.818051
0.668238 0.837186 0.808652
0.656397 0.819913 0.793484
0.634516 0.793606 0.768582
0.582727 0.749050 0.719631
0.479377 0.673121 0.628962
0.353552 0.556542 0.505333
0.276860 0.480476 0.416358
0.343023 0.588037 0.422004
0.525719 0.670710 0.471962
0.703883 0.727657 0.516045
0.804990 0.721096 0.572351
0.845670 0.707668 0.577539
0.862119 0.698726 0.543084
0.877501 0.693294 0.515404
0.892760 0.691737 0.494759
0.907469 0.693568 0.480964
0.921355 0.698116 0.473243
0.932067 0.709773 0.490547
0.942565 0.717891 0.521141
0.951659 0.726345 0.557061
0.958770 0.737514 0.596460
0.964141 0.750942 0.637293
0.967834 0.766262 0.678889
0.970062 0.783047 0.719966
0.971038 0.800595 0.758755
0.971038 0.818387 0.794278
0.718013 0.882719 0.853635
0.719265 0.882200 0.853758
0.752346 0.891997 0.870481
0.752377 0.889799 0.869261
0.751705 0.886107 0.867002
0.749599 0.880705 0.863279
0.744930 0.872984 0.857389
0.736416 0.862119 0.848234
0.721462 0.846128 0.833738
0.695247 0.821195 0.809293
0.625910 0.776120 0.754482
0.518090 0.700954 0.662745
0.376013 0.579156 0.528222
0.346044 0.567407 0.478767
0.438483 0.664576 0.492805
0.608301 0.729335 0.546593
0.758785 0.773068 0.592187
0.835111 0.763302 0.643763
0.867124 0.750118 0.648188
0.880888 0.741146 0.616632
0.894102 0.735073 0.590448
0.907256 0.732570 0.570672
0.919890 0.733059 0.557214
0.931609 0.735988 0.549706
0.940246 0.744503 0.561913
0.947448 0.753933 0.588281
0.954376 0.760891 0.620325
0.959838 0.770413 0.655299
0.963867 0.782528 0.692561
0.966552 0.796628 0.730434
0.968048 0.811917 0.766964
0.968566 0.827573 0.800381
0.758419 0.895964 0.874754
0.762356 0.896635 0.876371
0.766201 0.897002 0.877928
0.769650 0.896361 0.878721
0.772000 0.894438 0.878477
0.772122 0.890806 0.876555
0.769863 0.885283 0.872862
0.764584 0.877440 0.866789
0.754971 0.866331 0.857328
0.738003 0.849851 0.842008
0.701411 0.822293 0.812406
0.623224 0.774075 0.752224
0.509667 0.694697 0.655512
0.362219 0.565972 0.514794
0.390326 0.619348 0.511681
0.497963 0.702358 0.533684
0.652979 0.756558 0.586023
0.784360 0.793149 0.628656
0.847929 0.782467 0.677119
0.876585 0.770993 0.683955
0.889250 0.763638 0.657252
0.901793 0.759335 0.636103
0.913970 0.757748 0.620294
0.925444 0.758511 0.609674
0.936034 0.761227 0.603845
0.943999 0.768978 0.615106
0.949615 0.780636 0.640253
0.955413 0.788266 0.672480
0.959869 0.798245 0.706905
0.962982 0.810117 0.742000
0.964965 0.823392 0.776181
0.965972 0.837125 0.807370
0.780850 0.903563 0.886351
0.783963 0.904082 0.887633
0.787045 0.904356 0.888853
0.789975 0.903929 0.889586
0.792111 0.902464 0.889555
0.792721 0.899718 0.888365
0.791623 0.895628 0.885893
0.788510 0.889921 0.881834
0.782498 0.882078 0.875639
0.771664 0.870726 0.865782
0.752468 0.853422 0.849424
0.703609 0.823362 0.814023
0.621576 0.773037 0.751064
0.502129 0.689723 0.649409
0.365515 0.572503 0.517449
0.438300 0.667720 0.545739
0.555444 0.736904 0.577203
0.693996 0.781949 0.626856
0.808072 0.812619 0.666407
0.860288 0.801724 0.711055
0.885618 0.791684 0.719661
0.897185 0.785855 0.697810
0.908629 0.782620 0.680842
0.919615 0.781552 0.668086
0.929900 0.782101 0.659083
0.939422 0.784573 0.654841
0.946624 0.791531 0.665034
0.951293 0.802976 0.690089
0.955779 0.812589 0.720302
0.959411 0.822416 0.752407
0.961883 0.833799 0.784207
0.963409 0.845762 0.813352
0.800259 0.910216 0.896330
0.802762 0.910613 0.897398
0.805325 0.910887 0.898375
0.807828 0.910582 0.899046
0.809781 0.909453 0.899168
0.810727 0.907378 0.898436
0.810361 0.904326 0.896818
0.808713 0.900145 0.894102
0.804929 0.894377 0.889921
0.797910 0.886351 0.883360
0.785611 0.874632 0.872953
0.761532 0.856046 0.854276
0.704433 0.823880 0.814725
0.619043 0.771695 0.749325
0.495644 0.685695 0.644282
0.413977 0.627863 0.560082
0.490272 0.712612 0.583154
0.612940 0.770535 0.625940
0.735866 0.808652 0.674037
0.832914 0.834867 0.712612
0.874754 0.825254 0.753902
0.896544 0.817777 0.764920
0.906676 0.813535 0.748653
0.916777 0.811582 0.736446
0.926329 0.811246 0.727840
0.935210 0.812375 0.722560
0.943389 0.815091 0.721248
0.949432 0.821775 0.732143
0.953002 0.832670 0.755795
0.956115 0.843015 0.781674
0.958831 0.851835 0.807889
0.960632 0.861265 0.831907
0.824460 0.918425 0.908568
0.825528 0.918456 0.908965
0.826566 0.918364 0.909270
0.827695 0.917815 0.909361
0.828763 0.916747 0.909239
0.829496 0.915129 0.908690
0.829679 0.912840 0.907652
0.829099 0.909850 0.906035
0.827390 0.905882 0.903502
0.823697 0.900511 0.899626
0.816678 0.892943 0.893431
0.803830 0.881437 0.883085
0.772366 0.861997 0.861570
0.715908 0.830655 0.823178
0.630060 0.779355 0.758694
0.503838 0.693263 0.652735
0.479408 0.688838 0.614313
0.553429 0.759243 0.632471
0.670954 0.803769 0.679622
0.773831 0.833310 0.721248
0.853147 0.853758 0.753262
0.885740 0.843473 0.786893
0.904082 0.836027 0.795926
0.912474 0.831449 0.781064
0.921294 0.829343 0.770352
0.929747 0.829068 0.763333
0.937713 0.830350 0.759854
0.945037 0.833371 0.760494
0.950378 0.840116 0.771969
0.953460 0.850584 0.793942
0.955871 0.861357 0.816342
0.958099 0.869474 0.838315
0.837552 0.923125 0.915251
0.838529 0.923156 0.915587
0.839536 0.923125 0.915923
0.840635 0.922728 0.916106
0.841703 0.921904 0.916075
0.842496 0.920623 0.915740
0.842954 0.918853 0.915068
0.842954 0.916594 0.914000
0.842130 0.913573 0.912322
0.839994 0.909606 0.909728
0.835752 0.904265 0.905699
0.827787 0.896483 0.899168
0.813687 0.884642 0.888304
0.775753 0.864073 0.863951
0.718563 0.832639 0.825406
0.631983 0.781582 0.760952
0.505211 0.696010 0.655238
0.536980 0.735531 0.658930
0.609247 0.793698 0.676539
0.716518 0.828550 0.722927
0.802945 0.852201 0.759091
0.869047 0.868986 0.786435
0.895048 0.859007 0.814481
0.910887 0.852506 0.823087
0.916777 0.844663 0.804288
0.924712 0.843015 0.795682
0.932403 0.843198 0.790677
0.939666 0.844877 0.788998
0.946288 0.848325 0.791409
0.951019 0.855283 0.803494
0.953704 0.865415 0.823728
0.955688 0.875761 0.843595
0.853147 0.928527 0.923033
0.854063 0.928588 0.923369
0.854765 0.928527 0.923613
0.855589 0.928191 0.923705
0.856382 0.927520 0.923674
0.857115 0.926513 0.923461
0.857633 0.925170 0.923033
0.857755 0.923339 0.922240
0.857298 0.921019 0.921019
0.855924 0.918029 0.919188
0.852995 0.914000 0.916350
0.847837 0.908507 0.912016
0.838895 0.900542 0.905089
0.818723 0.887541 0.891600
0.780209 0.866850 0.867094
0.721736 0.835019 0.828061
0.632868 0.783322 0.762570
0.515496 0.706538 0.664485
0.585351 0.771756 0.695003
0.658106 0.818631 0.715755
0.751369 0.846830 0.756466
0.824521 0.866270 0.787320
0.879728 0.879454 0.809934
0.901518 0.869718 0.832547
0.915343 0.863005 0.839597
0.921477 0.858732 0.828244
0.928496 0.857481 0.821530
0.935363 0.857908 0.818082
0.941772 0.859922 0.817990
0.947631 0.863401 0.821164
0.951598 0.870359 0.833097
0.953826 0.879759 0.850706
0.861479 0.931609 0.927245
0.862242 0.931701 0.927581
0.862974 0.931670 0.927764
0.863767 0.931395 0.927916
0.864622 0.930877 0.927977
0.865507 0.930083 0.927947
0.866361 0.929076 0.927794
0.867002 0.927764 0.927428
0.867308 0.926085 0.926787
0.867094 0.923980 0.925750
0.865782 0.921202 0.924071
0.863096 0.917449 0.921477
0.857877 0.912200 0.917266
0.848783 0.904417 0.910460
0.825040 0.891203 0.895720
0.788205 0.871641 0.872618
0.732387 0.841794 0.835996
0.648188 0.794247 0.775540
0.584649 0.759976 0.719600
0.646052 0.811460 0.742275
0.713802 0.846098 0.763821
0.788907 0.867155 0.795712
0.847135 0.881895 0.819211
0.891356 0.891386 0.836149
0.909087 0.882292 0.853544
0.920867 0.876036 0.859586
0.926146 0.872404 0.850492
0.932403 0.871977 0.846250
0.938415 0.873106 0.844999
0.943999 0.875608 0.846464
0.948974 0.879240 0.850553
0.952148 0.885801 0.861448
0.869841 0.934691 0.931487
0.870451 0.934722 0.931670
0.870909 0.934661 0.931792
0.871550 0.934417 0.931914
0.872282 0.933959 0.931975
0.873167 0.933349 0.932006
0.874083 0.932525 0.931945
0.874968 0.931487 0.931792
0.875669 0.930266 0.931518
0.876066 0.928710 0.930968
0.875761 0.926726 0.929992
0.874571 0.924163 0.928466
0.871763 0.920592 0.925933
0.866423 0.915496 0.921782
0.855161 0.907500 0.914183
0.830900 0.894713 0.899565
0.795590 0.876188 0.877714
0.743191 0.848631 0.843931
0.664057 0.805264 0.788663
0.644862 0.801816 0.764889
0.696651 0.841154 0.780453
0.756954 0.866514 0.800717
0.816953 0.882414 0.824918
0.864195 0.893797 0.842771
0.900359 0.900633 0.855772
0.915038 0.892149 0.869383
0.925322 0.886320 0.874784
0.929870 0.883207 0.867308
0.935393 0.883207 0.864591
0.940764 0.884855 0.864714
0.945617 0.887602 0.867185
0.949767 0.891295 0.871611
0.876005 0.937041 0.934600
0.876432 0.937041 0.934752
0.876860 0.936980 0.934844
0.877531 0.936797 0.934997
0.878538 0.936522 0.935210
0.879759 0.936126 0.935485
0.881376 0.935668 0.935790
0.883055 0.935119 0.936156
0.884794 0.934447 0.936461
0.886351 0.933654 0.936675
0.887572 0.932616 0.936645
0.888060 0.931212 0.936217
0.887541 0.929290 0.935210
0.885466 0.926452 0.933318
0.881041 0.922240 0.929961
0.868833 0.915129 0.922545
0.848661 0.904662 0.910674
0.820157 0.890013 0.893584
0.778866 0.868894 0.868040
0.717311 0.837186 0.828122
0.730098 0.851652 0.826627
0.765682 0.876677 0.833951
0.810361 0.892149 0.848478
0.851957 0.902373 0.863371
0.885893 0.909758 0.874327
0.912535 0.913603 0.882444
0.923430 0.905913 0.891417
0.931273 0.900511 0.895109
0.934997 0.898131 0.889708
0.939452 0.898375 0.888151
0.943755 0.899992 0.888945
0.947478 0.902434 0.891325
0.884764 0.940032 0.938842
0.885100 0.940032 0.938964
0.885435 0.939971 0.939055
0.886015 0.939818 0.939178
0.886931 0.939574 0.939391
0.888090 0.939269 0.939635
0.889494 0.938872 0.939940
0.890990 0.938445 0.940276
0.892546 0.937926 0.940612
0.894041 0.937255 0.940826
0.895201 0.936461 0.940917
0.895933 0.935424 0.940734
0.895995 0.934051 0.940185
0.895018 0.932128 0.939055
0.892607 0.929412 0.937072
