nova/tdt-studio/app/Lut_mau/luts/lut8.cube
# Created by Adobe Lightroom plugin Export LUT (1.22.0)
# www.johnrellis.com/lightroom/exportlut.htm
# Preset: INFEUNCER CGP - 07
# Color profile: /Library/Application Support/Adobe/Color/Profiles/Recommended/AdobeRGB1998.icc
LUT_3D_SIZE 32
0.049042 0.061341 0.081270
0.054139 0.062257 0.082399
0.060029 0.062989 0.083497
0.068482 0.065522 0.086152
0.080476 0.068208 0.089448
0.096437 0.069886 0.092775
0.117800 0.069917 0.095491
0.144961 0.067842 0.098116
0.178042 0.062013 0.100557
0.217288 0.041627 0.103090
0.262974 0.000000 0.105104
0.314672 0.000000 0.107118
0.371405 0.000000 0.108400
0.430976 0.000000 0.109438
0.490303 0.000000 0.110231
0.548058 0.000000 0.110933
0.602289 0.000000 0.111910
0.670466 0.000000 0.114931
0.729854 0.000000 0.120607
0.780514 0.000000 0.128695
0.825254 0.000000 0.140139
0.863523 0.000000 0.154940
0.894255 0.000000 0.173098
0.918425 0.045319 0.194797
0.937011 0.153719 0.220340
0.951904 0.218143 0.250797
0.964782 0.278202 0.288212
0.976379 0.340398 0.335271
0.986450 0.408087 0.394751
0.993927 0.481880 0.468147
0.997375 0.561395 0.554681
0.996612 0.640864 0.645960
0.049775 0.064454 0.083833
0.051850 0.064759 0.083497
0.059480 0.065766 0.083955
0.067353 0.068635 0.086854
0.079591 0.071229 0.089845
0.095491 0.072450 0.092927
0.116548 0.073030 0.095613
0.143008 0.071107 0.098268
0.175265 0.066285 0.100740
0.214023 0.052735 0.103059
0.258915 0.008637 0.105135
0.309392 0.000000 0.106996
0.364965 0.000000 0.108431
0.423804 0.000000 0.109346
0.482460 0.000000 0.110140
0.539910 0.000000 0.110750
0.594110 0.000000 0.111635
0.661524 0.000000 0.114443
0.719295 0.000000 0.119173
0.769253 0.000000 0.126650
0.814054 0.000000 0.136904
0.853178 0.000000 0.150454
0.885374 0.000000 0.167239
0.911254 0.000000 0.187564
0.931456 0.135164 0.211795
0.947539 0.202609 0.240848
0.961303 0.263493 0.277226
0.973480 0.326360 0.322911
0.984344 0.393866 0.380713
0.992645 0.467842 0.452949
0.997009 0.547784 0.538964
0.996918 0.628626 0.631312
0.050782 0.068055 0.087129
0.052644 0.068666 0.088808
0.056886 0.069306 0.086122
0.066255 0.072023 0.087251
0.078187 0.074525 0.090486
0.094392 0.076081 0.093233
0.114931 0.076478 0.095979
0.141115 0.075624 0.098360
0.173159 0.071443 0.100801
0.211521 0.062470 0.103151
0.256016 0.029328 0.105226
0.306249 0.000000 0.107088
0.361273 0.000000 0.108339
0.419806 0.000000 0.109499
0.478218 0.000000 0.110109
0.535515 0.000000 0.110780
0.589593 0.000000 0.111727
0.657252 0.000000 0.114076
0.713893 0.000000 0.118593
0.763241 0.000000 0.125643
0.808164 0.000000 0.135286
0.847807 0.000000 0.148348
0.880705 0.000000 0.164523
0.907378 0.000000 0.184207
0.928374 0.132601 0.207797
0.945068 0.198947 0.236179
0.959258 0.259068 0.271855
0.971862 0.321233 0.316808
0.983062 0.388312 0.373968
0.991791 0.461921 0.445563
0.996612 0.541619 0.530907
0.996948 0.622644 0.623621
0.051972 0.076936 0.095003
0.054505 0.077363 0.097017
0.056519 0.076875 0.097261
0.062989 0.078523 0.092409
0.076448 0.080842 0.092012
0.092622 0.083314 0.094362
0.113527 0.084352 0.096803
0.139986 0.083894 0.099092
0.172061 0.081361 0.101472
0.210239 0.074861 0.103792
0.254368 0.061830 0.105531
0.304326 0.012360 0.107362
0.358740 0.000000 0.108522
0.416693 0.000000 0.109468
0.474678 0.000000 0.110292
0.531487 0.000000 0.110719
0.587518 0.000000 0.111543
0.653651 0.000000 0.113832
0.707424 0.000000 0.117678
0.754971 0.000000 0.124056
0.798550 0.000000 0.132998
0.838376 0.000000 0.144900
0.872740 0.000000 0.160372
0.901610 0.010468 0.179812
0.924804 0.141726 0.203922
0.943084 0.206546 0.233677
0.958160 0.266209 0.270603
0.971130 0.327459 0.316350
0.982483 0.393439 0.374060
0.991241 0.464942 0.444739
0.996124 0.542046 0.528527
0.996674 0.620539 0.619074
0.052216 0.089876 0.106020
0.055055 0.089937 0.107576
0.058747 0.089967 0.109071
0.059815 0.085664 0.106233
0.070619 0.090852 0.098848
0.089631 0.092653 0.097353
0.110201 0.095186 0.098085
0.136538 0.096162 0.100069
0.168673 0.095125 0.102358
0.206607 0.091737 0.104311
0.250523 0.084230 0.106264
0.300175 0.070619 0.107698
0.354406 0.026093 0.109010
0.411994 0.000000 0.109834
0.470802 0.000000 0.110201
0.528496 0.000000 0.110811
0.591058 0.000000 0.111452
0.653925 0.000000 0.113497
0.706172 0.000000 0.117250
0.752468 0.000000 0.123445
0.794888 0.000000 0.131960
0.834012 0.000000 0.143496
0.868437 0.000000 0.158511
0.897826 0.097261 0.177646
0.921813 0.165438 0.201633
0.940764 0.221378 0.231205
0.956176 0.276432 0.267796
0.969360 0.333654 0.313146
0.980865 0.396460 0.369879
0.989929 0.465614 0.439612
0.995239 0.540734 0.522454
0.996216 0.618189 0.613031
0.048798 0.109285 0.120790
0.052766 0.109071 0.122133
0.057435 0.108095 0.123110
0.062898 0.104952 0.123659
0.061707 0.096864 0.114534
0.081636 0.106905 0.106142
0.109621 0.109224 0.103700
0.135195 0.111513 0.101930
0.167330 0.112825 0.103548
0.206180 0.111971 0.105501
0.250736 0.108553 0.107179
0.300816 0.101595 0.108339
0.355261 0.089021 0.109590
0.413367 0.066163 0.110109
0.472145 0.000000 0.110140
0.529992 0.000000 0.110475
0.598047 0.000000 0.111299
0.657771 0.000000 0.113130
0.708370 0.000000 0.117281
0.753841 0.000000 0.123293
0.796048 0.000000 0.132296
0.835294 0.000000 0.144503
0.918273 0.219516 0.200778
0.936706 0.259831 0.228916
0.951049 0.299901 0.260899
0.963012 0.341924 0.298283
0.973480 0.387549 0.342443
0.982544 0.438331 0.395239
0.989654 0.494881 0.457862
0.993896 0.557153 0.530816
0.994965 0.621668 0.609216
0.993194 0.684047 0.686061
0.033387 0.146609 0.146456
0.042206 0.145022 0.147036
0.050660 0.142733 0.147463
0.063447 0.137057 0.147677
0.067384 0.122438 0.139223
0.065156 0.116854 0.124483
0.103212 0.133547 0.116365
0.146853 0.137331 0.113283
0.180789 0.139345 0.108858
0.220768 0.141512 0.107729
0.269841 0.141268 0.108766
0.324010 0.138033 0.109682
0.381231 0.131655 0.110170
0.439887 0.121309 0.110231
0.497292 0.106874 0.110079
0.562951 0.091341 0.110292
0.628595 0.081331 0.111086
0.683833 0.077241 0.114137
0.732052 0.085786 0.119509
0.777676 0.106661 0.127779
0.822080 0.138430 0.140047
0.863127 0.177249 0.157626
0.897856 0.219791 0.181735
0.924529 0.262943 0.211734
0.943786 0.305913 0.247471
0.958099 0.348241 0.287388
0.969665 0.392554 0.332677
0.979431 0.440772 0.385260
0.987243 0.494575 0.447211
0.992187 0.553613 0.518212
0.993988 0.616175 0.596124
0.992889 0.677546 0.673518
0.008942 0.190005 0.174990
0.020264 0.187594 0.175051
0.037446 0.184024 0.174960
0.061311 0.175814 0.173800
0.075624 0.161929 0.169833
0.071382 0.133852 0.149355
0.070680 0.138521 0.132540
0.128115 0.161868 0.126497
0.185763 0.167453 0.122744
0.226474 0.169619 0.116915
0.271275 0.172244 0.111086
0.323735 0.173709 0.110262
0.381811 0.171908 0.110231
0.440650 0.167758 0.109834
0.504356 0.163272 0.109316
0.572656 0.161471 0.109041
0.631891 0.160159 0.110140
0.683253 0.160983 0.113039
0.729274 0.165591 0.118471
0.773190 0.177554 0.126528
0.816373 0.197024 0.138582
0.856870 0.223911 0.155612
0.891600 0.256382 0.178561
0.918883 0.291081 0.207797
0.938903 0.327092 0.242435
0.953765 0.363622 0.281163
0.965789 0.403021 0.325292
0.976074 0.447059 0.376715
0.984466 0.497597 0.437507
0.990143 0.553582 0.507774
0.992615 0.614191 0.585565
0.992187 0.674281 0.663539
0.000000 0.248692 0.213016
0.000000 0.245274 0.212528
0.016144 0.240543 0.211734
0.060060 0.229557 0.209262
0.081178 0.211704 0.203555
0.086122 0.182071 0.186740
0.076143 0.145296 0.159152
0.082521 0.166232 0.144961
0.161746 0.198184 0.138399
0.237125 0.206943 0.134493
0.284428 0.209323 0.126162
0.334569 0.211673 0.117769
0.386358 0.214359 0.110048
0.452766 0.216953 0.108919
0.522362 0.220401 0.107820
0.584009 0.221195 0.107546
0.638758 0.222110 0.108797
0.686824 0.223453 0.111788
0.730587 0.227848 0.117525
0.772976 0.236484 0.126131
0.814755 0.251377 0.138247
0.854093 0.272190 0.155550
0.888121 0.297887 0.178653
0.915221 0.326177 0.207492
0.935363 0.356146 0.241489
0.950439 0.387030 0.279667
0.962615 0.421546 0.323156
0.973083 0.461036 0.373663
0.981781 0.507134 0.433326
0.987945 0.559380 0.502037
0.990967 0.616358 0.578393
0.991119 0.673915 0.655726
0.000000 0.322362 0.261326
0.000000 0.317906 0.260136
0.000000 0.311833 0.258457
0.061158 0.298161 0.254337
0.090089 0.276555 0.246769
0.108125 0.246159 0.233371
0.095491 0.198703 0.200504
0.082307 0.165072 0.171450
0.101656 0.200015 0.159060
0.203708 0.241123 0.152193
0.297734 0.253696 0.147707
0.351904 0.256931 0.136294
0.414313 0.264469 0.125460
0.474891 0.271000 0.112825
0.536675 0.276738 0.105867
0.596307 0.279973 0.105623
0.649439 0.282109 0.107271
0.695796 0.284154 0.111330
0.737972 0.287846 0.118044
0.778103 0.294499 0.127352
0.817044 0.305455 0.140352
0.852995 0.320775 0.157351
0.884489 0.339086 0.179355
0.910246 0.359991 0.206241
0.930205 0.383062 0.238499
0.945647 0.408759 0.275181
0.958373 0.438758 0.318151
0.969421 0.475044 0.368780
0.978759 0.518364 0.428962
0.985504 0.568475 0.498848
0.989075 0.623804 0.576379
0.989624 0.679957 0.654780
0.000000 0.404364 0.317052
0.000000 0.400031 0.315953
0.000000 0.393286 0.313848
0.070680 0.378729 0.308873
0.105226 0.354833 0.299657
0.127504 0.321172 0.284642
0.129213 0.273594 0.256962
0.104372 0.213993 0.213199
0.092012 0.196384 0.186648
0.129122 0.241733 0.175479
0.264591 0.300542 0.170016
0.388556 0.323827 0.166506
0.447974 0.326940 0.151034
0.504204 0.329625 0.135714
0.556573 0.332494 0.119814
0.604364 0.336400 0.103670
0.654963 0.338079 0.105745
0.699275 0.339239 0.110414
0.739651 0.341070 0.117891
0.778531 0.345922 0.128206
0.816251 0.354498 0.141665
0.851286 0.366644 0.159670
0.882200 0.381567 0.182223
0.907591 0.398718 0.209537
0.927306 0.417609 0.241581
0.942626 0.438544 0.277928
0.955230 0.463844 0.319921
0.966186 0.495064 0.369360
0.975647 0.533532 0.427863
0.982727 0.579034 0.495979
0.986847 0.630396 0.572015
0.988006 0.683497 0.649683
0.000000 0.496956 0.385748
0.023041 0.492714 0.384466
0.068025 0.486305 0.382025
0.102266 0.471778 0.376226
0.132937 0.447883 0.366033
0.156680 0.413245 0.349462
0.169711 0.366308 0.324681
0.145998 0.298741 0.277348
0.114473 0.230808 0.226810
0.108156 0.241733 0.206973
0.174075 0.304875 0.200259
0.345312 0.377295 0.193668
0.565881 0.467292 0.216434
0.615290 0.461280 0.191623
0.657221 0.454505 0.169680
0.693812 0.448402 0.149477
0.726864 0.444221 0.130159
0.760037 0.441260 0.126802
0.793423 0.439582 0.138308
0.825498 0.440742 0.152926
0.855161 0.444648 0.170840
0.881590 0.451118 0.192477
0.903868 0.459510 0.217990
0.922057 0.470161 0.247868
0.936736 0.483406 0.281682
0.948913 0.500450 0.320043
0.959411 0.521935 0.363592
0.968688 0.548943 0.413367
0.976349 0.582086 0.470588
0.981872 0.621790 0.536187
0.984894 0.665583 0.606287
0.985565 0.711421 0.677180
0.152224 0.613703 0.487892
0.160922 0.610925 0.487343
0.170535 0.605310 0.484840
0.188602 0.594079 0.480201
0.209628 0.573754 0.470375
0.227420 0.543450 0.454047
0.237797 0.499397 0.427863
0.230014 0.436713 0.386664
0.175113 0.343725 0.313573
0.129427 0.256046 0.247166
0.135714 0.310246 0.236149
0.248600 0.399084 0.238743
0.470588 0.492744 0.238010
0.621363 0.519310 0.247135
0.666346 0.512657 0.221836
0.703029 0.504265 0.199557
0.734432 0.495888 0.178408
0.762936 0.489418 0.158694
0.790616 0.486397 0.143282
0.821592 0.485145 0.157595
0.850492 0.486641 0.175296
0.876524 0.490150 0.196658
0.898558 0.495369 0.221439
0.916869 0.502586 0.250187
0.931670 0.512200 0.282994
0.944030 0.525200 0.319982
0.954772 0.542718 0.362127
0.964294 0.565667 0.410254
0.972412 0.594995 0.466346
0.978576 0.631128 0.530724
0.982269 0.671931 0.600427
0.983612 0.715297 0.671351
0.283604 0.702510 0.584894
0.287907 0.699428 0.583673
0.291295 0.694484 0.580682
0.298680 0.684352 0.574975
0.306523 0.666438 0.563897
0.312749 0.640253 0.546654
0.314488 0.603632 0.521599
0.306462 0.550988 0.483772
0.257603 0.468269 0.415381
0.190463 0.364202 0.330938
0.143893 0.286259 0.265812
0.162173 0.372107 0.256504
0.314000 0.469154 0.269627
0.543450 0.558190 0.274174
0.677668 0.574487 0.291691
0.712642 0.561852 0.260899
0.741848 0.549279 0.235050
0.768490 0.538720 0.211948
0.794339 0.531426 0.191806
0.820127 0.528313 0.175570
0.846830 0.528222 0.183047
0.872496 0.529717 0.204074
0.894438 0.532555 0.228519
0.912688 0.537346 0.256870
0.927550 0.544091 0.289372
0.940002 0.554009 0.325902
0.950774 0.568170 0.367102
0.960418 0.587640 0.414405
0.968780 0.613428 0.469154
0.975250 0.645838 0.532433
0.979461 0.683345 0.600977
0.981353 0.723659 0.671077
0.393530 0.761227 0.660700
0.396674 0.759274 0.660121
0.397406 0.755032 0.657191
0.400305 0.745968 0.651179
0.402441 0.731319 0.640986
0.402167 0.710414 0.625605
0.398474 0.682155 0.604211
0.387182 0.643244 0.573419
0.364111 0.586816 0.527642
0.279423 0.491218 0.437263
0.201877 0.378882 0.343511
0.167361 0.339086 0.294377
0.207492 0.437324 0.286564
0.382879 0.534874 0.305119
0.604761 0.613550 0.316472
0.722408 0.620966 0.340520
0.751156 0.605737 0.305211
0.775967 0.591363 0.275761
0.799771 0.580072 0.251102
0.823453 0.572625 0.231052
0.846830 0.569024 0.215824
0.868986 0.568597 0.214420
0.890410 0.569177 0.237949
0.908476 0.571618 0.266056
0.923430 0.576013 0.297856
0.936065 0.583856 0.334691
0.947173 0.596155 0.376928
0.957153 0.614069 0.425910
0.965759 0.638636 0.483284
0.972381 0.669520 0.548241
0.976715 0.705013 0.617700
0.978729 0.742885 0.687404
0.482216 0.804044 0.720851
0.484840 0.802670 0.720607
0.486152 0.800107 0.719142
0.488563 0.793973 0.715450
0.490547 0.783627 0.708522
0.491341 0.768643 0.697993
0.489418 0.748501 0.683101
0.480720 0.720424 0.660426
0.460792 0.680751 0.626001
0.403052 0.617090 0.561975
0.303746 0.516197 0.461555
0.211368 0.391333 0.354314
0.196323 0.398505 0.324987
0.261173 0.500175 0.319646
0.446021 0.588769 0.341619
0.649073 0.654139 0.357641
0.756313 0.658656 0.387732
0.781979 0.643458 0.350774
0.805295 0.630091 0.320897
0.828122 0.620325 0.297246
0.850370 0.613916 0.278538
0.871397 0.610346 0.265019
0.890318 0.609125 0.259586
0.906981 0.610040 0.285008
0.921416 0.612726 0.317540
0.933776 0.618647 0.354864
0.944671 0.628870 0.397436
0.954437 0.644526 0.446387
0.962799 0.665949 0.502495
0.969329 0.692653 0.564660
0.973785 0.723079 0.629603
0.976104 0.756161 0.695033
0.549065 0.832151 0.763424
0.549859 0.830869 0.762753
0.550469 0.828824 0.761471
0.551934 0.824491 0.758846
0.553460 0.817288 0.754269
0.553857 0.806790 0.747005
0.552178 0.791928 0.736141
0.546075 0.771115 0.719692
0.532219 0.741634 0.694453
0.505119 0.699306 0.655695
0.419806 0.628687 0.576165
0.312596 0.523705 0.469398
0.213260 0.392798 0.355810
0.227207 0.456062 0.352789
0.318212 0.555932 0.354070
0.502983 0.633936 0.380652
0.687465 0.689570 0.401831
0.785977 0.693416 0.437781
0.809049 0.678798 0.400610
0.830198 0.666133 0.370581
0.850736 0.656611 0.347173
0.870268 0.649714 0.328801
0.888151 0.645136 0.315984
0.904387 0.642756 0.308659
0.917540 0.644190 0.332799
0.929900 0.648249 0.369574
0.940795 0.656519 0.411933
0.950652 0.669825 0.460639
0.959136 0.688624 0.515923
0.965820 0.712398 0.576959
0.970611 0.739773 0.640131
0.973297 0.769802 0.703761
0.608820 0.852537 0.797757
0.610986 0.852049 0.798123
0.664088 0.864286 0.824063
0.664363 0.861845 0.822660
0.664149 0.857877 0.820066
0.662348 0.852049 0.815793
0.658259 0.843717 0.809079
0.650507 0.831693 0.798703
0.637354 0.813809 0.782437
0.616083 0.786526 0.756863
0.571191 0.740902 0.709651
0.473640 0.667933 0.623072
0.348302 0.559258 0.505089
0.240024 0.435248 0.387091
0.285252 0.539971 0.402899
0.404242 0.630335 0.416022
0.579126 0.693874 0.450385
0.741054 0.740078 0.477302
0.823423 0.740475 0.518334
0.841947 0.725490 0.479744
0.859037 0.711940 0.447639
0.875456 0.701259 0.423041
0.890776 0.692805 0.404273
0.904814 0.686427 0.390539
0.917693 0.682063 0.382025
0.928008 0.682765 0.400000
0.937835 0.687129 0.436439
0.947143 0.696498 0.480415
0.955383 0.711452 0.531975
0.962219 0.731563 0.589441
0.967346 0.755428 0.649775
0.970428 0.782101 0.710842
0.673426 0.868650 0.830045
0.679927 0.869322 0.832639
0.686458 0.869841 0.835142
0.692439 0.869169 0.836759
0.696651 0.867094 0.836973
0.697902 0.863310 0.835142
0.696010 0.857664 0.831083
0.690883 0.849760 0.824582
0.681392 0.838407 0.814267
0.665431 0.821256 0.797818
0.638758 0.793240 0.770077
0.575525 0.743069 0.712917
0.473060 0.666773 0.622248
0.342199 0.552972 0.499062
0.269596 0.485695 0.417670
0.321660 0.586694 0.427039
0.455482 0.665644 0.450721
0.617304 0.721370 0.486915
0.765286 0.763149 0.516442
0.838590 0.762844 0.562158
0.855344 0.749477 0.527398
0.871122 0.738003 0.499519
0.885893 0.728206 0.477485
0.899596 0.720516 0.460578
0.912352 0.714626 0.448310
0.924498 0.711360 0.442145
0.934325 0.713710 0.461463
0.943267 0.721309 0.500023
0.951537 0.733761 0.549371
0.958556 0.750851 0.604089
0.963958 0.771420 0.661250
0.967468 0.795254 0.720180
0.709926 0.876951 0.847410
0.715145 0.877531 0.849485
0.720211 0.877928 0.851408
0.725002 0.877409 0.852781
0.728603 0.875792 0.853086
0.730190 0.872923 0.851987
0.729458 0.868620 0.849302
0.726467 0.862882 0.844999
0.720424 0.855253 0.838499
0.709499 0.844541 0.828336
0.690547 0.827848 0.811398
0.656855 0.799222 0.781033
0.579278 0.745418 0.716091
0.472358 0.666072 0.621729
0.336706 0.547570 0.493721
0.305028 0.537530 0.450355
0.362921 0.631830 0.453803
0.506249 0.699458 0.489754
0.656489 0.749538 0.527855
0.788693 0.786099 0.559625
0.851743 0.784054 0.607813
0.866484 0.772549 0.578637
0.880644 0.762387 0.553918
0.893828 0.753811 0.534508
0.906340 0.746792 0.519066
0.918334 0.741970 0.508629
0.930022 0.739925 0.504601
0.939452 0.744259 0.526329
0.947448 0.754208 0.566094
0.954650 0.768276 0.617090
0.960449 0.785794 0.671015
0.964355 0.806943 0.727626
0.740688 0.884642 0.862242
0.744717 0.885191 0.863920
0.748775 0.885588 0.865537
0.752529 0.885222 0.866606
0.755642 0.883940 0.867002
0.757259 0.881590 0.866270
0.757412 0.878172 0.864469
0.755947 0.873655 0.861479
0.752468 0.867857 0.857084
0.745449 0.860197 0.850370
0.732876 0.849607 0.839872
0.711391 0.833127 0.822446
0.662196 0.802090 0.784970
0.581476 0.746914 0.718166
0.470497 0.664881 0.620294
0.331701 0.543359 0.489357
0.347021 0.589960 0.486244
0.415442 0.676722 0.491096
0.563470 0.737331 0.540398
0.701625 0.782895 0.583276
0.815457 0.813260 0.618555
0.865721 0.809598 0.669215
0.878416 0.800443 0.646052
0.891020 0.792660 0.627344
0.903014 0.786404 0.612940
0.914702 0.781827 0.602411
0.926268 0.779568 0.597040
0.937438 0.780301 0.598718
0.946075 0.786923 0.623560
0.952667 0.798367 0.662989
0.957946 0.813046 0.711055
0.961425 0.831266 0.762478
0.776638 0.895811 0.880613
0.778073 0.895903 0.881163
0.779507 0.895842 0.881651
0.780972 0.895171 0.881804
0.782467 0.893828 0.881590
0.783474 0.891691 0.880827
0.784115 0.888884 0.879606
0.784146 0.885313 0.877745
0.783078 0.880797 0.874998
0.780026 0.875090 0.870939
0.773739 0.867643 0.864775
0.761501 0.857420 0.854856
0.738888 0.841825 0.837888
0.679805 0.811917 0.798001
0.596490 0.757961 0.731411
0.483223 0.675074 0.632227
0.340368 0.554498 0.499275
0.405707 0.648310 0.534203
0.486519 0.722621 0.547723
0.621118 0.774868 0.596002
0.740505 0.810727 0.635431
0.833707 0.832609 0.667262
0.874388 0.827420 0.713863
0.885435 0.818601 0.691005
0.896910 0.811826 0.673701
0.908263 0.806760 0.661189
0.919524 0.803769 0.653590
0.930663 0.803311 0.651942
0.941253 0.805753 0.657649
0.948974 0.813626 0.684718
0.954437 0.826413 0.725429
0.958343 0.842344 0.771511
0.793698 0.903014 0.890257
0.794949 0.903166 0.890776
0.796139 0.903197 0.891203
0.797452 0.902678 0.891386
0.798825 0.901671 0.891325
0.799893 0.899901 0.890806
0.800595 0.897551 0.889860
0.800961 0.894560 0.888487
0.800687 0.890745 0.886442
0.799405 0.886046 0.883604
0.796109 0.880003 0.879362
0.789456 0.872129 0.872892
0.776486 0.861295 0.862486
0.747280 0.844877 0.842802
0.685451 0.815183 0.802274
0.600641 0.761563 0.735500
0.485817 0.678187 0.635401
0.389258 0.610681 0.545006
0.459632 0.694362 0.576257
0.546502 0.759915 0.597436
0.668208 0.804044 0.643275
0.770626 0.831662 0.680903
0.846983 0.847898 0.711421
0.881926 0.844327 0.754330
0.890715 0.832700 0.725246
0.901701 0.827237 0.710323
0.912688 0.823697 0.700587
0.923583 0.822232 0.696132
0.934112 0.823209 0.697963
0.944060 0.827207 0.707393
0.950652 0.837339 0.739193
0.955077 0.851499 0.780270
0.812924 0.912322 0.901579
0.814023 0.912505 0.902037
0.814878 0.912505 0.902312
0.815763 0.911986 0.902373
0.816648 0.911009 0.902190
0.817472 0.909575 0.901762
0.818082 0.907622 0.901030
0.818418 0.905028 0.899870
0.818265 0.901823 0.898222
0.817380 0.897826 0.895933
0.815183 0.892638 0.892607
0.811093 0.886076 0.887907
0.803647 0.877379 0.880827
0.790249 0.865660 0.869963
0.753933 0.847868 0.847013
0.690059 0.818051 0.805875
0.602106 0.763485 0.737484
0.483711 0.678065 0.634699
0.436225 0.656886 0.584588
0.505913 0.731777 0.611872
0.595270 0.789242 0.638270
0.704311 0.824857 0.681209
0.791226 0.845365 0.715694
0.855650 0.858244 0.742550
0.886931 0.855497 0.778103
0.897093 0.848569 0.763119
0.907378 0.844419 0.750881
0.917693 0.841947 0.743252
0.927794 0.841764 0.741695
0.937591 0.844419 0.747341
0.946380 0.850126 0.760891
0.951812 0.861448 0.793240
0.823026 0.917784 0.907713
0.824002 0.917998 0.908141
0.824796 0.917967 0.908415
0.825711 0.917632 0.908568
0.826627 0.916838 0.908476
0.827604 0.915709 0.908263
0.828580 0.914183 0.907866
0.829374 0.912230 0.907195
0.829923 0.909819 0.906218
0.830045 0.906828 0.904814
0.829221 0.903014 0.902708
0.827176 0.898131 0.899626
0.823056 0.891630 0.895018
0.815702 0.882780 0.887999
0.801511 0.870390 0.876585
0.764309 0.852567 0.853483
0.702998 0.825223 0.815152
0.616236 0.774533 0.750301
0.499855 0.691829 0.650324
0.502617 0.711849 0.639796
0.566827 0.777340 0.662501
0.653223 0.821592 0.691188
0.744228 0.845853 0.729030
0.813443 0.860197 0.759091
0.866392 0.871031 0.781003
0.894560 0.869993 0.808621
0.904112 0.864439 0.798795
0.913603 0.861967 0.790738
0.923247 0.861479 0.787808
0.932586 0.863340 0.790890
0.941253 0.867674 0.800137
0.948821 0.874601 0.815518
0.833677 0.923400 0.914061
0.834409 0.923491 0.914336
0.834958 0.923400 0.914488
0.835630 0.923033 0.914519
0.836423 0.922332 0.914458
0.837339 0.921355 0.914336
0.838315 0.920104 0.914061
0.839322 0.918547 0.913664
0.840238 0.916686 0.913085
0.840879 0.914397 0.912230
0.840909 0.911559 0.910918
0.840116 0.907988 0.908965
0.837827 0.903227 0.905913
0.833249 0.896696 0.901183
0.825437 0.887633 0.893980
0.807645 0.874174 0.880797
0.772580 0.856565 0.858793
0.714321 0.831327 0.823117
0.628840 0.784421 0.761715
0.515953 0.705653 0.665980
0.561547 0.758999 0.688624
0.619165 0.812772 0.705348
0.700343 0.843626 0.735531
0.774685 0.860105 0.768154
0.830716 0.871824 0.792355
0.875822 0.881743 0.809262
0.901457 0.881529 0.830411
0.910521 0.877104 0.824582
0.919249 0.875975 0.820005
0.928191 0.876982 0.820401
0.936736 0.880064 0.825956
0.944488 0.885405 0.836545
0.842039 0.927703 0.918914
0.842557 0.927764 0.919097
0.843076 0.927672 0.919249
0.843839 0.927398 0.919402
0.844938 0.926940 0.919554
0.846403 0.926360 0.919768
0.848325 0.925689 0.920073
0.850431 0.924865 0.920439
0.852750 0.923919 0.920775
0.854887 0.922759 0.920989
0.856687 0.921233 0.920928
0.857725 0.919249 0.920378
0.857603 0.916533 0.919127
0.855741 0.912657 0.916686
0.851499 0.907073 0.912627
0.843809 0.898924 0.906065
0.825132 0.885801 0.893065
0.798123 0.869444 0.875029
0.753201 0.849302 0.847868
0.679896 0.816373 0.801480
0.598840 0.770443 0.738399
0.653834 0.820554 0.764309
0.701900 0.851987 0.775418
0.764340 0.868162 0.801205
0.815183 0.880095 0.822446
0.856474 0.890349 0.837003
0.892180 0.898772 0.846799
0.913359 0.898161 0.859342
0.921172 0.894713 0.856718
0.928588 0.894652 0.855100
0.936309 0.896544 0.857603
0.943481 0.900145 0.863706
0.854917 0.933440 0.925872
0.855344 0.933410 0.926024
0.855711 0.933318 0.926116
0.856382 0.933074 0.926207
0.857389 0.932677 0.926390
0.858732 0.932189 0.926604
0.860380 0.931548 0.926879
0.862242 0.930846 0.927184
0.864256 0.930022 0.927489
0.866148 0.929015 0.927703
0.867796 0.927764 0.927703
0.868925 0.926177 0.927367
0.869200 0.924102 0.926574
0.868315 0.921263 0.925017
0.865721 0.917357 0.922362
