nova/tdt-studio/app/Lut_mau/luts/lut8.cube
# Created by Adobe Lightroom plugin Export LUT (1.22.0)
# www.johnrellis.com/lightroom/exportlut.htm
# Preset: INFEUNCER CGP - 07
# Color profile: /Library/Application Support/Adobe/Color/Profiles/Recommended/AdobeRGB1998.icc
LUT_3D_SIZE 5
DOMAIN_MIN 0.000000 0.000000 0.000000
DOMAIN_MAX 0.903226 0.903226 0.903226
0.049042 0.061341 0.081270
0.144961 0.067842 0.098116
0.490303 0.000000 0.110231
0.863523 0.000000 0.154940
0.986450 0.408087 0.394751
0.008942 0.190005 0.174990
0.128115 0.161868 0.126497
0.504356 0.163272 0.109316
0.856870 0.223911 0.155612
0.984466 0.497597 0.437507
0.393530 0.761227 0.660700
0.387182 0.643244 0.573419
0.604761 0.613550 0.316472
0.868986 0.568597 0.214420
0.965759 0.638636 0.483284
0.776638 0.895811 0.880613
0.784146 0.885313 0.877745
0.596490 0.757961 0.731411
0.833707 0.832609 0.667262
0.941253 0.805753 0.657649
0.861357 0.936461 0.929442
0.869566 0.934630 0.931365
0.871183 0.922026 0.926360
0.725307 0.840696 0.833066
0.911284 0.916258 0.875120
0.021912 0.071992 0.141329
0.199588 0.038178 0.156100
0.468086 0.000000 0.123568
0.819425 0.000000 0.138949
0.977630 0.366461 0.347601
0.000000 0.197330 0.213779
0.158511 0.190951 0.200076
0.506767 0.187961 0.158297
0.823972 0.245853 0.141695
0.974609 0.440894 0.368719
0.474861 0.788510 0.705592
0.479316 0.693568 0.640650
0.589685 0.587976 0.385260
0.841184 0.547967 0.272435
0.963226 0.625544 0.459419
0.794430 0.900359 0.889006
0.801694 0.890959 0.886778
0.667384 0.793851 0.782101
0.834501 0.833310 0.705074
0.935851 0.807736 0.682063
0.864347 0.937774 0.930999
0.872679 0.936065 0.933013
0.882231 0.927886 0.932769
0.765713 0.855009 0.855772
0.913634 0.918395 0.882811
0.000000 0.087282 0.281773
0.142611 0.072267 0.389746
0.771756 0.000000 0.456886
0.811673 0.000000 0.244755
0.978698 0.376013 0.354559
0.000000 0.132082 0.252171
0.089509 0.176608 0.381750
0.719570 0.236637 0.476265
0.812406 0.198367 0.286412
0.976715 0.440528 0.375708
0.000000 0.728420 0.715145
0.394018 0.714382 0.703822
0.619257 0.622553 0.603510
0.826413 0.565026 0.477943
0.961334 0.614496 0.487556
0.827970 0.916075 0.908751
0.836606 0.909911 0.908171
0.809934 0.864683 0.876646
0.837827 0.839139 0.803372
0.924407 0.809598 0.733211
0.875853 0.941375 0.936278
0.883482 0.940520 0.938506
0.894652 0.935882 0.940398
0.830014 0.884062 0.894072
0.913329 0.917662 0.892424
0.000000 0.102052 0.492439
0.000000 0.090547 0.598596
0.702571 0.000000 0.801633
0.927825 0.443641 0.726558
0.973846 0.438605 0.579370
0.000000 0.140291 0.456336
0.000000 0.159548 0.565148
0.675746 0.253086 0.800046
0.908934 0.539605 0.745235
0.964111 0.461524 0.577234
0.000000 0.427802 0.606989
0.000000 0.383246 0.566613
0.503563 0.518700 0.734096
0.858854 0.677821 0.770230
0.938750 0.600244 0.637110
0.645472 0.890013 0.893858
0.699123 0.885527 0.893034
0.802365 0.876097 0.891844
0.826383 0.835996 0.852079
0.917266 0.797879 0.787015
0.870390 0.943389 0.940124
0.884062 0.943511 0.942962
0.915251 0.945068 0.951202
0.909422 0.934356 0.944945
0.916167 0.920226 0.914519
0.000000 0.129976 0.801175
0.000000 0.118166 0.836271
0.602014 0.138857 0.907256
0.914672 0.447700 0.915404
0.962829 0.699214 0.861112
0.000000 0.158999 0.764614
0.000000 0.168276 0.808255
0.561822 0.250492 0.898283
0.903349 0.530571 0.916289
0.956573 0.733669 0.870573
0.000000 0.210697 0.531548
0.000000 0.225162 0.610590
0.253391 0.338720 0.841459
0.865934 0.693446 0.917144
0.943206 0.807950 0.894041
0.198611 0.805875 0.898863
0.221988 0.792264 0.893706
0.143343 0.706935 0.863218
0.712886 0.725185 0.886900
0.930175 0.864225 0.912688
0.790829 0.939391 0.944335
0.803708 0.938781 0.944579
0.844022 0.938048 0.946288
0.897337 0.937865 0.949401
0.915099 0.922210 0.936645
