nova/tdt-studio/app/Lut_mau/luts/lut8.cube
# Created by Adobe Lightroom plugin Export LUT (1.22.0)
# www.johnrellis.com/lightroom/exportlut.htm
# Preset: INFEUNCER CGP - 07
# Color profile: /Library/Application Support/Adobe/Color/Profiles/Recommended/AdobeRGB1998.icc
LUT_3D_SIZE 8
DOMAIN_MIN 0.000000 0.000000 0.000000
DOMAIN_MAX 0.903226 0.903226 0.903226
0.049042 0.061341 0.081270
0.080476 0.068208 0.089448
0.178042 0.062013 0.100557
0.371405 0.000000 0.108400
0.602289 0.000000 0.111910
0.825254 0.000000 0.140139
0.937011 0.153719 0.220340
0.986450 0.408087 0.394751
0.052216 0.089876 0.106020
0.070619 0.090852 0.098848
0.168673 0.095125 0.102358
0.354406 0.026093 0.109010
0.591058 0.000000 0.111452
0.794888 0.000000 0.131960
0.921813 0.165438 0.201633
0.980865 0.396460 0.369879
0.000000 0.248692 0.213016
0.081178 0.211704 0.203555
0.161746 0.198184 0.138399
0.386358 0.214359 0.110048
0.638758 0.222110 0.108797
0.814755 0.251377 0.138247
0.935363 0.356146 0.241489
0.981781 0.507134 0.433326
0.152224 0.613703 0.487892
0.209628 0.573754 0.470375
0.175113 0.343725 0.313573
0.470588 0.492744 0.238010
0.734432 0.495888 0.178408
0.850492 0.486641 0.175296
0.931670 0.512200 0.282994
0.972412 0.594995 0.466346
0.549065 0.832151 0.763424
0.553460 0.817288 0.754269
0.532219 0.741634 0.694453
0.213260 0.392798 0.355810
0.687465 0.689570 0.401831
0.850736 0.656611 0.347173
0.917540 0.644190 0.332799
0.959136 0.688624 0.515923
0.740688 0.884642 0.862242
0.755642 0.883940 0.867002
0.752468 0.867857 0.857084
0.662196 0.802090 0.784970
0.347021 0.589960 0.486244
0.815457 0.813260 0.618555
0.903014 0.786404 0.612940
0.946075 0.786923 0.623560
0.823026 0.917784 0.907713
0.826627 0.916838 0.908476
0.829923 0.909819 0.906218
0.823056 0.891630 0.895018
0.702998 0.825223 0.815152
0.566827 0.777340 0.662501
0.866392 0.871031 0.781003
0.923247 0.861479 0.787808
0.861357 0.936461 0.929442
0.864042 0.935882 0.930083
0.871855 0.934051 0.931884
0.879423 0.930266 0.932830
0.863706 0.912871 0.919677
0.779416 0.862272 0.864622
0.785458 0.882750 0.841459
0.911284 0.916258 0.875120
0.043671 0.066285 0.105806
0.084260 0.067079 0.103883
0.163607 0.077363 0.103792
0.343145 0.001007 0.108400
0.576593 0.000000 0.111147
0.777890 0.000000 0.128328
0.913146 0.096101 0.190524
0.977661 0.353613 0.343420
0.036530 0.095216 0.118654
0.074311 0.098512 0.120089
0.166995 0.105592 0.115908
0.343420 0.091798 0.109133
0.578241 0.000000 0.110903
0.766598 0.000000 0.125856
0.900206 0.137728 0.180301
0.971099 0.344396 0.320928
0.005737 0.261021 0.224125
0.099886 0.227451 0.218875
0.175906 0.206729 0.164096
0.375982 0.215396 0.135286
0.603815 0.223514 0.107759
0.780026 0.240848 0.127779
0.909422 0.311498 0.199252
0.972534 0.449409 0.366064
0.183291 0.608942 0.489418
0.235508 0.571496 0.474891
0.204990 0.365728 0.336370
0.428870 0.448249 0.245609
0.666529 0.443030 0.185519
0.799191 0.440070 0.140841
0.908324 0.468544 0.226139
0.964569 0.547692 0.397711
0.561334 0.830716 0.766201
0.560510 0.814725 0.754696
0.532708 0.737728 0.691798
0.228397 0.400977 0.365728
0.658656 0.660304 0.389502
0.827512 0.633509 0.338567
0.907774 0.625635 0.298222
0.955322 0.665797 0.473030
0.736049 0.881956 0.859068
0.739498 0.878233 0.858122
0.735958 0.861845 0.847745
0.657496 0.795712 0.779141
0.342687 0.573449 0.479866
0.811612 0.808774 0.622370
0.898650 0.781888 0.612024
0.944121 0.776059 0.597498
0.817319 0.914611 0.904204
0.818296 0.912352 0.903410
0.822446 0.905486 0.901488
0.817807 0.888182 0.891386
0.703090 0.823362 0.814054
0.552575 0.762936 0.650050
0.861204 0.865080 0.768612
0.919219 0.852995 0.771389
0.858762 0.935637 0.928191
0.861967 0.935241 0.929076
0.870085 0.933440 0.931029
0.878111 0.929717 0.932128
0.870817 0.917144 0.924071
0.790280 0.866789 0.870939
0.781857 0.880613 0.839078
0.909331 0.914305 0.873014
0.004883 0.074128 0.158938
0.060883 0.075013 0.174136
0.273625 0.000000 0.185367
0.366918 0.000000 0.143526
0.605890 0.000000 0.130007
0.797696 0.009369 0.132631
0.923491 0.208865 0.206058
0.981506 0.395727 0.371649
0.008087 0.096162 0.161685
0.058015 0.104463 0.184237
0.241367 0.100404 0.190188
0.367346 0.076448 0.155856
0.600763 0.000000 0.140047
0.786557 0.131655 0.129824
0.915282 0.231754 0.198398
0.977905 0.399451 0.360998
0.000000 0.256291 0.265049
0.051850 0.255100 0.261021
0.209110 0.238621 0.239200
0.415839 0.238743 0.209934
0.637201 0.246311 0.180117
0.797757 0.285557 0.154818
0.915282 0.348638 0.210636
0.973632 0.464790 0.377417
0.341863 0.715206 0.609003
0.391547 0.692012 0.606348
0.367803 0.527825 0.490669
0.503441 0.498970 0.365332
0.682277 0.472908 0.287053
0.814206 0.464851 0.241215
0.916594 0.495766 0.247349
0.967346 0.567376 0.422553
0.626246 0.851530 0.802090
0.635615 0.841825 0.798978
0.622339 0.789914 0.760708
0.376867 0.537041 0.501152
0.697780 0.691890 0.512474
0.828275 0.655238 0.437812
0.905394 0.640406 0.387823
0.956481 0.672633 0.485512
0.766323 0.889097 0.873228
0.771054 0.885649 0.873014
0.769986 0.870817 0.864805
0.714046 0.822721 0.817288
0.383001 0.574365 0.513085
0.813230 0.809567 0.666743
0.891081 0.785336 0.650324
0.939879 0.784360 0.639002
0.830228 0.919982 0.911101
0.832059 0.918242 0.910887
0.835080 0.911711 0.908812
0.829984 0.895567 0.899321
0.750881 0.841154 0.842222
0.572290 0.759884 0.673121
0.864927 0.869718 0.800534
0.918944 0.863279 0.804990
0.862791 0.937346 0.930266
0.864714 0.936706 0.930602
0.872496 0.934813 0.932403
0.882444 0.932036 0.934600
0.877287 0.921111 0.928099
0.810147 0.875639 0.882689
0.786801 0.880278 0.845853
0.911803 0.916564 0.881010
0.000000 0.082704 0.233890
0.000000 0.084596 0.262242
0.241917 0.000000 0.335149
0.636103 0.000000 0.353704
0.662043 0.000000 0.207370
0.778958 0.000000 0.196841
0.913298 0.199039 0.205997
0.978210 0.370245 0.350744
0.000000 0.103853 0.246555
0.000000 0.108888 0.272313
0.247501 0.096803 0.354345
0.615167 0.000000 0.357977
0.639551 0.000000 0.221256
0.775906 0.000000 0.206760
0.908659 0.229984 0.211337
0.976226 0.382544 0.349065
0.000000 0.197848 0.291661
0.000000 0.193637 0.287724
0.194064 0.231785 0.359716
0.535790 0.256352 0.369146
0.637537 0.222263 0.280278
0.798123 0.275517 0.263554
0.921447 0.372259 0.274235
0.977173 0.476600 0.396460
0.000000 0.611780 0.593225
0.000000 0.610498 0.590387
0.383795 0.593805 0.574456
0.512840 0.517021 0.487373
0.671504 0.480262 0.410956
0.802945 0.468788 0.359045
0.909483 0.496529 0.343236
0.969177 0.566979 0.429084
0.639796 0.861540 0.827176
0.678645 0.859251 0.832639
0.729915 0.844053 0.834562
0.621912 0.714961 0.714107
0.732662 0.720699 0.654017
0.819913 0.677699 0.555261
0.899077 0.660121 0.505455
0.955444 0.680598 0.527947
0.808103 0.905211 0.895903
0.815976 0.904967 0.898528
0.816953 0.892729 0.892912
0.794675 0.861295 0.869047
0.532586 0.659724 0.641749
0.823880 0.821775 0.753933
0.883665 0.797055 0.713527
0.934081 0.793179 0.691402
0.846494 0.926909 0.919799
0.849638 0.926116 0.920500
0.855985 0.922332 0.920958
0.855589 0.911925 0.916136
0.821927 0.874052 0.885985
0.612451 0.761898 0.717128
0.869169 0.874723 0.834775
0.916808 0.869078 0.829282
0.873289 0.940612 0.935119
0.875883 0.940307 0.935882
0.882170 0.938964 0.937407
0.889555 0.936187 0.938781
0.889006 0.928374 0.935332
0.840696 0.893126 0.902342
0.793240 0.877165 0.855497
0.914488 0.918944 0.890929
0.000000 0.091676 0.332982
0.000000 0.093202 0.366369
0.200504 0.036133 0.488960
0.593469 0.000000 0.579309
0.859159 0.000000 0.555901
0.864042 0.000000 0.366644
0.903166 0.064393 0.311070
0.976776 0.382483 0.388098
0.000000 0.108278 0.336156
0.000000 0.112825 0.370123
0.192538 0.106996 0.492164
0.595178 0.000000 0.592950
0.846738 0.125338 0.562036
0.853819 0.000000 0.370886
0.902861 0.163210 0.322881
0.975463 0.400092 0.395331
0.000000 0.140993 0.277012
0.000000 0.157656 0.319463
0.119356 0.208835 0.467018
0.578607 0.271946 0.624018
0.797665 0.362982 0.573327
0.803525 0.203311 0.373602
0.896605 0.304845 0.357580
0.969360 0.444770 0.409125
0.000000 0.438422 0.543877
0.000000 0.431403 0.536248
0.056703 0.403388 0.509758
0.498299 0.502129 0.627008
0.709468 0.516930 0.580163
0.782284 0.452033 0.468452
0.894804 0.476081 0.441535
0.964446 0.538933 0.463691
0.325719 0.808713 0.801755
0.392370 0.807523 0.802121
0.541436 0.796048 0.795987
0.698604 0.791012 0.800504
0.701411 0.705013 0.698970
0.794369 0.661830 0.621393
0.884428 0.641810 0.567254
0.948669 0.663203 0.571984
0.753231 0.892546 0.883726
0.770626 0.892363 0.886595
0.809873 0.892882 0.893950
0.828641 0.883940 0.892882
0.737331 0.801236 0.814511
0.823789 0.821866 0.806119
0.872526 0.795041 0.747829
0.928313 0.789761 0.725978
0.858946 0.932311 0.927153
0.864744 0.932433 0.928618
0.871824 0.929900 0.929686
0.874174 0.923125 0.927611
0.857664 0.902129 0.912383
0.655055 0.760220 0.756741
0.869627 0.875242 0.857206
0.912230 0.867308 0.839811
0.881254 0.942962 0.938720
0.883299 0.942626 0.939300
0.889220 0.941558 0.940826
0.897856 0.940368 0.943328
0.899748 0.935760 0.942138
0.879118 0.915373 0.926207
0.787259 0.864927 0.857359
0.914244 0.918456 0.898405
0.000000 0.100984 0.467994
0.000000 0.101015 0.501335
0.121828 0.069917 0.610620
0.561089 0.000000 0.756771
0.845609 0.022644 0.777493
0.921691 0.395636 0.702846
0.942718 0.343999 0.571527
0.973114 0.419287 0.537652
0.000000 0.113802 0.451759
0.000000 0.116487 0.483223
0.090242 0.111574 0.597833
0.544732 0.000000 0.749477
0.834318 0.198093 0.774502
0.914336 0.427802 0.705715
0.937530 0.362982 0.572992
0.969207 0.428779 0.538262
0.000000 0.153902 0.404089
0.000000 0.163302 0.449409
0.000000 0.191806 0.571771
0.511223 0.277806 0.746548
0.815305 0.433173 0.790219
0.894499 0.542779 0.732448
0.922972 0.442206 0.593439
0.957824 0.482948 0.559014
0.000000 0.282322 0.474556
0.000000 0.267857 0.458015
0.000000 0.228641 0.418585
0.391730 0.418982 0.695918
0.787381 0.623468 0.813993
0.867277 0.657893 0.765774
0.900481 0.527886 0.615076
0.950683 0.582483 0.616419
0.000000 0.687098 0.768215
0.000000 0.683772 0.765042
0.219821 0.668147 0.750851
0.391028 0.625330 0.714473
0.701503 0.704341 0.795621
0.812924 0.690547 0.744320
0.869902 0.631556 0.655024
0.939330 0.662013 0.657221
0.588769 0.879240 0.880766
0.619043 0.878874 0.881956
0.688136 0.874876 0.882383
0.763851 0.866606 0.880339
0.822934 0.866056 0.884611
0.811276 0.819364 0.832975
0.862364 0.787045 0.782986
0.924590 0.780392 0.760006
0.819821 0.924163 0.921996
0.827909 0.924834 0.923583
0.849454 0.925963 0.927398
0.879423 0.928862 0.934264
0.895903 0.927611 0.937224
0.842954 0.877256 0.895445
0.878233 0.882414 0.884977
0.911559 0.870024 0.858701
0.876982 0.943938 0.940642
0.880827 0.943877 0.941436
0.893217 0.943999 0.944366
0.908782 0.944518 0.948699
0.912902 0.942351 0.949340
0.907317 0.934508 0.944244
0.802701 0.859709 0.871824
0.915953 0.920073 0.911376
0.000000 0.109010 0.620447
0.000000 0.107851 0.648066
0.000000 0.084138 0.724788
0.488289 0.000000 0.829068
0.788083 0.000000 0.876493
0.912627 0.448585 0.845457
0.945830 0.579461 0.797879
0.968780 0.569726 0.735256
0.000000 0.120058 0.599908
0.000000 0.121492 0.627863
0.000000 0.114717 0.708553
0.464881 0.033936 0.816739
0.776364 0.151675 0.871519
0.906584 0.472053 0.844358
0.941283 0.586481 0.796475
0.965820 0.564904 0.728664
0.000000 0.152224 0.553979
0.000000 0.153170 0.582361
0.000000 0.175387 0.673091
0.406470 0.223880 0.796811
0.756313 0.372686 0.870390
0.893889 0.584955 0.855894
0.930236 0.657252 0.817472
0.958312 0.618860 0.752438
0.000000 0.166506 0.381415
0.000000 0.175784 0.412329
0.000000 0.217227 0.547387
0.234134 0.315984 0.739345
0.720333 0.556176 0.867643
0.876371 0.701472 0.871397
0.914763 0.736202 0.842985
0.946838 0.674861 0.775113
0.000000 0.520134 0.719265
0.000000 0.505638 0.707881
0.000000 0.448554 0.663508
0.000000 0.312932 0.544457
0.546563 0.563378 0.803647
0.848447 0.764004 0.876616
0.894224 0.780453 0.852567
0.931334 0.708858 0.779477
0.361242 0.826596 0.875669
0.385595 0.824949 0.874662
0.452216 0.818265 0.870665
0.524437 0.801907 0.860868
0.563317 0.751095 0.828733
0.798154 0.806851 0.871275
0.866148 0.810300 0.853452
0.912200 0.768856 0.803433
0.733364 0.913176 0.919493
0.744381 0.912902 0.919951
0.773190 0.911833 0.920775
0.807828 0.911437 0.922423
0.842741 0.909789 0.923095
0.881590 0.911986 0.927520
0.867796 0.876555 0.893523
0.907500 0.859007 0.867948
0.840909 0.940490 0.938598
0.845640 0.940490 0.939178
0.862211 0.940887 0.941588
0.885130 0.941650 0.945312
0.909758 0.943420 0.950561
0.927489 0.945464 0.955657
0.905089 0.926726 0.940276
0.919310 0.923369 0.927520
0.000000 0.129976 0.801175
0.000000 0.128145 0.813718
0.000000 0.111269 0.846342
0.455116 0.079469 0.889738
0.731930 0.254063 0.921263
0.898894 0.378851 0.926787
0.946838 0.630213 0.891508
0.962829 0.699214 0.861112
0.000000 0.140291 0.787655
0.000000 0.140627 0.801175
0.000000 0.133516 0.837766
0.435340 0.125795 0.884642
0.722805 0.284520 0.918395
0.893156 0.411322 0.925048
0.944030 0.643183 0.892241
0.960876 0.706203 0.862394
0.000000 0.163333 0.748592
0.000000 0.167849 0.763607
0.000000 0.180240 0.807828
0.365454 0.215885 0.871855
0.695247 0.376165 0.911528
0.876829 0.515526 0.921752
0.936065 0.697993 0.898802
0.954711 0.742092 0.872801
0.000000 0.208408 0.634455
0.000000 0.211673 0.659358
0.000000 0.221225 0.737545
0.050294 0.272313 0.832700
0.625635 0.449866 0.897581
0.851774 0.631464 0.918456
0.925597 0.765591 0.909117
0.946990 0.788296 0.887633
0.000000 0.390692 0.713558
0.000000 0.370977 0.698909
0.000000 0.287358 0.621241
0.000000 0.268528 0.678981
0.388830 0.430976 0.855070
0.812924 0.713466 0.912993
0.913634 0.812650 0.917205
0.939879 0.826902 0.900633
0.000000 0.749813 0.883726
0.000000 0.743282 0.881224
0.000000 0.717098 0.871244
0.000000 0.645472 0.841794
0.000000 0.425940 0.720211
0.651453 0.665522 0.880461
0.899474 0.848051 0.924620
0.932769 0.858549 0.911345
0.614130 0.895750 0.925566
0.621759 0.894865 0.925139
0.646143 0.891691 0.923735
0.682277 0.885985 0.921141
0.714412 0.874327 0.915282
0.702602 0.836088 0.895781
0.846525 0.855772 0.911894
0.918700 0.877195 0.913085
0.790829 0.939391 0.944335
0.794644 0.939147 0.944396
0.807980 0.938628 0.944701
0.830289 0.938231 0.945647
0.858793 0.937926 0.947021
0.889738 0.937896 0.948882
0.919005 0.939239 0.952026
0.915099 0.922210 0.936645
