nova/tdt-studio/app/Lut_mau/luts/lut9.cube
# Created by Adobe Lightroom plugin Export LUT (1.22.0)
# www.johnrellis.com/lightroom/exportlut.htm
# Preset: Urban Walk 7 - Hard Portrait
# Color profile: /Library/Application Support/Adobe/Color/Profiles/Recommended/AdobeRGB1998.icc
LUT_3D_SIZE 5
DOMAIN_MIN 0.000000 0.000000 0.000000
DOMAIN_MAX 0.903226 0.903226 0.903226
0.032685 0.058137 0.051911
0.110597 0.069490 0.057191
0.419013 0.000000 0.000000
0.840543 0.059602 0.000000
1.000000 0.348486 0.000000
0.035554 0.111330 0.077485
0.095521 0.123720 0.067597
0.397375 0.147341 0.000000
0.828061 0.269169 0.000000
1.000000 0.438911 0.000000
0.000000 0.311986 0.152651
0.042603 0.327947 0.145235
0.374701 0.416419 0.049622
0.809751 0.534478 0.000000
0.997559 0.602838 0.000000
0.000000 0.669551 0.339818
0.000000 0.678462 0.344457
0.393530 0.704646 0.304631
0.751125 0.730587 0.180331
0.977783 0.774990 0.067109
0.270817 0.900175 0.584283
0.405432 0.895933 0.594385
0.610315 0.884489 0.608453
0.759823 0.893950 0.605005
0.930510 0.903380 0.504845
0.028534 0.078584 0.101747
0.096742 0.077363 0.101137
0.357305 0.000000 0.113069
0.787533 0.000000 0.037629
1.000000 0.340124 0.000000
0.033265 0.121096 0.115969
0.100191 0.129641 0.124941
0.355352 0.148562 0.124361
0.782101 0.221469 0.038666
0.999390 0.416754 0.000000
0.000000 0.304295 0.196994
0.092866 0.320256 0.206912
0.339300 0.378302 0.170474
0.770321 0.496193 0.070527
0.989227 0.593835 0.000000
0.000000 0.659358 0.381140
0.081819 0.668360 0.389532
0.412177 0.693996 0.368719
0.740658 0.721065 0.285618
0.971069 0.771023 0.249424
0.263371 0.897215 0.603998
0.398230 0.893126 0.612482
0.656336 0.884337 0.664057
0.771359 0.894011 0.651209
0.928954 0.904234 0.563073
0.000000 0.132448 0.271092
0.000000 0.106569 0.268620
0.322179 0.077424 0.270390
0.753964 0.000000 0.330358
0.983337 0.363897 0.394812
0.000000 0.219821 0.288548
0.068208 0.193881 0.290593
0.330510 0.166995 0.292119
0.748348 0.185458 0.349706
0.981872 0.425727 0.397040
0.000000 0.358801 0.339330
0.054444 0.359503 0.339879
0.378515 0.399664 0.380011
0.743130 0.473823 0.393683
0.972198 0.584833 0.415320
0.000000 0.633539 0.474128
0.099184 0.635584 0.476600
0.457496 0.664942 0.508049
0.725521 0.707607 0.484077
0.953246 0.760708 0.483650
0.258091 0.883421 0.663569
0.376043 0.882933 0.668879
0.610529 0.879667 0.691615
0.778470 0.884764 0.716640
0.918608 0.898009 0.666560
0.000000 0.263157 0.548669
0.000000 0.202457 0.546685
0.337865 0.108827 0.529259
0.691463 0.080842 0.539361
0.948089 0.419409 0.622248
0.000000 0.372442 0.557336
0.000000 0.325597 0.555077
0.329747 0.206302 0.538323
0.683742 0.222324 0.543175
0.942473 0.467872 0.629633
0.000000 0.533776 0.580011
0.000000 0.529534 0.577600
0.382086 0.479713 0.580255
0.673732 0.435554 0.568139
0.934783 0.607233 0.670527
0.000000 0.688869 0.635920
0.117556 0.682368 0.631891
0.437324 0.674678 0.635248
0.718166 0.697139 0.676448
0.930785 0.755032 0.707729
0.286687 0.870146 0.748348
0.377935 0.868620 0.750759
0.577173 0.867826 0.762081
0.777798 0.873960 0.789425
0.909941 0.893645 0.783291
0.000000 0.496284 0.817380
0.000000 0.435645 0.816495
0.350805 0.285863 0.809415
0.723995 0.043732 0.788174
0.907408 0.393133 0.772580
0.000000 0.573816 0.812894
0.000000 0.526635 0.812070
0.322393 0.355505 0.807950
0.709529 0.190280 0.782681
0.902373 0.434546 0.772732
0.000000 0.713039 0.815000
0.192935 0.693385 0.813169
0.428473 0.606897 0.808347
0.666499 0.425879 0.789273
0.895232 0.561944 0.786862
0.182742 0.805783 0.831785
0.280919 0.799374 0.829007
0.481422 0.782010 0.825010
0.690639 0.730068 0.824002
0.891630 0.731655 0.824735
0.363561 0.899870 0.861173
0.418128 0.896361 0.860105
0.571099 0.887724 0.860410
0.742550 0.875120 0.861295
0.896880 0.880888 0.879332
