nova/tdt-studio/app/Lut_mau/luts/lut9.cube
# Created by Adobe Lightroom plugin Export LUT (1.22.0)
# www.johnrellis.com/lightroom/exportlut.htm
# Preset: Urban Walk 7 - Hard Portrait
# Color profile: /Library/Application Support/Adobe/Color/Profiles/Recommended/AdobeRGB1998.icc
LUT_3D_SIZE 8
DOMAIN_MIN 0.000000 0.000000 0.000000
DOMAIN_MAX 0.903226 0.903226 0.903226
0.032685 0.058137 0.051911
0.066743 0.064332 0.056519
0.134005 0.069245 0.055451
0.295964 0.000000 0.024323
0.549737 0.000000 0.000000
0.793545 0.000000 0.000000
0.935088 0.237888 0.000000
1.000000 0.348486 0.000000
0.036378 0.076783 0.063752
0.062409 0.080079 0.060395
0.129152 0.089509 0.054292
0.280644 0.078981 0.021210
0.527825 0.000000 0.000000
0.769986 0.059937 0.000000
0.921111 0.265110 0.000000
1.000000 0.367559 0.000000
0.031281 0.127108 0.083650
0.056611 0.130251 0.082094
0.112703 0.144747 0.069520
0.276341 0.175021 0.022675
0.530846 0.189456 0.000000
0.773068 0.270207 0.000000
0.930480 0.391760 0.000000
1.000000 0.459846 0.000000
0.000000 0.232425 0.122438
0.000000 0.234257 0.122072
0.092226 0.249180 0.107912
0.259098 0.307469 0.066621
0.569329 0.392584 0.000000
0.784268 0.455299 0.000000
0.922393 0.515953 0.000000
1.000000 0.554437 0.000000
0.000000 0.412757 0.193637
0.000000 0.415534 0.193362
0.054658 0.433600 0.183078
0.232242 0.472572 0.161563
0.486488 0.510704 0.042145
0.750607 0.582483 0.000000
0.900694 0.626886 0.000000
0.991974 0.653101 0.000000
0.000000 0.613031 0.299351
0.000000 0.627039 0.308049
0.092958 0.634791 0.310216
0.265293 0.654353 0.270054
0.484108 0.671046 0.243259
0.707057 0.692348 0.143404
0.891142 0.741390 0.000000
0.981964 0.753017 0.000000
0.000000 0.789822 0.445747
0.000000 0.792111 0.448798
0.229404 0.790433 0.450355
0.398596 0.794339 0.440040
0.532189 0.800015 0.413123
0.694209 0.808011 0.379553
0.845609 0.817472 0.301122
0.965057 0.837797 0.257053
0.270817 0.900175 0.584283
0.316320 0.898772 0.586572
0.442115 0.894804 0.599268
0.596612 0.890257 0.632868
0.638544 0.888121 0.593927
0.736294 0.892149 0.606104
0.832456 0.899290 0.575128
0.930510 0.903380 0.504845
0.035126 0.067201 0.071595
0.063386 0.065736 0.071015
0.118929 0.074739 0.075135
0.258274 0.059205 0.070893
0.503655 0.000000 0.001282
0.750698 0.000000 0.000000
0.912566 0.213443 0.000000
1.000000 0.344213 0.000000
0.037171 0.080293 0.075471
0.063050 0.081849 0.076997
0.117952 0.091920 0.078950
0.254459 0.089967 0.072297
0.494728 0.000000 0.003021
0.738705 0.000000 0.000000
0.901030 0.238285 0.000000
0.997711 0.361761 0.000000
0.039704 0.124636 0.094514
0.064576 0.129030 0.098360
0.111452 0.142489 0.090303
0.255497 0.168063 0.075471
0.494148 0.179141 0.000000
0.736629 0.237949 0.000000
0.902983 0.355657 0.000000
0.999481 0.441627 0.000000
0.000000 0.222477 0.134401
0.015503 0.226596 0.136782
0.100679 0.244114 0.129152
0.235843 0.280980 0.102052
0.501823 0.344366 0.000000
0.731258 0.405615 0.000000
0.893797 0.482216 0.000000
0.991455 0.537102 0.000000
0.000000 0.403723 0.208499
0.000000 0.404761 0.207767
0.100587 0.418097 0.209995
0.222019 0.445686 0.182162
0.450141 0.479225 0.108522
0.720638 0.555474 0.000000
0.885069 0.609979 0.000000
0.983825 0.643030 0.000000
0.000000 0.595575 0.304723
0.000000 0.598535 0.305638
0.079042 0.608087 0.308782
0.255131 0.632166 0.277989
0.468849 0.655238 0.260533
0.696315 0.682704 0.180697
0.883116 0.733669 0.095552
0.976074 0.746700 0.000000
0.000000 0.772244 0.439948
0.000000 0.770443 0.438148
0.197360 0.771908 0.441535
0.396246 0.779782 0.445808
0.523674 0.790860 0.417670
0.684230 0.799252 0.387060
0.835172 0.807675 0.308537
0.957580 0.829740 0.264652
0.241947 0.894194 0.580987
0.294530 0.893706 0.584527
0.426062 0.890562 0.596979
0.585443 0.886809 0.629816
0.655787 0.891020 0.616846
0.742061 0.892851 0.621363
0.830961 0.897459 0.583734
0.927489 0.900481 0.510369
0.020386 0.083589 0.118013
0.048463 0.076326 0.118257
0.114809 0.081422 0.116304
0.249027 0.065003 0.126345
0.489326 0.000000 0.134737
0.744594 0.000000 0.125734
0.912108 0.211521 0.063905
1.000000 0.346441 0.000000
0.035004 0.106142 0.121645
0.060945 0.101076 0.123354
0.114015 0.097841 0.122072
0.244175 0.094301 0.132601
0.481270 0.000000 0.139315
0.732418 0.000000 0.124788
0.903655 0.240085 0.056550
1.000000 0.364691 0.000000
0.017639 0.141360 0.136690
0.059205 0.142428 0.137758
0.121279 0.153933 0.149996
0.249760 0.169528 0.150546
0.492256 0.185245 0.152224
0.732448 0.238437 0.130495
0.899321 0.350561 0.068116
0.997101 0.437201 0.000000
0.000000 0.226383 0.175509
0.008972 0.231846 0.179599
0.128206 0.255528 0.195468
0.249393 0.290257 0.182315
0.502251 0.344091 0.165408
0.730526 0.405646 0.140993
0.894072 0.483589 0.099580
0.991028 0.538354 0.000000
0.000000 0.399298 0.251316
0.000000 0.404242 0.254856
0.124666 0.422004 0.266148
0.256779 0.455055 0.259098
0.465248 0.486885 0.218479
0.717800 0.553033 0.176974
0.880949 0.606561 0.142061
0.980957 0.642237 0.124331
0.000000 0.591150 0.347143
0.000000 0.594476 0.350469
0.125856 0.602960 0.357275
0.304143 0.622004 0.352117
0.471534 0.644099 0.335271
0.684047 0.671107 0.279759
0.872740 0.725338 0.251316
0.972045 0.745937 0.248631
0.000000 0.772274 0.479561
0.000000 0.771359 0.479500
0.223697 0.770199 0.480873
0.422858 0.772854 0.492744
0.536065 0.784024 0.466957
0.685695 0.795377 0.451972
0.834836 0.808743 0.395666
0.956481 0.833433 0.376379
0.239811 0.892271 0.603540
0.280613 0.890684 0.603449
0.411292 0.886870 0.612299
0.578454 0.884947 0.644770
0.672053 0.886229 0.650263
0.750210 0.890501 0.653773
0.833188 0.896605 0.627985
0.926055 0.901396 0.567803
0.000000 0.110750 0.207401
0.000000 0.098878 0.208896
0.103304 0.090761 0.206332
0.229831 0.088014 0.206485
0.462013 0.000000 0.231907
0.716335 0.000000 0.255100
0.889738 0.169345 0.284062
0.992432 0.335851 0.273747
0.000000 0.142794 0.216587
0.000000 0.132753 0.216983
0.102998 0.111025 0.214023
0.231907 0.110903 0.213352
0.463020 0.025330 0.239658
0.710903 0.000000 0.262150
0.884825 0.212009 0.283635
0.990539 0.354284 0.270939
0.000000 0.193637 0.229496
0.000000 0.194675 0.229984
0.116945 0.187228 0.236423
0.240909 0.178225 0.237919
0.474556 0.186893 0.268315
0.719081 0.236393 0.297826
0.893767 0.356115 0.311467
0.991547 0.439490 0.291936
0.000000 0.270237 0.261784
0.000000 0.270787 0.262089
0.121614 0.277012 0.268132
0.274449 0.308629 0.298131
0.483131 0.334539 0.298650
0.707942 0.390631 0.308659
0.879789 0.471748 0.316045
0.983276 0.536065 0.311284
0.000000 0.403479 0.317876
0.000000 0.404578 0.319371
0.130465 0.419013 0.330846
0.307713 0.458839 0.360998
0.479744 0.493019 0.344732
0.711086 0.547845 0.335943
0.873655 0.602564 0.343725
0.973999 0.641474 0.347356
0.000000 0.594049 0.415503
0.000000 0.604822 0.424994
0.158968 0.609613 0.430396
0.357671 0.626032 0.446815
0.507866 0.650568 0.444221
0.687190 0.672908 0.408392
0.864652 0.721401 0.402075
0.964355 0.744015 0.406073
0.000000 0.766018 0.530907
0.000000 0.767636 0.533410
0.250278 0.770901 0.539910
0.437446 0.775631 0.552667
0.577295 0.785000 0.554467
0.698756 0.796078 0.550591
0.831632 0.807889 0.503166
0.949035 0.832517 0.496132
0.274022 0.891020 0.648096
0.314153 0.890684 0.649866
0.416388 0.888212 0.653651
0.558770 0.884154 0.668971
0.701656 0.879545 0.704952
0.760830 0.887175 0.697902
0.835782 0.894621 0.686488
0.922972 0.901427 0.640803
0.000000 0.159396 0.341772
0.000000 0.145998 0.342260
0.000000 0.121157 0.337346
0.231724 0.089998 0.330297
0.433570 0.022950 0.343969
0.679805 0.000000 0.380865
0.868956 0.160098 0.426642
0.973693 0.388251 0.487678
0.000000 0.196658 0.348455
0.000000 0.183108 0.350195
0.000000 0.143008 0.345830
0.234714 0.113741 0.336889
0.433021 0.100160 0.348089
0.679530 0.079957 0.386938
0.868132 0.210727 0.432746
0.971130 0.420233 0.500359
0.000000 0.278721 0.362097
0.000000 0.273869 0.363043
0.086824 0.242618 0.365393
0.234623 0.192081 0.358831
0.432349 0.200748 0.362493
0.670924 0.228611 0.400732
0.861357 0.318639 0.447486
0.966400 0.466438 0.500008
0.000000 0.354284 0.387579
0.000000 0.353979 0.386847
0.113191 0.357336 0.389654
0.278569 0.351568 0.403723
0.453620 0.333440 0.402777
0.681514 0.377996 0.440070
0.858091 0.465095 0.484474
0.966644 0.534447 0.493202
0.000000 0.455390 0.421546
0.000000 0.455726 0.421912
0.108431 0.456001 0.422919
0.297581 0.463722 0.433539
0.488258 0.492073 0.465064
0.684688 0.521691 0.466560
0.852689 0.579583 0.488380
0.959960 0.631037 0.503899
0.000000 0.571466 0.465156
0.000000 0.573144 0.467170
0.141543 0.576715 0.472419
0.328557 0.591302 0.489174
0.507713 0.620447 0.516381
0.671199 0.657374 0.513146
0.848783 0.707027 0.525078
0.951965 0.736965 0.543511
0.000000 0.750698 0.583764
0.000000 0.750240 0.583673
0.239231 0.751614 0.586725
0.412573 0.757839 0.596643
0.576349 0.768276 0.614984
0.698390 0.785122 0.624018
0.820829 0.799283 0.593256
0.937224 0.824918 0.594385
0.262730 0.878904 0.686641
0.297612 0.878111 0.686824
0.394659 0.876127 0.688685
0.531731 0.878386 0.701991
0.661677 0.876524 0.717678
0.763455 0.880583 0.736049
0.833951 0.889189 0.737545
0.916533 0.897429 0.702541
0.000000 0.242344 0.513725
0.000000 0.225162 0.512840
0.000000 0.168002 0.505547
0.216739 0.139834 0.498451
0.451087 0.000000 0.492164
0.650446 0.016663 0.504082
0.840360 0.238193 0.547997
0.955474 0.419867 0.601953
0.000000 0.276341 0.509148
0.000000 0.259129 0.507774
0.000000 0.195712 0.504601
0.209476 0.163546 0.495064
0.443397 0.080903 0.488441
0.643915 0.116945 0.501976
0.836790 0.264500 0.548577
0.953368 0.434455 0.603845
0.000000 0.380957 0.528252
0.000000 0.371374 0.526665
0.000000 0.325658 0.524010
0.209384 0.246220 0.516014
0.448432 0.193606 0.502403
0.645228 0.242405 0.514977
0.835050 0.355962 0.563500
0.949828 0.494636 0.620020
0.000000 0.479683 0.546624
0.000000 0.476936 0.544244
0.120943 0.474800 0.543511
0.300450 0.430091 0.553246
0.464698 0.344274 0.542138
0.660121 0.388251 0.548852
0.838285 0.480049 0.597223
0.946563 0.582635 0.651270
0.000000 0.556451 0.562768
0.000000 0.556023 0.562646
0.125887 0.554223 0.562799
0.327794 0.552544 0.567041
0.495918 0.535393 0.578363
0.658015 0.515282 0.575311
0.832334 0.581598 0.622553
0.938842 0.663630 0.677333
0.000000 0.640803 0.588586
0.000000 0.642603 0.590906
0.153811 0.640284 0.591028
0.344030 0.636988 0.593408
0.506920 0.635889 0.601740
0.680720 0.661555 0.637568
0.833768 0.695979 0.652552
0.938170 0.736904 0.678889
0.000000 0.749783 0.645502
0.089601 0.751553 0.648249
0.265019 0.751919 0.651881
0.417945 0.754055 0.660151
0.565087 0.759426 0.674250
0.709407 0.776150 0.700252
0.816922 0.796963 0.695369
0.928313 0.823880 0.705806
0.285496 0.871641 0.737514
0.314183 0.870603 0.737545
0.398932 0.868406 0.738796
0.515404 0.868437 0.744442
0.635462 0.868986 0.753231
0.753994 0.872465 0.772732
0.835874 0.884184 0.789395
0.911650 0.894926 0.768795
0.000000 0.359014 0.680323
0.000000 0.342565 0.682704
0.000000 0.268162 0.679500
0.174228 0.210727 0.671107
0.474128 0.100954 0.653346
0.666011 0.000000 0.652247
0.807706 0.216373 0.652949
0.928283 0.435981 0.684810
0.000000 0.386145 0.671260
0.000000 0.370459 0.673213
0.000000 0.300511 0.670954
0.152926 0.229374 0.661860
0.457740 0.142000 0.643946
0.651087 0.000000 0.640528
0.795346 0.224643 0.641688
0.921630 0.427527 0.675288
0.000000 0.489479 0.684077
0.000000 0.480171 0.683253
0.000000 0.425666 0.679194
0.128939 0.309789 0.672999
0.449622 0.247562 0.653834
0.649500 0.202670 0.647639
0.797726 0.321447 0.653864
0.922911 0.495521 0.693904
0.000000 0.601526 0.698543
0.000000 0.592950 0.695857
0.151217 0.565942 0.691554
0.308476 0.503899 0.690272
0.439948 0.390600 0.677974
0.650996 0.343542 0.666316
0.801572 0.442817 0.675227
0.921782 0.575830 0.716640
0.000000 0.657465 0.703700
0.000000 0.653803 0.701015
0.163058 0.645350 0.696559
0.347570 0.634882 0.695094
0.487526 0.577020 0.694942
0.626215 0.477150 0.677607
0.790829 0.543450 0.686213
0.916503 0.652461 0.737972
0.000000 0.723476 0.719570
0.000000 0.722225 0.719173
0.208408 0.717647 0.718074
0.374548 0.711147 0.718593
0.523552 0.701564 0.719966
0.668360 0.683619 0.729580
0.798764 0.673884 0.728664
0.915526 0.741573 0.774716
0.000000 0.794766 0.746517
0.140383 0.794827 0.747555
0.279820 0.791318 0.747250
0.417945 0.786191 0.747982
0.551232 0.777584 0.747707
0.682918 0.772427 0.753262
0.809720 0.788052 0.778866
0.915282 0.816159 0.794949
0.272892 0.862425 0.776974
0.302159 0.862119 0.777615
0.397681 0.864195 0.783902
0.507683 0.863523 0.789334
0.622431 0.862150 0.796414
0.733547 0.863401 0.808560
0.833371 0.874846 0.829068
0.906798 0.891539 0.829313
0.000000 0.496284 0.817380
0.000000 0.481209 0.818326
0.000000 0.412573 0.816037
0.131319 0.313695 0.813596
0.486580 0.245121 0.803494
0.684810 0.075471 0.788418
0.823911 0.183597 0.794675
0.907408 0.393133 0.772580
0.000000 0.518151 0.813107
0.000000 0.504265 0.814084
0.000000 0.441047 0.812680
0.093965 0.330358 0.809995
0.475959 0.266087 0.800107
0.676997 0.130739 0.785000
0.817777 0.200656 0.789822
0.903716 0.397742 0.769314
0.000000 0.591028 0.811002
0.000000 0.582696 0.811002
0.068544 0.531823 0.808164
0.162997 0.424140 0.811460
0.456977 0.344518 0.801968
0.662501 0.248325 0.785519
0.810117 0.279393 0.788418
0.900175 0.444739 0.771939
0.000000 0.670008 0.814359
0.013458 0.665309 0.814786
0.256718 0.642573 0.812070
0.352972 0.584497 0.811307
0.425208 0.459815 0.808469
0.642969 0.386603 0.794339
0.801846 0.385473 0.792966
0.897734 0.521660 0.781796
0.000000 0.738033 0.817319
0.118196 0.737301 0.817899
0.257115 0.729671 0.815610
0.382971 0.701503 0.814328
0.507103 0.637568 0.810849
0.606806 0.524102 0.802487
0.783749 0.488258 0.795407
0.894011 0.609613 0.795682
0.127321 0.788815 0.825254
0.172030 0.786435 0.823972
0.276432 0.779324 0.821012
0.398138 0.768795 0.818448
0.528405 0.755550 0.817044
0.653773 0.708766 0.819821
0.769100 0.627344 0.813657
0.893584 0.712215 0.820920
0.249424 0.845151 0.841154
0.274296 0.843626 0.840452
0.348150 0.838865 0.838804
0.454200 0.832303 0.838163
0.570245 0.823697 0.837980
0.689021 0.815610 0.839658
0.794308 0.798917 0.843900
0.888396 0.793759 0.841428
0.363561 0.899870 0.861173
0.379736 0.898680 0.860655
0.435584 0.895445 0.860044
0.522454 0.890715 0.860258
0.620905 0.884123 0.860410
0.719203 0.876707 0.860899
0.810941 0.871672 0.863951
0.896880 0.880888 0.879332
