nova/tdt-studio/app/Lut_mau/luts/lut9.cube
# Created by Adobe Lightroom plugin Export LUT (1.22.0)
# www.johnrellis.com/lightroom/exportlut.htm
# Preset: Urban Walk 7 - Hard Portrait
# Color profile: /Library/Application Support/Adobe/Color/Profiles/Recommended/AdobeRGB1998.icc
LUT_3D_SIZE 32
0.032685 0.058137 0.051911
0.036439 0.059052 0.051759
0.042451 0.059571 0.053162
0.054566 0.061402 0.055055
0.066743 0.064332 0.056519
0.078584 0.066468 0.057099
0.092317 0.068513 0.057374
0.110597 0.069490 0.057191
0.134005 0.069245 0.055451
0.163394 0.066499 0.052613
0.199924 0.059815 0.047120
0.244053 0.033051 0.037568
0.295964 0.000000 0.024323
0.355322 0.000000 0.004730
0.419013 0.000000 0.000000
0.484688 0.000000 0.000000
0.549737 0.000000 0.000000
0.611383 0.000000 0.000000
0.670924 0.000000 0.000000
0.737636 0.000000 0.000000
0.793545 0.000000 0.000000
0.840543 0.059602 0.000000
0.878111 0.146975 0.000000
0.908995 0.198489 0.000000
0.935088 0.237888 0.000000
0.957824 0.270512 0.000000
0.978302 0.299199 0.000000
0.997009 0.325109 0.000000
1.000000 0.348486 0.000000
1.000000 0.370459 0.000000
1.000000 0.391516 0.000000
1.000000 0.411872 0.000000
0.032959 0.060212 0.053254
0.035554 0.061006 0.052277
0.041627 0.061982 0.052827
0.055116 0.063722 0.053864
0.067079 0.066041 0.055421
0.078340 0.068605 0.056733
0.092164 0.070222 0.057099
0.109651 0.071382 0.056947
0.132784 0.071687 0.055177
0.161746 0.069825 0.051484
0.197543 0.064240 0.046906
0.240696 0.045991 0.037629
0.291661 0.000000 0.023651
0.349950 0.000000 0.005615
0.412757 0.000000 0.000000
0.477790 0.000000 0.000000
0.542412 0.000000 0.000000
0.604273 0.000000 0.000000
0.664790 0.000000 0.000000
0.730037 0.000000 0.000000
0.785519 0.000000 0.000000
0.832883 0.049897 0.000000
0.871305 0.143099 0.000000
0.903075 0.194705 0.000000
0.929992 0.234531 0.000000
0.953491 0.267887 0.000000
0.974670 0.296941 0.000000
0.993927 0.323369 0.000000
1.000000 0.347112 0.000000
1.000000 0.369390 0.000000
1.000000 0.390478 0.000000
1.000000 0.410864 0.000000
0.034028 0.062928 0.055268
0.036591 0.063233 0.055177
0.040375 0.064393 0.054108
0.054047 0.066438 0.055085
0.066651 0.069062 0.054902
0.078096 0.071138 0.055482
0.091524 0.073091 0.056611
0.109194 0.074220 0.055665
0.131991 0.074678 0.053895
0.160372 0.073548 0.050996
0.195773 0.069154 0.045197
0.238560 0.059022 0.035828
0.288975 0.016846 0.023041
0.346777 0.000000 0.003967
0.409033 0.000000 0.000000
0.473854 0.000000 0.000000
0.538354 0.000000 0.000000
0.600183 0.000000 0.000000
0.661891 0.000000 0.000000
0.725978 0.000000 0.000000
0.781277 0.000000 0.000000
0.828855 0.069795 0.000000
0.867735 0.148928 0.000000
0.899901 0.197971 0.000000
0.927184 0.237308 0.000000
0.951049 0.269810 0.000000
0.972564 0.298955 0.000000
0.992187 0.325078 0.000000
1.000000 0.348730 0.000000
1.000000 0.371008 0.000000
1.000000 0.391669 0.000000
1.000000 0.411902 0.000000
0.035431 0.068849 0.059754
0.038941 0.069459 0.060121
0.041718 0.069734 0.059632
0.051881 0.071107 0.058381
0.066072 0.074220 0.057252
0.077607 0.076509 0.056947
0.091218 0.078309 0.056428
0.108919 0.080079 0.054505
0.131716 0.081178 0.052613
0.159976 0.080934 0.048768
0.194858 0.078401 0.043122
0.237003 0.071626 0.033600
0.286717 0.056214 0.019440
0.343572 0.000000 0.001312
0.405463 0.000000 0.000000
0.469551 0.000000 0.000000
0.533593 0.000000 0.000000
0.595087 0.000000 0.000000
0.658015 0.000000 0.000000
0.719814 0.000000 0.000000
0.774105 0.000000 0.000000
0.821592 0.099763 0.000000
0.861601 0.162753 0.000000
0.895140 0.209140 0.000000
0.923949 0.247196 0.000000
0.949065 0.279820 0.000000
0.971405 0.308293 0.000000
0.991485 0.333928 0.000000
1.000000 0.356756 0.000000
1.000000 0.377844 0.000000
1.000000 0.397620 0.000000
1.000000 0.416785 0.000000
0.036378 0.076783 0.063752
0.040284 0.076936 0.063691
0.043091 0.077546 0.062715
0.049928 0.078218 0.062135
0.062409 0.080079 0.060395
0.075837 0.083986 0.059113
0.089693 0.086244 0.058076
0.107057 0.088228 0.056947
0.129152 0.089509 0.054292
0.156832 0.090547 0.050324
0.190951 0.089876 0.043977
0.232120 0.086793 0.034241
0.280644 0.078981 0.021210
0.336645 0.062135 0.002228
0.398047 0.000000 0.000000
0.462776 0.000000 0.000000
0.527825 0.000000 0.000000
0.590234 0.000000 0.000000
0.656153 0.000000 0.000000
0.716670 0.000000 0.000000
0.769986 0.059937 0.000000
0.817350 0.136294 0.000000
0.857816 0.188846 0.000000
0.891844 0.230564 0.000000
0.921111 0.265110 0.000000
0.946715 0.295537 0.000000
0.969360 0.322393 0.000000
0.989715 0.345892 0.000000
1.000000 0.367559 0.000000
1.000000 0.387488 0.000000
1.000000 0.406226 0.000000
1.000000 0.424445 0.000000
0.036103 0.085817 0.067597
0.039857 0.086275 0.067506
0.045106 0.086366 0.067445
0.049622 0.087404 0.066133
0.060121 0.088624 0.065064
0.070893 0.091341 0.062257
0.087800 0.096498 0.060548
0.105257 0.098817 0.058991
0.127596 0.101015 0.056367
0.154665 0.102693 0.052338
0.188296 0.103731 0.047242
0.228824 0.103212 0.036164
0.276524 0.099458 0.022858
0.332219 0.091341 0.004273
0.393500 0.075898 0.000000
0.458167 0.039612 0.000000
0.523613 0.000000 0.000000
0.588434 0.000000 0.000000
0.655543 0.000000 0.000000
0.715450 0.069001 0.000000
0.768734 0.125765 0.000000
0.816403 0.175143 0.000000
0.896361 0.273075 0.000000
0.924987 0.305608 0.000000
0.949187 0.333074 0.000000
0.970031 0.354070 0.000000
0.988556 0.372717 0.000000
1.000000 0.389746 0.000000
1.000000 0.405646 0.000000
1.000000 0.420935 0.000000
1.000000 0.435676 0.000000
1.000000 0.450263 0.000000
0.036194 0.098207 0.072541
0.039918 0.098604 0.072450
0.044800 0.098939 0.072724
0.051148 0.100038 0.071839
0.059480 0.101167 0.070130
0.068330 0.103456 0.068452
0.082673 0.106905 0.065217
0.106172 0.114504 0.061677
0.129763 0.117617 0.059358
0.158785 0.120790 0.055024
0.194400 0.123537 0.047913
0.236881 0.124849 0.036286
0.286442 0.124239 0.020447
0.343206 0.120699 0.000000
0.404517 0.113527 0.000000
0.468269 0.103578 0.000000
0.532586 0.094270 0.000000
0.603449 0.097414 0.000000
0.670253 0.118715 0.000000
0.730556 0.152773 0.000000
0.785794 0.194125 0.000000
0.835599 0.238254 0.000000
0.877440 0.279881 0.000000
0.912169 0.316045 0.000000
0.940917 0.346715 0.000000
0.964508 0.371710 0.000000
0.984405 0.390478 0.000000
1.000000 0.406226 0.000000
1.000000 0.420874 0.000000
1.000000 0.434699 0.000000
1.000000 0.448157 0.000000
1.000000 0.461494 0.000000
0.035554 0.111330 0.077485
0.039460 0.111421 0.077424
0.042969 0.111788 0.077699
0.051209 0.112856 0.077821
0.056733 0.114260 0.074891
0.065644 0.115877 0.074128
0.077577 0.119387 0.071534
0.095521 0.123720 0.067597
0.125917 0.134005 0.062531
0.154421 0.138277 0.059205
0.189548 0.142702 0.052033
0.231937 0.146334 0.038514
0.280797 0.148623 0.021790
0.336645 0.149172 0.000000
0.397375 0.147341 0.000000
0.460670 0.144442 0.000000
0.529992 0.144350 0.000000
0.600183 0.152407 0.000000
0.664515 0.170260 0.000000
0.723690 0.196811 0.000000
0.778256 0.230747 0.000000
0.828061 0.269169 0.000000
0.870390 0.306065 0.000000
0.905669 0.338964 0.000000
0.935058 0.366949 0.000000
0.959380 0.390265 0.000000
0.980163 0.410040 0.000000
0.998383 0.425635 0.000000
1.000000 0.438911 0.000000
1.000000 0.451301 0.000000
1.000000 0.463386 0.000000
1.000000 0.475410 0.000000
0.031281 0.127108 0.083650
0.035035 0.127413 0.083589
0.038392 0.127901 0.083803
0.047883 0.128603 0.083925
0.056611 0.130251 0.082094
0.063355 0.132204 0.079500
0.073548 0.134646 0.078248
0.089937 0.139406 0.074311
0.112703 0.144747 0.069520
0.150851 0.158541 0.062104
0.185733 0.164279 0.055879
0.227359 0.169863 0.043549
0.276341 0.175021 0.022675
0.332464 0.178775 0.000000
0.392554 0.180789 0.000000
0.459236 0.183688 0.000000
0.530846 0.189456 0.000000
0.598260 0.199802 0.000000
0.660792 0.216678 0.000000
0.719081 0.240299 0.000000
0.773068 0.270207 0.000000
0.822690 0.303990 0.000000
0.865171 0.336797 0.000000
0.900694 0.366430 0.000000
0.930480 0.391760 0.000000
0.955261 0.412573 0.000000
0.976471 0.430793 0.000000
0.995239 0.446723 0.000000
1.000000 0.459846 0.000000
1.000000 0.470680 0.000000
1.000000 0.481178 0.000000
1.000000 0.491737 0.000000
0.022705 0.146395 0.090761
0.026459 0.146639 0.090700
0.029816 0.147036 0.090883
0.039460 0.147799 0.090974
0.054780 0.149355 0.091188
0.059998 0.151522 0.085420
0.071015 0.153902 0.084840
0.085023 0.157717 0.082307
0.105776 0.163577 0.077333
0.133883 0.169955 0.071199
0.180911 0.187442 0.060090
0.222049 0.194827 0.047852
0.270451 0.202029 0.025605
0.326390 0.208682 0.000000
0.392096 0.216617 0.000000
0.462806 0.224613 0.000000
0.533165 0.233738 0.000000
0.599542 0.246189 0.000000
0.661067 0.263493 0.000000
0.718013 0.285344 0.000000
0.770413 0.311437 0.000000
0.818051 0.340429 0.000000
0.859312 0.368353 0.000000
0.894163 0.393561 0.000000
0.923980 0.415625 0.000000
0.949340 0.434760 0.000000
0.971435 0.451637 0.000000
0.991089 0.466835 0.000000
1.000000 0.480598 0.000000
1.000000 0.492012 0.000000
1.000000 0.501518 0.000000
1.000000 0.510857 0.000000
0.007782 0.168124 0.098756
0.011505 0.168338 0.098695
0.016052 0.168826 0.098848
0.026734 0.169711 0.098878
0.044526 0.171176 0.099031
0.057527 0.173800 0.095766
0.066560 0.176822 0.091676
0.081117 0.180209 0.090761
0.100221 0.185916 0.086580
0.126864 0.193057 0.080110
0.160494 0.200565 0.071870
0.217533 0.222538 0.051698
0.266728 0.232425 0.028199
0.326848 0.243992 0.000000
0.392859 0.254765 0.000000
0.461616 0.264897 0.000000
0.530388 0.275883 0.000000
0.595178 0.288853 0.000000
0.655970 0.305425 0.000000
0.712398 0.325902 0.000000
0.764553 0.349920 0.000000
0.812406 0.376013 0.000000
0.854154 0.401343 0.000000
0.889494 0.424048 0.000000
0.919646 0.443824 0.000000
0.945312 0.460853 0.000000
0.967620 0.475837 0.000000
0.987518 0.489326 0.000000
1.000000 0.501732 0.000000
1.000000 0.513115 0.000000
1.000000 0.522454 0.000000
1.000000 0.530419 0.000000
0.000000 0.194339 0.108431
0.000000 0.194644 0.108370
0.000000 0.195132 0.108492
0.004730 0.196017 0.108492
0.025696 0.197665 0.108766
0.053468 0.200290 0.109041
0.059602 0.204013 0.099794
0.076478 0.207950 0.098726
0.095735 0.212375 0.097383
0.121004 0.220249 0.090944
0.153475 0.228885 0.082338
0.196323 0.240665 0.070985
0.300267 0.296757 0.005432
0.368566 0.312047 0.000000
0.440223 0.325994 0.000000
0.511620 0.339117 0.000000
0.579065 0.353124 0.000000
0.640864 0.368505 0.000000
0.696193 0.384588 0.000000
0.747189 0.402564 0.000000
0.793973 0.422095 0.000000
0.835782 0.441810 0.000000
0.871550 0.459602 0.000000
0.902525 0.475715 0.000000
0.929412 0.490059 0.000000
0.952758 0.502556 0.000000
0.973297 0.513573 0.000000
0.991730 0.523613 0.000000
1.000000 0.532921 0.000000
1.000000 0.541619 0.000000
1.000000 0.549767 0.000000
1.000000 0.556329 0.000000
0.000000 0.232425 0.122438
0.000000 0.232670 0.122377
0.000000 0.232792 0.122316
0.000000 0.233249 0.122164
0.000000 0.234257 0.122072
0.027039 0.236240 0.122133
0.052583 0.239597 0.116426
0.068757 0.243900 0.109285
0.092226 0.249180 0.107912
0.118166 0.259007 0.105898
0.154635 0.274022 0.097536
0.201114 0.290532 0.085267
0.259098 0.307469 0.066621
0.356085 0.346441 0.000000
0.430426 0.363989 0.000000
0.502098 0.378668 0.000000
0.569329 0.392584 0.000000
0.630701 0.407019 0.000000
0.686305 0.421820 0.000000
0.737301 0.437995 0.000000
0.784268 0.455299 0.000000
0.826749 0.472847 0.000000
0.863157 0.488746 0.000000
0.894835 0.503105 0.000000
0.922393 0.515953 0.000000
0.946410 0.527123 0.000000
0.967590 0.537072 0.000000
0.986633 0.546044 0.000000
1.000000 0.554437 0.000000
1.000000 0.562402 0.000000
1.000000 0.569848 0.000000
1.000000 0.576867 0.000000
0.000000 0.267521 0.135653
0.000000 0.267796 0.135592
0.000000 0.267948 0.135531
0.000000 0.268498 0.135348
0.000000 0.269383 0.135256
0.000000 0.271244 0.135409
0.046601 0.276036 0.136110
0.051362 0.283085 0.121523
0.085115 0.290867 0.120668
0.114809 0.300755 0.119631
0.149569 0.313787 0.114992
0.194705 0.330144 0.103700
0.249790 0.346777 0.087373
0.315373 0.362341 0.060731
0.414435 0.397589 0.000000
0.492195 0.416968 0.000000
0.558495 0.430060 0.000000
0.619593 0.443488 0.000000
0.675624 0.457160 0.000000
0.727169 0.471870 0.000000
0.774868 0.487709 0.000000
0.818265 0.504143 0.000000
0.855589 0.518639 0.000000
0.888060 0.531762 0.000000
0.916320 0.543267 0.000000
0.940978 0.553277 0.000000
0.962737 0.562097 0.000000
0.982300 0.570062 0.000000
1.000000 0.577569 0.000000
1.000000 0.584710 0.000000
1.000000 0.591424 0.000000
1.000000 0.597742 0.000000
0.000000 0.311986 0.152651
0.000000 0.312688 0.152804
0.000000 0.312932 0.152712
0.000000 0.313878 0.152743
0.000000 0.315435 0.152773
0.000000 0.317967 0.152987
0.000000 0.321965 0.153689
0.042603 0.327947 0.145235
0.071565 0.335790 0.134951
0.108797 0.345159 0.133883
0.145052 0.356512 0.132601
0.188815 0.371557 0.124422
0.242374 0.387884 0.110018
0.304997 0.403265 0.089418
0.374701 0.416419 0.049622
0.471199 0.446479 0.000000
0.549371 0.467506 0.000000
0.610040 0.479622 0.000000
0.666133 0.492103 0.000000
0.717983 0.505333 0.000000
0.765866 0.519493 0.000000
0.809751 0.534478 0.000000
0.847837 0.547906 0.000000
0.881071 0.559808 0.000000
0.910124 0.570336 0.000000
0.935698 0.579675 0.000000
0.958465 0.588006 0.000000
0.978912 0.595727 0.000000
0.997559 0.602838 0.000000
1.000000 0.609613 0.000000
1.000000 0.615900 0.000000
1.000000 0.621607 0.000000
0.000000 0.363348 0.172885
0.000000 0.364141 0.173098
0.000000 0.364630 0.173098
0.000000 0.365606 0.173190
0.000000 0.367254 0.173251
0.000000 0.369940 0.173526
0.000000 0.374029 0.174197
0.034363 0.379950 0.173526
0.047608 0.388128 0.154147
0.100435 0.397009 0.151339
0.143191 0.406775 0.149966
0.185245 0.417639 0.148287
0.237217 0.431128 0.135103
0.296361 0.443977 0.117250
0.361547 0.455390 0.092042
0.430762 0.464759 0.039399
0.521569 0.489784 0.000000
0.599878 0.513512 0.000000
0.657313 0.525872 0.000000
0.710506 0.539025 0.000000
0.759609 0.552911 0.000000
0.804440 0.567102 0.000000
0.843320 0.579706 0.000000
0.877165 0.590814 0.000000
0.906706 0.600458 0.000000
0.932769 0.608820 0.000000
0.955840 0.616114 0.000000
0.976593 0.622766 0.000000
0.995392 0.628870 0.000000
1.000000 0.634394 0.000000
1.000000 0.639490 0.000000
1.000000 0.644221 0.000000
0.000000 0.412757 0.193637
0.000000 0.413123 0.193545
0.000000 0.413336 0.193454
0.000000 0.414099 0.193454
0.000000 0.415534 0.193362
0.000000 0.417823 0.193606
0.000000 0.421393 0.194034
0.000000 0.426368 0.194949
0.054658 0.433600 0.183078
0.085939 0.442267 0.168704
0.137057 0.451484 0.167666
0.183444 0.461555 0.166262
0.232242 0.472572 0.161563
0.289830 0.484565 0.146029
0.352667 0.495064 0.126009
0.418708 0.503563 0.098116
0.486488 0.510704 0.042145
0.570031 0.531640 0.000000
0.647883 0.557855 0.000000
0.701167 0.569818 0.000000
0.750607 0.582483 0.000000
0.795926 0.595636 0.000000
0.835721 0.607477 0.000000
0.870329 0.617914 0.000000
0.900694 0.626886 0.000000
0.927520 0.634699 0.000000
0.951324 0.641535 0.000000
0.972686 0.647669 0.000000
0.991974 0.653101 0.000000
1.000000 0.658106 0.000000
1.000000 0.662715 0.000000
1.000000 0.666896 0.000000
0.000000 0.463600 0.216434
0.000000 0.464698 0.216770
0.000000 0.496254 0.232456
0.000000 0.496864 0.232151
0.000000 0.497627 0.231937
0.000000 0.498909 0.231632
0.000000 0.500908 0.231632
0.000000 0.504143 0.231876
0.085451 0.509178 0.229221
0.093568 0.516808 0.205020
0.147066 0.524315 0.199557
0.200839 0.531853 0.198154
0.252323 0.539147 0.196017
0.307897 0.547265 0.186587
0.369848 0.555169 0.168185
0.434302 0.561669 0.145052
0.499458 0.567132 0.114626
0.562280 0.571832 0.066651
0.635462 0.587884 0.000000
0.708400 0.613428 0.000000
0.755398 0.623407 0.000000
0.798978 0.634150 0.000000
0.837308 0.643671 0.000000
0.870603 0.651698 0.000000
0.899626 0.658167 0.000000
0.925292 0.663691 0.000000
0.948302 0.668452 0.000000
0.969268 0.672938 0.000000
0.988525 0.677241 0.000000
1.000000 0.681514 0.000000
1.000000 0.685481 0.000000
1.000000 0.689052 0.000000
0.000000 0.522301 0.245945
0.000000 0.526696 0.248173
0.000000 0.531273 0.250492
0.000000 0.535576 0.252476
0.000000 0.539330 0.253880
0.000000 0.541833 0.254612
0.000000 0.544244 0.254917
0.000000 0.547021 0.255314
0.089418 0.551141 0.256352
0.117098 0.557458 0.240543
0.142245 0.564904 0.221256
0.200107 0.571618 0.220096
0.253758 0.577935 0.218448
0.306279 0.583856 0.215854
0.364477 0.590387 0.201968
0.426154 0.596033 0.182376
0.488441 0.600732 0.158358
0.549310 0.605005 0.127932
0.608179 0.609369 0.083742
0.674647 0.623011 0.000000
0.745907 0.649866 0.000000
0.790433 0.660395 0.000000
0.829831 0.669703 0.000000
0.864042 0.677455 0.000000
0.893889 0.683680 0.000000
0.920317 0.688838 0.000000
0.943908 0.693233 0.000000
0.965301 0.697230 0.000000
0.984985 0.701076 0.000000
1.000000 0.704707 0.000000
1.000000 0.708095 0.000000
1.000000 0.711269 0.000000
0.000000 0.567834 0.271427
0.000000 0.571862 0.273747
0.000000 0.576074 0.276158
0.000000 0.580011 0.278264
0.000000 0.583429 0.279789
0.000000 0.585748 0.280461
0.000000 0.587732 0.280797
0.000000 0.590173 0.281132
0.086275 0.593591 0.282139
0.147158 0.598444 0.277836
0.154818 0.605737 0.252415
0.202823 0.611963 0.244785
0.258518 0.617212 0.243381
0.312139 0.622156 0.241428
0.364691 0.626490 0.237980
0.423621 0.631342 0.220676
0.483253 0.635370 0.200076
0.541833 0.639094 0.176211
0.598779 0.643000 0.146548
0.654078 0.647517 0.107118
0.714137 0.658900 0.000000
0.783169 0.686702 0.000000
0.823331 0.695735 0.000000
0.858183 0.703029 0.000000
0.888548 0.708766 0.000000
0.915312 0.713344 0.000000
0.939208 0.717159 0.000000
0.960906 0.720607 0.000000
0.980835 0.723903 0.000000
0.999268 0.727047 0.000000
1.000000 0.729976 0.000000
1.000000 0.732723 0.000000
0.000000 0.613031 0.299351
0.000000 0.616724 0.301793
0.000000 0.620508 0.304326
0.000000 0.624048 0.306432
0.000000 0.627039 0.308049
0.000000 0.628962 0.308690
0.000000 0.630549 0.308904
0.000000 0.632258 0.309300
0.092958 0.634791 0.310216
0.169863 0.638025 0.311620
0.189242 0.643702 0.293370
0.208469 0.650019 0.271183
0.265293 0.654353 0.270054
0.319585 0.658412 0.268711
0.372198 0.662257 0.266880
0.425818 0.666346 0.260166
0.484108 0.671046 0.243259
0.541924 0.675746 0.224033
0.598657 0.680842 0.201907
0.653956 0.686305 0.176059
0.707057 0.692348 0.143404
0.762234 0.703120 0.095277
0.825925 0.729366 0.000000
0.860838 0.736172 0.000000
0.891142 0.741390 0.000000
0.917662 0.745266 0.000000
0.941192 0.748165 0.000000
0.962463 0.750698 0.000000
0.981964 0.753017 0.000000
0.999908 0.755215 0.000000
1.000000 0.757198 0.000000
1.000000 0.759396 0.000000
0.000000 0.669551 0.339818
0.000000 0.671199 0.341131
0.000000 0.672633 0.342107
0.000000 0.673915 0.342870
0.000000 0.675044 0.343389
0.000000 0.675990 0.343572
0.000000 0.676997 0.343847
0.000000 0.678462 0.344457
0.121401 0.680720 0.345830
0.194430 0.683650 0.347875
0.238987 0.687892 0.342809
0.246555 0.694240 0.316991
0.287510 0.698665 0.307073
0.341527 0.701808 0.306126
0.393530 0.704646 0.304631
0.443702 0.707424 0.302922
0.495521 0.710689 0.292668
0.549401 0.714382 0.275547
0.602564 0.718288 0.256474
0.654292 0.722286 0.234806
0.703975 0.726345 0.209934
0.751125 0.730587 0.180331
0.798306 0.737575 0.142763
0.855406 0.760220 0.097169
0.885710 0.764645 0.090700
0.912505 0.768093 0.084016
0.936431 0.770748 0.077577
0.958068 0.772946 0.072419
0.977783 0.774990 0.067109
0.995880 0.776791 0.061555
1.000000 0.778653 0.056764
1.000000 0.780850 0.048768
0.000000 0.709712 0.371862
0.000000 0.711238 0.373053
0.000000 0.712703 0.374243
0.000000 0.713924 0.375189
0.000000 0.714809 0.375738
0.000000 0.715267 0.375860
0.000000 0.715724 0.375921
0.000000 0.716518 0.376440
0.147677 0.717830 0.377600
0.215579 0.719722 0.379644
0.275303 0.722103 0.382544
0.289708 0.727260 0.363226
0.303075 0.732601 0.339147
0.356542 0.735256 0.338659
0.407355 0.737819 0.337926
0.456367 0.740230 0.336950
0.503227 0.742794 0.335882
0.553033 0.746059 0.322881
0.603235 0.749386 0.306706
0.652338 0.752865 0.288792
0.699916 0.756435 0.268925
0.745418 0.760189 0.246433
0.788540 0.764004 0.220584
0.830564 0.769253 0.189364
0.878477 0.785275 0.145998
0.905730 0.788388 0.144472
0.930175 0.790951 0.144198
0.952239 0.793027 0.144472
0.972290 0.794858 0.145724
0.990753 0.796658 0.148013
1.000000 0.798764 0.152255
1.000000 0.801114 0.157473
0.000000 0.757229 0.414313
0.000000 0.758785 0.415778
0.000000 0.759701 0.416693
0.000000 0.760128 0.417121
0.000000 0.760189 0.417151
0.000000 0.759884 0.416938
0.000000 0.759396 0.416571
0.117891 0.758877 0.416358
0.191165 0.758633 0.416693
0.250736 0.758755 0.417884
0.305760 0.759060 0.419745
0.340551 0.761074 0.412818
0.345830 0.765286 0.387304
0.377264 0.767666 0.374853
0.424140 0.768399 0.373175
0.468971 0.769070 0.371283
0.511925 0.769986 0.369482
0.554314 0.771511 0.366369
0.600610 0.774105 0.351690
0.646967 0.777188 0.336309
0.692439 0.780484 0.319890
0.736110 0.783841 0.301335
0.777523 0.786893 0.280064
0.816403 0.789639 0.255070
0.853300 0.792599 0.225376
0.901427 0.810819 0.196750
0.925933 0.812741 0.196933
0.947784 0.814176 0.198703
0.967834 0.815518 0.201785
0.986297 0.817044 0.206363
1.000000 0.818967 0.212955
1.000000 0.821408 0.221653
0.000000 0.789822 0.445747
0.000000 0.791104 0.447272
0.000000 0.791897 0.448249
0.000000 0.792233 0.448646
0.000000 0.792111 0.448798
0.000000 0.791745 0.448829
0.087953 0.791226 0.448951
0.168643 0.790738 0.449378
0.229404 0.790433 0.450355
0.284672 0.790372 0.452399
0.337499 0.790402 0.455360
0.389807 0.790646 0.459602
0.398596 0.794339 0.440040
0.406470 0.798184 0.415717
0.450141 0.798825 0.415045
0.491920 0.799374 0.413977
0.532189 0.800015 0.413123
0.571252 0.801114 0.412634
0.610834 0.802914 0.407446
0.652735 0.805417 0.393988
0.694209 0.808011 0.379553
0.734768 0.810666 0.363684
0.773556 0.813138 0.345586
0.810544 0.815427 0.324895
0.845609 0.817472 0.301122
0.878874 0.819333 0.273381
0.922820 0.835477 0.249546
0.945129 0.836728 0.251530
0.965057 0.837797 0.257053
0.983368 0.839109 0.264378
1.000000 0.840635 0.273228
1.000000 0.843107 0.285283
0.000000 0.821805 0.480018
0.000000 0.822507 0.481025
0.000000 0.822812 0.481575
0.000000 0.822629 0.481727
0.000000 0.822049 0.481636
0.095003 0.821256 0.481453
0.163729 0.820340 0.481605
0.219150 0.819425 0.482185
0.271214 0.818662 0.483589
0.321660 0.818143 0.486061
0.371679 0.817655 0.489662
0.421241 0.817502 0.495033
0.449683 0.819059 0.489815
0.455146 0.822629 0.468421
0.477699 0.824521 0.456275
0.515312 0.824765 0.455665
0.551720 0.825071 0.454994
0.587457 0.825681 0.454810
0.622461 0.826810 0.455390
0.658717 0.828733 0.447730
0.696010 0.830961 0.434974
0.732998 0.833158 0.421088
0.768887 0.835264 0.405493
0.803647 0.837186 0.387854
0.837003 0.838926 0.367651
0.869047 0.840482 0.344610
0.899901 0.842069 0.318547
0.939239 0.855528 0.297429
0.960601 0.857176 0.300145
0.978820 0.858152 0.308721
0.995514 0.859525 0.319249
1.000000 0.861967 0.333684
0.000000 0.848203 0.510765
0.000000 0.848569 0.511467
0.000000 0.848753 0.511925
0.080079 0.848600 0.512352
0.135348 0.848295 0.512963
0.184176 0.847990 0.514031
0.232303 0.847959 0.516136
0.280461 0.848051 0.519280
0.329778 0.848295 0.523552
0.379034 0.848631 0.529320
0.428229 0.848936 0.536522
0.476844 0.849119 0.545464
0.523674 0.849088 0.555779
0.530449 0.852720 0.540398
0.536614 0.856199 0.521477
0.567559 0.856535 0.521416
0.598199 0.856748 0.521630
0.628321 0.857115 0.522026
0.658106 0.857847 0.523247
0.687282 0.858946 0.524956
0.717647 0.860685 0.514855
0.748470 0.862455 0.502892
0.779049 0.864073 0.489296
0.809354 0.865537 0.473945
0.839139 0.866850 0.456519
0.868437 0.868070 0.436866
0.897154 0.869230 0.414832
0.925048 0.870451 0.390448
0.959197 0.881010 0.372290
0.978546 0.882383 0.375555
0.994446 0.883177 0.388098
1.000000 0.885191 0.404974
0.191653 0.879728 0.553796
0.199496 0.879850 0.554376
0.208164 0.879698 0.554650
0.225498 0.879210 0.554925
0.249729 0.878477 0.555413
0.279637 0.877562 0.556451
0.313939 0.876646 0.558221
0.351568 0.875700 0.560876
0.391699 0.874754 0.564721
0.433570 0.873777 0.569970
0.476020 0.872709 0.576684
0.518364 0.871672 0.584802
0.559106 0.870573 0.594171
0.580041 0.871489 0.591394
0.584558 0.874205 0.575525
