nova/tdt-studio/app/Lut_mau/IWLTBAP/1 - LUTs by IWLTBAP (CUBE)/02 - Generic LOG/Cinematic/C-8120-LOG.cube
# Copyright: (C) Copyright 2010-2019 by IWLTBAP SAS
# Cannot be resold, shared or otherwise redistributed
# Website: https://luts.iwltbap.com
TITLE "IWLTBAP 8120 (LOG)"
LUT_3D_SIZE 33
0.000000 0.000000 0.000000
0.001626 0.000385 0.000385
0.021048 0.005232 0.003716
0.067170 0.020156 0.005928
0.107937 0.038704 0.012516
0.145414 0.059987 0.028543
0.182739 0.079122 0.046070
0.223088 0.094797 0.059149
0.268501 0.106964 0.063484
0.310511 0.121761 0.072251
0.348713 0.142329 0.091730
0.387705 0.164006 0.112439
0.427116 0.184883 0.131241
0.467043 0.206189 0.149407
0.507376 0.227885 0.167762
0.552049 0.250203 0.186896
0.601563 0.272217 0.205566
0.651305 0.292943 0.221433
0.699509 0.313109 0.235293
0.744270 0.332262 0.248709
0.775837 0.346191 0.258675
0.788446 0.352066 0.262886
0.791870 0.353668 0.264008
0.791870 0.353668 0.264008
0.791870 0.353668 0.264008
0.791870 0.353668 0.264008
0.791870 0.353668 0.264008
0.791870 0.353668 0.264008
0.791870 0.353668 0.264008
0.791870 0.353668 0.264008
0.791870 0.353668 0.264008
0.791870 0.353668 0.264008
0.791870 0.353668 0.264008
0.000000 0.000000 0.000000
0.000051 0.000012 0.000012
0.012521 0.002907 0.002860
0.056656 0.016042 0.005819
0.099670 0.034598 0.010521
0.138214 0.056006 0.025368
0.175458 0.075689 0.042657
0.215618 0.092502 0.057729
0.260615 0.105087 0.063226
0.304305 0.118865 0.069812
0.343052 0.139200 0.088705
0.382066 0.160961 0.109630
0.421547 0.182079 0.128869
0.461994 0.203476 0.147068
0.502143 0.225102 0.165363
0.546339 0.247504 0.184561
0.595635 0.269719 0.203468
0.645436 0.290576 0.219709
0.694176 0.310863 0.233751
0.739880 0.330338 0.247321
0.773043 0.344898 0.257729
0.787437 0.351581 0.262557
0.791870 0.353668 0.264008
0.791870 0.353668 0.264008
0.791870 0.353668 0.264008
0.791870 0.353668 0.264008
0.791870 0.353668 0.264008
0.791870 0.353668 0.264008
0.791870 0.353668 0.264008
0.791870 0.353668 0.264008
0.791870 0.353668 0.264008
0.791870 0.353668 0.264008
0.791870 0.353668 0.264008
0.000000 0.014591 0.003118
0.000000 0.012845 0.002758
0.005728 0.014092 0.002146
0.040678 0.022271 0.004303
0.087848 0.036300 0.006028
0.130083 0.054095 0.019706
0.168474 0.072721 0.038365
0.208321 0.089922 0.055593
0.252471 0.103017 0.062774
0.297912 0.115855 0.067291
0.337256 0.135702 0.085153
0.376173 0.157655 0.106499
0.415538 0.179059 0.126346
0.456464 0.200488 0.144523
0.496677 0.222113 0.162782
0.540269 0.244557 0.182052
0.589193 0.266963 0.201182
0.639262 0.288091 0.217867
0.688593 0.308511 0.232128
0.735071 0.328207 0.245773
0.769838 0.343433 0.256618
0.786334 0.351077 0.262189
0.791870 0.353668 0.264008
0.791870 0.353668 0.264008
0.791870 0.353668 0.264008
0.791870 0.353668 0.264008
0.791870 0.353668 0.264008
0.791870 0.353668 0.264008
0.791870 0.353668 0.264008
0.791870 0.353668 0.264008
0.791870 0.353668 0.264008
0.791870 0.353668 0.264008
0.791870 0.353668 0.264008
0.000000 0.039044 0.003824
0.000000 0.037021 0.003842
0.001093 0.036213 0.003765
0.021671 0.039874 0.003586
0.066242 0.050884 0.003352
0.112734 0.064469 0.008359
0.162679 0.076349 0.018727
0.209468 0.088948 0.031557
0.252665 0.100297 0.041877
0.295730 0.112089 0.051165
0.333203 0.130756 0.073817
0.369074 0.152851 0.100439
0.407112 0.174722 0.122584
0.448173 0.196142 0.140924
0.488594 0.217797 0.159189
0.531361 0.240195 0.178326
0.579331 0.262747 0.197702
0.629577 0.284206 0.214996
0.679650 0.304769 0.229519
0.727224 0.324770 0.243295
0.764770 0.341140 0.254935
0.785047 0.350464 0.261766
0.791870 0.353668 0.264008
0.791870 0.353668 0.264008
0.791870 0.353668 0.264008
0.791870 0.353668 0.264008
0.791870 0.353668 0.264008
0.791870 0.353668 0.264008
0.791870 0.353668 0.264008
0.791870 0.353668 0.264008
0.791870 0.353668 0.264008
0.791870 0.353668 0.264008
0.791870 0.353668 0.264008
0.000000 0.063050 0.009724
0.000000 0.061449 0.009239
0.000082 0.059903 0.008698
0.005017 0.062441 0.007595
0.044717 0.068265 0.006947
0.089580 0.076287 0.008992
0.138529 0.087757 0.012970
0.190505 0.099757 0.016614
0.244494 0.108795 0.017869
0.296231 0.115453 0.018658
0.341524 0.127965 0.033784
0.379841 0.147385 0.065340
0.413594 0.169777 0.098443
0.447724 0.192753 0.126657
0.483063 0.215233 0.151535
0.522550 0.236729 0.173611
0.569034 0.258417 0.193886
0.619547 0.280021 0.211802
0.670071 0.300762 0.226800
0.718296 0.320997 0.240717
0.758129 0.338245 0.252929
0.782415 0.349212 0.260901
0.791870 0.353668 0.264008
0.791870 0.353668 0.264008
0.791870 0.353668 0.264008
0.791870 0.353668 0.264008
0.791870 0.353668 0.264008
0.791870 0.353668 0.264008
0.791870 0.353668 0.264008
0.791870 0.353668 0.264008
0.791870 0.353668 0.264008
0.791870 0.353668 0.264008
0.791870 0.353668 0.264008
0.000000 0.086370 0.018645
0.000000 0.084883 0.018057
0.000000 0.083334 0.017438
0.000454 0.083444 0.015909
0.021695 0.088484 0.014451
0.066887 0.093273 0.015094
0.112610 0.100258 0.016593
0.164921 0.111204 0.016129
0.221591 0.121415 0.012018
0.278245 0.130133 0.007637
0.332441 0.139593 0.007200
0.383568 0.151653 0.023540
0.425057 0.168118 0.055110
0.459924 0.188937 0.090615
0.492191 0.212168 0.124441
0.525915 0.236023 0.155356
0.565180 0.260086 0.183618
0.610083 0.282962 0.207582
0.659336 0.303015 0.224766
0.709142 0.321159 0.238112
0.751819 0.337516 0.250706
0.780532 0.349202 0.259998
0.792065 0.354022 0.264061
0.791870 0.353668 0.264008
0.791870 0.353668 0.264008
0.791870 0.353668 0.264008
0.791870 0.353668 0.264008
0.791870 0.353668 0.264008
0.791870 0.353668 0.264008
0.791870 0.353668 0.264008
0.791870 0.353668 0.264008
0.791870 0.353668 0.264008
0.791870 0.353668 0.264008
0.000000 0.107624 0.026564
0.000000 0.106506 0.026333
0.000000 0.105308 0.026073
0.000000 0.103661 0.025182
0.004167 0.107525 0.021935
0.036209 0.112333 0.020245
0.087499 0.118375 0.021566
0.139147 0.124661 0.022175
0.195530 0.135211 0.016528
0.255190 0.144932 0.007246
0.311743 0.154927 0.002610
0.368163 0.167432 0.008394
0.421061 0.180486 0.024583
0.467415 0.194388 0.049953
0.505320 0.211869 0.084413
0.540587 0.233046 0.120519
0.579305 0.256357 0.153331
0.619720 0.280403 0.183888
0.661052 0.303733 0.210839
0.704455 0.324892 0.232306
0.747001 0.342501 0.248140
0.780899 0.355426 0.259087
0.796087 0.361280 0.265059
0.795516 0.359804 0.265022
0.794654 0.358348 0.264783
0.794086 0.357403 0.264631
0.793798 0.356923 0.264539
0.793506 0.356435 0.264463
0.793197 0.355909 0.264370
0.792906 0.355402 0.264296
0.792611 0.354905 0.264206
0.792564 0.354857 0.264206
0.792539 0.354809 0.264206
0.000000 0.128830 0.030406
0.000000 0.127887 0.030281
0.000000 0.126725 0.030128
0.000000 0.124661 0.029767
0.000216 0.126098 0.026992
0.010257 0.130771 0.024001
0.050772 0.136683 0.022373
0.110126 0.143793 0.025070
0.168153 0.150611 0.024766
0.229799 0.160545 0.015010
0.287851 0.170944 0.005168
0.347358 0.182474 0.003622
0.404259 0.195374 0.012632
0.457435 0.208805 0.029038
0.506798 0.222003 0.050331
0.552991 0.236557 0.078732
0.596965 0.254818 0.112427
0.638194 0.276453 0.146185
0.677711 0.299534 0.178489
0.716964 0.321823 0.207130
0.755196 0.342161 0.230346
0.787391 0.359811 0.249704
0.804007 0.369543 0.261343
0.804320 0.369666 0.264055
0.801989 0.368435 0.265486
0.800363 0.367186 0.266152
0.799782 0.366298 0.266012
0.799214 0.365428 0.265880
0.798617 0.364535 0.265756
0.797989 0.363574 0.265600
0.797431 0.362723 0.265468
0.797373 0.362641 0.265467
0.797320 0.362582 0.265444
0.000000 0.150596 0.033814
0.000000 0.149702 0.033651
0.000000 0.148679 0.033459
0.000000 0.146719 0.033116
0.000000 0.145461 0.032173
0.001184 0.149397 0.026134
0.019536 0.154766 0.022083
0.070724 0.162542 0.020232
0.135921 0.170835 0.025507
0.200563 0.177898 0.025098
0.261284 0.187902 0.017226
0.323706 0.198018 0.008245
0.384241 0.208970 0.007888
0.440596 0.221774 0.018572
0.494109 0.235235 0.035582
0.548888 0.248026 0.054270
0.605465 0.261566 0.074135
0.655651 0.277785 0.101112
0.697309 0.296729 0.135479
0.735559 0.317388 0.169594
0.771260 0.338063 0.199264
0.801780 0.356836 0.223277
0.818715 0.369582 0.240651
0.820170 0.373089 0.248622
0.816750 0.373131 0.252809
0.813884 0.373083 0.256280
0.812560 0.372969 0.257823
0.811295 0.372822 0.259255
0.810060 0.372525 0.260407
0.809061 0.371971 0.261005
0.808114 0.371449 0.261557
0.808012 0.371406 0.261643
0.807953 0.371368 0.261657
0.000000 0.172942 0.040103
0.000000 0.172055 0.039819
0.000000 0.171103 0.039486
0.000000 0.169209 0.038887
0.000000 0.167256 0.038242
0.000000 0.169212 0.031935
0.004223 0.172337 0.024615
0.037476 0.179228 0.018576
0.097471 0.188428 0.019741
0.168225 0.198143 0.027300
0.233858 0.205646 0.028496
0.298381 0.214122 0.020860
0.361890 0.223970 0.013844
0.421360 0.235128 0.014834
0.476983 0.247908 0.025808
0.533413 0.260748 0.042261
0.595196 0.273138 0.056942
0.657050 0.285686 0.069786
0.710438 0.299534 0.088712
0.754018 0.316254 0.119365
0.790157 0.335099 0.155524
0.819703 0.353706 0.186846
0.837842 0.368080 0.210245
0.840823 0.373309 0.222273
0.837139 0.373247 0.227308
0.833756 0.373327 0.231754
0.832036 0.373358 0.234006
0.830462 0.373392 0.236064
0.828858 0.373368 0.238104
0.827400 0.373240 0.239814
0.826002 0.373130 0.241457
0.825865 0.373122 0.241656
0.825784 0.373114 0.241728
0.000000 0.197412 0.051815
0.000000 0.196444 0.051307
0.000000 0.195458 0.050781
0.000000 0.193551 0.049817
0.000000 0.191469 0.048778
0.000000 0.191815 0.044713
0.000408 0.194201 0.036729
0.013744 0.198125 0.027682
0.061179 0.206655 0.021832
0.131433 0.217500 0.025769
0.206036 0.227657 0.033884
0.271845 0.234151 0.034391
0.336685 0.241475 0.027013
0.399444 0.251048 0.020053
0.458537 0.261864 0.021431
0.515054 0.273265 0.032979
0.576807 0.285523 0.048038
0.643621 0.297783 0.057878
0.706092 0.309191 0.064891
0.760977 0.321426 0.079225
0.804922 0.336132 0.105326
0.835927 0.353136 0.140691
0.855500 0.368852 0.174062
0.861925 0.376597 0.191555
0.858418 0.375568 0.197003
0.855111 0.374714 0.202030
0.853197 0.374413 0.204808
0.851607 0.374251 0.207042
0.849964 0.374090 0.209358
0.848464 0.373939 0.211465
0.847008 0.373805 0.213503
0.846844 0.373784 0.213754
0.846775 0.373764 0.213843
0.000120 0.223451 0.066597
0.000101 0.222407 0.066006
0.000081 0.221419 0.065433
0.000062 0.219684 0.064454
0.000043 0.217737 0.063359
0.000023 0.216135 0.061370
0.000387 0.218607 0.054585
0.004216 0.220568 0.044128
0.030594 0.226363 0.034415
0.092968 0.236610 0.029792
0.171842 0.248921 0.035726
0.244973 0.258776 0.043645
0.310845 0.264485 0.042463
0.375156 0.269879 0.033267
0.437569 0.277584 0.025841
0.496112 0.287000 0.027093
0.558305 0.298237 0.036998
0.625666 0.311060 0.049213
0.691579 0.323040 0.056723
0.753956 0.333470 0.061940
0.807372 0.343880 0.073801
0.845142 0.356346 0.099624
0.869054 0.372638 0.136368
0.880208 0.384717 0.161141
0.878440 0.384197 0.167508
0.875557 0.382366 0.171505
0.873657 0.381247 0.174046
0.872299 0.380509 0.175861
0.870914 0.379779 0.177693
0.869516 0.379022 0.179576
0.868132 0.378590 0.181748
0.867976 0.378541 0.182010
0.867898 0.378511 0.182138
0.001251 0.249508 0.081265
0.001185 0.248499 0.080710
0.001100 0.247505 0.080166
0.000998 0.245829 0.079247
0.000878 0.243914 0.078177
0.000740 0.241549 0.076866
0.001393 0.243129 0.072204
0.003537 0.244749 0.062601
0.013463 0.247624 0.051133
0.055224 0.255666 0.040895
0.133490 0.268420 0.039613
0.214026 0.281209 0.047378
0.285346 0.289912 0.053973
0.350583 0.293582 0.049538
0.414333 0.296585 0.038403
0.475707 0.303182 0.030586
0.538468 0.312872 0.029934
0.606405 0.324733 0.037352
0.674521 0.337216 0.047145
0.739970 0.347971 0.053509
0.799557 0.356683 0.060386
0.845489 0.365647 0.074939
0.876957 0.380747 0.104166
0.893872 0.396424 0.134123
0.894635 0.397725 0.143262
0.892738 0.395777 0.147223
0.891047 0.394106 0.149481
0.889925 0.392982 0.151010
0.888842 0.391908 0.152446
0.887702 0.390816 0.153971
0.886615 0.389963 0.155627
0.886488 0.389868 0.155833
0.886437 0.389820 0.155926
0.003740 0.276445 0.095834
0.003634 0.275505 0.095337
0.003516 0.274417 0.094772
0.003354 0.272846 0.093933
0.003162 0.271029 0.092957
0.002926 0.268690 0.091696
0.003096 0.267682 0.089226
0.005066 0.270446 0.081297
0.009182 0.271847 0.069101
0.029327 0.276476 0.055320
0.092741 0.287890 0.046253
0.177293 0.301587 0.048355
0.256768 0.313667 0.057668
0.325042 0.319751 0.062513
0.389457 0.322085 0.056463
0.453308 0.324510 0.044534
0.516794 0.330360 0.034662
0.585083 0.339984 0.032279
0.656025 0.351011 0.036118
0.724055 0.361980 0.042915
0.787894 0.370988 0.050930
0.840097 0.379487 0.061050
0.878123 0.393745 0.082859
0.901924 0.410873 0.108867
0.907045 0.416216 0.122117
0.906787 0.415069 0.127685
0.905346 0.412562 0.129622
0.904451 0.411074 0.130843
0.903520 0.409698 0.132166
0.902537 0.408286 0.133583
0.901651 0.407041 0.134861
0.901551 0.406906 0.135018
0.901505 0.406830 0.135095
0.006756 0.303406 0.109882
0.006638 0.302456 0.109409
0.006536 0.301422 0.108887
0.006363 0.299976 0.108137
0.006174 0.298333 0.107295
0.005903 0.296051 0.106125
0.005656 0.293617 0.104724
0.007072 0.296468 0.099490
0.009864 0.297663 0.086900
0.018098 0.299779 0.071949
0.055030 0.307553 0.057060
0.133880 0.321027 0.051466
0.221327 0.334938 0.057658
0.298750 0.345546 0.067791
0.365198 0.350458 0.071136
0.429440 0.351889 0.063620
0.494182 0.353508 0.050477
0.562852 0.357741 0.038508
0.635965 0.365587 0.031303
0.706555 0.375800 0.032703
0.773729 0.386311 0.040045
0.831492 0.396818 0.049427
0.875374 0.410946 0.068028
0.905233 0.428108 0.090179
0.916307 0.438493 0.107107
0.917997 0.438757 0.113341
0.916793 0.435662 0.114649
0.916101 0.433907 0.115424
0.915376 0.432281 0.116287
0.914621 0.430628 0.117200
0.913946 0.429126 0.118031
0.913874 0.428963 0.118128
0.913832 0.428875 0.118183
0.010209 0.332521 0.123844
0.010075 0.331420 0.123340
0.009954 0.330363 0.122851
0.009766 0.328866 0.122142
0.009573 0.327149 0.121337
0.009264 0.324671 0.120173
0.008948 0.321974 0.118909
0.009224 0.321335 0.116420
0.011803 0.325904 0.106318
0.015635 0.326700 0.090867
0.032231 0.330241 0.073641
0.090839 0.341208 0.060230
0.177730 0.355480 0.058621
0.266217 0.369058 0.066882
0.341045 0.378194 0.076423
0.406436 0.381646 0.078551
0.470433 0.381979 0.070540
0.539610 0.381666 0.054982
0.614430 0.384037 0.038933
0.687777 0.392032 0.031202
0.757678 0.403848 0.032218
0.820740 0.416584 0.039642
0.871037 0.430608 0.056191
0.906056 0.447288 0.077649
0.922848 0.461259 0.096902
0.927399 0.464308 0.105137
0.926235 0.460823 0.105898
0.925603 0.459006 0.106376
0.924998 0.457278 0.106825
0.924404 0.455571 0.107252
0.923816 0.453909 0.107680
0.923758 0.453719 0.107738
0.923728 0.453647 0.107752
0.014404 0.366256 0.138901
0.014257 0.365059 0.138354
0.014094 0.363834 0.137821
0.013890 0.362219 0.137109
0.013657 0.360298 0.136265
0.013304 0.357587 0.135047
0.012935 0.354615 0.133726
0.012517 0.351245 0.132253
0.014755 0.357548 0.126465
0.017486 0.359383 0.112377
0.024166 0.359554 0.092752
0.058629 0.366735 0.074128
0.132721 0.379753 0.063982
0.224395 0.393813 0.065508
0.310218 0.406094 0.075637
0.383475 0.413839 0.085545
0.447739 0.416092 0.087189
0.515185 0.414897 0.077131
0.591075 0.412886 0.059050
0.667313 0.414834 0.042720
0.740002 0.424576 0.035021
0.807949 0.438326 0.037556
0.864490 0.452299 0.049442
0.904957 0.468220 0.067009
0.927849 0.483975 0.086952
0.936191 0.491082 0.100080
0.935040 0.487340 0.100694
0.934401 0.485353 0.101086
0.933827 0.483568 0.101437
0.933259 0.481799 0.101765
0.932675 0.480044 0.102100
0.932617 0.479841 0.102158
0.932586 0.479766 0.102158
0.019243 0.402667 0.153543
0.019082 0.401443 0.153050
0.018904 0.400158 0.152558
0.018687 0.398525 0.151925
0.018413 0.396546 0.151175
0.018029 0.393815 0.150102
0.017620 0.390790 0.148932
0.017149 0.387302 0.147598
0.018301 0.390124 0.144258
0.021165 0.395339 0.133218
0.024316 0.394795 0.113085
0.039863 0.397681 0.090210
0.090698 0.407722 0.073193
0.178059 0.421827 0.068308
0.272048 0.435333 0.075500
0.355147 0.446949 0.087820
0.426689 0.454010 0.096613
0.493088 0.455251 0.096686
0.566608 0.452704 0.085130
0.645558 0.449289 0.065892
0.720836 0.451388 0.049970
0.792783 0.461717 0.043414
0.855127 0.475515 0.046923
0.901640 0.490762 0.059174
0.931666 0.507387 0.078136
0.944217 0.518142 0.095144
0.943604 0.514829 0.096266
0.942910 0.512546 0.096663
0.942351 0.510709 0.096973
0.941791 0.508842 0.097270
0.941261 0.507123 0.097564
0.941203 0.506920 0.097608
0.941173 0.506831 0.097622
0.024467 0.438927 0.165899
0.024290 0.437733 0.165524
0.024125 0.436514 0.165149
0.023894 0.435000 0.164675
0.023627 0.433249 0.164127
0.023243 0.430649 0.163310
0.022828 0.427808 0.162418
0.022328 0.424449 0.161343
0.022378 0.423009 0.159307
0.025144 0.429852 0.150737
0.028352 0.431678 0.133322
0.034176 0.431414 0.108345
0.061516 0.437268 0.085578
0.133222 0.450131 0.074373
0.229714 0.464808 0.076291
0.321397 0.477863 0.086878
0.402502 0.489297 0.099357
0.473623 0.496118 0.107867
0.544376 0.496376 0.107000
0.623278 0.492889 0.094028
0.701818 0.489253 0.074458
0.776111 0.490611 0.057729
0.843147 0.499763 0.050791
0.896314 0.514017 0.056977
0.933230 0.530846 0.072527
0.950537 0.544121 0.090265
0.951927 0.543062 0.093409
0.951134 0.540442 0.093547
0.950567 0.538555 0.093661
0.949992 0.536609 0.093776
0.949475 0.534927 0.093885
0.949416 0.534724 0.093901
0.949386 0.534636 0.093905
0.029839 0.473518 0.175315
0.029649 0.472400 0.175050
0.029489 0.471259 0.174773
0.029246 0.469858 0.174435
0.029008 0.468370 0.174062
0.028643 0.466073 0.173505
0.028248 0.463527 0.172873
0.027766 0.460484 0.172088
0.027231 0.457119 0.171229
0.029048 0.461705 0.165593
0.032415 0.467048 0.151117
0.036699 0.466315 0.127965
0.051056 0.468488 0.101244
0.099511 0.478438 0.083337
0.188180 0.493240 0.078633
0.285608 0.507691 0.084892
0.373228 0.520765 0.097938
0.451706 0.532079 0.110609
0.525266 0.537793 0.118489
0.602461 0.537892 0.117284
0.682278 0.535068 0.103341
0.759174 0.530518 0.083029
0.829614 0.530110 0.066592
0.888370 0.538947 0.062861
0.931583 0.554999 0.072684
0.955278 0.570442 0.089044
0.959881 0.572926 0.094752
0.959057 0.569794 0.094363
0.958559 0.567828 0.094150
0.958044 0.565860 0.093945
0.957555 0.564009 0.093733
0.957508 0.563806 0.093720
0.957478 0.563717 0.093691
0.035324 0.506123 0.181297
0.035128 0.505014 0.181131
0.034950 0.503891 0.180936
0.034690 0.502480 0.180723
0.034451 0.501047 0.180499
0.034104 0.499024 0.180189
0.033708 0.496694 0.179828
0.033225 0.493901 0.179396
0.032694 0.490893 0.178957
0.033248 0.491504 0.176223
0.036307 0.498719 0.165919
0.039880 0.500189 0.145852
0.048265 0.500680 0.117891
0.080090 0.507940 0.095818
0.152819 0.521662 0.085375
0.248659 0.537270 0.085794
0.342283 0.551895 0.095789
0.426026 0.564840 0.109653
0.505141 0.575654 0.122685
0.584264 0.581172 0.130939
0.662546 0.580844 0.128027
0.741583 0.578234 0.113096
0.815367 0.572670 0.093017
0.878191 0.571556 0.078868
0.926739 0.581321 0.079358
0.958151 0.598021 0.092369
0.967332 0.604499 0.100593
0.966506 0.600781 0.099742
0.966053 0.598668 0.099291
0.965606 0.596629 0.098863
0.965154 0.594616 0.098428
0.965114 0.594392 0.098388
0.965095 0.594303 0.098359
0.040788 0.536799 0.184873
0.040621 0.535815 0.184756
0.040444 0.534766 0.184630
0.040193 0.533447 0.184485
0.039963 0.532144 0.184329
0.039651 0.530322 0.184130
0.039293 0.528309 0.183900
0.038834 0.525782 0.183634
0.038344 0.523074 0.183368
0.038031 0.520894 0.182586
0.040086 0.526096 0.175980
0.043810 0.532128 0.160811
0.049678 0.533303 0.134699
0.068847 0.537883 0.109355
0.123381 0.549641 0.093919
0.212189 0.565610 0.088979
0.310003 0.582200 0.094665
0.399107 0.597090 0.108158
0.481918 0.610387 0.123341
0.565146 0.620765 0.136686
0.645759 0.625223 0.144053
0.722791 0.624874 0.139163
0.799664 0.621889 0.123255
0.867427 0.616090 0.104469
0.919730 0.614702 0.093385
0.957594 0.625888 0.098265
0.973603 0.636360 0.109009
0.973836 0.633426 0.108514
0.973337 0.631185 0.107838
0.972874 0.629060 0.107206
0.972447 0.627080 0.106611
0.972389 0.626839 0.106552
0.972379 0.626741 0.106513
0.045899 0.564072 0.186533
0.045751 0.563221 0.186492
0.045574 0.562307 0.186462
0.045359 0.561232 0.186404
0.045151 0.560100 0.186353
0.044865 0.558555 0.186285
0.044552 0.556872 0.186205
0.044148 0.554797 0.186124
0.043700 0.552484 0.186049
0.043224 0.550036 0.185975
0.043902 0.551126 0.182987
0.047444 0.559081 0.171416
0.052625 0.562864 0.148963
0.066328 0.566071 0.124839
0.104966 0.575129 0.105766
0.178860 0.590135 0.095135
0.275195 0.608156 0.095086
0.370381 0.625042 0.105618
0.456596 0.639758 0.121430
0.543158 0.654262 0.137563
0.629229 0.664615 0.151574
0.705928 0.666358 0.156155
0.781828 0.665929 0.148763
0.854340 0.663632 0.133322
0.911241 0.658562 0.117597
0.954513 0.658357 0.110803
0.976773 0.666461 0.118686
0.979713 0.665588 0.119995
0.979420 0.663359 0.119265
0.979012 0.661284 0.118499
0.978645 0.659290 0.117770
0.978604 0.659077 0.117702
0.978574 0.658959 0.117643
0.050697 0.587350 0.184828
0.050533 0.586640 0.184936
0.050364 0.585786 0.184983
0.050180 0.584837 0.185064
0.049967 0.583847 0.185128
0.049726 0.582622 0.185219
0.049439 0.581171 0.185332
0.049065 0.579407 0.185475
0.048649 0.577469 0.185700
0.048205 0.575353 0.185946
0.047732 0.573170 0.186199
0.050491 0.579454 0.177852
0.055329 0.586720 0.159809
0.066127 0.590657 0.138429
0.094284 0.597661 0.119272
0.153681 0.610954 0.105309
0.240549 0.628230 0.099188
0.337172 0.646410 0.104954
0.428259 0.663237 0.119518
0.515769 0.679005 0.136033
0.607412 0.694402 0.152841
0.690342 0.703051 0.164820
0.762574 0.702582 0.165957
0.836585 0.703090 0.157064
0.899955 0.699810 0.142409
0.948823 0.696529 0.130683
0.976958 0.697347 0.130535
0.982387 0.696614 0.133196
0.983062 0.694618 0.132820
0.982813 0.692502 0.131955
0.982581 0.690460 0.131115
0.982572 0.690227 0.131028
0.982542 0.690101 0.130977
0.056045 0.607834 0.178329
0.055831 0.607272 0.178662
0.055667 0.606603 0.178887
0.055435 0.605799 0.179171
0.055185 0.604953 0.179453
0.054908 0.603916 0.179818
0.054597 0.602784 0.180200
0.054165 0.601310 0.180692
0.053702 0.599603 0.181324
0.053214 0.597819 0.182121
0.052703 0.595950 0.182969
0.054363 0.598927 0.179217
0.058597 0.605862 0.164620
0.066601 0.610793 0.146713
0.087032 0.616258 0.130322
0.133540 0.627456 0.115212
0.207619 0.643353 0.105351
0.300494 0.661510 0.106372
0.394679 0.679484 0.117387
0.483486 0.696371 0.132807
0.575682 0.713147 0.149942
0.664358 0.726758 0.165837
0.742946 0.733119 0.174567
0.815145 0.732975 0.173196
0.884622 0.732801 0.162788
0.939221 0.729969 0.149922
0.974753 0.729092 0.143495
0.984580 0.728761 0.145553
0.986927 0.727141 0.145986
0.986661 0.725064 0.145191
0.986411 0.723100 0.144412
0.986388 0.722881 0.144332
0.986367 0.722747 0.144295
0.061429 0.621744 0.169175
0.061238 0.621305 0.169313
0.061075 0.620866 0.169452
0.060827 0.620275 0.169654
0.060594 0.619690 0.169848
0.060343 0.619072 0.170053
0.060050 0.618351 0.170280
0.059593 0.617251 0.170644
0.059140 0.616070 0.171178
0.058652 0.614776 0.172187
0.058154 0.613469 0.173310
0.058454 0.613424 0.173186
0.061999 0.618695 0.162683
0.069167 0.625878 0.149149
0.085514 0.631684 0.136267
0.122143 0.640683 0.122177
0.183676 0.654528 0.111651
0.266025 0.671217 0.109697
0.356253 0.689063 0.116839
0.445188 0.706528 0.129505
0.536248 0.724152 0.145216
0.628611 0.741707 0.163245
0.714103 0.753950 0.177047
0.789505 0.756737 0.182823
0.862644 0.758030 0.178505
0.924025 0.757755 0.167725
0.967134 0.756344 0.158611
0.983942 0.755621 0.157231
0.988648 0.754650 0.158225
0.988641 0.753088 0.157505
0.988628 0.751526 0.156800
0.988628 0.751359 0.156741
0.988628 0.751283 0.156695
0.062842 0.625176 0.168024
0.062817 0.625176 0.168024
0.062816 0.625176 0.168024
0.062816 0.625176 0.168024
0.062816 0.625154 0.168046
0.062816 0.625151 0.168049
0.062816 0.625151 0.168049
0.062720 0.624918 0.168126
0.062619 0.624644 0.168204
0.062411 0.624143 0.168369
0.062183 0.623583 0.168550
0.061953 0.623017 0.168747
0.063606 0.626108 0.161895
0.069678 0.633912 0.151668
0.083605 0.640754 0.140339
0.114436 0.648580 0.126603
0.167904 0.660730 0.115253
0.239262 0.675614 0.111065
0.320575 0.692198 0.115572
0.405652 0.709601 0.127304
0.493317 0.727691 0.142232
0.584486 0.746560 0.158151
0.674740 0.764363 0.173396
0.759470 0.776368 0.186073
