nova/tdt-studio/app/Lut_mau/IWLTBAP/1 - LUTs by IWLTBAP (CUBE)/02 - Generic LOG/Cinematic/C-8120-LOG.cube
# Copyright: (C) Copyright 2010-2019 by IWLTBAP SAS
# Cannot be resold, shared or otherwise redistributed
# Website: https://luts.iwltbap.com
TITLE "IWLTBAP 8120 (LOG)"
LUT_3D_SIZE 9
0.000000 0.000000 0.000000
0.107937 0.038704 0.012516
0.268501 0.106964 0.063484
0.427116 0.184883 0.131241
0.601563 0.272217 0.205566
0.775837 0.346191 0.258675
0.791870 0.353668 0.264008
0.791870 0.353668 0.264008
0.791870 0.353668 0.264008
0.000000 0.063050 0.009724
0.044717 0.068265 0.006947
0.244494 0.108795 0.017869
0.413594 0.169777 0.098443
0.569034 0.258417 0.193886
0.758129 0.338245 0.252929
0.791870 0.353668 0.264008
0.791870 0.353668 0.264008
0.791870 0.353668 0.264008
0.000000 0.150596 0.033814
0.000000 0.145461 0.032173
0.135921 0.170835 0.025507
0.384241 0.208970 0.007888
0.605465 0.261566 0.074135
0.771260 0.338063 0.199264
0.816750 0.373131 0.252809
0.810060 0.372525 0.260407
0.807953 0.371368 0.261657
0.001251 0.249508 0.081265
0.000878 0.243914 0.078177
0.013463 0.247624 0.051133
0.285346 0.289912 0.053973
0.538468 0.312872 0.029934
0.799557 0.356683 0.060386
0.894635 0.397725 0.143262
0.888842 0.391908 0.152446
0.886437 0.389820 0.155926
0.014404 0.366256 0.138901
0.013657 0.360298 0.136265
0.014755 0.357548 0.126465
0.132721 0.379753 0.063982
0.447739 0.416092 0.087189
0.740002 0.424576 0.035021
0.927849 0.483975 0.086952
0.933827 0.483568 0.101437
0.932586 0.479766 0.102158
0.035324 0.506123 0.181297
0.034451 0.501047 0.180499
0.032694 0.490893 0.178957
0.048265 0.500680 0.117891
0.342283 0.551895 0.095789
0.662546 0.580844 0.128027
0.926739 0.581321 0.079358
0.966053 0.598668 0.099291
0.965095 0.594303 0.098359
0.056045 0.607834 0.178329
0.055185 0.604953 0.179453
0.053702 0.599603 0.181324
0.058597 0.605862 0.164620
0.207619 0.643353 0.105351
0.575682 0.713147 0.149942
0.884622 0.732801 0.162788
0.986927 0.727141 0.145986
0.986367 0.722747 0.144295
0.062866 0.625275 0.167999
0.062866 0.625275 0.167999
0.062866 0.625275 0.167999
0.063186 0.626178 0.165181
0.138157 0.657589 0.121382
0.430959 0.721159 0.132558
0.767124 0.792344 0.190216
0.986018 0.799382 0.176371
0.987717 0.798187 0.175534
0.062866 0.625275 0.167999
0.062866 0.625275 0.167999
0.062866 0.625275 0.167999
0.062866 0.625275 0.167999
0.117203 0.652816 0.127014
0.398167 0.714070 0.126450
0.734985 0.788429 0.187027
0.979332 0.800163 0.177964
0.987183 0.800323 0.176575
0.006539 0.025788 0.224231
0.102933 0.032298 0.222597
0.276003 0.071828 0.113956
0.422735 0.159909 0.123703
0.599888 0.261898 0.203413
0.773799 0.344180 0.258037
0.791870 0.353668 0.264008
0.791870 0.353668 0.264008
0.791870 0.353668 0.264008
0.000000 0.079575 0.150246
0.014828 0.076164 0.127753
0.257270 0.110435 0.073185
0.413240 0.175134 0.121382
0.566439 0.256661 0.192738
0.756355 0.337480 0.252390
0.791870 0.353668 0.264008
0.791870 0.353668 0.264008
0.791870 0.353668 0.264008
0.000000 0.152809 0.052935
0.000000 0.144682 0.038569
0.133286 0.168171 0.025534
0.381339 0.206798 0.007540
0.601862 0.259619 0.074389
0.767476 0.337017 0.200576
0.815462 0.373114 0.254397
0.809153 0.372017 0.260934
0.807083 0.370901 0.262177
0.001120 0.247589 0.080198
0.000773 0.242119 0.077193
0.012308 0.245529 0.050783
0.282456 0.287738 0.053266
0.535761 0.311119 0.029753
0.797166 0.355324 0.060438
0.893720 0.396601 0.144289
0.887936 0.391046 0.153681
0.885431 0.389017 0.157429
0.014141 0.364221 0.138008
0.013394 0.358321 0.135369
0.014400 0.355375 0.125951
0.129994 0.377403 0.063840
0.445335 0.413944 0.086652
0.737034 0.422502 0.034490
0.926926 0.482009 0.086766
0.933350 0.482139 0.101707
0.932129 0.478353 0.102423
0.035023 0.504366 0.181025
0.034167 0.499366 0.180244
0.032422 0.489295 0.178704
0.047569 0.498759 0.118713
0.339054 0.549372 0.095170
0.659246 0.578387 0.127394
0.924831 0.578933 0.078351
0.965679 0.597018 0.098942
0.964719 0.592590 0.097991
0.055737 0.606937 0.178796
0.054895 0.603875 0.179829
0.053443 0.598640 0.181734
0.058061 0.604421 0.165494
0.203995 0.641662 0.105243
0.572203 0.711443 0.149061
0.882047 0.731277 0.162527
0.986707 0.725511 0.145352
0.986156 0.721038 0.143641
0.062866 0.625275 0.167999
0.062866 0.625275 0.167999
0.062866 0.625275 0.167999
0.063147 0.626066 0.165541
0.135533 0.656996 0.121990
0.427355 0.720376 0.131885
0.763392 0.791799 0.189849
0.985579 0.798915 0.176224
0.987844 0.797723 0.175303
0.062866 0.625275 0.167999
0.062866 0.625275 0.167999
0.062866 0.625275 0.167999
0.062866 0.625275 0.167999
0.115311 0.652346 0.127811
0.394440 0.713253 0.125771
0.731467 0.788019 0.186683
0.978558 0.800163 0.178117
0.987183 0.800323 0.176575
0.001313 0.035050 0.364762
0.024461 0.052338 0.397203
0.241894 0.053871 0.411159
0.471059 0.087809 0.343321
0.577793 0.185749 0.234528
0.726460 0.295717 0.254942
0.750332 0.314468 0.260187
0.752251 0.315343 0.258091
0.753502 0.316124 0.257400
0.000003 0.122655 0.368852
0.000391 0.108721 0.360273
0.188422 0.085384 0.366885
0.450410 0.090342 0.288317
0.546818 0.179507 0.204882
0.711206 0.292325 0.245590
0.755645 0.317584 0.256338
0.759631 0.320392 0.256402
0.762249 0.322262 0.257044
0.000000 0.219909 0.320858
0.000000 0.210136 0.309807
0.052111 0.186806 0.269444
0.384140 0.221483 0.195717
0.617206 0.284365 0.214720
0.782627 0.353404 0.264553
0.805044 0.384546 0.294026
0.802431 0.377535 0.286740
0.801361 0.374598 0.283697
0.000000 0.292815 0.249195
0.000000 0.284612 0.237526
0.000401 0.271534 0.188121
0.254160 0.290171 0.145342
0.591852 0.322330 0.054384
0.821405 0.355260 0.077185
0.890478 0.398040 0.159625
0.885094 0.390225 0.160992
0.883052 0.387864 0.162586
0.008087 0.376514 0.183582
0.008082 0.368732 0.175244
0.010424 0.359628 0.153172
0.116671 0.373460 0.076910
0.439808 0.409517 0.086056
0.731054 0.418187 0.033651
0.925037 0.478169 0.086309
0.932433 0.479296 0.102249
0.931214 0.475647 0.102913
0.034416 0.500853 0.180463
0.033549 0.495831 0.179685
0.031854 0.485992 0.178175
0.046102 0.494938 0.120398
0.332586 0.544612 0.093956
0.652991 0.573930 0.126304
0.921532 0.574724 0.076612
0.965060 0.594142 0.098320
0.964114 0.589912 0.097448
0.055225 0.605059 0.179430
0.054395 0.602086 0.180436
0.052975 0.596955 0.182520
0.057112 0.601881 0.167002
0.197881 0.638671 0.105144
0.566878 0.708659 0.147741
0.878334 0.729031 0.162150
0.986400 0.723023 0.144394
0.985847 0.718607 0.142689
0.062866 0.625275 0.167999
0.062866 0.625275 0.167999
0.062866 0.625275 0.167999
0.063073 0.625850 0.166219
0.131975 0.656190 0.122824
0.422215 0.719285 0.130920
0.758705 0.791171 0.189361
0.984988 0.798281 0.176053
0.987977 0.797133 0.175019
0.062866 0.625275 0.167999
0.062866 0.625275 0.167999
0.062866 0.625275 0.167999
0.062866 0.625275 0.167999
0.112793 0.651752 0.128868
0.389264 0.712116 0.124821
0.726814 0.787342 0.186069
0.977683 0.800137 0.178271
0.987183 0.800323 0.176575
0.012264 0.086094 0.451870
0.025472 0.132281 0.553214
0.065455 0.121101 0.548595
0.364134 0.115198 0.570241
0.613777 0.135836 0.522482
0.742934 0.237599 0.391500
0.754552 0.253902 0.348288
0.752482 0.255029 0.334557
0.751427 0.255596 0.327660
0.002953 0.168296 0.528746
0.006707 0.159376 0.527315
0.037324 0.132811 0.519252
0.343888 0.109810 0.539084
0.588737 0.129509 0.489445
0.723426 0.231908 0.362497
0.750045 0.256498 0.317276
0.748581 0.257617 0.305057
0.747911 0.258139 0.299340
0.000000 0.256909 0.497374
0.000000 0.248374 0.488852
0.000000 0.236054 0.478380
0.257837 0.209779 0.483860
0.588135 0.205596 0.393322
0.739509 0.271254 0.280471
0.774455 0.322979 0.302314
0.769040 0.317435 0.293870
0.766856 0.315313 0.290401
0.000000 0.350505 0.462419
0.000000 0.343877 0.455272
0.000000 0.346852 0.443900
0.109335 0.310438 0.404744
0.501734 0.340615 0.329386
0.783711 0.395177 0.310841
0.837428 0.469359 0.386787
0.833879 0.459535 0.376322
0.832192 0.455613 0.372316
0.000000 0.443832 0.417515
0.000000 0.436708 0.410659
0.000000 0.427105 0.393120
0.013455 0.407214 0.324728
0.366288 0.424151 0.296654
0.796018 0.460871 0.185333
0.938714 0.513376 0.216208
0.936149 0.507989 0.223080
0.934734 0.502790 0.218227
0.012915 0.541453 0.333312
0.012657 0.535673 0.328517
0.012372 0.523884 0.317686
0.026793 0.528103 0.255984
0.266595 0.548242 0.191215
0.629587 0.579677 0.170705
0.941164 0.595352 0.106983
0.968295 0.601385 0.127543
0.966805 0.595893 0.123316
0.049208 0.614368 0.227797
0.048871 0.610924 0.225842
0.048302 0.604646 0.221672
0.052928 0.606082 0.196786
0.180965 0.637881 0.123324
0.555503 0.706571 0.148843
0.872419 0.726012 0.162021
0.985873 0.718786 0.142766
0.985309 0.714469 0.141094
0.061700 0.627017 0.175462
0.061886 0.626758 0.174258
0.062208 0.626288 0.172248
0.062816 0.625723 0.168195
0.125896 0.654810 0.124326
0.413520 0.717405 0.129294
0.751118 0.789880 0.188535
0.984251 0.797517 0.175836
0.988194 0.796321 0.174622
0.062275 0.626191 0.171833
0.062458 0.625897 0.170636
0.062799 0.625389 0.168476
0.062866 0.625275 0.167999
0.108130 0.650633 0.130816
0.380366 0.710149 0.123204
0.717748 0.785418 0.184693
0.975767 0.800163 0.178671
0.987183 0.800323 0.176575
0.023392 0.130722 0.546677
0.055164 0.157043 0.654566
0.103298 0.168415 0.699516
0.212005 0.160353 0.707386
0.477020 0.165336 0.731079
0.753776 0.179607 0.709868
0.788548 0.206444 0.667721
0.789444 0.211575 0.650165
0.789795 0.214172 0.640945
0.020258 0.178675 0.635111
0.034163 0.174563 0.651129
0.071249 0.170211 0.680498
0.178177 0.152635 0.685412
0.456491 0.157132 0.709130
0.738645 0.174094 0.681828
0.789582 0.217590 0.627102
0.789284 0.222227 0.608226
0.788950 0.224291 0.599188
0.000382 0.266876 0.669430
0.000370 0.260154 0.663707
0.001044 0.253202 0.657451
0.058646 0.223448 0.658837
0.420694 0.215029 0.680840
0.741591 0.220402 0.628552
0.799700 0.269567 0.538621
0.795117 0.264697 0.517439
0.792664 0.262375 0.509075
0.000000 0.374729 0.641695
0.000000 0.369171 0.635274
0.000000 0.371865 0.628453
0.000604 0.346145 0.618368
0.345135 0.327168 0.634392
0.722620 0.319456 0.518300
0.796733 0.368109 0.434570
0.793219 0.361501 0.415641
0.791842 0.358757 0.409111
0.000000 0.478409 0.609878
0.000000 0.472488 0.603707
0.000000 0.465000 0.591799
0.000000 0.483113 0.583182
0.208073 0.444264 0.545929
0.675827 0.482256 0.455367
0.867449 0.572819 0.501844
0.868762 0.582464 0.513968
0.867729 0.577805 0.508393
0.000000 0.592102 0.544510
0.000000 0.586262 0.539020
0.000000 0.574975 0.527746
0.000292 0.592522 0.495939
0.056950 0.574553 0.434216
0.525235 0.602062 0.423107
0.953053 0.643712 0.321213
0.969734 0.655854 0.363048
0.968796 0.650162 0.357159
0.021282 0.653595 0.410621
0.021251 0.650330 0.407422
0.021190 0.644092 0.401337
0.025993 0.641389 0.377239
0.068546 0.661610 0.297342
0.456224 0.721004 0.306208
0.844242 0.752189 0.294186
0.991820 0.748418 0.276324
0.991444 0.743835 0.271065
0.040985 0.655483 0.319843
0.041891 0.654238 0.313738
0.043213 0.652382 0.304538
0.045326 0.649402 0.289757
0.096565 0.676651 0.226653
0.378577 0.728111 0.187500
0.737737 0.802075 0.229382
0.987344 0.810720 0.201093
0.991058 0.808603 0.201034
0.043655 0.651764 0.301513
0.044494 0.650543 0.295519
0.045776 0.648792 0.286690
0.047903 0.645910 0.271830
0.088608 0.670257 0.215508
0.348419 0.718693 0.170817
0.703156 0.793038 0.210960
0.976208 0.810208 0.192030
0.989303 0.809403 0.188721
0.034146 0.150364 0.610832
0.086488 0.167343 0.691498
0.111662 0.202941 0.751584
0.139042 0.202339 0.754760
0.375034 0.205761 0.782126
0.639326 0.214615 0.810664
0.713580 0.230640 0.821330
0.721326 0.228358 0.819751
0.725155 0.227222 0.818959
0.055225 0.179805 0.684139
0.073312 0.181819 0.697502
0.106189 0.205267 0.751425
0.133574 0.202729 0.754239
0.357430 0.209157 0.781148
0.623472 0.221236 0.810268
0.729117 0.224713 0.816853
0.735089 0.221662 0.813650
0.737830 0.220338 0.812188
0.006467 0.268319 0.743251
0.011465 0.264247 0.745243
0.032409 0.255350 0.750106
0.094915 0.238618 0.756848
0.317123 0.229084 0.779559
0.601686 0.236819 0.806714
0.762263 0.227159 0.804389
0.766321 0.216375 0.796845
0.768013 0.212232 0.793719
0.000000 0.356935 0.741463
0.000000 0.352406 0.740653
0.000000 0.354871 0.742764
0.002680 0.335679 0.746760
0.174554 0.300008 0.776211
0.551625 0.309209 0.804038
0.806299 0.304855 0.778678
0.811076 0.300549 0.760508
0.811558 0.298444 0.754575
0.000000 0.466301 0.747294
0.000000 0.462478 0.744353
0.000000 0.456342 0.738875
0.000000 0.474904 0.743950
0.017087 0.441366 0.755028
0.491591 0.445057 0.787187
0.839073 0.444125 0.696586
0.841658 0.462547 0.666237
0.839951 0.458210 0.656454
0.000000 0.609758 0.752375
0.000000 0.604953 0.747281
0.000000 0.595382 0.737090
0.000000 0.623257 0.734600
0.000000 0.626087 0.724415
0.340765 0.627656 0.715732
0.859811 0.671621 0.631805
0.892404 0.722340 0.682250
0.891613 0.717172 0.675787
0.000000 0.717637 0.681918
0.000000 0.713772 0.676065
0.000000 0.706574 0.665835
0.000000 0.703000 0.645445
0.001087 0.715897 0.596444
0.171016 0.737193 0.554808
0.736654 0.793323 0.578303
0.977570 0.806704 0.552266
0.977861 0.801792 0.545613
0.002246 0.713647 0.565484
0.003347 0.711439 0.556131
0.004980 0.708184 0.542388
0.007738 0.702976 0.519959
0.025529 0.711834 0.451342
0.205778 0.743129 0.362060
0.673905 0.823712 0.398523
0.982501 0.853287 0.400299
0.990903 0.849823 0.392485
0.005554 0.707035 0.537480
0.006749 0.704814 0.527886
0.008398 0.701721 0.514484
0.011822 0.696550 0.492801
0.029009 0.704109 0.428301
0.195186 0.735477 0.341727
0.642739 0.812585 0.363090
0.966853 0.851826 0.369784
0.991421 0.848793 0.352024
0.034393 0.150574 0.611786
0.077920 0.164791 0.683271
0.110848 0.202947 0.751490
0.137677 0.202358 0.754616
0.348904 0.205426 0.778911
0.609290 0.207280 0.805782
0.681152 0.213440 0.814209
0.681152 0.213440 0.814209
0.681152 0.213440 0.814209
0.048660 0.173060 0.671160
0.062578 0.171645 0.677959
0.110175 0.203897 0.751575
0.131703 0.202458 0.753948
0.301056 0.204697 0.773104
0.575218 0.205949 0.802193
0.681152 0.213440 0.814209
0.681152 0.213440 0.814209
0.681152 0.213440 0.814209
0.004049 0.265949 0.741834
0.007649 0.261207 0.742630
0.025402 0.248644 0.747034
0.086768 0.234174 0.756803
0.218717 0.224494 0.772260
0.524862 0.220947 0.802540
0.688643 0.223661 0.818078
0.686178 0.219961 0.816704
0.685450 0.218876 0.816309
0.000000 0.359069 0.739336
0.000000 0.354931 0.739087
0.000000 0.349382 0.742703
0.001566 0.319628 0.753459
0.078491 0.284998 0.773118
0.451542 0.279704 0.814793
0.698797 0.287145 0.838048
0.708366 0.280650 0.836892
0.708132 0.277865 0.836038
0.000000 0.454292 0.756920
0.000000 0.449813 0.755499
0.000000 0.441400 0.752797
0.000000 0.436474 0.762662
0.000338 0.395102 0.780035
0.337698 0.366889 0.833884
0.690039 0.383364 0.864717
0.738123 0.381000 0.867161
0.738915 0.379829 0.866798
0.000000 0.557102 0.786162
0.000000 0.552868 0.785147
0.000000 0.545062 0.782936
0.000000 0.553289 0.790153
0.000000 0.558428 0.812882
0.142178 0.543407 0.866017
0.681422 0.581198 0.899526
0.816985 0.568104 0.888054
0.820322 0.563117 0.883250
0.000000 0.681044 0.828583
0.000000 0.679154 0.827076
0.000000 0.676167 0.824354
0.000000 0.679219 0.823402
0.000000 0.728567 0.846987
0.032481 0.772707 0.867885
0.619136 0.824295 0.883651
0.899808 0.862350 0.870609
0.901827 0.859138 0.865324
0.000000 0.748506 0.831721
0.000000 0.751077 0.828589
0.000000 0.753630 0.821946
0.000000 0.756650 0.810250
0.000000 0.774447 0.788660
0.000144 0.793639 0.740160
0.435670 0.847890 0.686431
0.924756 0.922532 0.736257
0.948111 0.921425 0.736778
0.000000 0.754448 0.819153
0.000000 0.755856 0.814184
0.000000 0.756960 0.806558
0.000000 0.757366 0.791993
0.000000 0.769630 0.759941
0.000000 0.782277 0.696350
0.393816 0.831402 0.625801
0.901194 0.912089 0.664176
0.953628 0.913750 0.659690
0.034393 0.150574 0.611786
0.073620 0.163438 0.678968
0.110493 0.202965 0.751447
0.136870 0.202370 0.754509
0.343073 0.205349 0.778193
0.604508 0.206999 0.805269
0.681152 0.213440 0.814209
0.681152 0.213440 0.814209
0.681152 0.213440 0.814209
0.045315 0.170330 0.665502
0.057996 0.168242 0.667499
0.111267 0.203903 0.751721
0.131013 0.202474 0.753872
0.292921 0.204554 0.772158
0.570125 0.205777 0.801669
0.681152 0.213440 0.814209
0.681152 0.213440 0.814209
0.681152 0.213440 0.814209
0.005229 0.263684 0.742157
0.010161 0.259118 0.743057
0.028245 0.246767 0.747155
0.087874 0.232656 0.756558
0.212446 0.223139 0.771093
0.518652 0.219621 0.801598
0.687754 0.222288 0.817569
0.685321 0.218862 0.816303
0.684454 0.217674 0.815848
0.000000 0.356578 0.739162
0.000000 0.352364 0.738982
0.000000 0.346456 0.742340
0.001473 0.316990 0.752848
0.077846 0.282691 0.772228
0.443654 0.277013 0.813180
0.693667 0.283566 0.836549
0.704119 0.276876 0.835434
0.703530 0.274162 0.834542
0.000000 0.450943 0.755850
0.000000 0.446619 0.754423
0.000000 0.437691 0.751645
0.000000 0.432742 0.761597
0.000536 0.390774 0.779121
0.311183 0.359845 0.829832
0.673401 0.376032 0.861608
0.725331 0.369711 0.863520
0.724252 0.365408 0.862326
0.000000 0.555046 0.785743
0.000000 0.551113 0.784662
0.000000 0.543682 0.782607
0.000000 0.550975 0.788843
0.000000 0.546152 0.808052
0.049948 0.509049 0.843870
0.642205 0.540641 0.900780
0.770533 0.527404 0.905261
0.768407 0.520423 0.903562
0.000000 0.670269 0.823795
0.000000 0.665422 0.821493
0.000000 0.656913 0.817281
0.000000 0.651126 0.814848
0.000000 0.688861 0.842542
0.000000 0.731260 0.886947
0.564755 0.772172 0.944426
0.845843 0.768619 0.956597
0.842618 0.759568 0.954973
0.000000 0.722046 0.844696
0.000000 0.722046 0.844696
0.000000 0.722046 0.844696
0.000000 0.722046 0.844696
0.000000 0.739631 0.856110
0.000000 0.781777 0.884421
0.124941 0.862146 0.947175
0.930466 0.967368 0.984631
0.957100 0.968838 0.985634
0.000000 0.722046 0.844696
0.000000 0.722046 0.844696
0.000000 0.722046 0.844696
0.000000 0.721959 0.844653
0.000000 0.736280 0.853830
0.000000 0.776749 0.880399
0.053970 0.850966 0.938944
0.882155 0.968006 0.981886
0.975529 0.983296 0.979870
0.034393 0.150574 0.611786
0.071304 0.162724 0.676655
0.110321 0.202965 0.751404
0.136444 0.202370 0.754463
0.340195 0.205307 0.777832
0.602009 0.206863 0.804985
0.681152 0.213440 0.814209
0.681152 0.213440 0.814209
0.681152 0.213440 0.814209
0.043579 0.168972 0.662735
0.055545 0.166399 0.661894
0.111787 0.203967 0.751798
0.130678 0.202477 0.753826
0.288996 0.204481 0.771694
0.567767 0.205703 0.801432
0.681152 0.213440 0.814209
0.681152 0.213440 0.814209
0.681152 0.213440 0.814209
0.005814 0.262642 0.742309
0.011437 0.258065 0.743272
0.029510 0.245932 0.747211
0.088418 0.231955 0.756453
0.209782 0.222603 0.770622
0.515950 0.219153 0.801211
0.687435 0.221851 0.817402
0.685040 0.218472 0.816151
0.684174 0.217308 0.815697
0.000000 0.355495 0.739097
0.000000 0.351220 0.738939
0.000000 0.345268 0.742200
0.001396 0.315914 0.752618
0.077906 0.281828 0.771955
0.441163 0.276076 0.812657
0.692990 0.282554 0.836192
0.703917 0.275973 0.835127
0.703327 0.273213 0.834232
0.000000 0.449692 0.755448
0.000000 0.445288 0.753965
0.000000 0.436295 0.751229
0.000000 0.431429 0.761187
0.000588 0.389511 0.778618
0.307280 0.358137 0.828987
0.670811 0.374287 0.860947
0.724972 0.368280 0.863129
0.723892 0.363922 0.861893
0.000000 0.553837 0.785419
0.000000 0.549995 0.784348
0.000000 0.542456 0.782264
0.000000 0.549494 0.788354
0.000000 0.544477 0.807331
0.046772 0.506687 0.842687
0.638529 0.537864 0.899923
0.769825 0.525115 0.904693
0.767647 0.517975 0.902977
0.000000 0.668861 0.823120
0.000000 0.663908 0.820747
0.000000 0.655491 0.816612
0.000000 0.649540 0.814055
0.000000 0.686798 0.841591
0.000000 0.728796 0.885831
0.559027 0.768850 0.943596
0.844768 0.765617 0.956056
0.841445 0.756249 0.954384
0.000000 0.722046 0.844696
0.000000 0.722046 0.844696
0.000000 0.722046 0.844696
0.000000 0.722046 0.844696
0.000000 0.739309 0.855896
0.000000 0.781148 0.884056
0.114851 0.861219 0.946322
0.930844 0.965831 0.984735
0.960293 0.964359 0.985424
0.000000 0.722046 0.844696
0.000000 0.722046 0.844696
0.000000 0.722046 0.844696
0.000000 0.722046 0.844696
0.000000 0.736206 0.853653
0.000000 0.776478 0.879997
0.042656 0.850021 0.937241
0.862392 0.968010 0.980931
0.986786 0.987305 0.983307
