nova/tdt-studio/app/Lut_mau/IWLTBAP/1 - LUTs by IWLTBAP (CUBE)/02 - Generic LOG/Cinematic/C-8120-LOG.cube
# Copyright: (C) Copyright 2010-2019 by IWLTBAP SAS
# Cannot be resold, shared or otherwise redistributed
# Website: https://luts.iwltbap.com
TITLE "IWLTBAP 8120 (LOG)"
LUT_3D_SIZE 5
0.000000 0.000000 0.000000
0.268501 0.106964 0.063484
0.601563 0.272217 0.205566
0.791870 0.353668 0.264008
0.791870 0.353668 0.264008
0.000000 0.150596 0.033814
0.135921 0.170835 0.025507
0.605465 0.261566 0.074135
0.816750 0.373131 0.252809
0.807953 0.371368 0.261657
0.014404 0.366256 0.138901
0.014755 0.357548 0.126465
0.447739 0.416092 0.087189
0.927849 0.483975 0.086952
0.932586 0.479766 0.102158
0.056045 0.607834 0.178329
0.053702 0.599603 0.181324
0.207619 0.643353 0.105351
0.884622 0.732801 0.162788
0.986367 0.722747 0.144295
0.062866 0.625275 0.167999
0.062866 0.625275 0.167999
0.117203 0.652816 0.127014
0.734985 0.788429 0.187027
0.987183 0.800323 0.176575
0.001313 0.035050 0.364762
0.241894 0.053871 0.411159
0.577793 0.185749 0.234528
0.750332 0.314468 0.260187
0.753502 0.316124 0.257400
0.000000 0.219909 0.320858
0.052111 0.186806 0.269444
0.617206 0.284365 0.214720
0.805044 0.384546 0.294026
0.801361 0.374598 0.283697
0.008087 0.376514 0.183582
0.010424 0.359628 0.153172
0.439808 0.409517 0.086056
0.925037 0.478169 0.086309
0.931214 0.475647 0.102913
0.055225 0.605059 0.179430
0.052975 0.596955 0.182520
0.197881 0.638671 0.105144
0.878334 0.729031 0.162150
0.985847 0.718607 0.142689
0.062866 0.625275 0.167999
0.062866 0.625275 0.167999
0.112793 0.651752 0.128868
0.726814 0.787342 0.186069
0.987183 0.800323 0.176575
0.023392 0.130722 0.546677
0.103298 0.168415 0.699516
0.477020 0.165336 0.731079
0.788548 0.206444 0.667721
0.789795 0.214172 0.640945
0.000382 0.266876 0.669430
0.001044 0.253202 0.657451
0.420694 0.215029 0.680840
0.799700 0.269567 0.538621
0.792664 0.262375 0.509075
0.000000 0.478409 0.609878
0.000000 0.465000 0.591799
0.208073 0.444264 0.545929
0.867449 0.572819 0.501844
0.867729 0.577805 0.508393
0.021282 0.653595 0.410621
0.021190 0.644092 0.401337
0.068546 0.661610 0.297342
0.844242 0.752189 0.294186
0.991444 0.743835 0.271065
0.043655 0.651764 0.301513
0.045776 0.648792 0.286690
0.088608 0.670257 0.215508
0.703156 0.793038 0.210960
0.989303 0.809403 0.188721
0.034393 0.150574 0.611786
0.110848 0.202947 0.751490
0.348904 0.205426 0.778911
0.681152 0.213440 0.814209
0.681152 0.213440 0.814209
0.004049 0.265949 0.741834
0.025402 0.248644 0.747034
0.218717 0.224494 0.772260
0.688643 0.223661 0.818078
0.685450 0.218876 0.816309
0.000000 0.454292 0.756920
0.000000 0.441400 0.752797
0.000338 0.395102 0.780035
0.690039 0.383364 0.864717
0.738915 0.379829 0.866798
0.000000 0.681044 0.828583
0.000000 0.676167 0.824354
0.000000 0.728567 0.846987
0.619136 0.824295 0.883651
0.901827 0.859138 0.865324
0.000000 0.754448 0.819153
0.000000 0.756960 0.806558
0.000000 0.769630 0.759941
0.393816 0.831402 0.625801
0.953628 0.913750 0.659690
0.034393 0.150574 0.611786
0.110321 0.202965 0.751404
0.340195 0.205307 0.777832
0.681152 0.213440 0.814209
0.681152 0.213440 0.814209
0.005814 0.262642 0.742309
0.029510 0.245932 0.747211
0.209782 0.222603 0.770622
0.687435 0.221851 0.817402
0.684174 0.217308 0.815697
0.000000 0.449692 0.755448
0.000000 0.436295 0.751229
0.000588 0.389511 0.778618
0.670811 0.374287 0.860947
0.723892 0.363922 0.861893
0.000000 0.668861 0.823120
0.000000 0.655491 0.816612
0.000000 0.686798 0.841591
0.559027 0.768850 0.943596
0.841445 0.756249 0.954384
0.000000 0.722046 0.844696
0.000000 0.722046 0.844696
0.000000 0.736206 0.853653
0.042656 0.850021 0.937241
0.986786 0.987305 0.983307
