nova/tdt-studio/app/Lut_mau/IWLTBAP/1 - LUTs by IWLTBAP (CUBE)/02 - Generic LOG/Cinematic/C-9730-LOG.cube
# Copyright: (C) Copyright 2010-2019 by IWLTBAP SAS
# Cannot be resold, shared or otherwise redistributed
# Website: https://luts.iwltbap.com
TITLE "IWLTBAP 9730 (LOG)"
LUT_3D_SIZE 9
0.003662 0.007874 0.000000
0.030057 0.010925 0.000000
0.088863 0.020164 0.000000
0.221416 0.021277 0.000000
0.480868 0.080384 0.000000
0.603721 0.139771 0.000000
0.638121 0.173506 0.000000
0.666637 0.198890 0.000000
0.692810 0.221405 0.000000
0.003043 0.031943 0.000000
0.018020 0.034070 0.000000
0.083670 0.032847 0.000000
0.210046 0.031549 0.000000
0.473281 0.089983 0.000058
0.611789 0.162353 0.000000
0.637487 0.188167 0.000000
0.665228 0.208766 0.000000
0.691560 0.231207 0.000000
0.000508 0.089347 0.000018
0.000378 0.087305 0.000000
0.075341 0.076999 0.000000
0.182631 0.079278 0.000000
0.452842 0.104884 0.001491
0.615569 0.190608 0.000391
0.645229 0.217164 0.000000
0.662566 0.230278 0.000000
0.686825 0.248146 0.000000
0.000000 0.220459 0.065761
0.000025 0.218467 0.055583
0.004856 0.236655 0.003750
0.194599 0.199469 0.000082
0.359545 0.207534 0.007149
0.581531 0.253019 0.015011
0.652445 0.278132 0.005019
0.692237 0.287228 0.000175
0.722286 0.309471 0.004871
0.085353 0.455116 0.248092
0.081162 0.449080 0.238573
0.074776 0.437591 0.215872
0.180664 0.439064 0.032655
0.460672 0.377478 0.037360
0.612556 0.394722 0.032142
0.707231 0.430760 0.019155
0.745654 0.454605 0.033726
0.771228 0.476834 0.070066
0.180889 0.583974 0.347073
0.182117 0.582623 0.347889
0.183445 0.581787 0.345674
0.216193 0.596097 0.361474
0.502870 0.600901 0.048665
0.675212 0.594839 0.046588
0.757575 0.600669 0.139357
0.773775 0.588673 0.219191
0.791732 0.590356 0.257676
0.203696 0.620986 0.389581
0.207976 0.619753 0.393696
0.214450 0.619891 0.399876
0.252173 0.641806 0.439399
0.537420 0.715168 0.302346
0.690471 0.706628 0.218006
0.746957 0.689265 0.316843
0.786855 0.683485 0.349721
0.813087 0.693949 0.361661
0.235376 0.648714 0.437514
0.239660 0.649691 0.440412
0.245604 0.651381 0.446009
0.281333 0.670727 0.480988
0.546136 0.742235 0.369513
0.690555 0.734276 0.333041
0.749754 0.746794 0.363137
0.798967 0.751116 0.383642
0.830101 0.754153 0.401653
0.264954 0.675781 0.477753
0.269855 0.676865 0.480036
0.276108 0.678599 0.484775
0.309604 0.695866 0.514376
0.563403 0.766283 0.409431
0.702578 0.757497 0.369804
0.756874 0.776412 0.384181
0.802051 0.786423 0.403556
0.828522 0.792328 0.431885
0.004835 0.010902 0.000000
0.030548 0.009856 0.000000
0.096171 0.011468 0.000000
0.223045 0.022714 0.000000
0.491259 0.077148 0.000000
0.604930 0.131394 0.000000
0.636887 0.165501 0.000000
0.664756 0.189804 0.000000
0.692251 0.221279 0.000000
0.005437 0.041266 0.000000
0.009298 0.038041 0.000095
0.094421 0.025840 0.000000
0.218448 0.022895 0.000000
0.475127 0.080797 0.000000
0.614426 0.152821 0.000000
0.639138 0.178018 0.000000
0.664630 0.200856 0.000000
0.691377 0.230167 0.000000
0.001769 0.097483 0.013245
0.000943 0.096383 0.005405
0.062331 0.091553 0.000635
0.191175 0.071576 0.000000
0.458149 0.093495 0.000576
0.621572 0.181059 0.000000
0.649863 0.207138 0.000000
0.666436 0.220249 0.000000
0.687685 0.246007 0.000000
0.000000 0.228714 0.096241
0.000004 0.226260 0.079814
0.002933 0.237610 0.044340
0.189426 0.208749 0.000232
0.379643 0.207433 0.008513
0.599498 0.250821 0.012070
0.672984 0.270905 0.000298
0.700889 0.285545 0.001622
0.723761 0.307279 0.013286
0.090143 0.461643 0.265188
0.085728 0.455788 0.254753
0.076762 0.444596 0.233390
0.153430 0.462431 0.076349
0.480980 0.405050 0.038897
0.638178 0.411286 0.028886
0.722950 0.441053 0.030267
0.750267 0.457248 0.057929
0.763701 0.472763 0.108667
0.185495 0.591157 0.357972
0.187193 0.589311 0.359402
0.187849 0.587196 0.358132
0.218407 0.600502 0.390643
0.513542 0.629902 0.070208
0.679394 0.608371 0.066268
0.747355 0.591268 0.190861
0.764641 0.582204 0.252490
0.783080 0.584886 0.287401
0.211672 0.627268 0.404770
0.216650 0.626154 0.409121
0.222008 0.626764 0.415172
0.257582 0.646472 0.453887
0.514026 0.708296 0.360556
0.686184 0.703383 0.263174
0.743327 0.686105 0.342033
0.784419 0.682010 0.368337
0.811553 0.692047 0.379093
0.243134 0.656223 0.452822
0.247606 0.657386 0.455826
0.254217 0.658762 0.460518
0.288051 0.676610 0.494227
0.529205 0.734424 0.429774
0.693201 0.731742 0.348173
0.748584 0.746917 0.380044
0.797587 0.750443 0.400235
0.826497 0.753888 0.421567
0.273117 0.682718 0.491342
0.278448 0.683854 0.493232
0.284471 0.685349 0.497740
0.317281 0.702192 0.527538
0.550906 0.765714 0.459151
0.704587 0.759060 0.388411
0.756465 0.778021 0.396797
0.800444 0.786985 0.422360
0.826872 0.792413 0.450834
0.005599 0.028710 0.037427
0.022531 0.020356 0.039188
0.091951 0.021063 0.022145
0.229446 0.025876 0.001235
0.505454 0.073363 0.000055
0.609872 0.126773 0.000000
0.636354 0.155976 0.000000
0.664622 0.186080 0.000000
0.691103 0.223574 0.000000
0.008085 0.079716 0.039627
0.006197 0.052047 0.059689
0.090211 0.033786 0.033429
0.233666 0.025735 0.000680
0.492238 0.074411 0.000000
0.620305 0.147638 0.000000
0.639157 0.168706 0.000000
0.664491 0.195334 0.000000
0.690373 0.230047 0.000094
0.000627 0.134466 0.068402
0.001209 0.130989 0.078652
0.018005 0.128472 0.103085
0.222566 0.068916 0.002446
0.474604 0.076903 0.000002
0.630177 0.171208 0.000000
0.654317 0.195307 0.000000
0.669234 0.214772 0.000000
0.688089 0.245542 0.002175
0.000000 0.238651 0.179534
0.000000 0.239413 0.165235
0.000314 0.246867 0.133737
0.183553 0.219659 0.038748
0.442352 0.192201 0.013577
0.628074 0.241774 0.005940
0.685942 0.267978 0.002318
0.706641 0.285562 0.009975
0.724489 0.307078 0.032224
0.103177 0.478305 0.308981
0.100989 0.474509 0.298566
0.094982 0.468045 0.276896
0.144306 0.483404 0.216377
0.501547 0.461741 0.038993
0.691393 0.450711 0.039051
0.745770 0.458308 0.109071
0.750077 0.460687 0.168767
0.751223 0.469320 0.228624
0.197441 0.609027 0.384981
0.198561 0.607363 0.383800
0.199193 0.604493 0.382351
0.224705 0.611505 0.421393
0.484952 0.648344 0.225139
0.695841 0.636596 0.184064
0.738356 0.579805 0.300251
0.757085 0.575940 0.322552
0.774763 0.581273 0.342067
0.230899 0.643881 0.439265
0.234398 0.644228 0.442050
0.239121 0.644521 0.446402
0.271576 0.660805 0.483038
0.481132 0.711464 0.428051
0.693188 0.706321 0.336587
0.741891 0.687476 0.379071
0.781804 0.684786 0.402048
0.808721 0.695897 0.411971
0.264776 0.674562 0.485917
0.269064 0.674959 0.489027
0.275030 0.675836 0.492872
0.305098 0.691334 0.522693
0.503136 0.743015 0.498085
0.700335 0.736201 0.386459
0.751404 0.750304 0.406315
0.795629 0.754927 0.436163
0.825297 0.759465 0.460604
0.295551 0.700175 0.522710
0.299468 0.700889 0.524683
0.304268 0.701905 0.528137
0.336970 0.716271 0.555394
0.533559 0.773112 0.539302
0.709023 0.762223 0.421424
0.760046 0.782825 0.421652
0.800537 0.791736 0.459186
0.827736 0.798360 0.487429
0.002279 0.095368 0.178787
0.021564 0.077732 0.179303
0.078491 0.073363 0.151494
0.193844 0.060105 0.104453
0.496381 0.076284 0.031677
0.621944 0.112557 0.000216
0.642247 0.155347 0.001913
0.668038 0.201141 0.012967
0.688247 0.239857 0.049206
0.000015 0.178750 0.161705
0.004131 0.117212 0.180749
0.053176 0.080378 0.181980
0.180781 0.063076 0.111639
0.503050 0.076837 0.028195
0.634818 0.139062 0.001231
0.646761 0.173559 0.004038
0.668161 0.210886 0.018464
0.685999 0.248948 0.057797
0.000000 0.209549 0.182406
0.000000 0.206797 0.182215
0.013227 0.157777 0.221725
0.170361 0.108119 0.175018
0.499798 0.082632 0.034704
0.653022 0.182262 0.010354
0.665965 0.214626 0.021373
0.672263 0.234681 0.039818
0.684439 0.264116 0.080851
0.013214 0.297750 0.282995
0.010326 0.294206 0.273837
0.007305 0.287664 0.266098
0.087241 0.265419 0.283701
0.493004 0.232992 0.182254
0.634293 0.277538 0.164210
0.694340 0.303233 0.137071
0.704096 0.314431 0.156109
0.707355 0.329087 0.195065
0.133901 0.517610 0.408216
0.130257 0.512638 0.399677
0.124111 0.504815 0.379929
0.143796 0.516928 0.367770
0.475387 0.488398 0.280299
0.673094 0.483062 0.325490
0.731595 0.477205 0.344653
0.751101 0.480572 0.356744
0.770925 0.488297 0.371075
0.229663 0.640107 0.502552
0.232691 0.641072 0.492364
0.235931 0.641228 0.475902
0.265015 0.655577 0.486576
0.455438 0.659793 0.463587
0.702415 0.660179 0.390915
0.766446 0.630177 0.421737
0.791311 0.630228 0.432009
0.812197 0.637270 0.445098
0.271930 0.679540 0.547604
0.276961 0.681764 0.538615
0.282983 0.684176 0.526769
0.312652 0.698713 0.543893
0.463625 0.730923 0.572582
0.705129 0.748970 0.450440
0.776430 0.745299 0.462028
0.819794 0.732672 0.494635
0.839550 0.738496 0.513043
0.310619 0.712549 0.578913
0.314728 0.713951 0.572078
0.320014 0.715492 0.562337
0.347503 0.726948 0.582192
0.492879 0.770193 0.603174
0.714132 0.777689 0.495045
0.780069 0.801074 0.485532
0.816391 0.797331 0.526111
0.847370 0.792904 0.551657
0.340592 0.738119 0.604050
0.344882 0.739503 0.597651
0.349490 0.740243 0.592876
0.379623 0.753585 0.614688
0.531716 0.803328 0.626760
0.718968 0.800843 0.536486
0.786906 0.821530 0.506604
0.819519 0.825257 0.542376
0.843668 0.827526 0.567910
0.046065 0.100825 0.428994
0.072665 0.076954 0.417332
0.100873 0.081555 0.361089
0.185838 0.090440 0.325515
0.406913 0.140861 0.228559
0.586291 0.244445 0.259446
0.627087 0.263392 0.273776
0.653307 0.281597 0.294539
0.677627 0.303237 0.313860
0.032156 0.211756 0.389624
0.048044 0.114072 0.436285
0.095538 0.079258 0.403722
0.165679 0.086938 0.353079
0.386891 0.147123 0.237416
0.586943 0.250357 0.264004
0.629740 0.270321 0.279531
0.655759 0.288281 0.295577
0.680055 0.310727 0.319349
0.020324 0.304546 0.353159
0.011566 0.281180 0.362048
0.052095 0.146783 0.466275
0.168430 0.085998 0.416446
0.378017 0.162387 0.268641
0.588537 0.262502 0.281470
0.644236 0.290182 0.303392
0.664734 0.306760 0.315907
0.685312 0.326563 0.335843
0.087021 0.435948 0.430054
0.085110 0.429784 0.424230
0.079600 0.411406 0.426139
0.142793 0.293725 0.487740
0.466109 0.284854 0.403878
0.626946 0.326765 0.363111
0.701863 0.362496 0.381687
0.719203 0.374886 0.388423
0.729851 0.385727 0.396973
0.187652 0.589154 0.558481
0.184970 0.585408 0.550550
0.178562 0.576896 0.536228
0.200223 0.584214 0.531513
0.445043 0.544691 0.546942
0.690818 0.524940 0.509737
0.756131 0.496994 0.509304
0.778792 0.508337 0.513470
0.802787 0.526597 0.524051
0.310985 0.709635 0.666419
0.312821 0.708683 0.659496
0.313004 0.705800 0.646520
0.342656 0.715545 0.633714
0.488269 0.737024 0.649719
0.705450 0.697996 0.578194
0.785751 0.704263 0.600443
0.816406 0.708668 0.614567
0.844131 0.714724 0.626521
0.355939 0.745964 0.702815
0.358885 0.745704 0.698036
0.361720 0.744668 0.688707
0.389698 0.758667 0.682743
0.525127 0.815752 0.712449
0.709852 0.815864 0.673773
0.788893 0.824531 0.631371
0.838757 0.821118 0.656895
0.869250 0.820531 0.674020
0.387205 0.776754 0.730918
0.389796 0.776316 0.727048
0.392713 0.775146 0.719653
0.417334 0.790183 0.716108
0.533959 0.844837 0.739521
0.717032 0.850180 0.699167
0.797158 0.861679 0.681292
0.848711 0.867658 0.680496
0.883103 0.864005 0.699960
0.410415 0.800795 0.754989
0.412829 0.800879 0.751810
0.415275 0.800192 0.745074
0.440532 0.817508 0.743936
0.552820 0.863155 0.759707
0.723749 0.868480 0.718086
0.809646 0.876664 0.694170
0.857117 0.884507 0.699488
0.883093 0.888371 0.711512
0.067714 0.154604 0.647100
0.095717 0.107422 0.651221
0.159265 0.099953 0.580494
0.266533 0.100727 0.518667
0.531838 0.203357 0.456001
0.655894 0.319237 0.463791
0.681896 0.343943 0.482214
0.701875 0.360105 0.502997
0.721521 0.375217 0.519434
0.040930 0.261376 0.599961
0.079944 0.189072 0.644722
0.135881 0.112116 0.636569
0.264272 0.108003 0.531513
0.526002 0.210452 0.466193
0.654022 0.329339 0.471206
0.681822 0.356279 0.490986
0.701983 0.371641 0.510084
0.722231 0.384953 0.524395
0.073641 0.384018 0.575792
0.058085 0.342990 0.582056
0.109068 0.252388 0.631490
0.276251 0.162670 0.596806
0.519830 0.226726 0.491232
0.653520 0.344319 0.486148
0.685446 0.373342 0.506113
0.704780 0.387341 0.522128
0.724931 0.399598 0.534356
0.136001 0.539986 0.610300
0.133910 0.534158 0.605560
0.141997 0.513589 0.610256
0.268179 0.394162 0.649561
0.564359 0.340840 0.599347
0.662111 0.394912 0.527421
0.696681 0.412270 0.537500
0.715456 0.420700 0.547422
0.736365 0.431898 0.557219
0.291215 0.684410 0.710138
0.288434 0.679676 0.703006
0.282301 0.669402 0.688539
0.319118 0.661692 0.670046
0.529873 0.603211 0.702555
0.718259 0.560384 0.640073
0.756620 0.546596 0.613310
0.781507 0.546787 0.609529
0.816391 0.562861 0.620488
0.405547 0.792315 0.804582
0.407167 0.791590 0.801344
0.406913 0.787677 0.792111
0.425574 0.794811 0.787732
0.517998 0.814844 0.799751
0.704059 0.780003 0.774864
0.801586 0.775004 0.740895
0.836864 0.778842 0.749728
0.870407 0.777066 0.758915
0.429904 0.823136 0.837214
0.431297 0.823284 0.836341
0.434014 0.823867 0.833201
0.458117 0.838594 0.833841
0.545098 0.875185 0.858759
0.679330 0.886390 0.861607
0.792778 0.864270 0.816125
0.857252 0.867522 0.808006
0.886048 0.869391 0.820834
0.452777 0.846881 0.862054
0.454895 0.847506 0.861684
0.459232 0.849376 0.860864
0.487315 0.863274 0.863251
0.566596 0.891000 0.882535
0.693029 0.907829 0.884849
0.798242 0.899859 0.851667
0.859224 0.903280 0.834815
0.895090 0.915051 0.843389
0.480077 0.867282 0.884472
0.482345 0.867908 0.883676
0.486734 0.869339 0.882472
0.516075 0.881059 0.884249
0.589234 0.902708 0.899169
0.708299 0.918826 0.897660
0.808672 0.917435 0.873607
0.875752 0.920638 0.854810
0.903393 0.929081 0.852302
0.152188 0.274164 0.757698
0.190553 0.204809 0.780449
0.272367 0.182397 0.742989
0.431497 0.209126 0.688797
0.640342 0.297478 0.611169
0.715614 0.368070 0.586058
0.735458 0.384003 0.581342
0.751671 0.393332 0.588444
0.768515 0.403350 0.602390
0.125738 0.359685 0.711532
0.177089 0.308224 0.741459
0.262306 0.219348 0.766568
0.428353 0.224364 0.707487
0.643274 0.307326 0.620747
0.717216 0.374671 0.592221
0.737416 0.393600 0.587387
0.753596 0.403649 0.595244
0.770634 0.413896 0.610377
0.170714 0.455522 0.749003
0.183390 0.423424 0.749683
0.239579 0.354019 0.742874
0.415296 0.278319 0.757482
0.644288 0.323983 0.642355
0.720156 0.384175 0.604835
0.743325 0.405482 0.599977
0.758984 0.418459 0.609295
0.775700 0.430423 0.626000
0.232107 0.617928 0.707725
0.236504 0.612438 0.706010
0.268132 0.585994 0.712125
0.384211 0.452521 0.789537
0.632050 0.377033 0.723949
0.722371 0.417276 0.640373
0.752998 0.439329 0.633659
0.769009 0.453692 0.642149
0.786295 0.470802 0.659407
0.355904 0.728690 0.774518
0.356972 0.726409 0.771028
0.360399 0.721747 0.765134
0.399732 0.724516 0.770567
0.581414 0.648414 0.834364
0.762299 0.576937 0.757947
0.796430 0.594905 0.723924
0.809465 0.600460 0.727761
0.827734 0.614871 0.738301
0.434234 0.825892 0.853168
0.435833 0.826065 0.852806
0.438389 0.826590 0.852058
0.466423 0.843020 0.864717
0.557064 0.869922 0.888720
0.708616 0.830491 0.873998
0.823892 0.799822 0.851436
0.859049 0.812020 0.850913
0.883613 0.817622 0.850596
0.460460 0.851851 0.877138
0.463455 0.852734 0.877768
0.468962 0.855160 0.879303
0.503168 0.872691 0.889940
0.604596 0.905186 0.920463
0.708904 0.921528 0.936958
0.799208 0.908098 0.935569
0.868992 0.902456 0.908794
0.901291 0.907370 0.910140
0.491897 0.873475 0.898619
0.495025 0.874425 0.898781
0.501809 0.877047 0.899431
0.537708 0.890466 0.907299
0.630648 0.916504 0.931874
0.726882 0.934718 0.950901
0.810224 0.936083 0.956638
0.871493 0.937021 0.952300
0.907043 0.941508 0.945805
0.526336 0.892220 0.913690
0.530687 0.892756 0.913314
0.538013 0.894300 0.913745
0.573185 0.903990 0.921121
0.656059 0.925989 0.940843
0.744934 0.942466 0.958763
0.826965 0.943991 0.959307
0.884534 0.947982 0.956213
0.914608 0.954005 0.958705
0.240299 0.335031 0.820800
0.279187 0.262404 0.838308
0.394460 0.242582 0.816103
0.523416 0.276405 0.794205
0.675206 0.342639 0.688426
0.741690 0.379964 0.649795
0.762530 0.397575 0.643006
0.779738 0.411362 0.650343
0.798264 0.425579 0.665112
0.228237 0.402908 0.810657
0.264156 0.362542 0.809095
0.368187 0.272312 0.827551
0.519993 0.285561 0.804656
0.676387 0.347698 0.698848
0.745536 0.385507 0.664134
0.767959 0.408689 0.654066
0.785302 0.424266 0.660941
0.803971 0.437316 0.677152
0.246235 0.490773 0.811593
0.268921 0.460132 0.823803
0.334737 0.397623 0.824656
0.500405 0.317662 0.839930
0.676606 0.355915 0.715862
0.750449 0.393405 0.684556
0.776349 0.421710 0.674352
0.794009 0.441151 0.681013
0.812590 0.456281 0.697610
0.282508 0.646195 0.739301
0.287989 0.641202 0.738417
0.323984 0.617463 0.750069
0.448550 0.489265 0.869671
0.660440 0.398130 0.806579
0.760997 0.420599 0.736122
0.793267 0.459262 0.716925
0.810775 0.477520 0.719726
0.829712 0.493791 0.734422
0.387019 0.756841 0.810927
0.387419 0.754421 0.808271
0.389756 0.749894 0.803520
0.425015 0.753866 0.815160
0.612713 0.691910 0.885297
0.788615 0.590839 0.833780
0.830459 0.612683 0.790486
0.845069 0.621936 0.788534
0.862671 0.636272 0.800396
0.463087 0.852530 0.887032
0.465021 0.852972 0.886757
0.467696 0.853353 0.886048
0.500139 0.867580 0.895398
0.588073 0.889229 0.916077
0.730780 0.855383 0.914673
0.860479 0.807918 0.894526
0.890136 0.806257 0.898671
0.910316 0.811212 0.905865
0.495191 0.874469 0.906167
0.498845 0.875636 0.906288
0.505676 0.878380 0.906672
0.543793 0.891296 0.914271
0.637001 0.917105 0.937145
0.735148 0.933851 0.955353
0.832058 0.922298 0.955322
0.890133 0.916421 0.956469
0.917401 0.921142 0.957240
0.534135 0.894244 0.920964
0.538782 0.894737 0.920651
0.546562 0.896091 0.920922
0.581567 0.905387 0.927437
0.662197 0.926781 0.946074
0.754131 0.942991 0.963136
0.841815 0.945758 0.970595
0.886203 0.949576 0.977103
0.917822 0.952441 0.978296
0.572097 0.907505 0.932377
0.575897 0.907984 0.932452
0.582698 0.909241 0.933080
0.614023 0.916954 0.938505
0.686830 0.934844 0.953531
0.771367 0.949797 0.969481
0.855745 0.954010 0.975827
0.895113 0.960570 0.983864
0.917237 0.964553 0.988524
0.266479 0.351990 0.839172
0.311795 0.280004 0.858085
0.442154 0.263745 0.849283
0.561976 0.299803 0.839776
0.688462 0.356544 0.729043
0.758213 0.389875 0.688476
0.780079 0.409072 0.684558
0.798296 0.422765 0.693243
0.817291 0.436157 0.710602
0.254954 0.411944 0.836694
0.291497 0.378579 0.829059
0.410256 0.291729 0.853293
0.558659 0.306724 0.847311
0.689803 0.361859 0.742503
0.762267 0.394918 0.706357
0.785759 0.418808 0.698737
0.804157 0.433995 0.706764
0.822167 0.448177 0.723026
0.267719 0.503412 0.825752
0.290753 0.472442 0.839532
0.362645 0.411353 0.847495
0.542324 0.334483 0.871381
0.689867 0.370032 0.761786
0.769027 0.401709 0.737592
0.796378 0.429304 0.729440
0.814300 0.449654 0.732709
0.832735 0.466407 0.744667
0.301239 0.656343 0.751562
0.306473 0.651490 0.750655
0.341927 0.628786 0.762942
0.470192 0.502919 0.890244
0.674669 0.413907 0.851480
0.784479 0.429372 0.798945
0.819175 0.466025 0.775749
0.837525 0.484902 0.775266
0.857148 0.502257 0.786592
0.399057 0.769165 0.825373
0.399331 0.766629 0.822854
0.401044 0.761988 0.818727
0.434179 0.764981 0.831896
0.625384 0.706492 0.896001
0.805664 0.605021 0.867844
0.854060 0.623702 0.830871
0.869954 0.635321 0.827548
0.886813 0.653863 0.834955
0.476224 0.862843 0.899231
0.478130 0.863109 0.898927
0.481151 0.863683 0.898139
0.516148 0.876764 0.905842
0.601456 0.895836 0.924036
0.739980 0.863050 0.925349
0.878122 0.813464 0.912434
0.910454 0.811762 0.914950
0.926276 0.817199 0.922392
0.511426 0.883599 0.915794
0.515366 0.884876 0.915679
0.522319 0.887203 0.916071
0.561809 0.898149 0.922609
0.649833 0.921585 0.943031
0.744097 0.937258 0.959951
0.841841 0.926251 0.960195
0.898574 0.919096 0.965892
0.924570 0.921342 0.969060
0.552604 0.900838 0.928939
0.557087 0.901345 0.928574
0.564699 0.902704 0.928846
0.598918 0.911179 0.934721
0.674778 0.930673 0.951281
0.763069 0.945922 0.967089
0.850966 0.948392 0.973307
0.893530 0.953443 0.981649
0.923903 0.956071 0.985572
0.589905 0.913055 0.939209
0.593584 0.913509 0.939290
0.600200 0.914675 0.939741
0.629266 0.921578 0.944695
0.698538 0.938040 0.958012
0.780184 0.952291 0.972985
0.863448 0.956632 0.978804
0.901616 0.963064 0.987773
0.923248 0.966522 0.992981
