nova/tdt-studio/app/Lut_mau/IWLTBAP/1 - LUTs by IWLTBAP (CUBE)/02 - Generic LOG/Cinematic/C-9730-LOG.cube
# Copyright: (C) Copyright 2010-2019 by IWLTBAP SAS
# Cannot be resold, shared or otherwise redistributed
# Website: https://luts.iwltbap.com
TITLE "IWLTBAP 9730 (LOG)"
LUT_3D_SIZE 33
0.003662 0.007874 0.000000
0.008594 0.010006 0.000000
0.014398 0.011844 0.000000
0.021923 0.012015 0.000000
0.030057 0.010925 0.000000
0.041457 0.011956 0.000000
0.054957 0.015360 0.000000
0.070246 0.017744 0.000000
0.088863 0.020164 0.000000
0.113755 0.022185 0.000000
0.145091 0.019343 0.000000
0.179169 0.018502 0.000000
0.221416 0.021277 0.000000
0.280963 0.025639 0.000000
0.351504 0.038540 0.000000
0.418520 0.059843 0.000000
0.480868 0.080384 0.000000
0.534211 0.097396 0.000000
0.567933 0.112661 0.000000
0.588129 0.126882 0.000000
0.603721 0.139771 0.000000
0.614152 0.150336 0.000000
0.623031 0.159416 0.000000
0.630657 0.166564 0.000000
0.638121 0.173506 0.000000
0.645443 0.180182 0.000000
0.652613 0.186539 0.000000
0.659673 0.192752 0.000000
0.666637 0.198890 0.000000
0.673310 0.204670 0.000000
0.679743 0.210201 0.000000
0.686291 0.215817 0.000000
0.692810 0.221405 0.000000
0.003956 0.013345 0.000000
0.004594 0.013752 0.000000
0.010306 0.015804 0.000000
0.018990 0.016882 0.000000
0.028002 0.016196 0.000000
0.039815 0.015434 0.000000
0.053568 0.017797 0.000000
0.069003 0.020149 0.000000
0.087533 0.022667 0.000000
0.112066 0.025249 0.000000
0.143079 0.023974 0.000000
0.176746 0.022715 0.000000
0.219012 0.022901 0.000000
0.278183 0.026864 0.000000
0.348622 0.040385 0.000000
0.416336 0.061820 0.000000
0.479146 0.082817 0.000000
0.533688 0.100739 0.000000
0.569238 0.116874 0.000000
0.590098 0.131941 0.000000
0.605735 0.145381 0.000000
0.615720 0.155316 0.000000
0.623439 0.163466 0.000000
0.630062 0.169816 0.000000
0.637374 0.176555 0.000000
0.644857 0.182994 0.000000
0.652282 0.188972 0.000000
0.659432 0.195007 0.000000
0.666397 0.201159 0.000000
0.673072 0.207012 0.000000
0.679504 0.212574 0.000000
0.686052 0.218221 0.000000
0.692570 0.223807 0.000000
0.003811 0.019093 0.000000
0.004317 0.019275 0.000000
0.005373 0.020127 0.000000
0.013940 0.021301 0.000000
0.024894 0.021074 0.000000
0.037999 0.019866 0.000000
0.051917 0.020910 0.000000
0.067576 0.023066 0.000000
0.086188 0.025299 0.000000
0.110496 0.028158 0.000000
0.141172 0.028597 0.000000
0.174404 0.026954 0.000000
0.216477 0.024880 0.000000
0.275365 0.028265 0.000000
0.345624 0.042188 0.000000
0.414014 0.063796 0.000000
0.477260 0.085241 0.000000
0.532813 0.103909 0.000000
0.570315 0.120854 0.000000
0.592103 0.137046 0.000000
0.607854 0.151188 0.000000
0.617731 0.160706 0.000000
0.624859 0.168327 0.000000
0.629996 0.173507 0.000000
0.636731 0.179768 0.000000
0.644106 0.186023 0.000000
0.651698 0.191757 0.000000
0.659175 0.197350 0.000000
0.666183 0.203438 0.000000
0.672832 0.209298 0.000000
0.679266 0.214916 0.000000
0.685835 0.220593 0.000000
0.692330 0.226210 0.000000
0.003382 0.025340 0.000000
0.003476 0.025742 0.000000
0.004028 0.026357 0.000000
0.008941 0.027167 0.000000
0.020441 0.026971 0.000000
0.036165 0.025566 0.000000
0.050640 0.025059 0.000000
0.066336 0.026715 0.000000
0.084776 0.028488 0.000000
0.108907 0.031037 0.000000
0.139346 0.032690 0.000000
0.172190 0.031274 0.000000
0.213766 0.027438 0.000000
0.272450 0.029627 0.000000
0.342643 0.043803 0.000000
0.411614 0.065791 0.000000
0.475337 0.087552 0.000001
0.531616 0.106677 0.000001
0.570954 0.124502 0.000000
0.594037 0.141967 0.000000
0.609987 0.156818 0.000000
0.619859 0.166364 0.000000
0.626835 0.173670 0.000000
0.631338 0.178348 0.000000
0.636475 0.183334 0.000000
0.643435 0.189197 0.000000
0.650977 0.194779 0.000000
0.658593 0.200152 0.000000
0.665930 0.205754 0.000000
0.672606 0.211570 0.000000
0.679015 0.217216 0.000000
0.685561 0.222919 0.000000
0.692078 0.228567 0.000000
0.003043 0.031943 0.000000
0.002891 0.032416 0.000000
0.003044 0.033039 0.000000
0.006722 0.033854 0.000000
0.018020 0.034070 0.000000
0.035000 0.032571 0.000000
0.050229 0.031095 0.000000
0.065978 0.031318 0.000000
0.083670 0.032847 0.000000
0.107323 0.034795 0.000000
0.137424 0.036679 0.000000
0.169852 0.035816 0.000000
0.210046 0.031549 0.000000
0.268560 0.032253 0.000000
0.339135 0.045725 0.000000
0.408744 0.067851 0.000000
0.473281 0.089983 0.000058
0.530276 0.109573 0.000062
0.571182 0.128472 0.000000
0.595654 0.147146 0.000000
0.611789 0.162353 0.000000
0.621832 0.172187 0.000000
0.628767 0.179266 0.000000
0.633140 0.183804 0.000000
0.637487 0.188167 0.000000
0.642929 0.192929 0.000000
0.650087 0.198212 0.000000
0.657716 0.203421 0.000000
0.665228 0.208766 0.000000
0.672072 0.214161 0.000000
0.678516 0.219770 0.000000
0.685063 0.225502 0.000000
0.691560 0.231207 0.000000
0.002676 0.041068 0.000000
0.002475 0.041321 0.000000
0.002329 0.041668 0.000000
0.003926 0.042702 0.000000
0.013089 0.043372 0.000000
0.031962 0.042670 0.000000
0.049281 0.040352 0.000000
0.065980 0.038794 0.000000
0.083239 0.039391 0.000000
0.105806 0.041038 0.000000
0.135018 0.042606 0.000000
0.166654 0.042146 0.000000
0.204603 0.038235 0.000000
0.262546 0.037333 0.000000
0.333764 0.048981 0.000000
0.404392 0.070546 0.000006
0.470502 0.093065 0.000293
0.528643 0.113297 0.000306
0.570951 0.133604 0.000000
0.596874 0.153613 0.000000
0.613394 0.168923 0.000000
0.623840 0.179228 0.000000
0.630849 0.186230 0.000000
0.635250 0.190709 0.000000
0.639409 0.194902 0.000000
0.643831 0.198931 0.000000
0.649293 0.203079 0.000000
0.656442 0.207959 0.000000
0.663946 0.213105 0.000000
0.670916 0.218185 0.000000
0.677502 0.223297 0.000000
0.684082 0.228942 0.000000
0.690573 0.234667 0.000000
0.002241 0.052589 0.000000
0.002036 0.052550 0.000000
0.001818 0.051902 0.000000
0.002226 0.052106 0.000000
0.006768 0.053365 0.000000
0.021696 0.054010 0.000000
0.045542 0.051272 0.000000
0.065663 0.048979 0.000000
0.083864 0.047907 0.000000
0.105561 0.048810 0.000000
0.132867 0.050489 0.000000
0.162421 0.051393 0.000000
0.198258 0.047701 0.000000
0.254901 0.044983 0.000000
0.326550 0.053643 0.000000
0.398644 0.073467 0.000001
0.466923 0.096268 0.000659
0.526732 0.117143 0.000699
0.570221 0.138865 0.000006
0.597481 0.160523 0.000009
0.614519 0.175962 0.000000
0.625432 0.186425 0.000000
0.632734 0.193563 0.000000
0.637239 0.198092 0.000000
0.641436 0.202274 0.000000
0.645638 0.206141 0.000000
0.650111 0.209652 0.000000
0.655484 0.213389 0.000000
0.662457 0.218179 0.000000
0.669351 0.223059 0.000000
0.676010 0.227910 0.000000
0.682665 0.233104 0.000000
0.689223 0.238574 0.000000
0.001846 0.068413 0.000000
0.001685 0.067860 0.000000
0.001604 0.067126 0.000000
0.001584 0.066597 0.000000
0.002387 0.066815 0.000000
0.009606 0.067592 0.000000
0.032386 0.064844 0.000000
0.061466 0.061482 0.000000
0.082767 0.060715 0.000000
0.105413 0.059950 0.000000
0.131802 0.060238 0.000000
0.158559 0.062581 0.000000
0.190035 0.062016 0.000000
0.242642 0.058285 0.000000
0.315839 0.061185 0.000000
0.391007 0.076811 0.000000
0.461813 0.099294 0.001017
0.524013 0.120745 0.001093
0.568741 0.143428 0.000049
0.597399 0.166903 0.000067
0.615389 0.183198 0.000032
0.626690 0.193531 0.000000
0.634409 0.200758 0.000000
0.639139 0.205481 0.000000
0.643394 0.209697 0.000000
0.647618 0.213537 0.000000
0.651914 0.216889 0.000000
0.656395 0.220088 0.000000
0.661521 0.223702 0.000000
0.667920 0.228265 0.000000
0.674450 0.232946 0.000000
0.681140 0.237861 0.000000
0.687790 0.242964 0.000000
0.000508 0.089347 0.000018
0.000485 0.088536 0.000001
0.000398 0.087832 0.000000
0.000371 0.087261 0.000000
0.000378 0.087305 0.000000
0.001719 0.087613 0.000000
0.011397 0.086313 0.000000
0.043961 0.080260 0.000000
0.075341 0.076999 0.000000
0.100704 0.078495 0.000000
0.128471 0.077374 0.000000
0.155878 0.076348 0.000000
0.182631 0.079278 0.000000
0.223668 0.079986 0.000000
0.294299 0.078798 0.000000
0.375999 0.086545 0.000000
0.452842 0.104884 0.001491
0.518821 0.125857 0.001798
0.565611 0.148898 0.000508
0.596054 0.173200 0.000589
0.615569 0.190608 0.000391
0.627548 0.200874 0.000012
0.635760 0.208150 0.000000
0.640924 0.212963 0.000000
0.645229 0.217164 0.000000
0.649485 0.220907 0.000000
0.653792 0.224099 0.000000
0.658129 0.227087 0.000000
0.662566 0.230278 0.000000
0.667684 0.234150 0.000000
0.673584 0.238496 0.000000
0.680152 0.243271 0.000000
0.686825 0.248146 0.000000
0.000026 0.116150 0.004426
0.000031 0.115311 0.003584
0.000002 0.114492 0.002721
0.000000 0.113820 0.001842
0.000000 0.113637 0.001184
0.000003 0.113876 0.000554
0.001561 0.114683 0.000085
0.014070 0.114318 0.000000
0.056150 0.103585 0.000000
0.092290 0.099218 0.000000
0.122928 0.101910 0.000000
0.154208 0.099817 0.000000
0.180520 0.099347 0.000000
0.210870 0.103704 0.000000
0.266386 0.106528 0.000000
0.346071 0.109931 0.000008
0.432969 0.120066 0.002143
0.508111 0.136034 0.003379
0.560263 0.156568 0.002001
0.593594 0.179844 0.001788
0.614933 0.198102 0.001494
0.628069 0.208656 0.000252
0.636857 0.215900 0.000004
0.642548 0.220779 0.000000
0.647009 0.224804 0.000000
0.651298 0.228480 0.000000
0.655618 0.231485 0.000000
0.659969 0.234261 0.000000
0.664359 0.237305 0.000000
0.669022 0.240914 0.000000
0.673978 0.244777 0.000000
0.679726 0.249161 0.000000
0.686184 0.253896 0.000000
0.000000 0.146710 0.018263
0.000000 0.145990 0.016799
0.000000 0.145373 0.015556
0.000000 0.144827 0.014277
0.000000 0.144517 0.012081
0.000000 0.144753 0.008709
0.000000 0.146109 0.003063
0.001408 0.148969 0.000414
0.022472 0.144787 0.000000
0.073072 0.132382 0.000000
0.119516 0.128818 0.000000
0.154561 0.130521 0.000000
0.183981 0.128054 0.000000
0.210205 0.128880 0.000000
0.248441 0.135134 0.000000
0.311765 0.141516 0.000054
0.396007 0.147286 0.002640
0.480641 0.156667 0.006286
0.545184 0.172878 0.006168
0.586533 0.193185 0.004689
0.612136 0.210147 0.004218
0.627932 0.219722 0.002040
0.637676 0.225283 0.000513
0.643944 0.229576 0.000051
0.648659 0.233265 0.000011
0.653354 0.236627 0.000000
0.657879 0.239466 0.000000
0.662224 0.242041 0.000000
0.666636 0.244890 0.000000
0.671474 0.248558 0.000000
0.676204 0.252302 0.000000
0.681250 0.256343 0.000000
0.686669 0.260559 0.000000
0.000000 0.179842 0.038312
0.000000 0.179250 0.035940
0.000000 0.178747 0.033968
0.000000 0.178223 0.032082
0.000000 0.177959 0.029110
0.000000 0.178415 0.022056
0.000000 0.180699 0.011761
0.000000 0.185131 0.002729
0.003589 0.189118 0.000197
0.036821 0.181809 0.000000
0.099226 0.167308 0.000000
0.153320 0.162385 0.000000
0.192251 0.162079 0.000000
0.223036 0.161105 0.000002
0.255465 0.164908 0.000077
0.299766 0.172219 0.000769
0.362494 0.178138 0.003761
0.439714 0.184832 0.009096
0.513119 0.196913 0.011768
0.566587 0.214015 0.010401
0.600135 0.230507 0.009306
0.621295 0.241355 0.007782
0.635495 0.246784 0.004777
0.644628 0.249259 0.002434
0.649930 0.250834 0.001361
0.655656 0.252625 0.000576
0.662413 0.254195 0.000133
0.669030 0.255738 0.000002
0.674414 0.258067 0.000000
0.680420 0.262362 0.000000
0.686151 0.266975 0.000000
0.692044 0.271870 0.000004
0.697448 0.276261 0.000135
0.000000 0.220459 0.065761
0.000000 0.219761 0.062807
0.000000 0.219232 0.060433
0.000002 0.218744 0.058259
0.000025 0.218467 0.055583
0.000130 0.219428 0.048396
0.000184 0.222751 0.035001
0.001500 0.228931 0.016812
0.004856 0.236655 0.003750
0.029194 0.236117 0.000234
0.077194 0.222604 0.000000
0.138421 0.206632 0.000000
0.194599 0.199469 0.000082
0.241450 0.197367 0.000952
0.278612 0.198077 0.002300
0.314462 0.202276 0.004077
0.359545 0.207534 0.007149
0.417256 0.213371 0.012080
0.480987 0.223371 0.016897
0.538376 0.237994 0.017444
0.581531 0.253019 0.015011
0.608970 0.265056 0.013883
0.627748 0.272462 0.011526
0.642563 0.276472 0.007885
0.652445 0.278132 0.005019
0.661896 0.279851 0.002779
0.672182 0.281957 0.001282
0.682925 0.284432 0.000431
0.692237 0.287228 0.000175
0.700405 0.292104 0.000552
0.707855 0.297537 0.001548
0.715268 0.303677 0.003069
0.722286 0.309471 0.004871
0.007635 0.271294 0.103680
0.008170 0.270745 0.100005
0.008576 0.270291 0.097038
0.008842 0.269831 0.094445
0.009002 0.269385 0.091929
0.009414 0.269532 0.087248
0.010902 0.271748 0.076315
0.014177 0.277224 0.056272
0.020557 0.286106 0.027727
0.042071 0.290247 0.007046
0.078651 0.280281 0.000952
0.130469 0.263437 0.000679
0.191618 0.248699 0.002198
0.252975 0.240962 0.005204
0.303639 0.236992 0.007892
0.342702 0.236034 0.009979
0.381066 0.238689 0.012900
0.426895 0.243519 0.017199
0.478042 0.251803 0.021810
0.528989 0.263678 0.022656
0.573191 0.276638 0.019687
0.604564 0.289256 0.018234
0.627091 0.299235 0.016280
0.645227 0.305708 0.012563
0.658310 0.309120 0.009041
0.669533 0.312243 0.006616
0.680937 0.316138 0.005162
0.692954 0.320466 0.004132
0.704447 0.324906 0.003632
0.713531 0.330612 0.005530
0.721693 0.336593 0.008171
0.729514 0.343115 0.011652
0.737284 0.349529 0.015222
0.025164 0.329195 0.150190
0.025839 0.328424 0.146333
0.026469 0.327736 0.142758
0.026765 0.326821 0.139692
0.026977 0.325854 0.136837
0.027282 0.324630 0.133171
0.028659 0.324137 0.126362
0.031619 0.325994 0.112822
0.037414 0.331411 0.086872
0.050774 0.339796 0.047685
0.079882 0.338755 0.016270
0.129509 0.322423 0.005839
0.188725 0.303893 0.007451
0.257044 0.292129 0.012156
0.321399 0.284588 0.015650
0.371872 0.278543 0.017897
0.412973 0.276470 0.020761
0.453324 0.279584 0.024591
0.496439 0.286473 0.027684
0.539516 0.296214 0.027131
0.578699 0.308199 0.024385
0.610080 0.321228 0.022818
0.634862 0.331902 0.020064
0.654335 0.338459 0.015964
0.668701 0.342217 0.012128
0.679305 0.345863 0.010363
0.689862 0.350917 0.010134
0.700835 0.356659 0.010455
0.711741 0.362748 0.011110
0.720614 0.369385 0.014564
0.728631 0.376092 0.018736
0.736225 0.383134 0.023900
0.743787 0.389972 0.029042
0.048488 0.394489 0.201197
0.048265 0.392955 0.197990
0.048117 0.391526 0.194777
0.047841 0.390010 0.191673
0.047608 0.388407 0.188724
0.047183 0.386174 0.185017
0.046905 0.383568 0.179951
0.047714 0.381744 0.171821
0.050489 0.381406 0.156902
0.056871 0.385383 0.123963
0.072250 0.391410 0.074930
0.116548 0.387672 0.030718
0.184153 0.364429 0.015630
0.261098 0.343131 0.019022
0.334180 0.334616 0.023642
0.394171 0.329251 0.026764
0.442744 0.323842 0.030036
0.483700 0.323735 0.033288
0.521308 0.329291 0.034240
0.558865 0.337505 0.031953
0.592927 0.348409 0.029453
0.621976 0.360407 0.027554
0.647230 0.370309 0.023576
0.668099 0.377235 0.018853
0.684355 0.382153 0.015271
0.695097 0.385932 0.014206
0.705097 0.391512 0.015541
0.715165 0.398467 0.017865
0.725092 0.405629 0.020377
0.733428 0.412378 0.025649
0.741062 0.419022 0.031889
0.748831 0.426498 0.039021
0.756581 0.434042 0.045932
0.085353 0.455116 0.248092
0.084353 0.453649 0.245888
0.083332 0.452170 0.243618
0.082279 0.450691 0.241083
0.081162 0.449080 0.238573
0.079457 0.446688 0.235232
0.077318 0.443686 0.231099
0.075453 0.440418 0.225281
0.074776 0.437591 0.215872
0.076818 0.436010 0.198171
0.084579 0.441408 0.151194
0.112733 0.452508 0.078910
0.180664 0.439064 0.032655
0.267165 0.406132 0.024607
0.350553 0.385798 0.029506
0.413245 0.381178 0.033770
0.460672 0.377478 0.037360
0.506201 0.373649 0.039970
0.547266 0.376280 0.038839
0.582356 0.384633 0.034969
0.612556 0.394722 0.032142
0.640246 0.405574 0.028569
0.667255 0.415266 0.022982
0.690003 0.423239 0.019194
0.707231 0.430760 0.019155
0.718872 0.435956 0.020243
0.727784 0.441087 0.023848
0.736689 0.447639 0.028648
0.745654 0.454605 0.033726
0.752233 0.460050 0.042292
0.758543 0.465381 0.051060
0.764838 0.471013 0.060671
0.771228 0.476834 0.070066
0.130445 0.501256 0.287492
0.129545 0.500266 0.285990
0.128606 0.499230 0.284393
0.127447 0.498118 0.282545
0.126144 0.496878 0.280645
0.124175 0.495036 0.277844
0.121664 0.492634 0.274370
0.118803 0.489551 0.269838
0.116533 0.486729 0.262688
0.116247 0.484791 0.250234
0.120982 0.488047 0.215638
0.138369 0.504983 0.142005
0.185771 0.515372 0.063413
0.265649 0.487527 0.029931
0.361844 0.450960 0.030358
0.433609 0.435394 0.035789
0.475566 0.432301 0.039396
0.516974 0.429397 0.041236
0.563054 0.428042 0.038999
0.601721 0.433921 0.034291
0.632276 0.444570 0.030764
0.662438 0.454998 0.026125
0.692637 0.464164 0.021706
0.716524 0.472449 0.022219
0.732503 0.480492 0.027736
0.743662 0.486407 0.033114
0.750753 0.490420 0.039471
0.757698 0.495223 0.047285
0.764870 0.500584 0.055675
0.768995 0.503634 0.068544
0.772590 0.506232 0.081931
0.775462 0.508276 0.096773
0.778625 0.510896 0.111135
0.162406 0.539419 0.319169
0.161829 0.538480 0.317918
0.161242 0.537580 0.316567
0.160520 0.536637 0.315047
0.159744 0.535581 0.313499
0.158612 0.534149 0.311240
0.157272 0.532255 0.308261
0.155572 0.529623 0.304487
0.153990 0.527031 0.298841
0.153651 0.525520 0.288756
0.155527 0.526793 0.271170
0.166990 0.539556 0.230564
0.197250 0.565650 0.143984
0.257197 0.563295 0.062158
0.350572 0.528643 0.032475
0.440300 0.498221 0.033637
0.494311 0.487146 0.037459
0.529588 0.486150 0.038729
0.570258 0.485493 0.036203
0.612780 0.487073 0.031941
0.649256 0.495143 0.028508
0.683182 0.504538 0.026005
0.713673 0.513077 0.027856
0.736304 0.521042 0.035528
0.750353 0.527355 0.046969
0.760309 0.531967 0.057577
0.765312 0.533602 0.069760
0.769264 0.535551 0.083125
0.773734 0.538447 0.095968
0.776825 0.539455 0.110576
0.778836 0.539438 0.127290
0.780132 0.538688 0.146000
0.781495 0.538565 0.164699
0.176214 0.567781 0.338108
0.176088 0.567007 0.337680
0.175749 0.566373 0.336805
0.175333 0.565714 0.335648
0.175038 0.564980 0.334583
0.174636 0.563986 0.333259
0.173897 0.562828 0.331124
0.173009 0.561216 0.328305
0.172431 0.559752 0.325276
0.173156 0.559711 0.319819
0.176157 0.560572 0.315343
0.183539 0.563359 0.316039
0.206844 0.584613 0.271787
0.254897 0.609481 0.161207
0.330959 0.598271 0.069545
0.425111 0.565133 0.038853
0.503569 0.543056 0.036355
0.549924 0.536426 0.036205
0.584117 0.537887 0.033964
0.623101 0.541577 0.032111
0.664018 0.546268 0.031643
0.699339 0.552604 0.034880
0.726771 0.560538 0.045331
0.746074 0.567282 0.062080
0.757828 0.570014 0.082790
0.765728 0.571227 0.101754
0.769706 0.570003 0.119983
0.771660 0.567878 0.138632
0.773855 0.567017 0.157363
0.777236 0.566826 0.171007
0.780377 0.566496 0.184684
0.783514 0.565783 0.198523
0.786179 0.564782 0.213898
0.180889 0.583974 0.347073
0.181468 0.583470 0.347853
0.181749 0.583118 0.348147
0.181795 0.582870 0.347877
0.182117 0.582623 0.347889
0.182708 0.582321 0.348029
0.183030 0.582155 0.347654
0.182905 0.582006 0.346327
0.183445 0.581787 0.345674
0.185075 0.582732 0.345882
0.190350 0.584560 0.350261
0.199723 0.587979 0.358310
0.216193 0.596097 0.361474
0.259279 0.625492 0.291507
0.329691 0.643954 0.168102
0.415726 0.627916 0.079972
0.502870 0.600901 0.048665
0.567659 0.583022 0.040289
0.605984 0.578995 0.037138
0.638624 0.586859 0.039619
0.675212 0.594839 0.046588
0.708933 0.598052 0.059085
0.733504 0.601536 0.079631
0.748751 0.603382 0.108115
0.757575 0.600669 0.139357
0.762895 0.596981 0.166286
0.767803 0.594494 0.185441
0.771245 0.591576 0.200996
0.773775 0.588673 0.219191
0.777677 0.588269 0.231257
0.782012 0.588720 0.241020
0.787029 0.589786 0.248752
0.791732 0.590356 0.257676
0.184383 0.596654 0.354890
0.185248 0.596353 0.356050
0.185982 0.596104 0.357210
0.186562 0.595951 0.358004
0.187315 0.595899 0.358877
0.188486 0.595989 0.360018
0.190105 0.596129 0.361717
0.191261 0.596446 0.362607
0.193038 0.596762 0.364103
0.196244 0.597890 0.367040
0.202504 0.600523 0.374722
0.212669 0.605586 0.385626
0.229124 0.613744 0.395481
0.265906 0.631602 0.373115
0.339326 0.661964 0.283786
0.428098 0.673380 0.169472
0.510882 0.654872 0.096377
0.580219 0.629882 0.065346
0.626104 0.618517 0.054168
0.655202 0.625010 0.059001
0.682695 0.635809 0.074978
0.709856 0.639254 0.099362
0.731665 0.635594 0.131705
0.745048 0.628157 0.169769
0.753848 0.621415 0.203647
0.760428 0.615997 0.228408
0.766078 0.612823 0.247265
0.771625 0.612442 0.257347
0.776326 0.611819 0.267801
0.781008 0.612673 0.276444
0.785578 0.613832 0.284695
0.790454 0.615488 0.292058
0.795317 0.616785 0.299423
0.189521 0.605777 0.364634
0.190530 0.605435 0.365719
0.191356 0.605163 0.366841
0.192092 0.604930 0.367965
0.192993 0.604794 0.369121
0.194330 0.604784 0.370529
0.196043 0.604889 0.372287
0.197730 0.605026 0.374067
0.199547 0.605503 0.375988
0.203672 0.606791 0.380616
0.211057 0.610441 0.389801
0.222001 0.617102 0.402836
0.239327 0.626715 0.415797
0.273791 0.641770 0.407096
0.345509 0.666465 0.353464
0.440174 0.690076 0.264332
0.526290 0.692262 0.178219
0.593000 0.675095 0.120406
0.638992 0.661484 0.093101
0.667249 0.661826 0.093398
0.687987 0.668869 0.113982
0.706804 0.672434 0.147129
0.723992 0.665360 0.188059
0.738929 0.652551 0.225727
0.751321 0.643319 0.253581
0.760434 0.638890 0.272843
0.767398 0.636485 0.288368
0.773614 0.636351 0.298904
0.778707 0.636853 0.307150
0.783942 0.638562 0.313287
0.789088 0.640577 0.319008
0.794264 0.642847 0.324606
0.799148 0.644937 0.330323
0.196520 0.613566 0.377051
0.197670 0.613170 0.378099
0.198703 0.612828 0.379112
0.199479 0.612557 0.380166
0.200363 0.612369 0.381309
0.201756 0.612230 0.382769
0.203505 0.612191 0.384377
0.205191 0.612289 0.386070
0.206825 0.612876 0.387910
0.210511 0.614263 0.392191
0.217791 0.618067 0.401072
0.228762 0.624797 0.414052
0.246012 0.634622 0.428052
0.279854 0.649386 0.424484
0.349374 0.673260 0.383244
0.444719 0.698470 0.322005
0.534980 0.709171 0.254728
0.601326 0.704379 0.193811
0.644267 0.695464 0.155568
0.672062 0.690600 0.146402
0.690756 0.692105 0.164235
0.705161 0.693747 0.195528
0.718500 0.687605 0.235982
0.734446 0.677090 0.267251
0.749674 0.667402 0.289067
0.760929 0.662456 0.305481
0.769492 0.660908 0.316573
0.776804 0.661177 0.325376
0.782364 0.661625 0.332618
0.788296 0.663513 0.337018
0.794266 0.665901 0.340752
0.800261 0.668586 0.344440
0.805966 0.671173 0.348540
0.203696 0.620986 0.389581
0.204866 0.620619 0.390605
0.205980 0.620263 0.391591
0.207005 0.619928 0.392572
0.207976 0.619753 0.393696
0.209339 0.619607 0.395128
0.211080 0.619396 0.396592
0.212806 0.619346 0.398115
0.214450 0.619891 0.399876
0.217634 0.621471 0.403772
0.224538 0.625430 0.412178
0.235442 0.632231 0.424893
0.252173 0.641806 0.439399
0.285031 0.655620 0.437166
0.352456 0.678627 0.399349
0.445460 0.703526 0.349607
0.537420 0.715168 0.302346
0.604028 0.713558 0.259823
0.643318 0.708996 0.227283
0.671003 0.706630 0.209785
0.690471 0.706628 0.218006
0.703833 0.705982 0.243373
0.717441 0.702416 0.273046
0.731964 0.696619 0.298615
0.746957 0.689265 0.316843
0.760583 0.683664 0.329042
0.770937 0.681394 0.338214
0.780036 0.682391 0.343807
0.786855 0.683485 0.349721
0.793258 0.685513 0.353490
0.799674 0.688021 0.356552
0.806443 0.691016 0.359051
0.813087 0.693949 0.361661
0.211059 0.628183 0.401856
0.212182 0.628038 0.402777
0.213317 0.627731 0.403730
0.214422 0.627376 0.404691
0.215570 0.627252 0.405762
0.216974 0.627197 0.407165
0.218705 0.626973 0.408594
0.220445 0.626752 0.409979
0.222162 0.627198 0.411632
0.225121 0.628764 0.415271
0.231736 0.632726 0.423250
0.242554 0.639620 0.435592
0.258803 0.649027 0.450208
0.290742 0.662236 0.448726
0.356841 0.684231 0.412909
0.446968 0.708675 0.366864
0.538147 0.720641 0.327732
0.605233 0.719723 0.300171
0.642209 0.715877 0.283971
0.668674 0.714186 0.267229
0.690215 0.714925 0.261646
0.704892 0.715589 0.278529
0.718047 0.714720 0.300504
0.731873 0.711541 0.320296
0.745069 0.707502 0.336222
0.759037 0.703731 0.346672
0.771498 0.700344 0.354931
0.782846 0.701269 0.358237
0.791864 0.703172 0.361502
0.798897 0.705369 0.364548
0.805552 0.707781 0.367346
0.812424 0.710586 0.369920
0.819215 0.713473 0.372447
0.218948 0.635190 0.413936
0.219989 0.635391 0.414677
0.221078 0.635265 0.415538
0.222200 0.634984 0.416469
0.223356 0.634886 0.417508
0.224838 0.635015 0.418855
0.226507 0.634993 0.420294
0.228223 0.634765 0.421657
0.230006 0.635125 0.423274
0.232991 0.636580 0.426674
0.239642 0.640368 0.434232
0.250430 0.647136 0.446178
0.265952 0.656265 0.460537
0.297340 0.669124 0.459488
0.363023 0.690831 0.424884
0.450750 0.715511 0.380116
0.539753 0.727815 0.343771
0.607125 0.726323 0.320147
0.643888 0.722123 0.310002
0.668448 0.721163 0.301092
0.689795 0.722232 0.296304
0.706032 0.723563 0.305955
0.718990 0.724985 0.321091
0.732654 0.723891 0.335367
