nova/tdt-studio/app/Lut_mau/IWLTBAP/1 - LUTs by IWLTBAP (CUBE)/02 - Generic LOG/Cinematic/C-9730-LOG.cube
# Copyright: (C) Copyright 2010-2019 by IWLTBAP SAS
# Cannot be resold, shared or otherwise redistributed
# Website: https://luts.iwltbap.com
TITLE "IWLTBAP 9730 (LOG)"
LUT_3D_SIZE 5
0.003662 0.007874 0.000000
0.088863 0.020164 0.000000
0.480868 0.080384 0.000000
0.638121 0.173506 0.000000
0.692810 0.221405 0.000000
0.000508 0.089347 0.000018
0.075341 0.076999 0.000000
0.452842 0.104884 0.001491
0.645229 0.217164 0.000000
0.686825 0.248146 0.000000
0.085353 0.455116 0.248092
0.074776 0.437591 0.215872
0.460672 0.377478 0.037360
0.707231 0.430760 0.019155
0.771228 0.476834 0.070066
0.203696 0.620986 0.389581
0.214450 0.619891 0.399876
0.537420 0.715168 0.302346
0.746957 0.689265 0.316843
0.813087 0.693949 0.361661
0.264954 0.675781 0.477753
0.276108 0.678599 0.484775
0.563403 0.766283 0.409431
0.756874 0.776412 0.384181
0.828522 0.792328 0.431885
0.005599 0.028710 0.037427
0.091951 0.021063 0.022145
0.505454 0.073363 0.000055
0.636354 0.155976 0.000000
0.691103 0.223574 0.000000
0.000627 0.134466 0.068402
0.018005 0.128472 0.103085
0.474604 0.076903 0.000002
0.654317 0.195307 0.000000
0.688089 0.245542 0.002175
0.103177 0.478305 0.308981
0.094982 0.468045 0.276896
0.501547 0.461741 0.038993
0.745770 0.458308 0.109071
0.751223 0.469320 0.228624
0.230899 0.643881 0.439265
0.239121 0.644521 0.446402
0.481132 0.711464 0.428051
0.741891 0.687476 0.379071
0.808721 0.695897 0.411971
0.295551 0.700175 0.522710
0.304268 0.701905 0.528137
0.533559 0.773112 0.539302
0.760046 0.782825 0.421652
0.827736 0.798360 0.487429
0.046065 0.100825 0.428994
0.100873 0.081555 0.361089
0.406913 0.140861 0.228559
0.627087 0.263392 0.273776
0.677627 0.303237 0.313860
0.020324 0.304546 0.353159
0.052095 0.146783 0.466275
0.378017 0.162387 0.268641
0.644236 0.290182 0.303392
0.685312 0.326563 0.335843
0.187652 0.589154 0.558481
0.178562 0.576896 0.536228
0.445043 0.544691 0.546942
0.756131 0.496994 0.509304
0.802787 0.526597 0.524051
0.355939 0.745964 0.702815
0.361720 0.744668 0.688707
0.525127 0.815752 0.712449
0.788893 0.824531 0.631371
0.869250 0.820531 0.674020
0.410415 0.800795 0.754989
0.415275 0.800192 0.745074
0.552820 0.863155 0.759707
0.809646 0.876664 0.694170
0.883093 0.888371 0.711512
0.152188 0.274164 0.757698
0.272367 0.182397 0.742989
0.640342 0.297478 0.611169
0.735458 0.384003 0.581342
0.768515 0.403350 0.602390
0.170714 0.455522 0.749003
0.239579 0.354019 0.742874
0.644288 0.323983 0.642355
0.743325 0.405482 0.599977
0.775700 0.430423 0.626000
0.355904 0.728690 0.774518
0.360399 0.721747 0.765134
0.581414 0.648414 0.834364
0.796430 0.594905 0.723924
0.827734 0.614871 0.738301
0.460460 0.851851 0.877138
0.468962 0.855160 0.879303
0.604596 0.905186 0.920463
0.799208 0.908098 0.935569
0.901291 0.907370 0.910140
0.526336 0.892220 0.913690
0.538013 0.894300 0.913745
0.656059 0.925989 0.940843
0.826965 0.943991 0.959307
0.914608 0.954005 0.958705
0.266479 0.351990 0.839172
0.442154 0.263745 0.849283
0.688462 0.356544 0.729043
0.780079 0.409072 0.684558
0.817291 0.436157 0.710602
0.267719 0.503412 0.825752
0.362645 0.411353 0.847495
0.689867 0.370032 0.761786
0.796378 0.429304 0.729440
0.832735 0.466407 0.744667
0.399057 0.769165 0.825373
0.401044 0.761988 0.818727
0.625384 0.706492 0.896001
0.854060 0.623702 0.830871
0.886813 0.653863 0.834955
0.511426 0.883599 0.915794
0.522319 0.887203 0.916071
0.649833 0.921585 0.943031
0.841841 0.926251 0.960195
0.924570 0.921342 0.969060
0.589905 0.913055 0.939209
0.600200 0.914675 0.939741
0.698538 0.938040 0.958012
0.863448 0.956632 0.978804
0.923248 0.966522 0.992981
