nova/tdt-studio/app/Lut_mau/IWLTBAP/1 - LUTs by IWLTBAP (CUBE)/02 - Generic LOG/Cinematic/F-6800-LOG.cube
# Copyright: (C) Copyright 2010-2019 by IWLTBAP SAS
# Cannot be resold, shared or otherwise redistributed
# Website: https://luts.iwltbap.com
TITLE "IWLTBAP 6800 (LOG)"
LUT_3D_SIZE 33
0.000000 0.000000 0.000000
0.005676 0.000732 0.000885
0.040436 0.005157 0.005707
0.081940 0.009949 0.009430
0.122528 0.012543 0.010254
0.166931 0.014191 0.009644
0.210358 0.014191 0.006866
0.256927 0.013214 0.004517
0.302185 0.012054 0.003387
0.349518 0.011627 0.002380
0.396515 0.011047 0.002380
0.444397 0.010254 0.002380
0.492004 0.010254 0.002380
0.540344 0.011047 0.002380
0.587738 0.012238 0.002380
0.635864 0.016144 0.002380
0.682892 0.023193 0.002747
0.730133 0.035797 0.005280
0.776428 0.057281 0.014008
0.822723 0.093994 0.038727
0.862213 0.139404 0.075897
0.891541 0.183014 0.115448
0.903687 0.203247 0.134369
0.916046 0.224030 0.153839
0.928497 0.246155 0.174835
0.934753 0.257263 0.185364
0.941162 0.268646 0.196167
0.941162 0.268646 0.196167
0.941162 0.268646 0.196167
0.941162 0.268646 0.196167
0.941162 0.268646 0.196167
0.941162 0.268646 0.196167
0.941162 0.268646 0.196167
0.000000 0.000000 0.000000
0.000000 0.000000 0.000000
0.032013 0.004089 0.004852
0.073578 0.009094 0.008789
0.114868 0.012146 0.010254
0.159454 0.014191 0.010040
0.203186 0.014191 0.007416
0.249756 0.013397 0.004700
0.295288 0.012238 0.003571
0.342987 0.011810 0.002380
0.389740 0.011047 0.002380
0.437927 0.010254 0.002380
0.485687 0.010254 0.002380
0.534485 0.011047 0.002380
0.582001 0.011810 0.002380
0.630280 0.015686 0.002380
0.677551 0.022156 0.002594
0.724884 0.033783 0.004700
0.771332 0.054565 0.012695
0.818054 0.089508 0.035370
0.859131 0.135345 0.072388
0.888885 0.178589 0.111298
0.902527 0.201324 0.132568
0.914825 0.221893 0.151794
0.927368 0.244141 0.172913
0.934753 0.257263 0.185364
0.941162 0.268646 0.196167
0.941162 0.268646 0.196167
0.941162 0.268646 0.196167
0.941162 0.268646 0.196167
0.941162 0.268646 0.196167
0.941162 0.268646 0.196167
0.941162 0.268646 0.196167
0.002869 0.016479 0.020782
0.002594 0.015045 0.018982
0.024231 0.016541 0.018341
0.065491 0.020264 0.019318
0.106293 0.022064 0.017334
0.151123 0.022034 0.014435
0.195648 0.020416 0.009979
0.242584 0.016968 0.005829
0.288177 0.013611 0.003815
0.335999 0.011841 0.002533
0.383240 0.011047 0.002380
0.431641 0.010284 0.002380
0.479553 0.010254 0.002380
0.528229 0.011047 0.002380
0.576050 0.011658 0.002380
0.624695 0.015228 0.002380
0.672058 0.021057 0.002472
0.719604 0.032288 0.004395
0.766388 0.051941 0.011414
0.812988 0.084686 0.031738
0.856232 0.131836 0.069458
0.886047 0.174164 0.107239
0.901337 0.199341 0.130707
0.913696 0.219910 0.149933
0.925995 0.241699 0.170593
0.933594 0.255219 0.183411
0.941162 0.268646 0.196167
0.941162 0.268646 0.196167
0.941162 0.268646 0.196167
0.941162 0.268646 0.196167
0.941162 0.268646 0.196167
0.941162 0.268646 0.196167
0.941162 0.268646 0.196167
0.004730 0.036194 0.046082
0.004608 0.034882 0.044434
0.018127 0.035370 0.041901
0.054413 0.038269 0.037781
0.095154 0.040833 0.033813
0.139465 0.041199 0.026398
0.184692 0.039642 0.019806
0.232208 0.037842 0.012238
0.278931 0.034546 0.006714
0.327454 0.031464 0.003815
0.375092 0.028564 0.002380
0.423828 0.025574 0.001862
0.471710 0.022644 0.001984
0.520111 0.019775 0.002106
0.567902 0.016327 0.002228
0.615967 0.014526 0.002380
0.663483 0.019714 0.002380
0.711334 0.029968 0.003937
0.758240 0.047607 0.009277
0.805206 0.077637 0.026672
0.850372 0.124695 0.063446
0.882416 0.168854 0.102478
0.899841 0.196838 0.128387
0.912170 0.217377 0.147583
0.924500 0.239044 0.168060
0.933594 0.255219 0.183411
0.941162 0.268646 0.196167
0.941162 0.268646 0.196167
0.941162 0.268646 0.196167
0.941162 0.268646 0.196167
0.941162 0.268646 0.196167
0.941162 0.268646 0.196167
0.941162 0.268646 0.196167
0.006287 0.055084 0.071472
0.006287 0.053955 0.069885
0.007263 0.052979 0.068207
0.042297 0.056763 0.061218
0.083191 0.060486 0.053162
0.126617 0.061920 0.044037
0.172119 0.061401 0.033112
0.220062 0.059601 0.022888
0.268402 0.056915 0.013336
0.317993 0.054626 0.006805
0.366730 0.052460 0.003418
0.416382 0.050476 0.002136
0.464905 0.047424 0.001587
0.513550 0.045105 0.001587
0.561707 0.042053 0.001587
0.609741 0.039459 0.001587
0.656982 0.039520 0.002167
0.704285 0.043182 0.003021
0.750854 0.053131 0.007568
0.797455 0.075867 0.022766
0.843719 0.118927 0.056519
0.877594 0.162720 0.096100
0.898193 0.194061 0.125793
0.910675 0.214905 0.145264
0.923004 0.236389 0.165558
0.932068 0.252502 0.180878
0.941162 0.268646 0.196167
0.941162 0.268646 0.196167
0.941162 0.268646 0.196167
0.941162 0.268646 0.196167
0.941162 0.268646 0.196167
0.941162 0.268646 0.196167
0.941162 0.268646 0.196167
0.006134 0.074615 0.098602
0.006165 0.073608 0.097198
0.006226 0.072449 0.095642
0.031158 0.075989 0.088135
0.069153 0.080566 0.077820
0.111816 0.084167 0.065460
0.156830 0.084412 0.052002
0.205353 0.082275 0.037567
0.254913 0.079529 0.024597
0.306274 0.077118 0.013672
0.356232 0.075958 0.007111
0.407471 0.075531 0.003143
0.456970 0.074890 0.001770
0.506683 0.073914 0.001587
0.555115 0.072876 0.001587
0.603485 0.072144 0.001587
0.650818 0.073364 0.001587
0.698212 0.077271 0.002319
0.744690 0.087463 0.005676
0.791260 0.107300 0.017700
0.837433 0.143616 0.047150
0.875305 0.188599 0.090729
0.898834 0.221191 0.124756
0.911102 0.238770 0.144379
0.923126 0.256470 0.164490
0.933655 0.273010 0.182648
0.942566 0.286835 0.197815
0.942383 0.284454 0.197601
0.942200 0.282013 0.197357
0.941986 0.279449 0.197144
0.941772 0.276428 0.196869
0.941742 0.276337 0.196869
0.941742 0.276215 0.196838
0.005219 0.094421 0.126038
0.005249 0.093414 0.124634
0.005310 0.092438 0.123230
0.019226 0.094482 0.117584
0.053925 0.100983 0.106750
0.095734 0.106018 0.092041
0.139893 0.108429 0.075623
0.188354 0.106506 0.058105
0.238953 0.102631 0.040680
0.291840 0.098511 0.025146
0.343597 0.096191 0.013794
0.396606 0.096222 0.006500
0.447754 0.097137 0.002991
0.498840 0.097961 0.001587
0.548126 0.098877 0.001587
0.597015 0.099487 0.001587
0.644714 0.101776 0.001587
0.692200 0.106995 0.001953
0.738647 0.116364 0.004547
0.785126 0.134460 0.013702
0.831024 0.167084 0.040100
0.871033 0.210114 0.082123
0.899628 0.249023 0.123718
0.911499 0.264526 0.143250
0.923615 0.280853 0.163788
0.934174 0.297241 0.182281
0.944702 0.313934 0.200500
0.944550 0.311890 0.200287
0.944336 0.309509 0.200043
0.944183 0.307343 0.199829
0.944000 0.305267 0.199585
0.944000 0.305145 0.199585
0.944000 0.305054 0.199585
0.004272 0.114777 0.155243
0.004303 0.113922 0.153961
0.004364 0.112946 0.152527
0.009033 0.112946 0.149017
0.037689 0.119568 0.138611
0.078125 0.127991 0.123444
0.120911 0.133057 0.105591
0.168518 0.133606 0.084961
0.219452 0.128967 0.063660
0.273163 0.122772 0.043518
0.327240 0.117371 0.026093
0.382294 0.114990 0.013824
0.435394 0.115936 0.006165
0.488617 0.118439 0.002869
0.539429 0.121063 0.001587
0.589386 0.124390 0.001587
0.637878 0.128479 0.001587
0.685760 0.134308 0.001678
0.732391 0.144684 0.003632
0.778839 0.162628 0.010986
0.824615 0.192413 0.032715
0.868073 0.236450 0.074738
0.900970 0.280487 0.122772
0.912750 0.295532 0.142822
0.924622 0.310944 0.163422
0.936707 0.328522 0.185059
0.947144 0.344360 0.203644
0.946930 0.341736 0.203369
0.946716 0.339050 0.203094
0.946472 0.336060 0.202789
0.946259 0.333313 0.202515
0.946259 0.333191 0.202484
0.946228 0.333069 0.202484
0.003326 0.135284 0.184845
0.003357 0.134430 0.183624
0.003418 0.133514 0.182312
0.003479 0.131866 0.179901
0.021759 0.136963 0.172760
0.059723 0.147827 0.158234
0.100006 0.156372 0.140717
0.147064 0.160736 0.117462
0.197052 0.158905 0.093109
0.251495 0.150970 0.068237
0.307007 0.141876 0.045532
0.364380 0.134918 0.026459
0.420044 0.132690 0.013550
0.475677 0.134247 0.006409
0.528534 0.138031 0.002747
0.580200 0.142944 0.001587
0.630035 0.148682 0.001587
0.678802 0.156769 0.001587
0.725922 0.168365 0.003021
0.772705 0.185913 0.008514
0.818420 0.214355 0.026398
0.862335 0.257385 0.065582
0.902527 0.310760 0.122009
0.914154 0.326111 0.142548
0.925903 0.341461 0.162872
0.937958 0.359131 0.185333
0.950073 0.378143 0.207520
0.949829 0.375458 0.207184
0.949585 0.372986 0.206879
0.949371 0.370453 0.206604
0.949158 0.367889 0.206299
0.949158 0.367706 0.206268
0.949127 0.367584 0.206268
0.002350 0.156464 0.215546
0.002380 0.155640 0.214386
0.002441 0.154633 0.212921
0.002502 0.153168 0.210785
0.007996 0.153839 0.207245
0.042267 0.165527 0.195099
0.078430 0.176697 0.179016
0.123138 0.186249 0.156586
0.171692 0.189789 0.129852
0.225830 0.184998 0.100494
0.282440 0.173523 0.072357
0.341522 0.161285 0.047241
0.400085 0.152710 0.027130
0.458405 0.149872 0.013336
0.514038 0.152039 0.006134
0.568115 0.157349 0.002625
0.619873 0.164612 0.001678
0.670074 0.174255 0.001587
0.718262 0.186615 0.002380
0.765717 0.205658 0.006927
0.811523 0.233826 0.021912
0.857391 0.276733 0.057404
0.900085 0.333069 0.115143
0.915863 0.355682 0.142731
0.927460 0.371399 0.163330
0.939270 0.388916 0.185974
0.951385 0.408051 0.208679
0.952942 0.408813 0.211609
0.952728 0.406464 0.211243
0.952484 0.404114 0.210876
0.952271 0.401703 0.210480
0.952240 0.401581 0.210480
0.952240 0.401489 0.210449
0.001587 0.177673 0.246124
0.001587 0.176910 0.244995
0.001587 0.175964 0.243622
0.001587 0.174500 0.241516
0.001770 0.173157 0.239410
0.027283 0.182495 0.231018
0.057922 0.193695 0.218811
0.099182 0.207092 0.198578
0.144958 0.216766 0.172516
0.197968 0.219177 0.140564
0.254120 0.211182 0.107727
0.314453 0.196075 0.076294
0.375641 0.180481 0.049225
0.437134 0.170013 0.027618
0.496033 0.166626 0.013428
0.553101 0.169281 0.005676
0.606964 0.176025 0.002686
0.659332 0.186127 0.001831
0.709076 0.199921 0.002411
0.757507 0.219208 0.006012
0.804230 0.246674 0.017487
0.850372 0.288605 0.048767
0.895874 0.348267 0.107544
0.917542 0.380707 0.144043
0.929077 0.397675 0.164917
0.940765 0.415436 0.187469
0.952789 0.435181 0.210785
0.954315 0.436157 0.213684
0.955841 0.437195 0.216614
0.955627 0.435089 0.216187
0.955383 0.432953 0.215759
0.955353 0.432709 0.215729
0.955353 0.432587 0.215698
0.001160 0.199402 0.277527
0.001190 0.198608 0.276398
0.001221 0.197784 0.275208
0.001282 0.196320 0.273102
0.001373 0.194855 0.270996
0.015900 0.200256 0.265991
0.040649 0.210052 0.257538
0.075409 0.223358 0.242523
0.117828 0.237823 0.219208
0.168091 0.248444 0.187622
0.222961 0.249451 0.151581
0.282928 0.238495 0.114746
0.345581 0.219757 0.080811
0.410217 0.200378 0.050751
0.472748 0.187805 0.028137
0.533783 0.183685 0.013123
0.590851 0.186798 0.005463
0.645721 0.195740 0.002869
0.697449 0.209045 0.002502
0.747589 0.228058 0.004761
0.795502 0.255859 0.015198
0.842407 0.296509 0.042542
0.888275 0.353760 0.095337
0.918060 0.400146 0.144928
0.930603 0.419678 0.167877
0.942291 0.438507 0.190369
0.954041 0.458496 0.213440
0.957550 0.463684 0.220306
0.959076 0.464996 0.223236
0.958862 0.463104 0.222748
0.958618 0.461212 0.222260
0.958618 0.461090 0.222229
0.958588 0.460999 0.222198
0.000793 0.221100 0.308441
0.000793 0.220306 0.307312
0.000793 0.219513 0.306183
0.000793 0.218201 0.304291
0.000793 0.216705 0.302216
0.008881 0.219421 0.298920
0.026306 0.226318 0.293793
0.054474 0.237946 0.283691
0.091400 0.253052 0.266510
0.138641 0.269562 0.238129
0.190948 0.280548 0.202271
0.249481 0.280243 0.161530
0.311676 0.266449 0.121796
0.377869 0.243439 0.084961
0.444122 0.220886 0.053314
0.509705 0.205566 0.028717
0.570709 0.200714 0.013397
0.629150 0.205078 0.005890
0.683655 0.216492 0.003113
0.735962 0.234650 0.004669
0.785339 0.260498 0.012787
0.833496 0.298859 0.035980
0.880005 0.354950 0.085541
0.915558 0.409424 0.141663
0.931793 0.436554 0.172058
0.943512 0.456116 0.194702
0.955322 0.476868 0.218231
0.958832 0.482269 0.224976
0.962189 0.487518 0.231506
0.961975 0.486145 0.230865
0.961761 0.484802 0.230225
0.961761 0.484741 0.230194
0.961731 0.484650 0.230133
0.000793 0.243439 0.339844
0.000793 0.242615 0.338745
0.000793 0.241821 0.337616
0.000793 0.240631 0.335968
0.000793 0.239319 0.334106
0.004089 0.239502 0.331360
0.016418 0.244904 0.327820
0.036621 0.253265 0.322174
0.067688 0.266388 0.311066
0.109528 0.283905 0.289948
0.158478 0.301880 0.257996
0.214813 0.313873 0.216583
0.275085 0.312347 0.172546
0.340698 0.295349 0.129211
0.409180 0.268127 0.090088
0.478729 0.241608 0.056000
0.545013 0.224213 0.029816
0.607910 0.218964 0.013885
0.666351 0.225037 0.005920
0.721619 0.240021 0.004700
0.773254 0.263885 0.011047
0.823029 0.300446 0.032440
0.870575 0.352783 0.076721
0.911774 0.413971 0.138031
0.932190 0.448761 0.175873
0.944672 0.470123 0.199982
0.956482 0.491364 0.223999
0.961884 0.500732 0.234741
0.965210 0.506134 0.241180
0.965027 0.504974 0.240479
0.964813 0.503815 0.239777
0.964783 0.503784 0.239746
0.964783 0.503723 0.239716
0.000793 0.265564 0.370422
0.000793 0.264648 0.369171
0.000793 0.263855 0.368073
0.000793 0.262665 0.366455
0.000793 0.261536 0.364868
0.001465 0.260437 0.362640
0.010590 0.264587 0.359894
0.023468 0.270081 0.356445
0.048035 0.280273 0.350281
0.083130 0.295288 0.337189
0.127472 0.314636 0.313110
0.180450 0.334961 0.276245
0.238403 0.347595 0.230865
0.301788 0.344696 0.182617
0.369537 0.324707 0.136963
0.441589 0.292755 0.094666
0.512787 0.262573 0.058380
0.581451 0.243073 0.031128
0.644836 0.238220 0.014008
0.704071 0.247131 0.007294
0.758606 0.267242 0.010498
0.810730 0.299866 0.027405
0.859924 0.348633 0.067688
0.906525 0.414825 0.133881
0.930573 0.455078 0.177246
0.945312 0.480499 0.205292
0.957367 0.502441 0.229828
0.962677 0.511902 0.240479
0.968140 0.521545 0.251465
0.967926 0.520447 0.250671
0.967712 0.519440 0.249969
0.967712 0.519379 0.249939
0.967712 0.519348 0.249908
0.000183 0.288025 0.401245
0.000214 0.287262 0.400177
0.000244 0.286499 0.399109
0.000305 0.285431 0.397675
0.000366 0.284119 0.395874
0.000427 0.282532 0.393707
0.005432 0.284760 0.391571
0.013641 0.288452 0.389252
0.033112 0.296692 0.385712
0.061096 0.308014 0.378693
0.098511 0.324280 0.364288
0.146759 0.346497 0.336029
0.201355 0.368561 0.295593
0.262360 0.382477 0.245331
0.327667 0.378632 0.193817
0.398590 0.354980 0.144897
0.472626 0.318970 0.100586
0.547424 0.283997 0.060944
0.616852 0.263031 0.032135
0.681458 0.259186 0.015442
0.740570 0.271942 0.012085
0.795868 0.300293 0.024719
0.847382 0.344849 0.059875
0.897095 0.408905 0.122894
0.927612 0.458282 0.176056
0.945709 0.489655 0.210846
0.958069 0.511932 0.236053
0.965363 0.525208 0.250885
0.970886 0.535126 0.262054
0.970734 0.534302 0.261353
0.970551 0.533478 0.260681
0.970551 0.533447 0.260651
0.970551 0.533386 0.260620
0.000000 0.310211 0.431396
0.000000 0.309296 0.430176
0.000000 0.308533 0.429138
0.000000 0.307465 0.427704
0.000000 0.306396 0.426270
0.000000 0.304840 0.424133
0.003204 0.305939 0.422119
0.008636 0.308136 0.420013
0.021881 0.314423 0.417999
0.044006 0.323212 0.414551
0.074677 0.335236 0.406921
0.115997 0.354095 0.389923
0.165924 0.378540 0.358948
0.224457 0.403229 0.312714
0.286591 0.417603 0.259125
0.354706 0.412292 0.203827
0.427429 0.385284 0.153015
0.505371 0.344269 0.105408
0.581207 0.306122 0.064301
0.652924 0.283844 0.033905
0.717865 0.282745 0.019440
0.777649 0.301910 0.023834
0.832428 0.340240 0.051697
0.884644 0.400452 0.109741
0.923248 0.459198 0.172791
0.945587 0.497589 0.215698
0.958038 0.519653 0.240692
0.965851 0.533600 0.256500
0.973419 0.547272 0.271912
0.973236 0.546478 0.271271
0.973083 0.545685 0.270630
0.973083 0.545654 0.270599
0.973053 0.545624 0.270569
0.000000 0.332428 0.461487
0.000000 0.331696 0.460480
0.000000 0.330902 0.459442
0.000000 0.329987 0.458191
0.000000 0.328949 0.456787
0.000000 0.327332 0.454620
0.001709 0.327423 0.452728
0.005127 0.329010 0.450867
0.014221 0.333679 0.449280
0.030609 0.340546 0.447327
0.055420 0.349701 0.443939
0.089233 0.363495 0.435730
0.132477 0.384094 0.416809
0.186493 0.411713 0.381470
0.246460 0.438293 0.331238
0.311371 0.453674 0.272736
0.380646 0.447266 0.215179
0.456665 0.416138 0.161163
0.536285 0.371185 0.111694
0.615387 0.329529 0.068481
0.687744 0.306976 0.038300
0.753784 0.310089 0.029541
0.813416 0.338287 0.046906
0.869202 0.391113 0.096039
0.913849 0.453125 0.161896
0.944702 0.504211 0.218933
0.957672 0.526642 0.244629
0.967712 0.544586 0.265045
0.975616 0.558685 0.281128
0.975494 0.557953 0.280548
0.975342 0.557251 0.279968
0.975342 0.557190 0.279938
0.975342 0.557159 0.279907
0.000000 0.354553 0.491364
0.000000 0.353790 0.490326
0.000000 0.353058 0.489319
0.000000 0.351990 0.487885
0.000000 0.351044 0.486603
0.000000 0.349579 0.484619
0.000793 0.348999 0.482788
0.003967 0.350403 0.480865
0.009155 0.353088 0.479340
0.021759 0.359283 0.478210
0.041840 0.366669 0.476562
0.069031 0.376495 0.472992
0.104645 0.391815 0.463837
0.151306 0.415344 0.442200
0.207153 0.445007 0.403687
0.270325 0.474152 0.347961
0.336487 0.489594 0.285553
0.408142 0.481140 0.224884
0.485779 0.447021 0.169617
0.568665 0.397217 0.117523
0.648926 0.353760 0.073944
0.723175 0.332428 0.046753
0.789398 0.341888 0.047241
0.850189 0.383362 0.083771
0.902649 0.446625 0.150208
0.942749 0.509216 0.220215
0.956299 0.531830 0.246216
0.966980 0.550232 0.267426
0.977325 0.568451 0.288330
0.977234 0.567810 0.287903
0.977142 0.567261 0.287537
0.977142 0.567230 0.287506
0.977142 0.567169 0.287476
0.000000 0.376740 0.521240
0.000000 0.375885 0.520081
0.000000 0.375153 0.519104
0.000000 0.374207 0.517822
0.000000 0.373260 0.516571
0.000000 0.371887 0.514740
0.000061 0.370544 0.512817
0.002991 0.372131 0.511139
0.006409 0.373932 0.509583
0.015411 0.378876 0.508545
0.031067 0.385071 0.507507
0.053284 0.392853 0.506195
0.082092 0.403778 0.502777
0.120697 0.421112 0.492493
0.169189 0.446777 0.469055
0.229126 0.479767 0.425354
0.293762 0.510559 0.365662
0.362000 0.526611 0.298859
0.434235 0.516357 0.236450
0.514893 0.478485 0.178772
0.599609 0.425690 0.125885
0.682526 0.380280 0.082458
0.757294 0.362793 0.062408
0.825317 0.382202 0.078033
0.885986 0.436798 0.134308
0.935791 0.507080 0.212738
0.953583 0.535126 0.245056
0.967285 0.557861 0.271423
0.978271 0.576477 0.292938
0.978241 0.576019 0.292725
0.978180 0.575531 0.292480
0.978180 0.575531 0.292480
0.978180 0.575500 0.292480
0.000000 0.398682 0.550842
0.000000 0.397980 0.549835
0.000000 0.397217 0.548859
0.000000 0.396332 0.547638
0.000000 0.395416 0.546387
0.000000 0.394073 0.544556
0.000000 0.392609 0.542572
0.002350 0.393799 0.541107
0.004944 0.394958 0.539520
0.010834 0.398651 0.538269
0.022797 0.404114 0.537598
0.042114 0.411224 0.537079
0.066589 0.419525 0.535950
0.097412 0.431824 0.532349
0.137543 0.450867 0.521484
0.190094 0.479767 0.494324
0.251923 0.515076 0.446655
0.319000 0.547485 0.381439
0.387695 0.563080 0.311707
0.461761 0.550781 0.247009
0.543335 0.510071 0.189056
0.631256 0.454376 0.135559
0.715698 0.409149 0.095642
0.792572 0.397888 0.086090
0.860962 0.430359 0.121155
0.922485 0.498566 0.197235
0.948517 0.535675 0.239929
0.963745 0.558777 0.266998
0.978088 0.581848 0.293701
0.978180 0.581665 0.293884
0.978271 0.581482 0.294037
0.978271 0.581451 0.294037
0.978271 0.581421 0.294037
0.000000 0.420929 0.580872
0.000000 0.420197 0.579865
0.000000 0.419464 0.578888
0.000000 0.418549 0.577667
0.000000 0.417603 0.576385
0.000000 0.416260 0.574585
0.000000 0.414948 0.572815
0.001495 0.415558 0.571259
0.003723 0.416779 0.569733
0.008514 0.419495 0.568420
0.016266 0.423553 0.567566
0.032990 0.430542 0.567474
0.054993 0.437897 0.567139
0.080963 0.447266 0.566376
0.113586 0.460846 0.562897
0.156372 0.482178 0.550598
0.210907 0.513306 0.521179
0.276306 0.551483 0.467743
0.343994 0.584717 0.398315
0.413483 0.599976 0.325104
0.487488 0.586121 0.259644
0.571960 0.542877 0.201019
0.661560 0.486053 0.149475
0.748688 0.443329 0.115906
0.827271 0.440430 0.120575
0.898651 0.487610 0.176880
0.940033 0.534821 0.231995
0.958527 0.558563 0.260193
0.974213 0.580902 0.286316
0.976196 0.583588 0.289825
0.976379 0.583588 0.290253
0.976410 0.583588 0.290283
0.976410 0.583588 0.290283
0.000000 0.443115 0.610626
0.000000 0.442383 0.609650
0.000000 0.441650 0.608643
0.000000 0.440765 0.607452
0.000000 0.439819 0.606232
0.000000 0.438507 0.604431
0.000000 0.437286 0.602814
0.000977 0.437134 0.601105
0.003082 0.438568 0.599701
0.006805 0.440399 0.598206
0.011902 0.443207 0.597168
0.026184 0.450134 0.597351
0.045898 0.457336 0.597504
0.069519 0.465515 0.597717
0.097076 0.475708 0.597229
0.131989 0.491089 0.593475
0.176514 0.514465 0.580017
0.234711 0.548523 0.546600
0.301392 0.588165 0.488922
0.370331 0.622192 0.414001
0.438782 0.636139 0.338806
0.514160 0.620697 0.272614
0.599945 0.575897 0.214935
0.692566 0.519257 0.166962
0.782104 0.481903 0.143860
0.864868 0.490936 0.166931
0.923065 0.532135 0.219604
0.948364 0.555969 0.249359
0.967316 0.577240 0.274933
0.969788 0.579437 0.278046
0.972046 0.582153 0.281708
0.972076 0.582184 0.281738
0.972076 0.582184 0.281769
0.000000 0.465790 0.640869
0.000000 0.465057 0.639923
0.000000 0.464325 0.638947
0.000000 0.463409 0.637726
0.000000 0.462463 0.636444
0.000000 0.461243 0.634827
0.000000 0.460022 0.633179
0.000519 0.459137 0.631317
0.002869 0.460815 0.630096
0.005432 0.462006 0.628448
0.009460 0.464081 0.627228
0.021088 0.470215 0.627258
0.039032 0.477478 0.627777
0.061676 0.485596 0.628571
0.086639 0.494446 0.629242
0.115631 0.505798 0.629211
0.151581 0.522430 0.625244
0.199341 0.548309 0.609375
0.259277 0.584320 0.572418
0.327332 0.625275 0.509918
0.395630 0.658813 0.431244
0.464203 0.671936 0.354095
0.539612 0.655426 0.288574
0.628174 0.610535 0.232880
0.723511 0.556152 0.190430
0.817352 0.525940 0.180237
0.894684 0.537842 0.210571
0.932617 0.555481 0.238098
0.954254 0.570007 0.258118
0.960815 0.575317 0.265289
0.963715 0.577484 0.268524
0.963745 0.577484 0.268555
0.963776 0.577484 0.268585
0.000000 0.488586 0.670929
0.000000 0.487854 0.669952
0.000000 0.487091 0.668976
0.000000 0.486176 0.667755
0.000000 0.485199 0.666504
0.000000 0.483978 0.664886
0.000000 0.482849 0.663391
0.000000 0.481293 0.661346
0.002777 0.483093 0.660248
0.005615 0.484436 0.658722
0.008087 0.485626 0.657196
0.016998 0.490448 0.656891
0.033875 0.497955 0.657654
0.055664 0.506195 0.658813
0.079773 0.514923 0.660217
0.106201 0.524689 0.661316
0.136261 0.537018 0.661652
0.174072 0.555084 0.656952
0.222809 0.582397 0.639374
0.284943 0.620270 0.598083
0.352997 0.661316 0.531036
0.420593 0.694244 0.449799
0.488220 0.706360 0.372742
0.565613 0.689972 0.308044
0.656891 0.646301 0.255615
0.757446 0.595551 0.221222
0.854309 0.568695 0.219910
0.906586 0.567932 0.234894
0.936066 0.571320 0.247437
0.944000 0.571991 0.250854
0.950836 0.575043 0.256073
0.950897 0.575043 0.256104
0.950928 0.575043 0.256134
0.000000 0.511932 0.701385
0.000000 0.511169 0.700409
0.000000 0.510437 0.699463
0.000000 0.509491 0.698212
0.000000 0.508545 0.696991
0.000000 0.507507 0.695648
0.000000 0.506256 0.694031
0.000000 0.504669 0.691986
0.002625 0.505951 0.690735
0.005859 0.507538 0.689362
0.008636 0.508911 0.688019
0.015472 0.512054 0.687164
0.029877 0.518982 0.687805
0.051727 0.527649 0.689392
0.075623 0.536530 0.691101
0.101410 0.545990 0.692902
0.128357 0.556519 0.694641
0.159271 0.569489 0.694641
0.197083 0.588135 0.689453
0.246887 0.616608 0.669739
0.308289 0.654144 0.626007
0.375977 0.694855 0.557037
0.443176 0.727234 0.475098
0.512573 0.740234 0.397064
0.592163 0.725342 0.333069
0.688141 0.684265 0.284546
0.794006 0.635712 0.257233
0.867065 0.608948 0.252930
0.911469 0.595276 0.254395
0.924683 0.591675 0.255676
0.933197 0.588440 0.255890
0.933289 0.588318 0.255829
0.933350 0.588196 0.255768
0.000000 0.519165 0.710754
0.000000 0.518951 0.710480
0.000000 0.518677 0.710144
0.000000 0.518311 0.709686
0.000000 0.518066 0.709320
0.000000 0.517761 0.708923
0.000000 0.517456 0.708557
0.000000 0.517029 0.708008
0.001862 0.518463 0.707794
0.005280 0.521362 0.707977
0.009216 0.524109 0.708191
0.014008 0.526947 0.708130
0.026611 0.534149 0.709717
0.047180 0.543640 0.712646
0.071808 0.553772 0.715851
0.097900 0.564453 0.719360
0.124451 0.575378 0.722839
0.152069 0.587067 0.725647
0.182281 0.600739 0.726379
0.219757 0.620056 0.721222
0.267914 0.647919 0.701538
0.328278 0.684662 0.658203
0.395935 0.725189 0.590790
0.466278 0.759491 0.507233
