nova/tdt-studio/app/Lut_mau/IWLTBAP/1 - LUTs by IWLTBAP (CUBE)/02 - Generic LOG/Cinematic/F-6800-LOG.cube
# Copyright: (C) Copyright 2010-2019 by IWLTBAP SAS
# Cannot be resold, shared or otherwise redistributed
# Website: https://luts.iwltbap.com
TITLE "IWLTBAP 6800 (LOG)"
LUT_3D_SIZE 9
0.000000 0.000000 0.000000
0.122528 0.012543 0.010254
0.302185 0.012054 0.003387
0.492004 0.010254 0.002380
0.682892 0.023193 0.002747
0.862213 0.139404 0.075897
0.928497 0.246155 0.174835
0.941162 0.268646 0.196167
0.941162 0.268646 0.196167
0.006287 0.055084 0.071472
0.083191 0.060486 0.053162
0.268402 0.056915 0.013336
0.464905 0.047424 0.001587
0.656982 0.039520 0.002167
0.843719 0.118927 0.056519
0.923004 0.236389 0.165558
0.941162 0.268646 0.196167
0.941162 0.268646 0.196167
0.003326 0.135284 0.184845
0.021759 0.136963 0.172760
0.197052 0.158905 0.093109
0.420044 0.132690 0.013550
0.630035 0.148682 0.001587
0.818420 0.214355 0.026398
0.925903 0.341461 0.162872
0.949585 0.372986 0.206879
0.949127 0.367584 0.206268
0.000793 0.221100 0.308441
0.000793 0.216705 0.302216
0.091400 0.253052 0.266510
0.311676 0.266449 0.121796
0.570709 0.200714 0.013397
0.785339 0.260498 0.012787
0.931793 0.436554 0.172058
0.962189 0.487518 0.231506
0.961731 0.484650 0.230133
0.000000 0.310211 0.431396
0.000000 0.306396 0.426270
0.021881 0.314423 0.417999
0.165924 0.378540 0.358948
0.427429 0.385284 0.153015
0.717865 0.282745 0.019440
0.923248 0.459198 0.172791
0.973419 0.547272 0.271912
0.973053 0.545624 0.270569
0.000000 0.398682 0.550842
0.000000 0.395416 0.546387
0.004944 0.394958 0.539520
0.066589 0.419525 0.535950
0.251923 0.515076 0.446655
0.543335 0.510071 0.189056
0.860962 0.430359 0.121155
0.978088 0.581848 0.293701
0.978271 0.581421 0.294037
0.000000 0.488586 0.670929
0.000000 0.485199 0.666504
0.002777 0.483093 0.660248
0.033875 0.497955 0.657654
0.136261 0.537018 0.661652
0.352997 0.661316 0.531036
0.656891 0.646301 0.255615
0.936066 0.571320 0.247437
0.950928 0.575043 0.256134
0.000000 0.532806 0.728241
0.000000 0.531830 0.726990
0.000122 0.530731 0.725494
0.021698 0.546906 0.729675
0.115143 0.590576 0.747375
0.226471 0.643677 0.761353
0.462372 0.789490 0.608917
0.810272 0.853668 0.435455
0.856384 0.835327 0.427216
0.000000 0.532928 0.728424
0.000000 0.532928 0.728424
0.000000 0.532928 0.728424
0.017151 0.547485 0.733398
0.105438 0.591064 0.752045
0.211914 0.641724 0.772491
0.422760 0.772644 0.679047
0.754211 0.900848 0.470032
0.838501 0.906555 0.480408
0.005524 0.049500 0.071838
0.094025 0.029419 0.086731
0.266022 0.026581 0.112000
0.465118 0.019562 0.090698
0.666443 0.023285 0.055084
0.857086 0.135071 0.104126
0.927460 0.244446 0.186310
0.941101 0.268555 0.197754
0.941162 0.268646 0.196167
0.005524 0.077820 0.106384
0.067993 0.070679 0.090729
0.242554 0.061127 0.066650
0.445221 0.047028 0.039398
0.648468 0.035614 0.017456
0.841003 0.114502 0.055237
0.922455 0.235413 0.164642
0.941162 0.268646 0.196167
0.941162 0.268646 0.196167
0.001831 0.137085 0.190369
0.017609 0.135742 0.176697
0.193573 0.157410 0.097443
0.417450 0.131165 0.013397
0.627228 0.146759 0.001587
0.815918 0.210754 0.025208
0.925171 0.338409 0.161652
0.949402 0.370819 0.206635
0.948944 0.365509 0.206024
0.000793 0.219635 0.306366
0.000793 0.215332 0.300262
0.090057 0.250916 0.265015
0.309814 0.264587 0.121338
0.568634 0.199615 0.013367
0.783356 0.258453 0.011993
0.931000 0.434418 0.170441
0.962006 0.486420 0.230957
0.961548 0.483246 0.229645
0.000000 0.308807 0.429504
0.000000 0.305237 0.424652
0.021240 0.312866 0.416351
0.164642 0.376495 0.357574
0.425812 0.383575 0.152557
0.715912 0.281311 0.019073
0.921783 0.456177 0.169647
0.973267 0.546631 0.271393
0.972931 0.544983 0.270050
0.000000 0.397583 0.549316
0.000000 0.394257 0.544830
0.004791 0.393738 0.538025
0.065735 0.417999 0.534302
0.250458 0.513000 0.445709
0.541779 0.508301 0.188446
0.859253 0.427582 0.118622
0.978180 0.581696 0.293854
0.978271 0.581146 0.294006
0.000000 0.487457 0.669464
0.000000 0.483978 0.664886
0.002625 0.481689 0.658569
0.032867 0.496368 0.656006
0.134949 0.535248 0.659912
0.351349 0.659302 0.530212
0.655334 0.644379 0.254272
0.936066 0.570129 0.246674
0.951660 0.575043 0.256683
0.000000 0.532471 0.727844
0.000000 0.531525 0.726624
0.000000 0.530273 0.725037
0.020874 0.546143 0.729095
0.113800 0.589630 0.746643
0.225189 0.642731 0.760712
0.459534 0.787292 0.610779
0.808685 0.850708 0.432953
0.857788 0.829620 0.422974
0.000000 0.532928 0.728424
0.000000 0.532928 0.728424
0.000000 0.532928 0.728424
0.016663 0.547150 0.733276
0.104218 0.590454 0.751801
0.210663 0.641113 0.772369
0.419403 0.770477 0.682281
0.749298 0.900269 0.469635
0.838501 0.906555 0.480408
0.000549 0.123840 0.176971
0.066406 0.087158 0.172272
0.203339 0.034363 0.226959
0.413239 0.051239 0.344727
0.637573 0.075775 0.390167
0.841522 0.168304 0.397430
0.920349 0.263550 0.418182
0.936005 0.282990 0.412445
0.936035 0.280853 0.401306
0.002258 0.141418 0.196381
0.045380 0.125366 0.179871
0.180420 0.073181 0.191742
0.384247 0.068085 0.269440
0.608734 0.068481 0.311340
0.819550 0.132996 0.322815
0.914429 0.244598 0.361298
0.936310 0.275024 0.366394
0.936401 0.273560 0.357391
0.000366 0.181824 0.257874
0.008453 0.175781 0.245117
0.152252 0.171112 0.199371
0.363220 0.161102 0.158325
0.569061 0.154022 0.125610
0.785400 0.200409 0.150604
0.917084 0.329742 0.265656
0.945709 0.363464 0.296326
0.945374 0.357819 0.290710
0.000000 0.233124 0.339417
0.000000 0.227966 0.331604
0.065125 0.235687 0.294037
0.304718 0.274811 0.207062
0.561127 0.249237 0.098389
0.773987 0.287354 0.071991
0.928528 0.444855 0.217010
0.961365 0.492462 0.267548
0.960907 0.487610 0.261292
0.000000 0.303070 0.435822
0.000000 0.299561 0.430145
0.014038 0.305145 0.418091
0.151978 0.359070 0.372711
0.427368 0.388824 0.187134
0.712921 0.299561 0.050842
0.919830 0.466461 0.188873
0.973358 0.556274 0.288422
0.972961 0.553497 0.285309
0.000000 0.391998 0.548553
0.000000 0.389038 0.543701
0.003571 0.388733 0.536560
0.059814 0.412659 0.532227
0.244080 0.503143 0.454041
0.541565 0.510132 0.203033
0.856628 0.431854 0.128540
0.978363 0.585876 0.301270
0.978363 0.583832 0.299011
0.000000 0.484039 0.667877
0.000000 0.480743 0.663239
0.002380 0.478577 0.656769
0.030396 0.492981 0.653778
0.132446 0.531952 0.657410
0.349030 0.655975 0.530060
0.653015 0.641510 0.252258
0.936371 0.568298 0.245605
0.952667 0.575043 0.257416
0.000000 0.531830 0.727600
0.000000 0.531006 0.726196
0.000000 0.529755 0.724365
0.019928 0.545227 0.728363
0.111786 0.588287 0.745697
0.223114 0.641235 0.760162
0.455688 0.784485 0.613922
0.805237 0.844269 0.427460
0.859802 0.821686 0.417023
0.000000 0.532928 0.728424
0.000000 0.532928 0.728424
0.000000 0.532928 0.728424
0.016022 0.546661 0.733093
0.102539 0.589691 0.751434
0.208923 0.640228 0.772186
0.415070 0.767670 0.686462
0.743561 0.899567 0.469177
0.838501 0.906555 0.480408
0.000000 0.203461 0.293732
0.035858 0.194153 0.291473
0.165802 0.091492 0.291534
0.330353 0.026428 0.388336
0.541779 0.049927 0.565277
0.786469 0.200989 0.748962
0.897156 0.327942 0.798157
0.921509 0.355377 0.793488
0.923523 0.354797 0.782715
0.000000 0.212189 0.299316
0.025452 0.207916 0.290497
0.141846 0.133148 0.275940
0.309448 0.050079 0.353210
0.526215 0.055481 0.533081
0.774048 0.179871 0.701385
0.899933 0.317505 0.749451
0.928680 0.351074 0.745728
0.929993 0.349945 0.735352
0.000000 0.242706 0.342468
0.004211 0.237793 0.332916
0.111145 0.229248 0.297150
0.291656 0.166473 0.296570
0.518372 0.171021 0.365204
0.750000 0.228607 0.448730
0.905945 0.360229 0.539734
0.940369 0.393890 0.558716
0.940063 0.388031 0.553223
0.000000 0.290253 0.416840
0.000000 0.284821 0.408936
0.057617 0.281616 0.368988
0.263000 0.291077 0.322998
0.518524 0.287964 0.270294
0.726807 0.307556 0.260864
0.913971 0.454681 0.389160
0.956696 0.501587 0.431061
0.956207 0.496399 0.425964
0.000000 0.338928 0.494110
0.000000 0.334198 0.487366
0.007996 0.330139 0.465637
0.124664 0.339264 0.414673
0.435059 0.412842 0.330719
0.710968 0.403320 0.228943
0.916168 0.535919 0.323029
0.973846 0.611755 0.401794
0.973480 0.607635 0.396729
0.000000 0.389282 0.567078
0.000000 0.385559 0.561737
0.000885 0.383301 0.551636
0.037384 0.400299 0.537048
0.223633 0.466309 0.499939
0.556702 0.537628 0.311859
0.855164 0.497192 0.238434
0.978638 0.633209 0.380585
0.979218 0.630951 0.377319
0.000000 0.474915 0.670624
0.000000 0.471558 0.665924
0.001190 0.468903 0.658875
0.020874 0.482178 0.653687
0.122620 0.521149 0.657104
0.337219 0.631348 0.573914
0.659912 0.657715 0.311127
0.938568 0.603638 0.305939
0.955780 0.609802 0.315918
0.000000 0.528351 0.731354
0.000000 0.527466 0.729828
0.000000 0.526245 0.727722
0.018036 0.541229 0.730713
0.108551 0.583832 0.746521
0.219391 0.636322 0.763489
0.444611 0.768280 0.655609
0.805420 0.846863 0.455048
0.863068 0.824707 0.443024
0.000000 0.530090 0.732269
0.000000 0.530243 0.732025
0.000000 0.530487 0.731659
0.014496 0.543884 0.735565
0.099182 0.586182 0.752655
0.206604 0.637360 0.774384
0.401184 0.751373 0.717987
0.741852 0.903046 0.496277
0.839386 0.912140 0.504578
0.000000 0.293060 0.422882
0.013428 0.301483 0.427917
0.117004 0.256744 0.431122
0.300751 0.073608 0.440948
0.473480 0.030212 0.567535
0.680908 0.120972 0.754150
0.778656 0.230774 0.863617
0.802917 0.261536 0.890625
0.805542 0.264374 0.892548
0.000000 0.295044 0.418854
0.009857 0.297333 0.416260
0.098022 0.273071 0.415131
0.277313 0.095886 0.415955
0.452454 0.029083 0.540771
0.661591 0.101501 0.730408
0.781769 0.232239 0.863525
0.814880 0.274536 0.897949
0.817688 0.277618 0.899597
0.000000 0.313110 0.440521
0.001404 0.308533 0.432892
0.080597 0.319153 0.419556
0.240082 0.227600 0.394470
0.441833 0.152252 0.477417
0.693359 0.228180 0.658447
0.858948 0.376862 0.824005
0.896362 0.416412 0.864929
0.895752 0.411285 0.864777
0.000000 0.348145 0.495300
0.000000 0.343170 0.488159
0.049133 0.348541 0.463715
0.206848 0.347870 0.429077
0.444336 0.289673 0.435516
0.692688 0.326752 0.493469
0.899780 0.483673 0.642822
0.949005 0.534363 0.687836
0.948639 0.529419 0.684509
0.000000 0.401093 0.574219
0.000000 0.396423 0.567841
0.012421 0.393219 0.548767
0.134583 0.399963 0.501526
0.409515 0.436890 0.464447
0.687042 0.451996 0.408417
0.899384 0.562286 0.492401
0.970642 0.635925 0.563843
0.970215 0.631195 0.559265
0.000397 0.450195 0.643585
0.000183 0.445404 0.637756
0.002838 0.440338 0.625641
0.052948 0.444977 0.595978
0.233521 0.465485 0.542542
0.587128 0.572998 0.467468
0.857880 0.604553 0.423370
0.978546 0.713928 0.527710
0.980042 0.712433 0.525238
0.003723 0.493835 0.696533
0.002716 0.489075 0.691650
0.004242 0.483856 0.683807
0.022949 0.489624 0.671875
0.132477 0.517426 0.660706
0.351898 0.605164 0.635406
0.696289 0.699585 0.463776
0.945038 0.697937 0.467590
0.961975 0.703400 0.474457
0.003235 0.532043 0.739410
0.002777 0.530365 0.737854
0.002136 0.528229 0.735809
0.024780 0.540375 0.736816
0.122253 0.579987 0.748383
0.240417 0.636017 0.770874
0.447083 0.746643 0.728333
0.817871 0.861908 0.537598
0.872681 0.846161 0.524170
0.002106 0.532471 0.740601
0.001709 0.531982 0.740326
0.001343 0.531494 0.739960
0.018951 0.542877 0.742310
0.110535 0.582458 0.755341
0.224854 0.637970 0.780212
0.393799 0.727966 0.769226
0.754364 0.910034 0.571045
0.844971 0.924133 0.568390
0.000000 0.380371 0.547699
0.003937 0.393799 0.557861
0.069885 0.399597 0.575989
0.261719 0.268982 0.577881
0.446503 0.066101 0.605072
0.636841 0.127899 0.757385
0.744446 0.227814 0.836823
0.767059 0.249817 0.853210
0.767426 0.248596 0.852478
0.000000 0.386475 0.550049
0.002808 0.390991 0.551849
0.055817 0.403442 0.565948
0.230255 0.291412 0.565155
0.425232 0.067261 0.583008
0.611908 0.103027 0.730469
0.739502 0.215302 0.827911
0.768738 0.245117 0.851257
0.769135 0.244141 0.851013
0.000000 0.400391 0.562103
0.000000 0.395386 0.555176
0.051392 0.415253 0.556946
0.189636 0.383881 0.551575
0.402344 0.183807 0.542694
0.605438 0.184509 0.689117
0.780304 0.316498 0.830627
0.816772 0.347198 0.864532
0.814545 0.339813 0.864197
0.000000 0.416077 0.587860
0.000000 0.411469 0.581329
0.034607 0.421783 0.569275
0.162018 0.438171 0.554535
0.375061 0.336487 0.534332
0.609558 0.308472 0.636871
0.858398 0.487396 0.798126
0.912567 0.539215 0.842987
0.911896 0.534393 0.843353
0.000244 0.457458 0.646393
0.000061 0.452942 0.640503
0.012207 0.451385 0.626465
0.125244 0.469116 0.599426
0.346985 0.489380 0.580139
0.625854 0.456482 0.602936
0.876221 0.580261 0.675659
0.954590 0.653046 0.734528
0.954285 0.648712 0.733246
0.014221 0.520264 0.720947
0.012238 0.515350 0.715607
0.018982 0.510040 0.704803
0.094696 0.518280 0.681519
0.274994 0.541626 0.643036
0.587555 0.604858 0.620087
0.849213 0.660461 0.588654
0.971771 0.752258 0.666779
0.974335 0.750946 0.665833
0.077393 0.578339 0.771027
0.070160 0.572998 0.766663
0.064606 0.565918 0.759247
0.101440 0.566650 0.745087
0.216858 0.579407 0.717377
0.424011 0.628876 0.686798
0.747894 0.741913 0.620300
0.952820 0.792786 0.635284
0.967926 0.798370 0.639679
0.102753 0.594788 0.781677
0.095734 0.590607 0.778625
0.086121 0.584930 0.774506
0.110077 0.586426 0.767120
0.197632 0.607025 0.761322
0.326324 0.656860 0.777405
0.539154 0.765900 0.785034
0.861298 0.890808 0.673584
0.906433 0.885101 0.663208
0.087311 0.586548 0.775940
0.081696 0.583344 0.773682
0.074310 0.579163 0.770721
0.093628 0.580841 0.765167
0.179688 0.603485 0.762970
0.307037 0.656769 0.785217
0.482605 0.748779 0.807098
0.808472 0.923553 0.700439
0.883423 0.942810 0.692291
0.000000 0.409485 0.589142
0.002014 0.422119 0.598938
0.055817 0.440063 0.621948
0.231506 0.356354 0.634491
0.453644 0.115387 0.637695
0.615570 0.131439 0.766571
0.734589 0.246368 0.856598
0.760071 0.273163 0.874725
0.760193 0.272888 0.874390
0.000000 0.416077 0.592834
0.001495 0.420380 0.595581
0.041931 0.442322 0.616150
0.197388 0.377747 0.629364
0.432739 0.137207 0.629730
0.586792 0.108765 0.741394
0.727203 0.236755 0.849457
0.760498 0.272003 0.873352
0.760620 0.271698 0.872986
0.000000 0.437561 0.613647
0.000000 0.435364 0.610779
0.038696 0.459900 0.622498
0.159302 0.464966 0.637787
0.392792 0.290833 0.631134
0.571320 0.176575 0.705750
0.747192 0.310669 0.852936
0.786896 0.344910 0.884521
0.784851 0.338531 0.883026
0.000000 0.462372 0.649658
0.000000 0.460175 0.646545
0.028107 0.475037 0.644653
0.137054 0.507141 0.652588
0.332916 0.464355 0.657471
0.563965 0.298035 0.679321
0.790161 0.447327 0.864990
0.850037 0.503479 0.913116
0.848328 0.497833 0.911163
0.000916 0.506470 0.709198
0.000702 0.503448 0.705353
0.012299 0.505188 0.698181
0.110474 0.532898 0.691803
0.291077 0.571075 0.694214
0.560913 0.484039 0.704865
0.817047 0.565979 0.847015
0.924622 0.666473 0.916962
0.923889 0.662018 0.913727
0.038422 0.578430 0.788086
0.034485 0.573517 0.783081
0.038635 0.568573 0.774261
0.106537 0.579437 0.760529
0.268005 0.613464 0.744049
0.538483 0.659119 0.749664
0.813507 0.667816 0.793640
0.962555 0.777130 0.842957
0.966217 0.776825 0.839050
0.185455 0.666626 0.852264
0.174255 0.659912 0.847260
0.163483 0.651306 0.839508
0.190521 0.650208 0.827332
0.298889 0.668121 0.809631
0.496429 0.713837 0.795959
0.778198 0.784790 0.781250
0.953064 0.851135 0.785889
0.966003 0.856628 0.785828
0.282379 0.705566 0.867676
0.274658 0.700836 0.864044
0.264740 0.694611 0.859192
0.281158 0.693542 0.851379
0.349243 0.704895 0.840698
0.454926 0.729095 0.832336
0.652985 0.808472 0.846283
0.896973 0.922119 0.811096
0.929565 0.926697 0.803040
0.272247 0.697723 0.860504
0.266571 0.694000 0.857513
0.259003 0.689026 0.853485
0.273743 0.688324 0.846710
0.336426 0.698822 0.836975
0.432739 0.721222 0.829803
0.612732 0.798859 0.852661
0.863281 0.938782 0.826172
0.915802 0.961334 0.817413
0.000000 0.411560 0.592072
0.001617 0.424377 0.602631
0.052277 0.445068 0.627411
0.223236 0.371735 0.643158
0.453491 0.128906 0.644501
0.608704 0.129303 0.765533
0.731354 0.248016 0.859711
0.758545 0.277435 0.879730
0.758545 0.277435 0.879730
0.000000 0.420349 0.599365
0.001282 0.424866 0.602875
0.038086 0.448944 0.625366
0.188049 0.396179 0.642456
0.432007 0.158936 0.641815
0.579407 0.107635 0.740784
0.723114 0.239105 0.853638
0.758545 0.277435 0.879730
0.758545 0.277435 0.879730
0.000000 0.444946 0.623962
0.000000 0.443604 0.622284
0.035187 0.468628 0.635834
0.150757 0.480560 0.654999
0.386078 0.320770 0.653015
0.563782 0.173645 0.707214
0.740204 0.307373 0.857697
0.782013 0.344208 0.891296
0.779938 0.338379 0.890228
0.000000 0.471619 0.661896
0.000000 0.470154 0.659760
0.025879 0.485535 0.659851
0.130371 0.520233 0.672180
0.319824 0.495270 0.685608
0.558868 0.301849 0.689667
0.775452 0.434021 0.869843
0.836945 0.492126 0.923004
0.834808 0.486572 0.921692
0.001495 0.515625 0.720856
0.001343 0.513489 0.718109
0.011871 0.515961 0.712860
0.105560 0.546112 0.711670
0.276947 0.592651 0.724762
0.545227 0.513672 0.737518
0.786743 0.538025 0.862549
0.894623 0.642090 0.959869
0.892761 0.637146 0.958679
0.042603 0.591858 0.804352
0.038879 0.588287 0.800964
0.042664 0.585175 0.794891
0.105042 0.598572 0.787170
0.257629 0.641235 0.785858
0.507263 0.699493 0.805756
0.781921 0.653656 0.853119
0.936432 0.769745 0.977112
0.941406 0.771667 0.980072
0.227356 0.705841 0.890625
0.217743 0.700989 0.887634
0.207092 0.694580 0.882812
0.227386 0.695068 0.875153
0.326141 0.718506 0.868378
0.518433 0.773651 0.869965
0.773926 0.820587 0.889648
0.958008 0.873383 0.968903
0.972351 0.881744 0.977173
0.399353 0.787262 0.936707
0.395294 0.785065 0.935211
0.390015 0.782196 0.933258
0.409546 0.786072 0.931122
0.474884 0.803345 0.929596
0.598480 0.841339 0.933838
0.775055 0.898560 0.945374
0.948029 0.950500 0.950714
0.975586 0.966339 0.959412
0.405731 0.789368 0.937073
0.404449 0.788452 0.936310
0.402710 0.787231 0.935272
0.422607 0.791901 0.934082
0.481323 0.806458 0.931488
0.591583 0.838715 0.932892
0.753815 0.892273 0.944458
0.922882 0.963348 0.958466
0.963715 0.986816 0.958710
0.000000 0.411560 0.592072
0.001495 0.423981 0.602295
0.050995 0.445129 0.627136
0.220367 0.373749 0.643127
0.452148 0.130798 0.644165
0.606262 0.127197 0.763550
0.730621 0.247223 0.859161
0.758545 0.277435 0.879730
0.758545 0.277435 0.879730
0.000000 0.419983 0.599030
0.001190 0.424103 0.602295
0.036896 0.448364 0.624878
0.185883 0.396820 0.642242
0.430420 0.161133 0.641663
0.577332 0.106140 0.739044
0.722412 0.238342 0.853119
0.758545 0.277435 0.879730
0.758545 0.277435 0.879730
0.000000 0.444611 0.623566
0.000000 0.443268 0.621887
0.034271 0.467957 0.635376
0.148926 0.480164 0.654572
0.383392 0.321869 0.652924
0.561768 0.171570 0.705750
0.738861 0.304840 0.856842
0.781311 0.342224 0.890930
0.779236 0.336426 0.889862
0.000000 0.471222 0.661316
0.000000 0.469788 0.659180
0.025208 0.484863 0.659332
0.128784 0.519409 0.671600
0.317322 0.495148 0.685181
0.556702 0.300293 0.688324
0.773254 0.430634 0.868195
0.836243 0.490265 0.922546
0.834015 0.484467 0.921173
0.001465 0.515015 0.720062
0.001282 0.512817 0.717285
0.011230 0.515045 0.712067
0.104095 0.545074 0.710815
0.274597 0.591522 0.723938
0.542084 0.512909 0.736420
0.783813 0.534088 0.860138
0.894012 0.640442 0.959473
0.892120 0.635468 0.958282
0.041473 0.590790 0.803314
0.037628 0.587067 0.799835
0.041412 0.583984 0.793793
0.102997 0.597260 0.786133
0.255096 0.639832 0.784882
0.503967 0.697998 0.804626
0.778931 0.650726 0.851776
0.934082 0.766785 0.978912
0.939148 0.769135 0.984100
0.224426 0.704376 0.889771
0.214996 0.699585 0.886749
0.204193 0.693207 0.882080
0.225006 0.694519 0.875305
0.323639 0.718689 0.869598
0.516022 0.775055 0.872742
0.771851 0.822754 0.894470
0.956543 0.872314 0.980530
0.971191 0.881622 0.992889
0.402649 0.789917 0.939117
0.399811 0.788574 0.938354
0.396027 0.786804 0.937378
0.416473 0.791718 0.936310
0.481598 0.809875 0.936005
0.606079 0.849213 0.941772
0.788971 0.910980 0.957642
0.959778 0.961487 0.979034
0.989075 0.976624 0.998016
0.414154 0.795319 0.942139
0.414154 0.795319 0.942139
0.414154 0.795319 0.942139
0.435120 0.801147 0.942047
0.496307 0.818756 0.942749
0.612000 0.856110 0.949066
0.785248 0.917114 0.967133
0.948700 0.980347 0.991882
0.990692 0.999390 1.000000
