nova/tdt-studio/app/Lut_mau/IWLTBAP/1 - LUTs by IWLTBAP (CUBE)/02 - Generic LOG/Cinematic/F-6800-LOG.cube
# Copyright: (C) Copyright 2010-2019 by IWLTBAP SAS
# Cannot be resold, shared or otherwise redistributed
# Website: https://luts.iwltbap.com
TITLE "IWLTBAP 6800 (LOG)"
LUT_3D_SIZE 5
0.000000 0.000000 0.000000
0.302185 0.012054 0.003387
0.682892 0.023193 0.002747
0.928497 0.246155 0.174835
0.941162 0.268646 0.196167
0.003326 0.135284 0.184845
0.197052 0.158905 0.093109
0.630035 0.148682 0.001587
0.925903 0.341461 0.162872
0.949127 0.367584 0.206268
0.000000 0.310211 0.431396
0.021881 0.314423 0.417999
0.427429 0.385284 0.153015
0.923248 0.459198 0.172791
0.973053 0.545624 0.270569
0.000000 0.488586 0.670929
0.002777 0.483093 0.660248
0.136261 0.537018 0.661652
0.656891 0.646301 0.255615
0.950928 0.575043 0.256134
0.000000 0.532928 0.728424
0.000000 0.532928 0.728424
0.105438 0.591064 0.752045
0.422760 0.772644 0.679047
0.838501 0.906555 0.480408
0.000549 0.123840 0.176971
0.203339 0.034363 0.226959
0.637573 0.075775 0.390167
0.920349 0.263550 0.418182
0.936035 0.280853 0.401306
0.000366 0.181824 0.257874
0.152252 0.171112 0.199371
0.569061 0.154022 0.125610
0.917084 0.329742 0.265656
0.945374 0.357819 0.290710
0.000000 0.303070 0.435822
0.014038 0.305145 0.418091
0.427368 0.388824 0.187134
0.919830 0.466461 0.188873
0.972961 0.553497 0.285309
0.000000 0.484039 0.667877
0.002380 0.478577 0.656769
0.132446 0.531952 0.657410
0.653015 0.641510 0.252258
0.952667 0.575043 0.257416
0.000000 0.532928 0.728424
0.000000 0.532928 0.728424
0.102539 0.589691 0.751434
0.415070 0.767670 0.686462
0.838501 0.906555 0.480408
0.000000 0.293060 0.422882
0.117004 0.256744 0.431122
0.473480 0.030212 0.567535
0.778656 0.230774 0.863617
0.805542 0.264374 0.892548
0.000000 0.313110 0.440521
0.080597 0.319153 0.419556
0.441833 0.152252 0.477417
0.858948 0.376862 0.824005
0.895752 0.411285 0.864777
0.000000 0.401093 0.574219
0.012421 0.393219 0.548767
0.409515 0.436890 0.464447
0.899384 0.562286 0.492401
0.970215 0.631195 0.559265
0.003723 0.493835 0.696533
0.004242 0.483856 0.683807
0.132477 0.517426 0.660706
0.696289 0.699585 0.463776
0.961975 0.703400 0.474457
0.002106 0.532471 0.740601
0.001343 0.531494 0.739960
0.110535 0.582458 0.755341
0.393799 0.727966 0.769226
0.844971 0.924133 0.568390
0.000000 0.409485 0.589142
0.055817 0.440063 0.621948
0.453644 0.115387 0.637695
0.734589 0.246368 0.856598
0.760193 0.272888 0.874390
0.000000 0.437561 0.613647
0.038696 0.459900 0.622498
0.392792 0.290833 0.631134
0.747192 0.310669 0.852936
0.784851 0.338531 0.883026
0.000916 0.506470 0.709198
0.012299 0.505188 0.698181
0.291077 0.571075 0.694214
0.817047 0.565979 0.847015
0.923889 0.662018 0.913727
0.185455 0.666626 0.852264
0.163483 0.651306 0.839508
0.298889 0.668121 0.809631
0.778198 0.784790 0.781250
0.966003 0.856628 0.785828
0.272247 0.697723 0.860504
0.259003 0.689026 0.853485
0.336426 0.698822 0.836975
0.612732 0.798859 0.852661
0.915802 0.961334 0.817413
0.000000 0.411560 0.592072
0.050995 0.445129 0.627136
0.452148 0.130798 0.644165
0.730621 0.247223 0.859161
0.758545 0.277435 0.879730
0.000000 0.444611 0.623566
0.034271 0.467957 0.635376
0.383392 0.321869 0.652924
0.738861 0.304840 0.856842
0.779236 0.336426 0.889862
0.001465 0.515015 0.720062
0.011230 0.515045 0.712067
0.274597 0.591522 0.723938
0.783813 0.534088 0.860138
0.892120 0.635468 0.958282
0.224426 0.704376 0.889771
0.204193 0.693207 0.882080
0.323639 0.718689 0.869598
0.771851 0.822754 0.894470
0.971191 0.881622 0.992889
0.414154 0.795319 0.942139
0.414154 0.795319 0.942139
0.496307 0.818756 0.942749
0.785248 0.917114 0.967133
0.990692 0.999390 1.000000
