nova/tdt-studio/app/Lut_mau/IWLTBAP/1 - LUTs by IWLTBAP (CUBE)/02 - Generic LOG/Cinematic/F-8700-LOG.cube
# Copyright: (C) Copyright 2010-2019 by IWLTBAP SAS
# Cannot be resold, shared or otherwise redistributed
# Website: https://luts.iwltbap.com
TITLE "IWLTBAP 8700 (LOG)"
LUT_3D_SIZE 33
0.036011 0.041229 0.046570
0.041461 0.043588 0.047360
0.047768 0.046287 0.048412
0.055335 0.049446 0.050753
0.066638 0.052091 0.051635
0.082436 0.054739 0.051989
0.100785 0.057554 0.051889
0.122232 0.061030 0.051653
0.146331 0.064652 0.051334
0.172798 0.067662 0.050812
0.200675 0.069762 0.049189
0.228100 0.071688 0.047612
0.254011 0.074201 0.047407
0.281468 0.076826 0.049063
0.311138 0.078546 0.051633
0.344707 0.081270 0.054490
0.382096 0.085610 0.057551
0.421309 0.090150 0.060746
0.462236 0.094678 0.064170
0.503680 0.099282 0.067764
0.543896 0.103809 0.071358
0.583205 0.108416 0.075055
0.621421 0.113191 0.078940
0.656728 0.117846 0.082705
0.688324 0.122230 0.086215
0.717082 0.126305 0.089561
0.743289 0.130474 0.092822
0.767647 0.134719 0.096042
0.787851 0.138552 0.098813
0.807588 0.142771 0.101761
0.824905 0.146866 0.104423
0.841518 0.151598 0.107070
0.857452 0.157867 0.109863
0.037695 0.050404 0.050343
0.042997 0.051760 0.051720
0.048962 0.053064 0.050373
0.056023 0.056128 0.051520
0.066770 0.059858 0.054676
0.083535 0.062712 0.054691
0.103955 0.065287 0.053836
0.124962 0.068038 0.053107
0.149109 0.071508 0.052313
0.175556 0.074462 0.051471
0.205077 0.076724 0.049999
0.232823 0.078672 0.047811
0.259522 0.081421 0.047520
0.288608 0.084371 0.049841
0.320000 0.086593 0.053076
0.354218 0.088956 0.056183
0.392209 0.092571 0.059350
0.432370 0.097042 0.062638
0.473909 0.101819 0.066131
0.515677 0.106764 0.069852
0.555780 0.111573 0.073512
0.594712 0.116389 0.077259
0.631377 0.121232 0.081023
0.665148 0.125898 0.084623
0.695324 0.130361 0.088064
0.723537 0.134692 0.091434
0.749666 0.139086 0.094763
0.772492 0.143172 0.097773
0.792395 0.147108 0.100539
0.811738 0.151341 0.103472
0.828491 0.155632 0.106068
0.845046 0.161084 0.108818
0.860784 0.166942 0.111581
0.039406 0.059701 0.053449
0.044486 0.060760 0.054459
0.050736 0.062535 0.054073
0.058290 0.064054 0.053405
0.070333 0.068667 0.055873
0.087753 0.071321 0.056208
0.107880 0.073812 0.055079
0.129582 0.076884 0.053848
0.154891 0.079724 0.052563
0.184395 0.081999 0.051331
0.212488 0.083877 0.049598
0.240078 0.085871 0.048019
0.268610 0.088870 0.048333
0.299093 0.091973 0.050921
0.332503 0.094637 0.054652
0.367387 0.096848 0.058120
0.405466 0.099934 0.061382
0.446033 0.104348 0.064767
0.487598 0.109315 0.068334
0.529470 0.114501 0.072113
0.569111 0.119610 0.075835
0.607376 0.124801 0.079624
0.642640 0.129767 0.083289
0.674903 0.134451 0.086806
0.704330 0.139175 0.090239
0.731324 0.143727 0.093520
0.756670 0.148412 0.096824
0.778603 0.153005 0.099814
0.797360 0.157353 0.102530
0.816290 0.162350 0.105470
0.833704 0.167543 0.108290
0.849296 0.172706 0.110963
0.864003 0.178116 0.113550
0.041106 0.069548 0.055903
0.046177 0.070928 0.056321
0.052268 0.073360 0.057166
0.059634 0.074827 0.056745
0.074581 0.077426 0.055741
0.092153 0.079195 0.057371
0.112892 0.081764 0.056352
0.136029 0.084901 0.054713
0.162948 0.087988 0.053165
0.191278 0.090151 0.051467
0.221251 0.092070 0.049629
0.249240 0.094566 0.048838
0.278417 0.097909 0.049910
0.309714 0.101628 0.052460
0.343381 0.105114 0.055970
0.378959 0.107813 0.059747
0.416448 0.110162 0.063334
0.456611 0.113793 0.066866
0.499396 0.118985 0.070636
0.541002 0.124328 0.074406
0.579682 0.129521 0.078079
0.618214 0.134974 0.082002
0.653430 0.140291 0.085791
0.685683 0.145458 0.089449
0.713857 0.150317 0.092772
0.738637 0.155046 0.095831
0.762825 0.160128 0.099041
0.784089 0.165049 0.102018
0.802372 0.169575 0.104666
0.820709 0.174641 0.107581
0.837965 0.179959 0.110489
0.853654 0.185280 0.113184
0.867861 0.190262 0.115735
0.042989 0.082197 0.057562
0.048085 0.082894 0.058623
0.053973 0.085009 0.059978
0.060866 0.088048 0.060677
0.071474 0.089889 0.058185
0.094443 0.089785 0.056954
0.118450 0.090806 0.056486
0.143478 0.093301 0.055923
0.172230 0.096206 0.054061
0.201168 0.098124 0.052008
0.230612 0.100624 0.050743
0.258777 0.103859 0.050849
0.289257 0.107986 0.052258
0.321731 0.112443 0.054581
0.356445 0.116687 0.058024
0.393262 0.120518 0.062040
0.430617 0.123497 0.065867
0.468712 0.126515 0.069381
0.509792 0.131219 0.073046
0.551808 0.136936 0.076954
0.591135 0.142426 0.080756
0.628722 0.147995 0.084630
0.663268 0.153503 0.088446
0.695044 0.159030 0.092173
0.722360 0.164079 0.095445
0.747148 0.169085 0.098637
0.769921 0.174038 0.101719
0.790521 0.178990 0.104639
0.808440 0.183711 0.107317
0.825993 0.188778 0.110120
0.842304 0.193788 0.112848
0.857329 0.199219 0.115356
0.872771 0.206297 0.117759
0.044496 0.094725 0.058275
0.049679 0.095282 0.060059
0.055544 0.098212 0.061611
0.062062 0.101226 0.062347
0.071343 0.105415 0.062186
0.093283 0.103826 0.058174
0.121741 0.101455 0.056623
0.150643 0.102664 0.055859
0.181775 0.104939 0.054292
0.210711 0.106668 0.053090
0.239409 0.109385 0.052596
0.269488 0.113138 0.053420
0.301880 0.117635 0.054893
0.335211 0.122394 0.057127
0.370639 0.127172 0.060550
0.408457 0.131877 0.064558
0.446716 0.135792 0.068490
0.485147 0.139188 0.072275
0.525241 0.143834 0.076065
0.565493 0.149795 0.079878
0.603309 0.155734 0.083655
0.639328 0.161717 0.087479
0.672857 0.167772 0.091279
0.703169 0.173467 0.094860
0.729812 0.178644 0.098132
0.753983 0.183837 0.101293
0.776261 0.189081 0.104374
0.796766 0.194328 0.107366
0.814677 0.199378 0.109897
0.832093 0.205222 0.112177
0.850248 0.212950 0.113954
0.868630 0.223289 0.113262
0.887642 0.235206 0.112684
0.045914 0.108173 0.059389
0.051206 0.109731 0.061542
0.056948 0.112273 0.063054
0.063336 0.114664 0.064000
0.071690 0.119028 0.064393
0.090830 0.121135 0.061138
0.120529 0.116842 0.058535
0.154712 0.115069 0.056207
0.190055 0.114515 0.054340
0.220953 0.115851 0.054326
0.250741 0.119103 0.054982
0.281649 0.123225 0.056230
0.315390 0.128027 0.057756
0.350741 0.133125 0.060105
0.387324 0.138163 0.063394
0.425205 0.142894 0.067340
0.464196 0.147200 0.071556
0.503397 0.151396 0.075547
0.543062 0.156605 0.079390
0.582597 0.163041 0.083298
0.619593 0.169622 0.087116
0.654090 0.176041 0.090861
0.685785 0.182191 0.094584
0.714879 0.188329 0.098110
0.740635 0.194671 0.101251
0.764649 0.201850 0.103869
0.787905 0.210038 0.105854
0.810726 0.219656 0.106497
0.831224 0.229186 0.106688
0.850408 0.237220 0.106505
0.869695 0.246033 0.105260
0.886772 0.254553 0.103229
0.903705 0.263685 0.101131
0.047169 0.119823 0.060518
0.052603 0.123418 0.062818
0.058270 0.126693 0.063978
0.064383 0.129900 0.064471
0.071873 0.133301 0.065031
0.088166 0.136865 0.063379
0.119075 0.136678 0.059477
0.154703 0.130673 0.057975
0.194545 0.126539 0.055560
0.229839 0.126275 0.055737
0.262194 0.129372 0.057160
0.294452 0.133874 0.058730
0.329293 0.139031 0.060647
0.365645 0.144229 0.063069
0.403781 0.149423 0.066229
0.443013 0.154390 0.070325
0.483227 0.158967 0.074828
0.523288 0.163709 0.079025
0.562381 0.169315 0.082947
0.600990 0.175978 0.086871
0.637441 0.183141 0.090766
0.671149 0.190101 0.094614
0.701530 0.196864 0.098245
0.729531 0.204707 0.101233
0.757687 0.214913 0.103388
0.783028 0.225548 0.104434
0.805807 0.235373 0.104277
0.828364 0.245257 0.103466
0.848787 0.254394 0.102479
0.867083 0.262566 0.101179
0.884775 0.271073 0.099136
0.901343 0.279564 0.096902
0.916841 0.288389 0.094308
0.048486 0.131058 0.062039
0.053900 0.135327 0.064002
0.059496 0.139841 0.064967
0.065324 0.145256 0.064806
0.072308 0.149104 0.064743
0.084370 0.153353 0.063979
0.116856 0.156413 0.060914
0.155281 0.152331 0.058746
0.196405 0.143737 0.057418
0.236271 0.139448 0.057293
0.273646 0.140922 0.058819
0.308570 0.145268 0.061184
0.344740 0.150684 0.063700
0.381525 0.156168 0.066317
0.420837 0.161624 0.069532
0.461604 0.166767 0.073645
0.502624 0.171569 0.078165
0.543344 0.176763 0.082574
0.582408 0.182805 0.086663
0.620403 0.189962 0.090638
0.656754 0.197833 0.094760
0.689793 0.205512 0.098559
0.719540 0.213834 0.101507
0.748022 0.223948 0.103358
0.775640 0.235513 0.104406
0.800607 0.246563 0.104228
0.822862 0.256747 0.102712
0.843852 0.266186 0.101235
0.863260 0.275238 0.100304
0.880991 0.283967 0.097939
0.897568 0.292883 0.095914
0.912552 0.302480 0.093738
0.927009 0.311493 0.091934
0.049591 0.143943 0.062687
0.055058 0.148264 0.065063
0.060813 0.152417 0.066640
0.066408 0.158444 0.066108
0.072690 0.165200 0.064084
0.082288 0.169812 0.063462
0.111362 0.174458 0.061452
0.153285 0.175105 0.058716
0.197528 0.167590 0.059587
0.241416 0.157336 0.058962
0.282762 0.154382 0.060342
0.321581 0.157485 0.063492
0.360645 0.162956 0.066708
0.398916 0.168784 0.069543
0.439416 0.174677 0.072690
0.480993 0.179970 0.076785
0.522526 0.185072 0.081597
0.563115 0.190573 0.086191
0.602024 0.197111 0.090297
0.639988 0.205001 0.094450
0.675427 0.213397 0.098511
0.708251 0.222593 0.101756
0.738332 0.232771 0.103648
0.766645 0.243989 0.104279
0.792391 0.255019 0.104211
0.816535 0.265483 0.103401
0.837740 0.275267 0.101459
0.857245 0.284762 0.099681
0.875844 0.294143 0.098194
0.892958 0.303908 0.096185
0.907896 0.314118 0.094484
0.922437 0.324158 0.092476
0.935581 0.334046 0.091526
0.050834 0.159132 0.063829
0.056080 0.162526 0.065673
0.061935 0.165966 0.067772
0.067400 0.171249 0.067163
0.073238 0.179388 0.064103
0.081673 0.183614 0.063419
0.105961 0.189843 0.061534
0.146499 0.194734 0.059926
0.196191 0.196609 0.061625
0.244992 0.185250 0.061708
0.290874 0.173832 0.061774
0.334404 0.172440 0.064628
0.377698 0.177036 0.068953
0.418599 0.182778 0.072564
0.459507 0.188826 0.075977
0.501430 0.194491 0.080364
0.543419 0.200021 0.085317
0.583600 0.205710 0.089793
0.622315 0.212942 0.093906
0.660143 0.221992 0.098050
0.694905 0.231323 0.101417
0.727288 0.241752 0.103408
0.756602 0.252524 0.104237
0.783702 0.263595 0.104028
0.808268 0.273936 0.103262
0.830806 0.284066 0.101987
0.850485 0.293695 0.100339
0.869043 0.303646 0.098648
0.886499 0.313800 0.097190
0.902988 0.324043 0.095004
0.917217 0.334871 0.093459
0.931690 0.345775 0.091952
0.944198 0.356708 0.090527
0.051846 0.175374 0.064516
0.056856 0.178160 0.065648
0.062576 0.181863 0.067543
0.068049 0.186707 0.067309
0.073886 0.193760 0.065148
0.081600 0.197956 0.064450
0.102316 0.205815 0.062653
0.140059 0.213358 0.061575
0.193061 0.221805 0.062466
0.245987 0.219742 0.065523
0.298792 0.203398 0.064304
0.347060 0.192591 0.065453
0.393638 0.193095 0.069974
0.437843 0.198106 0.074843
0.480122 0.203761 0.079234
0.522301 0.209592 0.084077
0.564565 0.215866 0.089039
0.604917 0.222523 0.093257
0.643411 0.230599 0.097203
0.680126 0.240134 0.100644
0.713634 0.250151 0.102690
0.745204 0.261195 0.103707
0.773437 0.272007 0.103924
0.799177 0.282737 0.103387
0.822444 0.292975 0.102476
0.843306 0.303155 0.100797
0.861715 0.312900 0.099137
0.879496 0.323548 0.097623
0.896268 0.334293 0.095816
0.911051 0.345025 0.094206
0.925060 0.356004 0.092529
0.938770 0.367730 0.091770
0.951720 0.379502 0.089703
0.052531 0.192683 0.065191
0.057414 0.195984 0.065823
0.062930 0.200424 0.067127
0.068445 0.204743 0.067321
0.074501 0.210730 0.066337
0.081836 0.215942 0.065919
0.099214 0.224542 0.064719
0.137163 0.233925 0.063509
0.189621 0.244524 0.063333
0.246721 0.251411 0.068654
0.302392 0.243186 0.069918
0.358953 0.224108 0.067452
0.409986 0.214340 0.069944
0.456517 0.215936 0.075837
0.501032 0.220864 0.081919
0.544013 0.226318 0.087680
0.585809 0.232911 0.092577
0.625558 0.240685 0.096547
0.663955 0.249783 0.099960
0.700239 0.260018 0.102398
0.732526 0.270566 0.103464
0.762172 0.281409 0.103847
0.789058 0.291955 0.103555
0.813646 0.302466 0.102606
0.835295 0.312833 0.101541
0.855039 0.323216 0.099554
0.872306 0.333339 0.097876
0.889241 0.344295 0.096163
0.904827 0.355311 0.094310
0.918763 0.367050 0.092931
0.932537 0.378697 0.091533
0.946360 0.391129 0.090812
0.958890 0.402615 0.090086
0.053402 0.209884 0.066922
0.058213 0.214649 0.067315
0.063568 0.220116 0.067928
0.069106 0.224431 0.068185
0.075325 0.229942 0.067911
0.082656 0.236572 0.067681
0.096344 0.245437 0.067109
0.135111 0.255434 0.065950
0.187691 0.266885 0.065249
0.248036 0.278852 0.069585
0.305508 0.282317 0.075224
0.366220 0.267771 0.073258
0.425623 0.246657 0.071288
0.476298 0.238057 0.075438
0.521887 0.240436 0.082602
0.565485 0.245434 0.089759
0.607303 0.251881 0.095403
0.646803 0.260082 0.099268
0.684216 0.269742 0.101950
0.719132 0.280349 0.103438
0.750085 0.290972 0.103823
0.778281 0.301510 0.103469
0.803430 0.311832 0.102664
0.826152 0.322209 0.101319
0.846867 0.332867 0.099864
0.865415 0.343548 0.098035
0.881897 0.354381 0.096553
0.898132 0.365644 0.094542
0.912536 0.377250 0.093124
0.926009 0.389739 0.091363
0.940096 0.402445 0.090492
0.953862 0.414923 0.090329
0.966073 0.426716 0.091324
0.054585 0.227948 0.069303
0.059429 0.233754 0.069660
0.064794 0.240711 0.069932
0.070427 0.245730 0.070164
0.076771 0.251102 0.070153
0.084178 0.258625 0.069956
0.096448 0.267367 0.069932
0.135749 0.278472 0.068646
0.188700 0.290716 0.067752
0.249151 0.305616 0.069574
0.311534 0.316491 0.077882
0.369822 0.314896 0.081284
0.436996 0.294262 0.076584
0.496184 0.272257 0.075414
0.543414 0.264677 0.081108
0.587348 0.267495 0.089063
0.629633 0.273675 0.095914
0.668687 0.281348 0.100441
0.704455 0.290477 0.102741
0.737385 0.300735 0.103498
0.766638 0.311218 0.103338
0.793406 0.321847 0.102449
0.817012 0.332402 0.101159
0.838032 0.342893 0.099622
0.857406 0.353621 0.097871
0.874529 0.364623 0.096474
0.890514 0.376077 0.094965
0.905847 0.388379 0.092946
0.919483 0.400357 0.092082
0.932306 0.413341 0.091043
0.946392 0.426005 0.090812
0.960070 0.438664 0.091905
0.971330 0.451181 0.092984
0.056254 0.247394 0.071960
0.061169 0.253577 0.072280
0.066657 0.261681 0.072521
0.072376 0.268161 0.072753
0.078833 0.273579 0.072831
0.086282 0.281475 0.072623
0.098291 0.290789 0.072669
0.138918 0.303262 0.071269
0.192613 0.316251 0.070246
0.251961 0.331895 0.070378
0.318627 0.347565 0.078266
0.377926 0.355102 0.086573
0.441155 0.349490 0.086204
0.509188 0.325248 0.080110
0.564977 0.301392 0.079382
0.610047 0.294129 0.085728
0.652476 0.298023 0.093176
0.690625 0.304859 0.098605
0.724392 0.312732 0.101574
0.755235 0.321862 0.102347
0.782716 0.331944 0.101801
0.807559 0.342573 0.100693
0.829435 0.353274 0.099381
0.849163 0.364097 0.097780
0.867034 0.375153 0.096083
0.883169 0.386672 0.094498
0.898018 0.398614 0.093297
0.912269 0.411943 0.091757
0.925703 0.424462 0.091599
0.938733 0.437453 0.091597
0.952654 0.449775 0.092460
0.965877 0.462290 0.093996
0.974093 0.474732 0.095563
0.058525 0.268149 0.074897
0.063494 0.274788 0.075138
0.069025 0.283485 0.075392
0.074789 0.291364 0.075586
0.081283 0.297031 0.075668
0.088774 0.305070 0.075431
0.100907 0.315292 0.075576
0.144129 0.328882 0.074004
0.198942 0.342867 0.072908
0.257183 0.358533 0.072294
0.324379 0.377189 0.077496
0.389852 0.389901 0.087988
0.447795 0.397553 0.094143
0.511733 0.389573 0.091074
0.578548 0.360732 0.083305
0.631116 0.335095 0.081738
0.673182 0.327977 0.087386
0.710978 0.331417 0.093403
0.743227 0.337861 0.097120
0.771960 0.345544 0.098866
0.797237 0.354318 0.099250
0.819982 0.364159 0.098528
0.840093 0.374663 0.097130
0.858532 0.386085 0.095729
0.875161 0.397705 0.094474
0.890202 0.409852 0.093153
0.904112 0.422326 0.092406
0.917684 0.435664 0.091632
0.931040 0.448904 0.092105
0.944862 0.461614 0.092629
0.958886 0.474080 0.094530
0.969781 0.486959 0.096337
0.974937 0.499179 0.098168
0.061071 0.290194 0.077930
0.066092 0.297260 0.078119
0.071653 0.306601 0.078309
0.077441 0.314541 0.078466
0.083962 0.320734 0.078488
0.091430 0.329659 0.078198
0.105906 0.340568 0.078093
0.151705 0.354802 0.076606
0.206740 0.369578 0.075590
0.264199 0.386204 0.074833
0.329986 0.406292 0.077136
0.400120 0.423793 0.087616
0.461807 0.436146 0.097180
0.515730 0.444209 0.100606
0.579360 0.431571 0.094811
0.641575 0.399625 0.085419
0.688815 0.373577 0.082824
0.726516 0.364970 0.086573
0.758788 0.367230 0.090600
0.786081 0.373217 0.093116
0.809572 0.380464 0.094708
0.830705 0.388851 0.095340
0.849254 0.398375 0.094497
0.866608 0.409708 0.093522
0.881749 0.421840 0.092972
0.895694 0.434545 0.092488
0.909447 0.447405 0.092106
0.923080 0.460445 0.092139
0.936609 0.473499 0.093211
0.950880 0.485922 0.094759
0.963394 0.498954 0.097243
0.970526 0.512027 0.099583
0.974324 0.523174 0.100920
0.063738 0.313067 0.080982
0.068822 0.320833 0.081133
0.074428 0.330375 0.081239
0.080236 0.338206 0.081327
0.086813 0.344892 0.081302
0.094335 0.354825 0.081011
0.111821 0.367222 0.080059
0.160939 0.381559 0.078958
0.216678 0.397248 0.078121
0.274133 0.415136 0.077445
0.338399 0.435760 0.078026
0.409305 0.456737 0.086825
0.475628 0.472183 0.097815
0.528507 0.484584 0.104285
0.579368 0.490901 0.105511
0.638007 0.475443 0.098964
0.693464 0.442338 0.088903
0.735648 0.415966 0.084387
0.768649 0.406433 0.085552
0.796075 0.407211 0.087517
0.818799 0.412718 0.089176
0.839030 0.420028 0.090725
0.856349 0.427796 0.091304
0.873037 0.437281 0.091321
0.887463 0.448632 0.091747
0.900901 0.461167 0.091873
0.914401 0.473778 0.092433
0.928443 0.486648 0.093685
0.942564 0.498830 0.095344
0.956255 0.511445 0.097895
0.965375 0.524548 0.101145
0.969629 0.536152 0.103515
0.973177 0.545982 0.104880
0.066562 0.335936 0.084057
0.071706 0.344814 0.084134
0.077329 0.354526 0.084211
0.083193 0.363424 0.084175
0.089846 0.370351 0.084090
0.097568 0.379904 0.083933
0.118796 0.393910 0.082640
0.171971 0.409007 0.081478
0.229080 0.426261 0.080664
0.286345 0.445056 0.079906
0.348863 0.465795 0.079939
0.417995 0.488453 0.085897
0.485574 0.506551 0.097051
0.542549 0.520889 0.105739
0.588512 0.533761 0.110036
0.634516 0.538031 0.110699
0.687118 0.519409 0.104023
0.735338 0.486617 0.093613
0.771819 0.462326 0.087810
0.800388 0.452332 0.086850
0.823627 0.452678 0.087560
0.843710 0.457890 0.088622
0.860489 0.464227 0.089798
0.876746 0.471532 0.090868
0.891140 0.480347 0.092189
0.904411 0.491341 0.093289
0.918329 0.502964 0.094737
0.933280 0.514491 0.097062
0.947552 0.525752 0.099157
0.958387 0.538370 0.102610
0.964833 0.550193 0.106010
0.968365 0.561083 0.108144
0.972149 0.570151 0.109454
0.069488 0.358563 0.087141
0.074635 0.368140 0.087132
0.080339 0.378982 0.087106
0.086288 0.388759 0.086980
0.093031 0.396062 0.086852
0.101163 0.405443 0.086763
0.129914 0.420398 0.085132
0.184482 0.436597 0.084034
0.241958 0.454915 0.083169
0.298881 0.474559 0.082393
0.360303 0.495560 0.082156
0.426548 0.518676 0.085147
0.493513 0.538281 0.095631
0.553809 0.554335 0.106117
0.601175 0.568531 0.111810
0.640582 0.580749 0.114903
0.681847 0.581102 0.115082
0.726430 0.561024 0.109204
0.767179 0.531468 0.100243
0.798634 0.510168 0.094825
0.823341 0.501832 0.093249
0.844584 0.501547 0.093058
0.861984 0.505463 0.093804
0.877499 0.511405 0.095028
0.891850 0.518291 0.096432
0.905983 0.526488 0.098047
0.921234 0.535972 0.099473
0.937251 0.545764 0.101862
0.950815 0.555613 0.104438
0.958112 0.566885 0.108763
0.963319 0.577044 0.111209
0.967325 0.587681 0.112897
0.971038 0.595855 0.114448
0.072540 0.381921 0.090224
0.077697 0.391994 0.090151
0.083473 0.403934 0.090015
0.089550 0.414113 0.089865
0.096360 0.421911 0.089640
0.105338 0.431806 0.089360
0.142539 0.447848 0.087257
0.198051 0.464553 0.086611
0.255105 0.483672 0.085910
0.311946 0.503913 0.085079
0.373077 0.524942 0.084532
0.436798 0.547877 0.085539
0.502674 0.568767 0.094425
0.562863 0.585598 0.105556
0.612604 0.600670 0.112741
0.650577 0.613881 0.116650
0.684416 0.624161 0.119261
0.719875 0.622261 0.119301
0.757166 0.601050 0.114409
0.792351 0.574467 0.107847
0.819181 0.558025 0.104071
0.841594 0.551070 0.102339
0.860743 0.550244 0.102138
0.876560 0.553535 0.102928
0.892081 0.558699 0.103943
0.908078 0.564310 0.104987
0.923752 0.570760 0.106110
0.939425 0.579096 0.108302
0.951344 0.587472 0.111109
0.957626 0.597744 0.114575
0.961883 0.606237 0.116819
0.966186 0.614574 0.118057
0.969658 0.623017 0.120020
0.075670 0.405095 0.093205
0.080916 0.416262 0.093095
0.086713 0.429317 0.092909
0.092913 0.440309 0.092684
0.099838 0.448108 0.092345
0.109990 0.458760 0.091591
0.154561 0.475005 0.089863
0.212346 0.492071 0.089307
0.268935 0.511467 0.088686
0.325789 0.531873 0.087803
0.385638 0.553270 0.087266
0.447952 0.575680 0.087134
0.512575 0.597558 0.093645
0.570990 0.614466 0.104392
0.621603 0.629431 0.113090
0.661478 0.643617 0.117950
0.692140 0.655394 0.120781
0.720763 0.663821 0.122748
0.750935 0.658831 0.122510
0.782894 0.637205 0.119181
0.812592 0.614881 0.114975
0.836836 0.601680 0.112606
0.857474 0.596153 0.111738
0.876208 0.595188 0.111478
0.893408 0.597020 0.112089
0.910472 0.601315 0.112888
0.925990 0.606188 0.113861
0.940588 0.611531 0.115775
0.950268 0.618357 0.118392
0.956804 0.627470 0.120405
0.960263 0.634743 0.122876
0.963980 0.641734 0.124629
0.968015 0.650228 0.125980
0.078942 0.428116 0.096219
0.084219 0.440371 0.096060
0.090113 0.454253 0.095802
0.096421 0.465238 0.095478
0.103493 0.473421 0.095131
0.117173 0.486329 0.093987
0.169919 0.502090 0.092651
0.227839 0.520093 0.091963
0.284055 0.539049 0.091127
0.341335 0.559236 0.090340
0.400015 0.581020 0.089543
0.460373 0.602812 0.089131
0.522786 0.624551 0.093769
0.579291 0.641689 0.103561
0.628397 0.656254 0.112796
0.669704 0.670941 0.118727
0.700988 0.682921 0.122161
0.726348 0.692997 0.124336
0.751766 0.700002 0.126039
0.777825 0.693755 0.126125
0.804468 0.673276 0.123729
0.831290 0.653271 0.121270
0.854610 0.642370 0.120501
0.876145 0.638004 0.120283
0.894926 0.636902 0.120200
0.912392 0.638235 0.120713
0.928311 0.641780 0.121691
0.941275 0.645195 0.123471
0.949012 0.649083 0.125698
0.955538 0.654999 0.126567
0.958908 0.661940 0.128680
0.962188 0.669954 0.130944
0.966052 0.677971 0.132257
0.082282 0.452960 0.099258
0.087587 0.464172 0.099033
0.093603 0.478060 0.098705
0.100070 0.489001 0.098314
0.107614 0.498466 0.097999
0.130253 0.510909 0.096598
0.186830 0.527917 0.095447
0.244964 0.546382 0.094628
0.300575 0.566292 0.093634
0.357832 0.586758 0.092794
0.415599 0.607990 0.091950
0.473741 0.628804 0.091497
0.533231 0.649287 0.094684
0.587413 0.666536 0.103137
0.634895 0.680935 0.112399
0.676050 0.694962 0.119282
0.709123 0.708004 0.123298
0.734258 0.718612 0.125469
0.757384 0.728549 0.127739
0.781579 0.735065 0.129921
0.803547 0.727498 0.129868
0.825914 0.707192 0.127723
0.850715 0.689617 0.126846
0.874168 0.679985 0.127597
0.894487 0.676464 0.127993
0.913306 0.674925 0.128055
0.930033 0.675633 0.129024
0.940806 0.676861 0.130847
0.948178 0.679386 0.132216
0.953698 0.682433 0.133048
0.957704 0.688738 0.134279
0.961553 0.696496 0.135693
0.964591 0.703550 0.137728
0.085703 0.477064 0.102200
0.091181 0.488393 0.101996
0.097200 0.503292 0.101538
0.103851 0.513839 0.101071
0.112421 0.524201 0.100722
0.146614 0.537626 0.098001
0.205548 0.554550 0.098031
0.263406 0.573055 0.097348
0.317873 0.592625 0.096148
0.373235 0.613183 0.095443
0.430663 0.633111 0.094736
0.488090 0.653571 0.093947
0.544444 0.672935 0.096145
0.595644 0.689868 0.103211
0.640978 0.703983 0.112056
0.680863 0.716924 0.119390
0.714963 0.730509 0.124079
0.742740 0.743026 0.126972
0.765890 0.753308 0.129369
0.788070 0.762868 0.131856
0.809243 0.768205 0.134117
0.827416 0.760803 0.133878
0.846166 0.741654 0.131483
0.870072 0.724085 0.131485
0.892296 0.714941 0.133457
0.912713 0.711168 0.135147
0.929694 0.709803 0.136584
0.939389 0.708377 0.137778
0.946761 0.709618 0.138552
0.952363 0.711923 0.138672
0.956358 0.715625 0.139436
0.959740 0.720763 0.141154
0.963447 0.726383 0.142371
0.089266 0.498713 0.105245
0.094787 0.510987 0.104917
0.100992 0.527101 0.104413
0.107722 0.538047 0.103923
0.118037 0.549092 0.103154
0.166588 0.563709 0.100772
0.226190 0.579178 0.100823
0.280991 0.598361 0.099868
0.334372 0.618413 0.098861
0.389547 0.638244 0.098372
0.446017 0.657395 0.097728
0.501220 0.677024 0.097068
0.555086 0.695702 0.098289
0.603951 0.711826 0.103761
0.647244 0.725958 0.111793
0.685284 0.738214 0.119126
0.719157 0.751089 0.124423
0.749668 0.765249 0.128045
0.774564 0.776697 0.130713
0.794914 0.785367 0.132963
0.814949 0.793973 0.135764
0.833412 0.798342 0.138505
0.848479 0.790524 0.138093
0.865832 0.771404 0.135646
