nova/tdt-studio/app/Lut_mau/IWLTBAP/1 - LUTs by IWLTBAP (CUBE)/02 - Generic LOG/Cinematic/F-8700-V2-LOG.cube
# Copyright: (C) Copyright 2010-2019 by IWLTBAP SAS
# Cannot be resold, shared or otherwise redistributed
# Website: https://luts.iwltbap.com
TITLE "IWLTBAP 8700-V2 (LOG)"
LUT_3D_SIZE 9
0.000000 0.000000 0.000000
0.000000 0.000000 0.000000
0.134613 0.028069 0.001343
0.315586 0.047588 0.000000
0.501038 0.078201 0.004898
0.722885 0.112190 0.036979
0.875778 0.162727 0.056153
0.913330 0.182068 0.056610
0.913330 0.182068 0.056610
0.000000 0.010734 0.003631
0.000000 0.008400 0.000815
0.093445 0.028299 0.003861
0.272105 0.044807 0.000000
0.455166 0.070356 0.001087
0.691933 0.106670 0.032214
0.869815 0.159717 0.056035
0.913330 0.182068 0.056610
0.913330 0.182068 0.056610
0.000000 0.073539 0.012291
0.000000 0.073547 0.012651
0.090404 0.080974 0.001543
0.306257 0.089926 0.000000
0.510212 0.121738 0.003033
0.755430 0.177223 0.027233
0.924208 0.239275 0.026138
0.945393 0.248126 0.024730
0.944351 0.245445 0.025497
0.000000 0.153492 0.009972
0.000000 0.155772 0.009992
0.022050 0.191342 0.006328
0.333513 0.167876 0.000000
0.560808 0.183927 0.012379
0.799680 0.254152 0.025741
0.959798 0.344484 0.016822
0.980737 0.362923 0.015221
0.980446 0.361870 0.015190
0.000000 0.242356 0.010819
0.000000 0.246387 0.011175
0.007568 0.269428 0.016686
0.281119 0.336954 0.006368
0.596550 0.276772 0.010704
0.821554 0.320047 0.026333
0.972420 0.429996 0.023903
0.999971 0.463492 0.026781
0.999954 0.463256 0.026734
0.002598 0.360077 0.029213
0.003620 0.367820 0.030586
0.014758 0.389615 0.032167
0.249403 0.471926 0.023249
0.564711 0.556051 0.049392
0.826959 0.486502 0.034473
0.978309 0.544402 0.046846
1.000000 0.594830 0.060335
1.000000 0.595318 0.060444
0.036621 0.525497 0.057442
0.038995 0.536436 0.059221
0.054150 0.555216 0.060398
0.299050 0.643683 0.053641
0.569679 0.729081 0.050224
0.798406 0.797230 0.085389
0.968357 0.744575 0.087061
1.000000 0.754287 0.093461
1.000000 0.755096 0.093598
0.079716 0.654904 0.084419
0.080153 0.655905 0.084676
0.112553 0.667390 0.081601
0.383575 0.738427 0.069492
0.612623 0.814240 0.067654
0.817609 0.884739 0.087875
0.958307 0.922073 0.119355
1.000000 0.868347 0.110413
1.000000 0.868347 0.110413
0.080170 0.655945 0.084686
0.080170 0.655945 0.084686
0.120346 0.670158 0.080841
0.389713 0.740353 0.069450
0.603959 0.811279 0.067490
0.796406 0.877861 0.083019
0.936157 0.922508 0.115684
1.000000 0.869682 0.110733
1.000000 0.868347 0.110413
0.000000 0.000000 0.022812
0.000000 0.000124 0.025235
0.115367 0.029515 0.029949
0.303917 0.050788 0.010218
0.493374 0.076992 0.004818
0.716689 0.110985 0.036015
0.873543 0.161595 0.056122
0.913330 0.182068 0.056610
0.913330 0.182068 0.056610
0.000000 0.005143 0.019686
0.000000 0.004561 0.017741
0.084480 0.029222 0.015850
0.267898 0.044992 0.001601
0.452557 0.069902 0.001040
0.690300 0.106429 0.031974
0.870040 0.159834 0.056032
0.913330 0.182068 0.056610
0.913330 0.182068 0.056610
0.000000 0.074374 0.018933
0.000000 0.073646 0.018139
0.087893 0.082991 0.007168
0.306120 0.091408 0.001584
0.511445 0.122531 0.003329
0.757107 0.178490 0.027200
0.925487 0.241059 0.025727
0.946065 0.249841 0.024289
0.945090 0.247372 0.024990
0.000000 0.153816 0.010022
0.000000 0.156253 0.010138
0.023155 0.192784 0.006543
0.336087 0.168963 0.000013
0.563695 0.185195 0.012765
0.802402 0.255936 0.025773
0.961565 0.346960 0.016766
0.981085 0.364316 0.015261
0.980849 0.363389 0.015246
0.000000 0.243279 0.010904
0.000000 0.247364 0.011272
0.008915 0.271486 0.016662
0.285650 0.339439 0.006942
0.600410 0.278847 0.011018
0.824704 0.322714 0.026245
0.974261 0.433331 0.024174
1.000000 0.465336 0.027180
1.000000 0.465258 0.027163
0.002770 0.362149 0.029583
0.004022 0.369890 0.030937
0.016381 0.393391 0.032519
0.255779 0.476147 0.023549
0.569370 0.560310 0.050072
0.829819 0.491170 0.035243
0.980048 0.548693 0.047869
1.000000 0.597338 0.060953
1.000000 0.597874 0.061092
0.037280 0.528514 0.057917
0.039622 0.539283 0.059693
0.058405 0.559366 0.060726
0.307296 0.648600 0.054087
0.575109 0.733110 0.050816
0.802055 0.801162 0.086019
0.970247 0.748593 0.087914
1.000000 0.756913 0.093872
1.000000 0.757712 0.093978
0.079842 0.655211 0.084496
0.080169 0.655940 0.084686
0.115943 0.668591 0.081264
0.388375 0.739925 0.069446
0.616019 0.815406 0.067700
0.820280 0.885585 0.088552
0.959805 0.921816 0.119544
1.000000 0.868347 0.110413
1.000000 0.868347 0.110413
0.080170 0.655945 0.084686
0.080170 0.655945 0.084686
0.123615 0.671304 0.080546
0.394046 0.741686 0.069403
0.603850 0.811233 0.067461
0.793704 0.876985 0.082410
0.935818 0.922402 0.115617
1.000000 0.869686 0.110733
1.000000 0.868347 0.110413
0.000000 0.023773 0.111153
0.000000 0.029680 0.108337
0.052487 0.047819 0.099989
0.240650 0.066426 0.086413
0.455315 0.095726 0.076966
0.714476 0.126993 0.060916
0.878151 0.175102 0.061892
0.918227 0.190740 0.058592
0.916748 0.188057 0.057984
0.000000 0.028761 0.101300
0.000000 0.026984 0.094965
0.032239 0.040513 0.082041
0.215735 0.058414 0.070370
0.429700 0.083520 0.058127
0.691361 0.117741 0.054648
0.877216 0.173963 0.061449
0.919164 0.192448 0.058969
0.918471 0.191182 0.058686
0.000000 0.064552 0.092014
0.000000 0.065897 0.093048
0.033716 0.096602 0.109648
0.271382 0.130165 0.098180
0.524948 0.139590 0.059413
0.776854 0.181896 0.051773
0.935539 0.245052 0.042194
0.954019 0.253368 0.039339
0.952959 0.250780 0.039366
0.000000 0.193402 0.100523
0.000000 0.198990 0.108316
0.012515 0.208365 0.093729
0.308569 0.205353 0.043546
0.559393 0.211408 0.038174
0.811353 0.286770 0.036706
0.965031 0.389675 0.036874
0.982458 0.410387 0.041607
0.982112 0.412011 0.043471
0.000000 0.263523 0.042927
0.000000 0.272020 0.050454
0.010100 0.287704 0.060625
0.243337 0.355301 0.029483
0.595589 0.308107 0.029270
0.827625 0.351846 0.037215
0.976607 0.468472 0.045219
1.000000 0.504561 0.054492
1.000000 0.508919 0.057785
0.002772 0.369807 0.038625
0.003827 0.380540 0.044642
0.018249 0.401060 0.050360
0.235465 0.487053 0.036562
0.562091 0.572495 0.054438
0.830785 0.512931 0.047814
0.982046 0.566706 0.059858
1.000000 0.616412 0.075715
1.000000 0.620567 0.078963
0.038124 0.532036 0.060486
0.040665 0.543140 0.065211
0.052592 0.564803 0.071274
0.307112 0.660646 0.064042
0.576604 0.738814 0.058470
0.806209 0.807683 0.088726
0.972698 0.755796 0.091070
1.000000 0.762576 0.097507
1.000000 0.763972 0.098461
0.079813 0.654242 0.088995
0.079704 0.652260 0.097493
0.099536 0.674073 0.098367
0.381140 0.752392 0.094320
0.613732 0.818115 0.090054
0.821759 0.888272 0.091467
0.961292 0.922876 0.121727
1.000000 0.869083 0.111421
1.000000 0.868604 0.110776
0.079887 0.653702 0.092522
0.079537 0.651040 0.101725
0.102934 0.678291 0.101734
0.383142 0.755226 0.098750
0.597344 0.811962 0.087055
0.790883 0.876732 0.082767
0.935835 0.922520 0.115780
1.000000 0.869656 0.110733
1.000000 0.868347 0.110413
0.000000 0.075119 0.218517
0.000000 0.077420 0.213593
0.002323 0.086293 0.200350
0.124258 0.101221 0.177259
0.368237 0.118114 0.148281
0.660600 0.178603 0.160594
0.884497 0.244877 0.149803
0.936735 0.262160 0.135015
0.937725 0.254521 0.122414
0.000000 0.075208 0.206541
0.000000 0.070087 0.198581
0.000000 0.074116 0.181750
0.109017 0.088785 0.159989
0.344913 0.108505 0.138024
0.643282 0.170343 0.153425
0.888144 0.244127 0.146053
0.935903 0.264911 0.139910
0.937149 0.259421 0.130428
0.000000 0.095729 0.202785
0.000000 0.096561 0.203585
0.003544 0.124319 0.234328
0.126899 0.152101 0.210418
0.412108 0.189584 0.192186
0.731066 0.252411 0.192556
0.935320 0.320601 0.181704
0.957472 0.327809 0.174511
0.958278 0.322474 0.166418
0.000000 0.155323 0.205534
0.000000 0.158192 0.209566
0.004708 0.189893 0.243389
0.131122 0.243373 0.265489
0.485521 0.300849 0.243059
0.802908 0.364443 0.210547
0.975545 0.438902 0.196047
0.993706 0.452629 0.197658
0.993717 0.451363 0.195846
0.002449 0.345941 0.298275
0.003576 0.352692 0.309001
0.019579 0.378257 0.328701
0.095982 0.392468 0.257738
0.523764 0.400879 0.144616
0.802834 0.467111 0.176325
0.971343 0.573673 0.170762
0.998024 0.600989 0.180725
0.998030 0.601868 0.182762
0.013911 0.467587 0.248971
0.017888 0.483489 0.271706
0.028499 0.502914 0.286716
0.100427 0.517300 0.213031
0.457966 0.602210 0.162858
0.811774 0.606088 0.116582
0.976639 0.661455 0.144716
1.000000 0.699357 0.154879
1.000000 0.701286 0.156666
0.039788 0.577596 0.210390
0.042967 0.593107 0.233014
0.052507 0.611684 0.256025
0.170430 0.691329 0.217850
0.512978 0.758120 0.219581
0.793470 0.833300 0.137784
0.974525 0.807093 0.136237
1.000000 0.806410 0.150043
1.000000 0.808101 0.151531
0.076147 0.668045 0.264699
0.075775 0.675208 0.284278
0.084238 0.683755 0.297953
0.259444 0.785996 0.253332
0.569462 0.838992 0.270752
0.800249 0.902416 0.220866
0.960810 0.942748 0.152807
1.000000 0.892699 0.145361
1.000000 0.889796 0.141062
0.076084 0.670864 0.272271
0.075665 0.677872 0.291717
0.086601 0.685588 0.301812
0.260327 0.787272 0.253820
0.546492 0.831822 0.258490
0.763988 0.887818 0.198047
0.933638 0.934910 0.136668
1.000000 0.886430 0.134200
1.000000 0.883549 0.131755
0.000000 0.144165 0.367310
0.000000 0.144390 0.358301
0.005810 0.146446 0.333698
0.038231 0.147998 0.298945
0.207794 0.161346 0.254158
0.588158 0.196348 0.216856
0.819550 0.292538 0.259743
0.886692 0.331453 0.278057
0.889434 0.329071 0.272477
0.000000 0.134140 0.338226
0.000000 0.126829 0.325314
0.000485 0.129531 0.304574
0.030234 0.134394 0.276214
0.191613 0.152445 0.243774
0.574037 0.190504 0.211878
0.826211 0.295857 0.260960
0.885785 0.332187 0.279855
0.887564 0.330677 0.276257
0.000000 0.155579 0.335468
0.000000 0.156393 0.336389
0.009389 0.183031 0.377163
0.049756 0.191506 0.350402
0.251148 0.221081 0.300888
0.649048 0.273748 0.270640
0.875217 0.380938 0.330083
0.905869 0.397045 0.336605
0.907032 0.394272 0.331501
0.000000 0.183229 0.334965
0.000000 0.186351 0.339913
0.012837 0.215642 0.379500
0.067703 0.262312 0.432810
0.302788 0.326810 0.393580
0.708836 0.424479 0.390219
0.931256 0.516196 0.433248
0.956717 0.529740 0.438765
0.956984 0.528727 0.436829
0.001251 0.245247 0.338852
0.002160 0.250309 0.346563
0.017626 0.276047 0.378033
0.073350 0.344380 0.446283
0.298996 0.449257 0.479401
0.748552 0.555813 0.474978
0.956840 0.631893 0.487539
0.989006 0.652227 0.495850
0.989006 0.652680 0.496582
0.045161 0.516693 0.524382
0.047825 0.526268 0.537781
0.057835 0.551386 0.564210
0.097644 0.612119 0.599631
0.278473 0.638489 0.488264
0.777241 0.686195 0.360289
0.961761 0.742862 0.427032
1.000000 0.771912 0.424299
1.000000 0.772852 0.426071
0.078354 0.715305 0.611626
0.082238 0.728696 0.634347
0.088141 0.744684 0.657263
0.126637 0.747389 0.589156
0.389719 0.778990 0.455031
0.754280 0.849294 0.419007
0.970439 0.855598 0.211566
1.000000 0.852085 0.238772
1.000000 0.852703 0.238941
0.093493 0.794931 0.607010
0.096398 0.803196 0.632217
0.101585 0.811257 0.651219
0.153736 0.809371 0.561778
0.482227 0.872731 0.448229
0.776160 0.916868 0.450570
0.954428 0.960680 0.334276
1.000000 0.922444 0.191577
1.000000 0.919710 0.186855
0.092301 0.791427 0.595749
0.095070 0.799635 0.620541
0.100804 0.806934 0.634777
0.153349 0.800697 0.536102
0.449402 0.862183 0.421440
0.733162 0.901321 0.413586
0.924290 0.950417 0.307125
1.000000 0.917124 0.179956
1.000000 0.913758 0.176926
0.008754 0.245915 0.579720
0.011891 0.243776 0.570869
0.029349 0.241585 0.541609
0.044418 0.231067 0.489031
0.079899 0.229317 0.437271
0.446031 0.256019 0.330708
0.767383 0.312770 0.323249
0.853185 0.352299 0.341711
0.855038 0.351101 0.337921
0.003650 0.227087 0.540461
0.003024 0.220242 0.527021
0.018608 0.219996 0.504406
0.037587 0.215873 0.462138
0.073712 0.219423 0.421586
0.432962 0.251038 0.328012
0.777340 0.316864 0.325255
0.852211 0.352958 0.343752
0.853553 0.352062 0.340938
0.008887 0.247590 0.539341
0.009405 0.248770 0.540819
0.033166 0.277509 0.583466
0.053438 0.275838 0.551266
0.100832 0.280097 0.501976
0.530998 0.326572 0.383028
0.830143 0.396672 0.398751
0.869799 0.415448 0.409431
0.870647 0.413066 0.404784
0.015078 0.271187 0.532861
0.016225 0.275281 0.539339
0.036940 0.307048 0.582847
0.068081 0.343222 0.630857
0.132709 0.363969 0.604964
0.604077 0.463577 0.517499
0.882852 0.545509 0.554123
0.914448 0.567910 0.578386
0.914509 0.567299 0.577249
0.020666 0.293922 0.523987
0.022356 0.300147 0.533804
0.037395 0.326688 0.569849
0.073217 0.378887 0.628041
0.160579 0.448496 0.685684
0.647859 0.585915 0.630207
0.912144 0.669756 0.667406
0.952729 0.693543 0.689485
0.952778 0.694073 0.690193
0.036168 0.378819 0.536739
0.038576 0.388286 0.549840
0.047876 0.410568 0.576537
0.085072 0.472400 0.638985
0.173513 0.560417 0.709056
0.690403 0.735382 0.713713
0.938901 0.793016 0.717856
0.993718 0.812224 0.725262
0.993784 0.813017 0.726319
0.091275 0.667087 0.736049
0.093851 0.673625 0.746763
0.098881 0.684272 0.761904
0.128394 0.729664 0.801162
0.203257 0.800113 0.839151
0.696971 0.870060 0.689393
0.955119 0.892951 0.573256
1.000000 0.894868 0.607290
1.000000 0.895038 0.607044
0.121188 0.810840 0.845514
0.121536 0.805518 0.847536
0.124251 0.801885 0.850815
0.149411 0.829430 0.870971
0.231642 0.890421 0.869367
0.740814 0.941177 0.666259
0.940274 0.974732 0.608816
1.000000 0.950477 0.363684
1.000000 0.947898 0.324653
0.121185 0.814716 0.844978
0.121426 0.809102 0.846636
0.124549 0.807010 0.850357
0.148611 0.837486 0.867418
0.219513 0.888100 0.833435
0.687785 0.928445 0.615265
0.907778 0.963889 0.568069
1.000000 0.946777 0.286242
1.000000 0.943230 0.262444
0.025879 0.308151 0.691399
0.028575 0.308919 0.690335
0.046188 0.313368 0.678066
0.063279 0.312999 0.652976
0.082638 0.307216 0.610870
0.253095 0.358859 0.578996
0.715853 0.392601 0.457766
0.817683 0.428220 0.488967
0.818771 0.425400 0.483315
0.025098 0.305273 0.685624
0.024387 0.302227 0.680815
0.039420 0.305512 0.669941
0.059048 0.306474 0.644656
0.079253 0.302972 0.606460
0.239398 0.357644 0.584314
0.727297 0.402843 0.473048
0.814368 0.436489 0.505779
0.814928 0.434933 0.502693
0.031984 0.332397 0.698334
0.032650 0.334434 0.701035
0.053576 0.360237 0.734590
0.074268 0.365047 0.723245
0.100490 0.364600 0.689905
0.320212 0.433789 0.666650
0.776739 0.480224 0.579492
0.824319 0.495729 0.594029
0.824246 0.494497 0.591740
0.040502 0.365691 0.712179
0.041663 0.369945 0.718027
0.059346 0.395041 0.748402
0.087777 0.427972 0.789788
0.126359 0.445839 0.786507
0.400938 0.534832 0.768328
0.837280 0.582919 0.698937
0.877323 0.598146 0.711987
0.877091 0.597842 0.711971
0.048077 0.394592 0.718055
0.049801 0.400911 0.727111
0.062902 0.423640 0.753998
0.094441 0.466556 0.799383
0.147217 0.513457 0.842652
0.478313 0.627161 0.833918
0.873847 0.676722 0.781278
0.922691 0.698486 0.794157
0.922524 0.698780 0.795647
0.058499 0.436951 0.727486
0.060828 0.445928 0.738312
0.068801 0.464956 0.758313
0.101795 0.517051 0.806812
0.157579 0.578470 0.852944
0.542998 0.722361 0.879861
0.904907 0.802158 0.851570
0.966646 0.821975 0.857957
0.966666 0.822591 0.858997
0.080261 0.548544 0.755583
0.082936 0.558384 0.767414
0.087812 0.572495 0.783529
0.117513 0.617649 0.825152
0.178754 0.676144 0.868074
0.482251 0.793202 0.893466
0.919531 0.918573 0.873398
0.999720 0.929145 0.871119
0.999714 0.929018 0.870918
0.112895 0.680662 0.836154
0.112571 0.677453 0.838791
0.114295 0.676035 0.843816
0.139869 0.704756 0.870414
0.181615 0.750157 0.902168
0.371660 0.866921 0.946525
0.913286 0.983514 0.854045
1.000000 0.974385 0.771624
1.000000 0.971394 0.748957
0.113403 0.683594 0.836006
0.112835 0.679447 0.837767
0.114927 0.679216 0.842220
0.139340 0.711478 0.865712
0.169262 0.754562 0.891334
0.306282 0.863419 0.936265
0.879980 0.975178 0.816815
1.000000 0.972031 0.713722
1.000000 0.967659 0.687172
0.026154 0.309204 0.693207
0.027828 0.309896 0.692966
0.045299 0.315241 0.683087
0.064532 0.322330 0.671335
0.085759 0.328520 0.654343
0.202540 0.383742 0.658490
0.668442 0.446723 0.596151
0.795441 0.471375 0.583160
0.795441 0.471375 0.583160
0.026207 0.309441 0.693340
0.026308 0.309488 0.693450
0.040823 0.314670 0.687452
0.062062 0.321551 0.673145
0.084063 0.327875 0.655573
0.199771 0.382537 0.658191
0.692145 0.451831 0.589701
0.795441 0.471375 0.583160
0.795441 0.471375 0.583160
0.034016 0.339991 0.712611
0.034377 0.340970 0.713369
0.054190 0.364022 0.742438
0.075631 0.372019 0.737477
0.101437 0.375769 0.713704
0.290624 0.444977 0.704650
0.766748 0.497140 0.625315
0.813831 0.507152 0.628208
0.813562 0.506701 0.627672
0.044945 0.381684 0.740637
0.045347 0.383248 0.741692
0.061745 0.404281 0.764978
0.089870 0.436724 0.804866
0.126117 0.455716 0.806740
0.374866 0.542613 0.798648
0.833099 0.584780 0.733282
0.872838 0.597546 0.730437
0.872679 0.597288 0.730181
0.055597 0.422569 0.767414
0.056213 0.424822 0.768822
0.067984 0.441668 0.784876
0.098391 0.481247 0.825074
0.145470 0.524929 0.866266
0.447002 0.633746 0.866927
0.867234 0.684999 0.834713
0.917843 0.692231 0.818434
0.917930 0.692472 0.818621
0.070068 0.476224 0.800024
0.071068 0.480303 0.802193
0.077570 0.493064 0.810992
0.108505 0.538487 0.849386
0.153459 0.591147 0.889241
0.476258 0.717505 0.918791
0.890851 0.812190 0.908984
0.956558 0.817870 0.894323
0.956687 0.818341 0.894551
0.090450 0.567773 0.840926
0.091952 0.574888 0.844093
0.095320 0.585230 0.849124
0.123079 0.624602 0.879577
0.170238 0.673448 0.914774
0.413442 0.770830 0.940321
0.899763 0.921070 0.945642
0.991767 0.924461 0.929075
0.991599 0.923589 0.928871
0.108893 0.647652 0.871129
0.109090 0.648346 0.871799
0.111232 0.651108 0.874008
0.136738 0.682909 0.898809
0.185624 0.728278 0.931169
0.384797 0.813191 0.954069
0.877299 0.968033 0.969135
0.999419 0.997646 0.942092
1.000000 0.996816 0.941177
0.109100 0.648376 0.871826
0.109100 0.648376 0.871826
0.111014 0.650833 0.873806
0.133906 0.679541 0.896027
0.167961 0.714932 0.923304
0.291377 0.781584 0.946494
0.811588 0.944027 0.969738
0.995051 0.997176 0.934756
1.000000 0.995301 0.928185
0.026154 0.309204 0.693207
0.027207 0.309635 0.693043
0.043846 0.314850 0.684090
0.063515 0.321987 0.672031
0.084549 0.328064 0.655197
0.189892 0.379196 0.658050
0.660973 0.445328 0.598053
0.795441 0.471375 0.583160
0.795441 0.471375 0.583160
0.026207 0.309364 0.693314
0.026280 0.309435 0.693404
0.039846 0.314424 0.688167
0.061344 0.321242 0.673545
0.083271 0.327570 0.656166
0.191000 0.379338 0.657828
0.687358 0.450799 0.591038
0.795441 0.471375 0.583160
0.795441 0.471375 0.583160
0.033669 0.338669 0.711701
0.034020 0.339706 0.712492
0.053333 0.362272 0.740864
0.074847 0.370516 0.736131
0.100101 0.374054 0.712398
0.280077 0.440706 0.703301
0.763977 0.495449 0.623493
0.813356 0.506271 0.627134
0.813240 0.506058 0.626839
0.044746 0.380902 0.740104
0.045163 0.382518 0.741214
0.061423 0.403461 0.764356
0.089423 0.435823 0.804138
0.125048 0.454544 0.805983
0.368834 0.540226 0.797910
0.832630 0.583935 0.732304
0.872366 0.596781 0.729628
0.872242 0.596603 0.729438
0.055435 0.421967 0.767059
0.056067 0.424292 0.768507
0.067990 0.441322 0.784729
0.098145 0.480713 0.824686
0.144707 0.524124 0.865830
0.443472 0.632158 0.866516
0.866692 0.684265 0.834305
0.917563 0.691523 0.817894
0.917694 0.691879 0.818161
0.069919 0.475632 0.799698
0.070933 0.479783 0.801908
0.077662 0.492798 0.810978
0.108331 0.537927 0.849127
0.153082 0.590603 0.889002
0.474290 0.716623 0.918625
0.890503 0.811710 0.908848
0.956352 0.817149 0.893956
0.956497 0.817608 0.894195
0.090447 0.567551 0.841362
0.091851 0.574418 0.843977
0.095305 0.584780 0.849005
0.122977 0.624170 0.879422
0.169827 0.672905 0.914543
0.411181 0.769906 0.940122
0.899061 0.920569 0.945599
0.991592 0.923682 0.928923
0.991256 0.922013 0.928528
0.108940 0.647763 0.871586
0.109093 0.648349 0.871816
0.111169 0.651036 0.873963
0.136566 0.682726 0.898663
0.184387 0.727436 0.930737
0.372764 0.809466 0.953294
0.869273 0.964728 0.969675
0.998955 0.997357 0.942913
1.000000 0.996288 0.942562
0.109100 0.648376 0.871826
0.109100 0.648376 0.871826
0.110596 0.650291 0.873367
0.132851 0.678257 0.894985
0.166336 0.713593 0.922424
0.285824 0.779270 0.946297
0.805862 0.939782 0.969689
0.992020 0.996597 0.944366
1.000000 0.998322 0.942749
