nova/tdt-studio/app/Lut_mau/IWLTBAP/1 - LUTs by IWLTBAP (CUBE)/02 - Generic LOG/Cinematic/F-8700-V2-LOG.cube
# Copyright: (C) Copyright 2010-2019 by IWLTBAP SAS
# Cannot be resold, shared or otherwise redistributed
# Website: https://luts.iwltbap.com
TITLE "IWLTBAP 8700-V2 (LOG)"
LUT_3D_SIZE 5
0.000000 0.000000 0.000000
0.134613 0.028069 0.001343
0.501038 0.078201 0.004898
0.875778 0.162727 0.056153
0.913330 0.182068 0.056610
0.000000 0.073539 0.012291
0.090404 0.080974 0.001543
0.510212 0.121738 0.003033
0.924208 0.239275 0.026138
0.944351 0.245445 0.025497
0.000000 0.242356 0.010819
0.007568 0.269428 0.016686
0.596550 0.276772 0.010704
0.972420 0.429996 0.023903
0.999954 0.463256 0.026734
0.036621 0.525497 0.057442
0.054150 0.555216 0.060398
0.569679 0.729081 0.050224
0.968357 0.744575 0.087061
1.000000 0.755096 0.093598
0.080170 0.655945 0.084686
0.120346 0.670158 0.080841
0.603959 0.811279 0.067490
0.936157 0.922508 0.115684
1.000000 0.868347 0.110413
0.000000 0.023773 0.111153
0.052487 0.047819 0.099989
0.455315 0.095726 0.076966
0.878151 0.175102 0.061892
0.916748 0.188057 0.057984
0.000000 0.064552 0.092014
0.033716 0.096602 0.109648
0.524948 0.139590 0.059413
0.935539 0.245052 0.042194
0.952959 0.250780 0.039366
0.000000 0.263523 0.042927
0.010100 0.287704 0.060625
0.595589 0.308107 0.029270
0.976607 0.468472 0.045219
1.000000 0.508919 0.057785
0.038124 0.532036 0.060486
0.052592 0.564803 0.071274
0.576604 0.738814 0.058470
0.972698 0.755796 0.091070
1.000000 0.763972 0.098461
0.079887 0.653702 0.092522
0.102934 0.678291 0.101734
0.597344 0.811962 0.087055
0.935835 0.922520 0.115780
1.000000 0.868347 0.110413
0.000000 0.144165 0.367310
0.005810 0.146446 0.333698
0.207794 0.161346 0.254158
0.819550 0.292538 0.259743
0.889434 0.329071 0.272477
0.000000 0.155579 0.335468
0.009389 0.183031 0.377163
0.251148 0.221081 0.300888
0.875217 0.380938 0.330083
0.907032 0.394272 0.331501
0.001251 0.245247 0.338852
0.017626 0.276047 0.378033
0.298996 0.449257 0.479401
0.956840 0.631893 0.487539
0.989006 0.652680 0.496582
0.078354 0.715305 0.611626
0.088141 0.744684 0.657263
0.389719 0.778990 0.455031
0.970439 0.855598 0.211566
1.000000 0.852703 0.238941
0.092301 0.791427 0.595749
0.100804 0.806934 0.634777
0.449402 0.862183 0.421440
0.924290 0.950417 0.307125
1.000000 0.913758 0.176926
0.025879 0.308151 0.691399
0.046188 0.313368 0.678066
0.082638 0.307216 0.610870
0.715853 0.392601 0.457766
0.818771 0.425400 0.483315
0.031984 0.332397 0.698334
0.053576 0.360237 0.734590
0.100490 0.364600 0.689905
0.776739 0.480224 0.579492
0.824246 0.494497 0.591740
0.048077 0.394592 0.718055
0.062902 0.423640 0.753998
0.147217 0.513457 0.842652
0.873847 0.676722 0.781278
0.922524 0.698780 0.795647
0.080261 0.548544 0.755583
0.087812 0.572495 0.783529
0.178754 0.676144 0.868074
0.919531 0.918573 0.873398
0.999714 0.929018 0.870918
0.113403 0.683594 0.836006
0.114927 0.679216 0.842220
0.169262 0.754562 0.891334
0.879980 0.975178 0.816815
1.000000 0.967659 0.687172
0.026154 0.309204 0.693207
0.043846 0.314850 0.684090
0.084549 0.328064 0.655197
0.660973 0.445328 0.598053
0.795441 0.471375 0.583160
0.033669 0.338669 0.711701
0.053333 0.362272 0.740864
0.100101 0.374054 0.712398
0.763977 0.495449 0.623493
0.813240 0.506058 0.626839
0.055435 0.421967 0.767059
0.067990 0.441322 0.784729
0.144707 0.524124 0.865830
0.866692 0.684265 0.834305
0.917694 0.691879 0.818161
0.090447 0.567551 0.841362
0.095305 0.584780 0.849005
0.169827 0.672905 0.914543
0.899061 0.920569 0.945599
0.991256 0.922013 0.928528
0.109100 0.648376 0.871826
0.110596 0.650291 0.873367
0.166336 0.713593 0.922424
0.805862 0.939782 0.969689
1.000000 0.998322 0.942749
