nova/tdt-studio/app/Lut_mau/IWLTBAP/1 - LUTs by IWLTBAP (CUBE)/02 - Generic LOG/Cinematic/F-8700-V2-LOG.cube
# Copyright: (C) Copyright 2010-2019 by IWLTBAP SAS
# Cannot be resold, shared or otherwise redistributed
# Website: https://luts.iwltbap.com
TITLE "IWLTBAP 8700-V2 (LOG)"
LUT_3D_SIZE 33
0.000000 0.000000 0.000000
0.000000 0.000000 0.000000
0.000000 0.000000 0.000000
0.000000 0.000000 0.000000
0.000000 0.000000 0.000000
0.017896 0.002781 0.000000
0.049229 0.010189 0.000496
0.090385 0.019696 0.001826
0.134613 0.028069 0.001343
0.179744 0.034354 0.000300
0.225107 0.039200 0.000000
0.271029 0.043313 0.000000
0.315586 0.047588 0.000000
0.358292 0.053049 0.000000
0.401575 0.060410 0.000000
0.448859 0.069076 0.000632
0.501038 0.078201 0.004898
0.556377 0.086954 0.012554
0.612652 0.094972 0.020647
0.668392 0.103021 0.028733
0.722885 0.112190 0.036979
0.773071 0.123031 0.044823
0.813844 0.135311 0.050760
0.846112 0.148844 0.054197
0.875778 0.162727 0.056153
0.900188 0.175260 0.056460
0.911718 0.181225 0.056586
0.913330 0.182068 0.056610
0.913330 0.182068 0.056610
0.913330 0.182068 0.056610
0.913330 0.182068 0.056610
0.913330 0.182068 0.056610
0.913330 0.182068 0.056610
0.000000 0.000000 0.000000
0.000000 0.000000 0.000000
0.000000 0.000000 0.000000
0.000000 0.000000 0.000000
0.000000 0.000000 0.000000
0.011784 0.001833 0.000000
0.038887 0.007697 0.000328
0.076741 0.016609 0.001504
0.119491 0.025703 0.002008
0.163840 0.032362 0.000690
0.208812 0.037554 0.000046
0.254165 0.041883 0.000000
0.299097 0.045885 0.000000
0.341565 0.050665 0.000000
0.382632 0.057091 0.000000
0.426462 0.065025 0.000020
0.475598 0.073796 0.002282
0.529683 0.082805 0.008641
0.586909 0.091377 0.017000
0.644838 0.099495 0.025222
0.701703 0.108247 0.033698
0.755042 0.118728 0.042031
0.800012 0.131064 0.048734
0.835626 0.144217 0.053252
0.866658 0.158256 0.055820
0.894729 0.172458 0.056391
0.910829 0.180768 0.056586
0.913330 0.182068 0.056610
0.913330 0.182068 0.056610
0.913330 0.182068 0.056610
0.913330 0.182068 0.056610
0.913330 0.182068 0.056610
0.913330 0.182068 0.056610
0.000000 0.000000 0.000000
0.000000 0.000000 0.000000
0.000000 0.000107 0.000000
0.000000 0.000114 0.000000
0.000000 0.000440 0.000025
0.005962 0.001348 0.000077
0.029051 0.005592 0.000222
0.064378 0.013829 0.001104
0.105900 0.023152 0.002130
0.149500 0.030396 0.000885
0.193559 0.035902 0.000092
0.237709 0.040404 0.000000
0.281896 0.044331 0.000000
0.324854 0.048608 0.000000
0.366861 0.054434 0.000000
0.410595 0.062089 0.000000
0.459357 0.070922 0.001267
0.513715 0.080227 0.006494
0.571743 0.089155 0.014767
0.630914 0.097471 0.023176
0.689171 0.106228 0.031794
0.744631 0.116584 0.040363
0.792732 0.128844 0.047633
0.830804 0.142153 0.052717
0.862830 0.156488 0.055501
0.892317 0.171194 0.056367
0.910383 0.180545 0.056586
0.913330 0.182068 0.056610
0.913330 0.182068 0.056610
0.913330 0.182068 0.056610
0.913330 0.182068 0.056610
0.913330 0.182068 0.056610
0.913330 0.182068 0.056610
0.000000 0.000000 0.000000
0.000000 0.000000 0.000000
0.000000 0.000089 0.000000
0.000000 0.001548 0.000000
0.000000 0.004562 0.000124
0.002531 0.007684 0.000426
0.024570 0.010650 0.001254
0.056961 0.015984 0.001771
0.095941 0.022918 0.002399
0.137813 0.029394 0.001401
0.181376 0.034846 0.000294
0.225991 0.039423 0.000000
0.271554 0.043443 0.000000
0.316198 0.047679 0.000000
0.359372 0.053232 0.000000
0.403548 0.060757 0.000000
0.452534 0.069702 0.000929
0.507325 0.079200 0.005702
0.566086 0.088352 0.013924
0.626316 0.096847 0.022517
0.685792 0.105718 0.031310
0.742609 0.116204 0.040057
0.792382 0.128805 0.047569
0.831881 0.142617 0.052837
0.864268 0.157154 0.055626
0.893084 0.171609 0.056365
0.910467 0.180598 0.056586
0.913330 0.182068 0.056610
0.913330 0.182068 0.056610
0.913330 0.182068 0.056610
0.913330 0.182068 0.056610
0.913330 0.182068 0.056610
0.913330 0.182068 0.056610
0.000000 0.010734 0.003631
0.000000 0.008510 0.002881
0.000000 0.006596 0.002156
0.000000 0.007062 0.001408
0.000000 0.008400 0.000815
0.000277 0.013836 0.000847
0.022070 0.017419 0.002295
0.053594 0.022297 0.003557
0.093445 0.028299 0.003861
0.137113 0.034196 0.002467
0.181361 0.038353 0.000599
0.226126 0.041543 0.000000
0.272105 0.044807 0.000000
0.317181 0.048614 0.000000
0.360724 0.053905 0.000000
0.405370 0.061345 0.000000
0.455166 0.070356 0.001087
0.511071 0.079950 0.006171
0.570875 0.089126 0.014619
0.631878 0.097645 0.023311
0.691933 0.106670 0.032214
0.749015 0.117528 0.041069
0.798528 0.130731 0.048467
0.837791 0.145153 0.053457
0.869815 0.159717 0.056035
0.896606 0.173426 0.056407
0.911043 0.180887 0.056586
0.913330 0.182068 0.056610
0.913330 0.182068 0.056610
0.913330 0.182068 0.056610
0.913330 0.182068 0.056610
0.913330 0.182068 0.056610
0.913330 0.182068 0.056610
0.000000 0.024164 0.007472
0.000000 0.021198 0.007039
0.000000 0.018309 0.006127
0.000000 0.018192 0.005055
0.000000 0.019754 0.004201
0.000000 0.022240 0.002737
0.019574 0.026442 0.003727
0.052841 0.031016 0.005561
0.093971 0.036516 0.005856
0.139240 0.042629 0.004343
0.185641 0.047189 0.001178
0.231886 0.050044 0.000000
0.278310 0.052313 0.000000
0.323387 0.054824 0.000000
0.367269 0.059019 0.000000
0.412631 0.065782 0.000000
0.463198 0.074431 0.001423
0.519747 0.083762 0.007010
0.579826 0.092560 0.015622
0.640703 0.100553 0.024261
0.700576 0.109184 0.033205
0.757376 0.120154 0.042098
0.806263 0.133941 0.049197
0.845026 0.149044 0.053638
0.876306 0.163652 0.055705
0.900990 0.176316 0.056015
0.912142 0.182060 0.056153
0.913738 0.182858 0.056202
0.913713 0.182811 0.056224
0.913688 0.182784 0.056226
0.913663 0.182734 0.056251
0.913638 0.182684 0.056276
0.913613 0.182634 0.056301
0.000000 0.038864 0.009649
0.000000 0.035963 0.009295
0.000000 0.033462 0.008879
0.000000 0.033347 0.008633
0.000000 0.036157 0.008443
0.000000 0.038750 0.007068
0.016548 0.039421 0.003315
0.050711 0.042734 0.004907
0.094270 0.047113 0.006758
0.140665 0.052660 0.006234
0.189351 0.058029 0.002756
0.237959 0.061475 0.000460
0.286331 0.064126 0.000000
0.333113 0.067174 0.000000
0.378842 0.071735 0.000000
0.425970 0.078470 0.000000
0.477444 0.086906 0.001815
0.534310 0.096123 0.007856
0.594398 0.105007 0.016314
0.654601 0.112970 0.024391
0.713457 0.121208 0.032700
0.769416 0.131860 0.040871
0.817738 0.145636 0.046936
0.856035 0.160826 0.050126
0.886372 0.175230 0.051195
0.909059 0.186733 0.051531
0.916992 0.190614 0.051777
0.917803 0.190814 0.051942
0.917609 0.190450 0.052157
0.917432 0.190124 0.052328
0.917233 0.189727 0.052527
0.917014 0.189311 0.052747
0.916865 0.189012 0.052896
0.000000 0.055910 0.011631
0.000000 0.053527 0.011345
0.000000 0.051653 0.011139
0.000000 0.051373 0.011099
0.000000 0.054553 0.011424
0.000000 0.059016 0.011471
0.008446 0.061216 0.008627
0.046541 0.059397 0.002872
0.095219 0.060720 0.003379
0.145682 0.064466 0.004313
0.196805 0.069340 0.001943
0.246893 0.073347 0.000280
0.296127 0.076923 0.000000
0.343985 0.081305 0.000000
0.391375 0.086969 0.000000
0.440682 0.094420 0.000089
0.494153 0.103813 0.002381
0.552619 0.114565 0.008829
0.614615 0.126106 0.017090
0.676388 0.137756 0.024112
0.735047 0.149283 0.030139
0.789841 0.161599 0.035444
0.837690 0.175199 0.038592
0.875675 0.189729 0.039102
0.904812 0.203523 0.038834
0.924876 0.213380 0.038241
0.930108 0.215532 0.038671
0.930111 0.214957 0.039086
0.929676 0.214097 0.039529
0.929302 0.213379 0.039924
0.928882 0.212560 0.040345
0.928481 0.211763 0.040769
0.928165 0.211155 0.041085
0.000000 0.073539 0.012291
0.000000 0.071847 0.012269
0.000000 0.070755 0.012268
0.000000 0.070714 0.012282
0.000000 0.073547 0.012651
0.000000 0.079707 0.013585
0.001587 0.085223 0.013252
0.033961 0.086304 0.005890
0.090404 0.080974 0.001543
0.149064 0.079686 0.001247
0.204524 0.082041 0.000548
0.256436 0.085642 0.000050
0.306257 0.089926 0.000000
0.354812 0.095249 0.000000
0.403368 0.102209 0.000000
0.454684 0.111099 0.000028
0.510212 0.121738 0.003033
0.569803 0.133776 0.009882
0.632526 0.147282 0.017274
0.695493 0.161957 0.023082
0.755430 0.177223 0.027233
0.810501 0.193110 0.029720
0.858208 0.209228 0.029802
0.896099 0.225157 0.028168
0.924208 0.239275 0.026138
0.942218 0.248176 0.024442
0.945876 0.249494 0.024309
0.945691 0.248839 0.024517
0.945393 0.248126 0.024730
0.945131 0.247432 0.024930
0.944838 0.246675 0.025137
0.944573 0.245992 0.025342
0.944351 0.245445 0.025497
0.000000 0.091693 0.011680
0.000000 0.090420 0.011739
0.000000 0.089898 0.011777
0.000000 0.090256 0.011768
0.000000 0.092590 0.011979
0.000000 0.098986 0.013250
0.000000 0.107612 0.014638
0.022024 0.114041 0.008908
0.073393 0.113371 0.001807
0.144293 0.103018 0.000123
0.210045 0.097677 0.000054
0.266026 0.098773 0.000000
0.316691 0.103165 0.000000
0.365787 0.109504 0.000000
0.415402 0.117408 0.000000
0.467848 0.127120 0.000664
0.524372 0.138562 0.004630
0.584641 0.151599 0.011501
0.647494 0.166489 0.017944
0.710692 0.183081 0.022600
0.771528 0.200910 0.025280
0.827027 0.219599 0.025618
0.874264 0.238358 0.023618
0.911456 0.256300 0.020873
0.938550 0.271824 0.018429
0.954973 0.281721 0.016817
0.958142 0.283064 0.016547
0.957944 0.282468 0.016644
0.957746 0.281877 0.016744
0.957521 0.281211 0.016860
0.957328 0.280590 0.016957
0.957142 0.280035 0.017053
0.956965 0.279532 0.017142
0.000000 0.111576 0.010826
0.000000 0.110577 0.010865
0.000000 0.110417 0.010875
0.000000 0.111078 0.010848
0.000000 0.113099 0.010932
0.000000 0.118377 0.012186
0.000000 0.127837 0.014627
0.011630 0.138248 0.011252
0.050860 0.145420 0.002981
0.127536 0.139297 0.000165
0.205995 0.124275 0.000000
0.271581 0.116675 0.000000
0.326927 0.117871 0.000000
0.377277 0.123856 0.000000
0.427655 0.132370 0.000142
0.480670 0.142481 0.002023
0.537227 0.154204 0.007118
0.597703 0.167832 0.013765
0.660942 0.183715 0.019384
0.723831 0.201533 0.023090
0.783303 0.220630 0.024613
0.837448 0.240852 0.023939
0.884042 0.261629 0.021621
0.920808 0.281641 0.018773
0.947386 0.298944 0.016220
0.963125 0.310189 0.014694
0.966548 0.312087 0.014404
0.966440 0.311646 0.014432
0.966317 0.311226 0.014460
0.966145 0.310677 0.014496
0.966009 0.310210 0.014524
0.965892 0.309778 0.014552
0.965755 0.309316 0.014580
0.000000 0.132634 0.010199
0.000000 0.131951 0.010209
0.000000 0.131994 0.010209
0.000000 0.132763 0.010200
0.000000 0.134536 0.010252
0.000000 0.138161 0.011182
0.000000 0.146578 0.014037
0.004934 0.158413 0.013340
0.033284 0.171267 0.004890
0.105046 0.174484 0.000618
0.191523 0.163874 0.000000
0.269132 0.145932 0.000000
0.333303 0.137228 0.000000
0.388526 0.139622 0.000000
0.440514 0.147269 0.000578
0.493258 0.157339 0.003949
0.549056 0.169133 0.009958
0.608736 0.182930 0.016125
0.671565 0.199308 0.020930
0.734020 0.217939 0.023970
0.792319 0.237909 0.025031
0.845222 0.259157 0.023866
0.890927 0.281516 0.021284
0.927669 0.303554 0.018581
0.954156 0.322641 0.016387
0.969678 0.335255 0.014825
0.973758 0.338245 0.014413
0.973827 0.338059 0.014381
0.973751 0.337776 0.014381
0.973625 0.337393 0.014379
0.973528 0.337040 0.014360
0.973457 0.336731 0.014360
0.973339 0.336366 0.014360
0.000000 0.153492 0.009972
0.000000 0.152986 0.009972
0.000000 0.153173 0.009972
0.000000 0.154047 0.009972
0.000000 0.155772 0.009992
0.000000 0.158497 0.010590
0.000000 0.165052 0.013229
0.001180 0.175253 0.015378
0.022050 0.191342 0.006328
0.082696 0.202745 0.000890
0.171569 0.202809 0.000000
0.258570 0.188180 0.000000
0.333513 0.167876 0.000000
0.396749 0.159558 0.000000
0.452364 0.163352 0.000869
0.505741 0.172238 0.005507
0.560808 0.183927 0.012379
0.619176 0.197942 0.018242
0.680542 0.214471 0.022515
0.742085 0.233449 0.024997
0.799680 0.254152 0.025741
0.851570 0.276187 0.024512
0.896600 0.299730 0.021606
0.933190 0.323478 0.018706
0.959798 0.344484 0.016822
0.975357 0.358572 0.015660
0.980439 0.362965 0.015271
0.980782 0.363119 0.015221
0.980737 0.362923 0.015221
0.980656 0.362637 0.015220
0.980588 0.362371 0.015208
0.980546 0.362158 0.015190
0.980446 0.361870 0.015190
0.000000 0.174624 0.009659
0.000000 0.174203 0.009659
0.000000 0.174532 0.009659
0.000000 0.175533 0.009643
0.000000 0.177338 0.009609
0.000000 0.179669 0.009941
0.000000 0.184710 0.012045
0.000000 0.193378 0.015559
0.015794 0.208659 0.008269
0.063168 0.224825 0.001562
0.149822 0.233263 0.000000
0.242386 0.232046 0.000214
0.326040 0.213463 0.000122
0.399074 0.191097 0.000000
0.461183 0.183427 0.000998
0.517308 0.188555 0.006216
0.572562 0.199016 0.013776
0.629524 0.212819 0.019835
0.689081 0.229500 0.023931
0.749226 0.248777 0.026042
0.805916 0.270028 0.026360
0.856680 0.292871 0.025088
0.901092 0.317320 0.022219
0.937518 0.342416 0.019126
0.964347 0.365083 0.017375
0.980062 0.380895 0.016710
0.986175 0.386938 0.016394
0.986818 0.387446 0.016344
0.986787 0.387307 0.016342
0.986744 0.387110 0.016326
0.986687 0.386910 0.016326
0.986656 0.386731 0.016313
0.986585 0.386501 0.016295
0.000000 0.196447 0.009186
0.000000 0.196096 0.009186
0.000000 0.196518 0.009186
0.000000 0.197663 0.009189
0.000000 0.199574 0.009196
0.000000 0.201661 0.009371
0.000000 0.205730 0.010906
0.000268 0.213834 0.014560
0.012734 0.226524 0.011332
0.048075 0.243522 0.002859
0.129293 0.257049 0.000027
0.224109 0.267118 0.000496
0.311850 0.263318 0.003309
0.393218 0.239868 0.002599
0.464821 0.216060 0.001078
0.526301 0.209236 0.005578
0.583359 0.215782 0.013722
0.639927 0.228132 0.020469
0.697507 0.244496 0.024678
0.755707 0.264053 0.026704
0.810990 0.285895 0.026804
0.860509 0.309529 0.025322
0.904300 0.334997 0.022734
0.940847 0.361262 0.019868
0.967940 0.385397 0.018487
0.984250 0.402737 0.018407
0.991482 0.410386 0.018207
0.992374 0.411254 0.018171
0.992361 0.411183 0.018167
0.992345 0.411096 0.018141
0.992303 0.410949 0.018140
0.992257 0.410772 0.018123
0.992214 0.410582 0.018093
0.000000 0.218970 0.009377
0.000000 0.218691 0.009377
0.000000 0.219216 0.009393
0.000000 0.220485 0.009436
0.000000 0.222469 0.009508
0.000000 0.224485 0.009660
0.000000 0.227919 0.010675
0.000312 0.235537 0.013860
0.010086 0.246706 0.014458
0.040344 0.262528 0.005856
0.113680 0.278522 0.000821
0.206094 0.294290 0.000341
0.296188 0.304394 0.006354
0.379791 0.296312 0.010351
0.459723 0.268736 0.006862
0.530657 0.243775 0.005353
0.591981 0.237846 0.011566
0.649706 0.246053 0.019569
0.706267 0.260830 0.024424
0.762304 0.280103 0.026611
0.815845 0.302437 0.026815
0.864211 0.326907 0.025307
0.907011 0.353311 0.023036
0.943218 0.380957 0.021070
0.970567 0.406766 0.020488
0.988133 0.425565 0.021326
0.996454 0.434820 0.021514
0.997564 0.436059 0.021528
0.997566 0.436061 0.021529
0.997577 0.436054 0.021529
0.997548 0.435963 0.021512
0.997520 0.435816 0.021482
0.997491 0.435639 0.021453
0.000000 0.242356 0.010819
0.000000 0.242148 0.010803
0.000000 0.242814 0.010875
0.000000 0.244241 0.010991
0.000000 0.246387 0.011175
0.000000 0.248463 0.011393
0.000000 0.251423 0.011999
0.000084 0.258514 0.014098
0.007568 0.269428 0.016686
0.037079 0.284196 0.010543
0.101721 0.301261 0.004129
0.189603 0.319468 0.001715
0.281119 0.336954 0.006368
0.366161 0.345436 0.016505
0.446327 0.333572 0.019069
0.525400 0.303142 0.012847
0.596550 0.276772 0.010704
0.657586 0.270872 0.016322
0.714823 0.280531 0.022727
0.769855 0.297729 0.025872
0.821554 0.320047 0.026333
0.868300 0.345635 0.025210
0.909391 0.373206 0.023719
0.944536 0.402443 0.023111
0.972420 0.429996 0.023903
0.991386 0.450685 0.025658
0.998817 0.461801 0.026640
0.999969 0.463434 0.026766
0.999971 0.463492 0.026781
0.999983 0.463529 0.026793
0.999969 0.463496 0.026779
0.999969 0.463419 0.026763
0.999954 0.463256 0.026734
0.000000 0.267386 0.013504
0.000000 0.267278 0.013488
0.000000 0.268086 0.013602
0.000000 0.269724 0.013789
0.000000 0.272112 0.014100
0.000000 0.274354 0.014421
0.000070 0.276986 0.014823
0.000388 0.283457 0.015947
0.006868 0.294779 0.018323
0.035009 0.309465 0.015236
0.091664 0.326799 0.009588
0.176200 0.346198 0.006035
0.266877 0.366910 0.006962
0.355184 0.384651 0.017011
0.434264 0.391389 0.027813
0.511626 0.377405 0.027610
0.591020 0.344815 0.019512
0.661322 0.316319 0.015530
0.721456 0.309702 0.018951
0.777027 0.320549 0.023447
0.827642 0.340540 0.025249
0.872328 0.366482 0.025229
0.911435 0.395640 0.025055
0.945503 0.426377 0.026073
0.974154 0.455280 0.028580
0.994119 0.477993 0.031380
0.999176 0.491102 0.033284
1.000000 0.493267 0.033592
1.000000 0.493370 0.033620
1.000000 0.493461 0.033632
1.000000 0.493460 0.033632
1.000000 0.493442 0.033632
1.000000 0.493349 0.033616
0.000000 0.294924 0.017469
0.000000 0.294972 0.017483
0.000000 0.295936 0.017635
0.000000 0.297771 0.017924
0.000000 0.300429 0.018366
0.000000 0.302885 0.018805
0.000160 0.305366 0.019183
0.001372 0.311073 0.019838
0.008037 0.322720 0.021118
0.034108 0.338094 0.019820
0.084366 0.355755 0.015482
0.166679 0.375904 0.012001
0.255653 0.397943 0.010646
0.344183 0.420238 0.016206
0.427539 0.436857 0.028636
0.500989 0.442965 0.038236
0.575846 0.429406 0.036680
0.653641 0.395674 0.027193
0.722527 0.364913 0.020198
0.780960 0.356981 0.020186
0.832513 0.368703 0.023014
0.876432 0.391446 0.025001
0.914051 0.420659 0.026682
0.947013 0.452663 0.029681
0.975943 0.482774 0.033998
0.995814 0.507233 0.038315
0.999696 0.522012 0.041161
1.000000 0.525056 0.041741
1.000000 0.525238 0.041784
1.000000 0.525395 0.041822
1.000000 0.525396 0.041823
1.000000 0.525421 0.041836
1.000000 0.525404 0.041836
0.000000 0.325535 0.022849
0.000000 0.325743 0.022891
0.000000 0.326890 0.023104
0.000000 0.329003 0.023517
0.000250 0.332123 0.024114
0.000505 0.334936 0.024641
0.000881 0.337470 0.025056
0.003030 0.342526 0.025476
0.010487 0.354051 0.026064
0.033860 0.370333 0.025371
0.082734 0.388819 0.021803
0.162749 0.410036 0.018554
0.249626 0.432938 0.016453
0.335213 0.456735 0.017450
0.420473 0.478505 0.026138
0.497518 0.494381 0.039501
0.565352 0.501795 0.048491
0.636497 0.489752 0.046720
0.711679 0.455254 0.035998
0.778323 0.422302 0.025820
0.833419 0.413122 0.022859
0.879026 0.425626 0.024978
0.916543 0.450465 0.028677
0.948911 0.481293 0.033770
0.977280 0.512103 0.040161
0.996269 0.537693 0.046132
0.999985 0.554187 0.049868
1.000000 0.558767 0.050894
1.000000 0.559139 0.050983
1.000000 0.559320 0.051027
1.000000 0.559382 0.051040
1.000000 0.559463 0.051069
1.000000 0.559463 0.051069
0.002598 0.360077 0.029213
0.002620 0.360384 0.029272
0.002750 0.361781 0.029514
0.002955 0.364256 0.029955
0.003620 0.367820 0.030586
0.004272 0.371074 0.031153
0.004899 0.373778 0.031589
0.007127 0.378342 0.031937
0.014758 0.389615 0.032167
0.033764 0.406930 0.031813
0.086984 0.425982 0.028799
0.165034 0.448137 0.025555
0.249403 0.471926 0.023249
0.331614 0.495785 0.022021
0.413599 0.519684 0.025091
0.493918 0.540520 0.036026
0.564711 0.556051 0.049392
0.626894 0.564777 0.057666
0.693387 0.554547 0.056747
0.764645 0.520280 0.046228
0.826959 0.486502 0.034473
0.876643 0.477536 0.030149
0.916225 0.490871 0.032745
0.949681 0.515629 0.038864
0.978309 0.544402 0.046846
0.997687 0.569687 0.054045
1.000000 0.587592 0.058528
1.000000 0.594153 0.060172
1.000000 0.594830 0.060335
1.000000 0.595036 0.060375
1.000000 0.595193 0.060415
1.000000 0.595329 0.060444
1.000000 0.595318 0.060444
0.009854 0.398065 0.035839
0.009924 0.398400 0.035898
0.010269 0.400072 0.036177
0.010837 0.402841 0.036648
0.011597 0.406598 0.037291
0.012307 0.410093 0.037900
0.012874 0.412865 0.038361
0.014534 0.416884 0.038684
0.021514 0.427897 0.038563
0.036453 0.446827 0.038181
0.092660 0.466664 0.035915
0.170588 0.488402 0.032952
0.253580 0.512758 0.030647
0.333768 0.537199 0.028878
0.411508 0.560938 0.028489
0.489267 0.584212 0.033662
0.563636 0.603894 0.045777
0.628107 0.619183 0.058327
0.684919 0.628998 0.066131
0.746214 0.620323 0.066803
0.811540 0.587325 0.058148
0.867371 0.554548 0.046976
0.911309 0.546827 0.042759
0.947514 0.560186 0.046297
0.978517 0.582871 0.053831
0.999280 0.605873 0.061493
1.000000 0.623609 0.066952
1.000000 0.631740 0.069330
1.000000 0.632777 0.069589
1.000000 0.633062 0.069656
1.000000 0.633238 0.069705
1.000000 0.633391 0.069743
1.000000 0.633402 0.069743
0.018198 0.438008 0.042703
0.018305 0.438436 0.042772
0.018661 0.440242 0.043089
0.019274 0.443200 0.043589
0.020081 0.447156 0.044261
0.020855 0.450927 0.044907
0.021473 0.453937 0.045414
0.023082 0.457643 0.045753
0.031659 0.468163 0.045293
0.048341 0.488392 0.044190
0.101546 0.509964 0.042586
0.179834 0.531243 0.040287
0.262530 0.555010 0.038301
0.340907 0.579749 0.036564
0.415109 0.603118 0.035321
0.488298 0.626026 0.036079
0.561117 0.647984 0.042987
0.629109 0.665958 0.055597
0.687872 0.680940 0.067112
0.740196 0.691907 0.074423
0.794911 0.684341 0.076475
0.852533 0.652324 0.070415
0.902070 0.621807 0.061045
0.942790 0.615679 0.057691
0.976577 0.627357 0.061707
0.997936 0.645798 0.068779
1.000000 0.662870 0.075208
1.000000 0.672032 0.078429
1.000000 0.673408 0.078822
1.000000 0.673731 0.078897
1.000000 0.673930 0.078936
1.000000 0.674021 0.078976
1.000000 0.674137 0.078985
0.027008 0.480585 0.049949
0.027156 0.481226 0.050046
0.027557 0.483167 0.050371
0.028215 0.486272 0.050899
0.029104 0.490462 0.051599
0.029942 0.494441 0.052277
0.030629 0.497647 0.052807
0.032476 0.501239 0.053166
0.043788 0.510687 0.052611
0.066018 0.530841 0.050802
0.116038 0.554374 0.048923
0.195249 0.576135 0.047392
0.277551 0.599033 0.045964
0.353178 0.622844 0.044456
0.424648 0.645739 0.043258
0.493757 0.667610 0.042487
0.562551 0.689416 0.044498
0.629478 0.708941 0.053028
0.690843 0.725020 0.065644
0.744446 0.740280 0.075965
0.791901 0.751946 0.082662
0.840463 0.745325 0.085759
0.891269 0.714058 0.082113
0.936277 0.685597 0.074470
0.973205 0.678765 0.072220
0.996678 0.688337 0.076299
1.000000 0.702755 0.082513
1.000000 0.712379 0.086333
1.000000 0.714009 0.086866
1.000000 0.714320 0.086924
1.000000 0.714535 0.086964
1.000000 0.714617 0.086973
1.000000 0.714770 0.087003
0.036621 0.525497 0.057442
0.036791 0.526325 0.057567
0.037269 0.528533 0.057922
0.038019 0.531970 0.058484
0.038995 0.536436 0.059221
0.039863 0.540456 0.059885
0.040583 0.543671 0.060417
0.042423 0.547121 0.060790
0.054150 0.555216 0.060398
0.086688 0.574280 0.058290
0.142008 0.599282 0.055774
0.220117 0.621413 0.054617
0.299050 0.643683 0.053641
0.372005 0.666436 0.052322
0.441083 0.688321 0.051090
0.506238 0.709027 0.050137
0.569679 0.729081 0.050224
0.632320 0.748307 0.054167
0.692592 0.765309 0.064018
0.748856 0.781189 0.076181
0.798406 0.797230 0.085389
0.841475 0.808767 0.091643
0.884251 0.802491 0.095300
0.928373 0.771978 0.093034
0.968357 0.744575 0.087061
0.995887 0.737881 0.085660
1.000000 0.744595 0.089282
1.000000 0.752560 0.092847
1.000000 0.754287 0.093461
1.000000 0.754666 0.093522
1.000000 0.754796 0.093531
1.000000 0.754993 0.093560
1.000000 0.755096 0.093598
0.047314 0.570588 0.065064
0.047628 0.571665 0.065250
0.048291 0.574038 0.065691
0.049300 0.577651 0.066367
0.050530 0.582098 0.067213
0.051574 0.585947 0.067913
0.052423 0.589080 0.068491
0.054700 0.592475 0.068893
0.069333 0.600257 0.068370
0.113486 0.619019 0.065748
0.179260 0.644096 0.062662
0.254407 0.665334 0.061715
0.328345 0.686262 0.061068
0.398349 0.707986 0.059959
0.463478 0.728662 0.058919
0.524068 0.747890 0.058119
0.582467 0.765936 0.057950
0.640150 0.783655 0.059463
0.696903 0.800926 0.065168
0.752227 0.817430 0.075790
0.803948 0.833668 0.086922
0.848069 0.848685 0.094885
0.885480 0.858669 0.100968
0.922422 0.852324 0.104816
0.962499 0.822796 0.102690
0.993653 0.797314 0.097705
1.000000 0.791479 0.097785
1.000000 0.794760 0.100226
1.000000 0.796167 0.100798
1.000000 0.796589 0.100875
1.000000 0.796780 0.100904
1.000000 0.796937 0.100928
1.000000 0.797052 0.100974
0.060713 0.612887 0.073641
0.061310 0.614222 0.073966
0.062447 0.616724 0.074619
0.064018 0.620221 0.075515
0.065783 0.624108 0.076521
0.067004 0.626800 0.077211
0.067961 0.628953 0.077776
0.071434 0.631851 0.078023
0.092297 0.640846 0.076660
0.147795 0.662175 0.072147
0.218334 0.685294 0.068410
0.291113 0.701934 0.067308
0.359683 0.719913 0.066885
0.425150 0.740258 0.066033
0.487029 0.760048 0.065233
0.544498 0.779019 0.064444
0.598951 0.796789 0.064242
0.652214 0.813957 0.065237
0.705450 0.831334 0.068296
0.758531 0.848118 0.075952
0.809545 0.863907 0.087309
0.854364 0.878322 0.097245
0.891172 0.890389 0.104445
