nova/tdt-studio/app/Lut_mau/IWLTBAP/1 - LUTs by IWLTBAP (CUBE)/02 - Generic LOG/Cinematic/F-8700-LOG.cube
# Copyright: (C) Copyright 2010-2019 by IWLTBAP SAS
# Cannot be resold, shared or otherwise redistributed
# Website: https://luts.iwltbap.com
TITLE "IWLTBAP 8700 (LOG)"
LUT_3D_SIZE 9
0.036011 0.041229 0.046570
0.066638 0.052091 0.051635
0.146331 0.064652 0.051334
0.254011 0.074201 0.047407
0.382096 0.085610 0.057551
0.543896 0.103809 0.071358
0.688324 0.122230 0.086215
0.787851 0.138552 0.098813
0.857452 0.157867 0.109863
0.042989 0.082197 0.057562
0.071474 0.089889 0.058185
0.172230 0.096206 0.054061
0.289257 0.107986 0.052258
0.430617 0.123497 0.065867
0.591135 0.142426 0.080756
0.722360 0.164079 0.095445
0.808440 0.183711 0.107317
0.872771 0.206297 0.117759
0.048486 0.131058 0.062039
0.072308 0.149104 0.064743
0.196405 0.143737 0.057418
0.344740 0.150684 0.063700
0.502624 0.171569 0.078165
0.656754 0.197833 0.094760
0.775640 0.235513 0.104406
0.863260 0.275238 0.100304
0.927009 0.311493 0.091934
0.052531 0.192683 0.065191
0.074501 0.210730 0.066337
0.189621 0.244524 0.063333
0.409986 0.214340 0.069944
0.585809 0.232911 0.092577
0.732526 0.270566 0.103464
0.835295 0.312833 0.101541
0.904827 0.355311 0.094310
0.958890 0.402615 0.090086
0.058525 0.268149 0.074897
0.081283 0.297031 0.075668
0.198942 0.342867 0.072908
0.447795 0.397553 0.094143
0.673182 0.327977 0.087386
0.797237 0.354318 0.099250
0.875161 0.397705 0.094474
0.931040 0.448904 0.092105
0.974937 0.499179 0.098168
0.069488 0.358563 0.087141
0.093031 0.396062 0.086852
0.241958 0.454915 0.083169
0.493513 0.538281 0.095631
0.681847 0.581102 0.115082
0.823341 0.501832 0.093249
0.891850 0.518291 0.096432
0.950815 0.555613 0.104438
0.971038 0.595855 0.114448
0.082282 0.452960 0.099258
0.107614 0.498466 0.097999
0.300575 0.566292 0.093634
0.533231 0.649287 0.094684
0.709123 0.708004 0.123298
0.803547 0.727498 0.129868
0.894487 0.676464 0.127993
0.948178 0.679386 0.132216
0.964591 0.703550 0.137728
0.096734 0.543047 0.111316
0.156813 0.599350 0.107060
0.371973 0.666536 0.104710
0.576615 0.742604 0.103615
0.727249 0.793855 0.122276
0.825543 0.832782 0.138814
0.885008 0.840437 0.148401
0.947385 0.798166 0.146849
0.964233 0.794235 0.149314
0.113129 0.682556 0.123413
0.222928 0.740406 0.118965
0.433646 0.790596 0.117071
0.612604 0.837491 0.117373
0.746557 0.874321 0.123943
0.830291 0.894710 0.138117
0.889227 0.909898 0.156159
0.939526 0.910515 0.173770
0.969910 0.875397 0.149719
0.036170 0.052130 0.079779
0.061163 0.060499 0.083667
0.134396 0.066590 0.085831
0.243034 0.077200 0.086044
0.373603 0.088611 0.081079
0.539370 0.109096 0.088299
0.687015 0.130432 0.103374
0.787263 0.150185 0.116149
0.855922 0.170347 0.126880
0.042302 0.076441 0.089354
0.067237 0.086378 0.094453
0.146084 0.104713 0.095370
0.287042 0.112146 0.078956
0.432864 0.123667 0.081380
0.597097 0.139239 0.096951
0.725267 0.156815 0.110887
0.809210 0.173465 0.121957
0.871629 0.194264 0.132201
0.046692 0.153141 0.115760
0.071842 0.149707 0.102041
0.171070 0.155861 0.091780
0.330174 0.154223 0.079808
0.500279 0.179609 0.088942
0.658024 0.209176 0.103796
0.779542 0.242297 0.108728
0.863048 0.274464 0.103116
0.924363 0.307837 0.095082
0.046863 0.222015 0.095735
0.072285 0.216481 0.092540
0.138540 0.250138 0.083177
0.397054 0.227126 0.085120
0.585248 0.241914 0.101038
0.732521 0.280280 0.107257
0.835132 0.321674 0.103644
0.902127 0.366874 0.097917
0.954438 0.415965 0.096573
0.053080 0.297490 0.098670
0.077676 0.299938 0.094886
0.141955 0.341077 0.091899
0.411874 0.408092 0.104749
0.667090 0.347671 0.096447
0.793490 0.364358 0.103251
0.870033 0.412208 0.100178
0.926980 0.465244 0.101678
0.973547 0.517486 0.109637
0.063356 0.383626 0.112124
0.089335 0.394001 0.106512
0.179807 0.449246 0.102397
0.438863 0.536311 0.101210
0.659473 0.600770 0.131636
0.812315 0.527518 0.110558
0.885241 0.537467 0.111863
0.945009 0.573268 0.119891
0.969775 0.610904 0.130318
0.075046 0.468311 0.126384
0.103396 0.491874 0.118383
0.241846 0.559359 0.113131
0.483366 0.643345 0.110658
0.687043 0.711310 0.134556
0.798474 0.752309 0.147532
0.890066 0.690737 0.142194
0.946489 0.690121 0.145791
0.964167 0.712047 0.151863
0.089137 0.544105 0.140828
0.119982 0.586137 0.130432
0.319916 0.660257 0.124704
0.535045 0.738572 0.122871
0.703233 0.796674 0.130610
0.816967 0.835278 0.153840
0.879351 0.849782 0.167745
0.946084 0.803767 0.158959
0.964465 0.798423 0.161902
0.106338 0.672684 0.154486
0.140004 0.737878 0.143381
0.386648 0.789918 0.137487
0.577835 0.837213 0.137230
0.721770 0.873918 0.143151
0.817527 0.895177 0.152811
0.883610 0.911690 0.170490
0.936427 0.915943 0.191091
0.968852 0.878419 0.160603
0.035172 0.066830 0.125144
0.057468 0.076832 0.128171
0.110777 0.079602 0.128433
0.227055 0.082888 0.120139
0.353438 0.098168 0.130689
0.509813 0.118285 0.128908
0.674184 0.143345 0.136315
0.783214 0.167953 0.144090
0.854926 0.190173 0.149558
0.041000 0.088958 0.137700
0.061705 0.099177 0.145616
0.111661 0.115371 0.146560
0.245912 0.123182 0.138543
0.409909 0.135516 0.136089
0.581098 0.149727 0.132921
0.718342 0.173786 0.140940
0.809943 0.199027 0.144922
0.887164 0.235602 0.138447
0.048270 0.128788 0.153614
0.068147 0.143208 0.164473
0.114561 0.160333 0.171010
0.288708 0.180248 0.156642
0.500344 0.181817 0.122813
0.663371 0.203601 0.126935
0.778367 0.231757 0.126796
0.860107 0.260092 0.121341
0.920643 0.292670 0.108496
0.061094 0.258352 0.220445
0.074707 0.268502 0.210967
0.104682 0.257157 0.166033
0.349383 0.259158 0.127347
0.565484 0.258409 0.118077
0.730867 0.300979 0.116938
0.831410 0.349250 0.111526
0.896606 0.395832 0.109934
0.946882 0.443939 0.115664
0.070342 0.372362 0.221284
0.078562 0.358552 0.181924
0.109510 0.347065 0.150791
0.323155 0.413322 0.120346
0.640052 0.392498 0.125766
0.780811 0.407585 0.123687
0.859110 0.463463 0.127450
0.919418 0.508688 0.130910
0.967810 0.551684 0.136006
0.075300 0.454730 0.195846
0.083626 0.441651 0.164661
0.119487 0.444494 0.147561
0.346760 0.527866 0.127628
0.627480 0.613960 0.148917
0.795475 0.576699 0.149736
0.882458 0.578834 0.149121
0.935846 0.613763 0.156548
0.969163 0.640270 0.160604
0.085395 0.529202 0.205020
0.097848 0.525048 0.191599
0.143458 0.547238 0.158808
0.406392 0.637664 0.141268
0.646257 0.714878 0.145812
0.789491 0.766206 0.169955
0.887762 0.719918 0.170749
0.943597 0.710171 0.173548
0.965321 0.727126 0.178412
0.101650 0.603096 0.250343
0.118983 0.602804 0.236098
0.194543 0.673352 0.176858
0.475898 0.738060 0.172165
0.668105 0.799297 0.156416
0.798257 0.836833 0.170932
0.871050 0.857132 0.188832
0.945422 0.813171 0.181548
0.965030 0.803101 0.178380
0.105590 0.743743 0.228093
0.130485 0.742409 0.207074
0.292969 0.794972 0.167178
0.535077 0.840409 0.186844
0.688795 0.873167 0.186868
0.798481 0.898707 0.187114
0.874504 0.913919 0.188815
0.931118 0.922444 0.208688
0.969741 0.881131 0.176262
0.037476 0.088197 0.186323
0.054482 0.094441 0.182394
0.078458 0.106393 0.186490
0.171156 0.106125 0.180678
0.331115 0.106759 0.162059
0.492091 0.127070 0.173341
0.638532 0.157468 0.181650
0.767303 0.185838 0.188290
0.872982 0.229439 0.191200
0.043848 0.113353 0.202440
0.059140 0.122380 0.213517
0.083072 0.132961 0.210918
0.172829 0.147734 0.205790
0.360874 0.152189 0.184024
0.544932 0.176547 0.192409
0.710223 0.208687 0.197748
0.828103 0.247108 0.196839
0.906495 0.294580 0.199511
0.051352 0.144143 0.222333
0.067024 0.157016 0.237022
0.088702 0.171909 0.253290
0.181599 0.198108 0.242694
0.412579 0.223361 0.225929
0.621698 0.255112 0.224731
0.779238 0.289905 0.215380
0.871579 0.321989 0.203397
0.935062 0.353567 0.188656
0.061368 0.202132 0.247932
0.077340 0.218873 0.264975
0.098506 0.241935 0.286773
0.192015 0.279681 0.297056
0.491026 0.321341 0.269842
0.701084 0.354696 0.241963
0.823881 0.391485 0.225715
0.898024 0.422907 0.207471
0.950661 0.457757 0.194080
0.083315 0.367883 0.371694
0.101171 0.411277 0.397565
0.118660 0.437545 0.399202
0.174296 0.431557 0.308472
0.566680 0.455779 0.212539
0.737697 0.490838 0.253045
0.839357 0.540413 0.235080
0.902579 0.580847 0.225404
0.953873 0.612483 0.222830
0.109081 0.564521 0.510147
0.120817 0.566894 0.480856
0.131199 0.550285 0.414341
0.189409 0.535980 0.296301
0.540450 0.619576 0.259708
0.773590 0.626241 0.198935
0.860207 0.638085 0.222447
0.916667 0.669631 0.224437
0.966638 0.686691 0.221060
0.124909 0.659732 0.558528
0.131915 0.640305 0.491384
0.142316 0.616230 0.406423
0.245628 0.642437 0.310626
0.567649 0.709005 0.318716
0.766118 0.773827 0.228086
0.874047 0.750425 0.210329
0.933685 0.742234 0.226120
0.966637 0.746969 0.231684
0.136083 0.735806 0.559970
0.141852 0.719439 0.486557
0.162154 0.698395 0.407862
0.341128 0.750327 0.326268
0.612434 0.794122 0.345702
0.765212 0.836406 0.323546
0.858899 0.862209 0.257815
0.942952 0.826638 0.219826
0.967287 0.810522 0.220681
0.147035 0.820289 0.555321
0.151118 0.813229 0.474289
0.186752 0.804489 0.394857
0.447533 0.856800 0.322643
0.649535 0.869818 0.363161
0.770431 0.894391 0.367112
0.856776 0.912164 0.337647
0.923819 0.924880 0.259778
0.972013 0.885111 0.208835
0.042688 0.116528 0.260514
0.059255 0.123223 0.255443
0.076458 0.132225 0.256135
0.100130 0.144963 0.255099
0.227201 0.143555 0.242512
0.458953 0.144375 0.207180
0.635150 0.162801 0.213692
0.771339 0.208293 0.229837
0.857555 0.277745 0.262089
0.049769 0.145813 0.282631
0.065523 0.156242 0.298476
0.083157 0.164101 0.292612
0.108182 0.176258 0.288404
0.239614 0.191104 0.271458
0.502037 0.196833 0.236019
0.674839 0.231593 0.245595
0.795271 0.287463 0.270641
0.879708 0.344991 0.302994
0.057673 0.177567 0.309591
0.073879 0.192680 0.329882
0.092138 0.208839 0.355161
0.120689 0.221430 0.344083
0.285741 0.255131 0.318845
0.559561 0.278117 0.286907
0.718571 0.331187 0.310482
0.828204 0.384583 0.337364
0.904052 0.428528 0.359787
0.067009 0.216803 0.342656
0.083232 0.233677 0.365502
0.102619 0.256082 0.393845
0.137112 0.286567 0.427943
0.339483 0.350572 0.403520
0.614955 0.404632 0.386560
0.764466 0.460833 0.415703
0.862692 0.495471 0.421930
0.928949 0.522274 0.418128
0.079832 0.288137 0.387117
0.096634 0.310912 0.410751
0.116927 0.339929 0.439827
0.155051 0.387132 0.483693
0.359806 0.480324 0.504774
0.665006 0.546530 0.493410
0.801826 0.581470 0.491608
0.881504 0.608095 0.487081
0.941721 0.625216 0.468163
0.105738 0.449368 0.514789
0.124876 0.493305 0.550782
0.147125 0.542756 0.589080
0.175785 0.588052 0.615717
0.366576 0.626734 0.535740
0.722409 0.664876 0.445254
0.826258 0.685009 0.490960
0.895394 0.711056 0.474670
0.954016 0.722744 0.447747
0.136156 0.644042 0.680192
0.152116 0.670791 0.694291
0.169456 0.693809 0.702391
0.201982 0.711730 0.681574
0.447276 0.709995 0.517613
0.719287 0.769875 0.478708
0.854097 0.773086 0.352589
0.917513 0.771229 0.408002
0.962951 0.770809 0.406910
0.156176 0.752619 0.766093
0.170381 0.771287 0.770829
0.184803 0.786968 0.755563
0.224613 0.783563 0.646771
0.531734 0.802425 0.492951
0.729307 0.831983 0.501012
0.841573 0.861747 0.449269
0.933671 0.841741 0.268836
0.966977 0.819813 0.296905
0.173862 0.842932 0.827400
0.185328 0.857695 0.809761
0.196172 0.860680 0.754043
0.250296 0.846839 0.600561
0.608512 0.880424 0.475321
0.746198 0.890655 0.501443
0.837605 0.911149 0.493766
0.909397 0.921803 0.446773
0.973528 0.890143 0.251356
0.050171 0.152897 0.353002
0.066807 0.159208 0.346390
0.084172 0.168199 0.343166
0.102421 0.179545 0.343154
0.133415 0.192382 0.335291
0.346453 0.190047 0.287890
0.609510 0.193435 0.251339
0.755971 0.220132 0.257906
0.847870 0.282403 0.284896
0.057749 0.185747 0.384938
0.073579 0.196620 0.403326
0.091372 0.204471 0.394235
0.109592 0.212312 0.381873
0.144619 0.229923 0.377720
0.396826 0.243218 0.315422
0.645387 0.259641 0.291168
0.777205 0.297429 0.303305
0.867163 0.361038 0.349770
0.066089 0.220619 0.417579
0.082452 0.236858 0.440827
0.100744 0.253536 0.469289
0.119672 0.261205 0.453682
0.163645 0.280045 0.436515
0.478424 0.321227 0.365524
0.683802 0.351329 0.359971
0.807301 0.399048 0.385055
0.886481 0.460615 0.449614
0.075629 0.261038 0.456759
0.092238 0.280309 0.481778
0.111899 0.304257 0.512669
0.133299 0.326441 0.542913
0.191467 0.353759 0.529496
0.544979 0.436998 0.472914
0.729215 0.472877 0.472118
0.833349 0.526495 0.522086
0.901677 0.570685 0.564741
0.087017 0.310670 0.502045
0.103680 0.331613 0.526731
0.123852 0.358985 0.555841
0.148169 0.391708 0.586307
0.224085 0.447725 0.624305
0.599705 0.563731 0.591454
0.765676 0.603433 0.596095
0.856078 0.637473 0.618171
0.922281 0.654026 0.616598
0.102462 0.398030 0.553440
0.119676 0.424252 0.576019
0.140233 0.454398 0.603435
0.166693 0.489546 0.634142
0.249340 0.554473 0.670549
0.651998 0.682064 0.660189
0.796385 0.707478 0.655480
0.874738 0.723438 0.652923
0.936887 0.730376 0.639476
0.127532 0.534217 0.648301
0.145164 0.562562 0.669987
0.165858 0.593463 0.694713
0.188867 0.627901 0.719952
0.267520 0.703423 0.756840
0.669007 0.768349 0.657380
0.827498 0.786189 0.606046
0.894698 0.791815 0.631032
0.954664 0.792651 0.610345
0.153326 0.671401 0.760295
0.170323 0.697275 0.778425
0.189163 0.724587 0.793290
0.210581 0.752427 0.803977
0.299716 0.808624 0.794318
0.697853 0.835312 0.636343
0.820069 0.858848 0.621475
0.914297 0.850558 0.519066
0.961068 0.832456 0.571302
0.174874 0.776353 0.840177
0.189802 0.796170 0.847657
0.206980 0.816859 0.854094
0.235693 0.851073 0.863195
0.361703 0.881733 0.737936
0.725280 0.897212 0.614347
0.819137 0.908228 0.622810
0.897743 0.921083 0.586892
0.968429 0.892483 0.436782
0.059211 0.197916 0.463501
0.075911 0.203278 0.454934
0.093065 0.209901 0.444108
0.111584 0.221310 0.440806
0.129940 0.229070 0.430128
0.231113 0.250672 0.414711
0.535767 0.252018 0.315255
0.739665 0.261288 0.300439
0.841174 0.300003 0.324260
0.067010 0.233167 0.499178
0.083090 0.244938 0.519518
0.100674 0.250410 0.504486
0.118991 0.257469 0.489216
0.137680 0.261924 0.464255
0.260955 0.303959 0.458682
0.590985 0.313832 0.355974
0.759824 0.340362 0.369765
0.857575 0.382035 0.401486
0.075738 0.271043 0.535224
0.092127 0.286866 0.554957
0.110288 0.302648 0.578467
0.129396 0.310479 0.566260
0.153887 0.317921 0.541851
0.306697 0.377419 0.535768
0.651413 0.405804 0.454075
0.783661 0.440515 0.477154
0.874733 0.482537 0.516450
0.085547 0.313164 0.571445
0.102033 0.330930 0.590553
0.121361 0.352995 0.616655
0.142262 0.374679 0.645074
0.180425 0.395847 0.640764
0.373113 0.468349 0.629820
0.691098 0.515720 0.581728
0.814708 0.547138 0.593799
0.889525 0.590029 0.635709
0.096441 0.359323 0.609165
0.113045 0.378804 0.629001
0.132969 0.403424 0.654887
0.155478 0.431576 0.681842
0.208990 0.473690 0.715532
0.468618 0.568155 0.706138
0.737441 0.617060 0.674955
0.838012 0.648874 0.685412
0.901974 0.677945 0.711756
0.109079 0.418088 0.649226
0.125716 0.439831 0.667406
0.145605 0.465842 0.690685
0.168086 0.495181 0.714636
0.233151 0.549245 0.746580
0.549643 0.656753 0.755094
0.775052 0.710461 0.731366
0.857277 0.729934 0.733776
0.920416 0.742131 0.734876
0.125232 0.504857 0.693040
0.141917 0.526875 0.708731
0.161742 0.552029 0.728320
0.184353 0.578183 0.747813
0.258703 0.629892 0.772755
0.581443 0.735966 0.783307
0.794496 0.794428 0.759369
0.872161 0.802315 0.755237
0.937456 0.800395 0.739729
0.147540 0.610979 0.756499
0.163765 0.629178 0.768147
0.183029 0.650262 0.781493
0.204555 0.673295 0.794991
0.255728 0.718849 0.819957
0.470030 0.821823 0.844046
0.798682 0.854494 0.750580
0.893368 0.857412 0.711374
0.954844 0.850804 0.717150
0.169322 0.706463 0.823352
0.185144 0.725144 0.835834
0.204101 0.747856 0.849846
0.224711 0.772979 0.862336
0.283550 0.824683 0.881522
0.516399 0.906867 0.821086
0.805491 0.909059 0.726266
0.881251 0.920194 0.714751
0.960990 0.897668 0.658259
0.069391 0.249647 0.578865
0.086243 0.254401 0.569048
0.103295 0.259045 0.553465
0.121231 0.265977 0.539844
0.140308 0.276489 0.533146
0.171125 0.293350 0.531090
0.425934 0.311060 0.493312
0.711293 0.340603 0.415320
0.827353 0.382145 0.467215
0.077133 0.285916 0.608432
0.093448 0.297635 0.624453
0.110920 0.301207 0.610128
0.129154 0.306617 0.595097
0.148205 0.314247 0.580910
0.188967 0.340150 0.584654
0.466932 0.380190 0.559397
0.734278 0.415662 0.512127
0.839441 0.451421 0.548336
0.085788 0.323707 0.638503
0.102131 0.338210 0.654436
0.120004 0.351476 0.672299
0.139545 0.360736 0.667203
0.159254 0.368600 0.653817
0.213700 0.398978 0.652713
0.531105 0.460871 0.641203
0.757306 0.488820 0.601250
0.857149 0.519185 0.623001
0.095563 0.365239 0.670720
0.111822 0.380512 0.685579
0.130536 0.398441 0.704272
0.150793 0.416368 0.726237
0.174610 0.431944 0.727660
0.256754 0.470054 0.722959
0.601804 0.540372 0.719454
0.794020 0.558757 0.674072
0.875296 0.592388 0.691228
0.105752 0.406086 0.700558
0.122237 0.423744 0.715714
0.141511 0.444178 0.733248
0.163141 0.467611 0.753974
0.195773 0.495307 0.778494
0.333227 0.550578 0.775820
0.670479 0.635245 0.777158
0.822203 0.643732 0.743293
0.890434 0.672208 0.750669
0.117162 0.451680 0.729247
0.133513 0.470759 0.743022
0.152749 0.492836 0.759346
0.174896 0.520117 0.779660
0.215868 0.558193 0.803207
0.414586 0.630568 0.810894
0.723742 0.725032 0.810135
0.842105 0.734174 0.793270
0.906254 0.749637 0.793056
0.130211 0.517228 0.758747
0.146244 0.534575 0.771965
0.165364 0.555975 0.787223
0.186798 0.579253 0.803264
0.240338 0.620588 0.822920
0.460514 0.697730 0.830820
0.756753 0.787798 0.826662
0.859978 0.798110 0.811360
0.921466 0.803230 0.804746
0.145475 0.589756 0.789469
0.161381 0.606544 0.800707
0.180231 0.625853 0.813112
0.201260 0.645970 0.826439
0.261825 0.684619 0.842079
0.482265 0.757916 0.849398
0.764524 0.844012 0.850993
0.866063 0.863572 0.822566
0.935072 0.861316 0.808906
0.165093 0.669700 0.833638
0.180321 0.682758 0.840867
0.198665 0.699527 0.849121
0.219198 0.717028 0.857682
0.255611 0.743813 0.868148
0.351806 0.808956 0.893181
0.707989 0.927689 0.875650
0.870035 0.917264 0.808976
0.951575 0.908238 0.777470
0.079773 0.302856 0.676056
0.097179 0.308984 0.669599
0.114467 0.313140 0.657573
0.132831 0.321041 0.650246
0.152702 0.334441 0.652722
0.173255 0.346847 0.652023
0.303496 0.405172 0.668812
0.646222 0.409647 0.634237
0.803162 0.429901 0.603577
0.087254 0.337849 0.700996
0.103794 0.349426 0.713774
0.121956 0.355284 0.707393
0.140871 0.362742 0.700962
0.160666 0.373189 0.697188
0.184789 0.386926 0.694004
0.354699 0.462132 0.716309
0.690488 0.460678 0.700618
0.826044 0.475183 0.653994
0.095629 0.373976 0.725143
0.111667 0.385165 0.736211
0.129605 0.397662 0.749957
0.149691 0.408955 0.751869
0.170401 0.420697 0.749894
0.204175 0.439728 0.747610
0.431485 0.528648 0.763679
0.730647 0.517524 0.759757
0.849822 0.531505 0.713401
0.104894 0.411594 0.749409
0.120892 0.424135 0.759857
0.139077 0.438471 0.773042
0.158851 0.453491 0.787956
0.180810 0.468950 0.795579
0.230565 0.496355 0.796093
0.520771 0.602067 0.811837
0.771105 0.587470 0.808535
0.869630 0.596714 0.767113
0.114724 0.448871 0.772215
0.130730 0.462668 0.781960
0.149151 0.478103 0.793461
0.170025 0.497745 0.810086
0.191881 0.515838 0.825315
0.258931 0.549854 0.829007
0.602002 0.673158 0.844357
0.801922 0.666614 0.842339
0.885205 0.667057 0.808437
0.125202 0.487070 0.793131
0.140974 0.501341 0.802809
0.159789 0.520219 0.814482
0.180940 0.541853 0.829599
0.204732 0.566443 0.844376
0.289427 0.603292 0.850741
0.659920 0.732331 0.863857
0.823676 0.741620 0.860828
0.896366 0.736704 0.832839
0.136628 0.539972 0.814962
0.152212 0.554333 0.823933
0.170908 0.573668 0.834943
0.191881 0.594305 0.847911
0.218785 0.619047 0.861687
0.312349 0.660903 0.866192
0.698964 0.779391 0.877830
0.837947 0.807420 0.870569
0.908349 0.807484 0.858577
0.149422 0.596765 0.837017
0.164843 0.610970 0.845445
0.183032 0.627073 0.855811
0.203463 0.644623 0.866383
0.238599 0.670735 0.878699
0.352449 0.715217 0.882958
0.718420 0.817138 0.889885
0.849228 0.861499 0.876015
0.923910 0.854957 0.858559
0.163666 0.654602 0.860474
0.178739 0.667069 0.867661
0.196795 0.682538 0.875850
0.216842 0.698250 0.884091
0.260616 0.724729 0.895396
0.386502 0.771117 0.899756
0.735417 0.867016 0.903180
0.849717 0.912620 0.886592
0.925781 0.917664 0.862579
