nova/tdt-studio/app/Lut_mau/IWLTBAP/1 - LUTs by IWLTBAP (CUBE)/02 - Generic LOG/Cinematic/F-8700-LOG.cube
# Copyright: (C) Copyright 2010-2019 by IWLTBAP SAS
# Cannot be resold, shared or otherwise redistributed
# Website: https://luts.iwltbap.com
TITLE "IWLTBAP 8700 (LOG)"
LUT_3D_SIZE 5
0.036011 0.041229 0.046570
0.146331 0.064652 0.051334
0.382096 0.085610 0.057551
0.688324 0.122230 0.086215
0.857452 0.157867 0.109863
0.048486 0.131058 0.062039
0.196405 0.143737 0.057418
0.502624 0.171569 0.078165
0.775640 0.235513 0.104406
0.927009 0.311493 0.091934
0.058525 0.268149 0.074897
0.198942 0.342867 0.072908
0.673182 0.327977 0.087386
0.875161 0.397705 0.094474
0.974937 0.499179 0.098168
0.082282 0.452960 0.099258
0.300575 0.566292 0.093634
0.709123 0.708004 0.123298
0.894487 0.676464 0.127993
0.964591 0.703550 0.137728
0.113129 0.682556 0.123413
0.433646 0.790596 0.117071
0.746557 0.874321 0.123943
0.889227 0.909898 0.156159
0.969910 0.875397 0.149719
0.035172 0.066830 0.125144
0.110777 0.079602 0.128433
0.353438 0.098168 0.130689
0.674184 0.143345 0.136315
0.854926 0.190173 0.149558
0.048270 0.128788 0.153614
0.114561 0.160333 0.171010
0.500344 0.181817 0.122813
0.778367 0.231757 0.126796
0.920643 0.292670 0.108496
0.070342 0.372362 0.221284
0.109510 0.347065 0.150791
0.640052 0.392498 0.125766
0.859110 0.463463 0.127450
0.967810 0.551684 0.136006
0.085395 0.529202 0.205020
0.143458 0.547238 0.158808
0.646257 0.714878 0.145812
0.887762 0.719918 0.170749
0.965321 0.727126 0.178412
0.105590 0.743743 0.228093
0.292969 0.794972 0.167178
0.688795 0.873167 0.186868
0.874504 0.913919 0.188815
0.969741 0.881131 0.176262
0.042688 0.116528 0.260514
0.076458 0.132225 0.256135
0.227201 0.143555 0.242512
0.635150 0.162801 0.213692
0.857555 0.277745 0.262089
0.057673 0.177567 0.309591
0.092138 0.208839 0.355161
0.285741 0.255131 0.318845
0.718571 0.331187 0.310482
0.904052 0.428528 0.359787
0.079832 0.288137 0.387117
0.116927 0.339929 0.439827
0.359806 0.480324 0.504774
0.801826 0.581470 0.491608
0.941721 0.625216 0.468163
0.136156 0.644042 0.680192
0.169456 0.693809 0.702391
0.447276 0.709995 0.517613
0.854097 0.773086 0.352589
0.962951 0.770809 0.406910
0.173862 0.842932 0.827400
0.196172 0.860680 0.754043
0.608512 0.880424 0.475321
0.837605 0.911149 0.493766
0.973528 0.890143 0.251356
0.059211 0.197916 0.463501
0.093065 0.209901 0.444108
0.129940 0.229070 0.430128
0.535767 0.252018 0.315255
0.841174 0.300003 0.324260
0.075738 0.271043 0.535224
0.110288 0.302648 0.578467
0.153887 0.317921 0.541851
0.651413 0.405804 0.454075
0.874733 0.482537 0.516450
0.096441 0.359323 0.609165
0.132969 0.403424 0.654887
0.208990 0.473690 0.715532
0.737441 0.617060 0.674955
0.901974 0.677945 0.711756
0.125232 0.504857 0.693040
0.161742 0.552029 0.728320
0.258703 0.629892 0.772755
0.794496 0.794428 0.759369
0.937456 0.800395 0.739729
0.169322 0.706463 0.823352
0.204101 0.747856 0.849846
0.283550 0.824683 0.881522
0.805491 0.909059 0.726266
0.960990 0.897668 0.658259
0.079773 0.302856 0.676056
0.114467 0.313140 0.657573
0.152702 0.334441 0.652722
0.303496 0.405172 0.668812
0.803162 0.429901 0.603577
0.095629 0.373976 0.725143
0.129605 0.397662 0.749957
0.170401 0.420697 0.749894
0.431485 0.528648 0.763679
0.849822 0.531505 0.713401
0.114724 0.448871 0.772215
0.149151 0.478103 0.793461
0.191881 0.515838 0.825315
0.602002 0.673158 0.844357
0.885205 0.667057 0.808437
0.136628 0.539972 0.814962
0.170908 0.573668 0.834943
0.218785 0.619047 0.861687
0.698964 0.779391 0.877830
0.908349 0.807484 0.858577
0.163666 0.654602 0.860474
0.196795 0.682538 0.875850
0.260616 0.724729 0.895396
0.735417 0.867016 0.903180
0.925781 0.917664 0.862579
