nova/tdt-studio/app/Lut_mau/IWLTBAP/1 - LUTs by IWLTBAP (CUBE)/02 - Generic LOG/Cinematic/H-9110-LOG.cube
# Copyright: (C) Copyright 2010-2019 by IWLTBAP SAS
# Cannot be resold, shared or otherwise redistributed
# Website: https://luts.iwltbap.com
TITLE "IWLTBAP 9110 (LOG)"
LUT_3D_SIZE 33
0.000000 0.000000 0.000000
0.009125 0.000000 0.000488
0.018188 0.000000 0.001007
0.057831 0.000000 0.003143
0.099152 0.000000 0.005432
0.139893 0.000000 0.007660
0.180328 0.000000 0.009888
0.226349 0.000000 0.012421
0.269470 0.000000 0.014801
0.313721 0.000000 0.019348
0.357880 0.000000 0.021729
0.404816 0.000000 0.022278
0.449860 0.000000 0.024689
0.496979 0.000000 0.027283
0.544373 0.000000 0.029907
0.590454 0.000000 0.032410
0.639160 0.000000 0.035095
0.687592 0.000000 0.037781
0.735229 0.000000 0.040344
0.784210 0.000000 0.043030
0.835358 0.000000 0.045868
0.875183 0.000000 0.048035
0.906067 0.000000 0.049744
0.916016 0.000000 0.050262
0.926025 0.000000 0.050842
0.935974 0.000000 0.051392
0.944672 0.000000 0.051880
0.952789 0.000000 0.052307
0.960968 0.000000 0.052734
0.969116 0.000000 0.053162
0.977356 0.000000 0.053589
0.985535 0.000000 0.054016
0.993744 0.000000 0.054474
0.006317 0.004852 0.000000
0.013702 0.005035 0.000702
0.022797 0.005035 0.001190
0.053375 0.004730 0.002960
0.094391 0.004242 0.005157
0.134338 0.003326 0.007294
0.175232 0.003387 0.009521
0.220978 0.002899 0.012024
0.263702 0.002045 0.014374
0.308014 0.001862 0.018066
0.352112 0.001862 0.021423
0.399139 0.001862 0.022064
0.444977 0.001862 0.024353
0.491699 0.001862 0.026917
0.539520 0.001862 0.029602
0.585358 0.001862 0.032043
0.634033 0.001862 0.034729
0.683411 0.001862 0.037445
0.731873 0.001862 0.040100
0.780975 0.001862 0.042786
0.832123 0.001862 0.045593
0.873718 0.001862 0.047882
0.905090 0.001862 0.049591
0.915100 0.001862 0.050140
0.925079 0.001862 0.050720
0.935059 0.001862 0.051239
0.943756 0.001862 0.051727
0.951904 0.001862 0.052155
0.960052 0.001862 0.052582
0.968536 0.001862 0.053040
0.977356 0.001862 0.053528
0.985535 0.001862 0.053955
0.993744 0.001862 0.054382
0.012634 0.009705 0.000000
0.020020 0.009888 0.000702
0.027374 0.010071 0.001404
0.050140 0.009552 0.002808
0.089355 0.008453 0.004822
0.128967 0.007446 0.006927
0.169891 0.006714 0.009125
0.215271 0.005859 0.011627
0.257507 0.004608 0.013977
0.301422 0.003723 0.016663
0.345276 0.003723 0.020111
0.392944 0.003723 0.021820
0.439606 0.003723 0.024017
0.486938 0.003723 0.026611
0.535583 0.003723 0.029297
0.580383 0.003723 0.031708
0.629059 0.003723 0.034363
0.679077 0.003723 0.037140
0.728210 0.003723 0.039856
0.777039 0.003723 0.042511
0.828522 0.003723 0.045349
0.872314 0.003723 0.047729
0.904114 0.003723 0.049438
0.914124 0.003723 0.049988
0.924164 0.003723 0.050568
0.934143 0.003723 0.051117
0.942841 0.003723 0.051575
0.951019 0.003723 0.052032
0.959137 0.003723 0.052429
0.967651 0.003723 0.052917
0.976776 0.003723 0.053406
0.985535 0.003723 0.053894
0.993744 0.005707 0.054230
0.030762 0.023438 0.000000
0.034149 0.022827 0.000000
0.040222 0.021881 0.000732
0.051880 0.021027 0.002350
0.084320 0.018951 0.005035
0.122101 0.016052 0.006958
0.163025 0.012543 0.008850
0.207855 0.009491 0.011139
0.250214 0.007446 0.013458
0.293945 0.005859 0.015900
0.337616 0.005585 0.018616
0.385590 0.005585 0.021118
0.433228 0.005585 0.023621
0.481110 0.005585 0.026245
0.530182 0.005585 0.028961
0.574646 0.005585 0.031342
0.622284 0.005585 0.033936
0.672821 0.005585 0.036713
0.723206 0.005585 0.039490
0.771973 0.005585 0.042145
0.823883 0.005585 0.045013
0.868561 0.005585 0.047424
0.902283 0.005585 0.049255
0.913147 0.005585 0.049866
0.923187 0.005585 0.050415
0.933197 0.005585 0.050964
0.941895 0.005585 0.051453
0.950073 0.005585 0.051880
0.958252 0.005585 0.052307
0.966705 0.005676 0.052765
0.975555 0.007019 0.053192
0.984650 0.008392 0.053650
0.993744 0.009918 0.054138
0.057709 0.043579 0.000000
0.061188 0.042511 0.000000
0.064697 0.041809 0.000000
0.067657 0.040955 0.000000
0.086884 0.041962 0.001892
0.116882 0.040466 0.007141
0.155396 0.037537 0.011566
0.199158 0.035645 0.014099
0.242340 0.030182 0.013855
0.285645 0.025513 0.015106
0.329590 0.022034 0.017517
0.377625 0.018890 0.020203
0.425049 0.015991 0.022827
0.473511 0.013855 0.025543
0.522644 0.012665 0.028259
0.568207 0.010162 0.030823
0.615021 0.009277 0.033386
0.665985 0.008972 0.036255
0.717010 0.008698 0.039124
0.766144 0.008423 0.041809
0.818298 0.008118 0.045258
0.864014 0.008026 0.048004
0.900146 0.007751 0.049103
0.912781 0.007538 0.049805
0.922821 0.007446 0.050354
0.932831 0.007446 0.050903
0.941528 0.008484 0.051331
0.949707 0.009399 0.051788
0.957886 0.010315 0.052185
0.966370 0.011200 0.052643
0.975525 0.012054 0.053131
0.984650 0.013184 0.053589
0.993744 0.014557 0.054016
0.085144 0.062744 0.000000
0.088715 0.061859 0.000000
0.091919 0.060730 0.000000
0.094910 0.059448 0.000000
0.110046 0.058716 0.000000
0.123230 0.058685 0.000427
0.150574 0.058167 0.005066
0.192596 0.058838 0.016357
0.237732 0.054749 0.018677
0.279907 0.047913 0.015717
0.323364 0.045532 0.017273
0.368896 0.041840 0.019562
0.416443 0.037842 0.022064
0.465393 0.033722 0.024719
0.514496 0.031250 0.027435
0.562103 0.027649 0.030060
0.608704 0.023499 0.032654
0.658722 0.020844 0.035492
0.709625 0.018738 0.038391
0.759186 0.017761 0.041168
0.811493 0.016632 0.044312
0.859741 0.015228 0.048920
0.896942 0.014496 0.049286
0.912689 0.014282 0.049622
0.922760 0.014130 0.050201
0.932770 0.014008 0.050751
0.941437 0.014618 0.051208
0.949615 0.015259 0.051605
0.957794 0.015961 0.052032
0.966278 0.016632 0.052429
0.975464 0.017395 0.052917
0.984619 0.018402 0.053406
0.993744 0.020782 0.053833
0.112701 0.082611 0.000000
0.116486 0.081177 0.000000
0.119781 0.079407 0.000000
0.122925 0.078033 0.000000
0.133423 0.076080 0.000000
0.143402 0.076416 0.000000
0.154297 0.079041 0.000000
0.188873 0.079163 0.006073
0.233246 0.079285 0.022461
0.277649 0.073700 0.022491
0.319336 0.068390 0.018616
0.362457 0.064636 0.019714
0.409760 0.060638 0.021973
0.456604 0.056610 0.024261
0.505493 0.054077 0.026825
0.554260 0.051147 0.029419
0.602203 0.047272 0.031982
0.652161 0.042908 0.034729
0.701050 0.039154 0.037384
0.751312 0.035889 0.040192
0.803253 0.033630 0.043030
0.853027 0.030121 0.045959
0.895355 0.026245 0.048279
0.913574 0.024353 0.049255
0.923492 0.023682 0.049866
0.933411 0.023071 0.050446
0.942291 0.023926 0.050903
0.950714 0.025299 0.051300
0.959167 0.026703 0.051697
0.967682 0.028137 0.052124
0.976257 0.029297 0.052551
0.984985 0.031311 0.052917
0.993744 0.033875 0.053314
0.143372 0.101471 0.000000
0.146332 0.100128 0.000000
0.148804 0.098541 0.000000
0.151184 0.096710 0.000000
0.155426 0.095123 0.000000
0.170807 0.094421 0.000000
0.181152 0.096619 0.000000
0.196808 0.098755 0.000000
0.233521 0.100098 0.010559
0.275238 0.099487 0.027527
0.317474 0.094269 0.028168
0.358429 0.092041 0.029083
0.402252 0.087585 0.026855
0.447479 0.082458 0.026917
0.495819 0.077698 0.027832
0.545532 0.073486 0.029114
0.593140 0.070801 0.031555
0.644318 0.066528 0.034210
0.693604 0.062469 0.036804
0.743164 0.058960 0.039459
0.794403 0.056824 0.042206
0.845764 0.052948 0.045013
0.891022 0.048462 0.047546
0.915924 0.045441 0.048950
0.925934 0.043976 0.049500
0.935852 0.042694 0.050110
0.944519 0.043182 0.050537
0.952637 0.044342 0.050934
0.960846 0.045532 0.051331
0.969025 0.046906 0.051758
0.977264 0.048187 0.052185
0.985504 0.050476 0.052551
0.993744 0.053436 0.052917
0.178650 0.125702 0.000000
0.180908 0.124420 0.000000
0.182190 0.122681 0.000000
0.183411 0.120911 0.000000
0.185516 0.118622 0.000000
0.200043 0.115662 0.000000
0.213562 0.115967 0.000000
0.224701 0.117554 0.000000
0.238953 0.120392 0.000000
0.274963 0.121887 0.012695
0.315704 0.120392 0.029541
0.356384 0.117645 0.037415
0.397949 0.115936 0.037109
0.441315 0.108917 0.032593
0.487701 0.103424 0.032288
0.535736 0.096497 0.029755
0.583771 0.093750 0.031433
0.634399 0.090942 0.033966
0.684601 0.087402 0.036499
0.734192 0.083557 0.039001
0.784515 0.081573 0.041626
0.835327 0.077423 0.044281
0.885071 0.073486 0.046936
0.914734 0.069824 0.048553
0.924988 0.067963 0.049133
0.935120 0.066345 0.049713
0.944305 0.066315 0.050201
0.952911 0.067047 0.050629
0.960999 0.068146 0.051056
0.969147 0.069183 0.051453
0.977356 0.070557 0.051880
0.985565 0.072632 0.052277
0.993744 0.075592 0.052673
0.208801 0.148163 0.000000
0.211731 0.146759 0.000000
0.213959 0.145081 0.000000
0.216064 0.143372 0.000000
0.217957 0.141327 0.000000
0.225891 0.137695 0.000000
0.244690 0.136261 0.000000
0.257202 0.137115 0.000000
0.263947 0.138977 0.000000
0.276733 0.142914 0.000000
0.313354 0.144012 0.009521
0.354065 0.142792 0.029175
0.397430 0.142242 0.042908
0.441528 0.138092 0.043640
0.483398 0.134186 0.042297
0.529236 0.129242 0.041107
0.576508 0.124481 0.039490
0.623688 0.118042 0.036194
0.675110 0.113373 0.037079
0.724792 0.110016 0.038971
0.774963 0.107513 0.041443
0.826263 0.103302 0.044006
0.875519 0.099213 0.046478
0.912750 0.095734 0.048401
0.923065 0.093750 0.048950
0.933105 0.091949 0.049500
0.942474 0.091461 0.049988
0.951508 0.092102 0.050446
0.960480 0.092957 0.050934
0.969116 0.093842 0.051361
0.977295 0.094849 0.051788
0.985413 0.096863 0.052185
0.993561 0.099701 0.052612
0.238129 0.169189 0.000000
0.240234 0.167816 0.000000
0.242584 0.166351 0.000000
0.245239 0.164734 0.000000
0.247498 0.163208 0.000000
0.249878 0.161072 0.000000
0.269714 0.155609 0.000000
0.286377 0.154388 0.000000
0.293121 0.155426 0.000000
0.299927 0.160919 0.000000
0.318085 0.163452 0.000000
0.352905 0.165344 0.008881
0.396057 0.166077 0.033417
0.441956 0.165070 0.051849
0.482574 0.162079 0.052704
0.526123 0.159058 0.052856
0.572510 0.155640 0.053101
0.617126 0.148621 0.047760
0.668030 0.140411 0.043030
0.714935 0.136200 0.041534
0.764832 0.133392 0.043762
0.817474 0.129272 0.045502
0.865662 0.124451 0.046326
0.909637 0.120697 0.048492
0.922882 0.118774 0.049133
0.932892 0.116882 0.049652
0.942230 0.116333 0.050110
0.951324 0.117126 0.050598
0.960388 0.117737 0.051086
0.969421 0.118164 0.051544
0.978394 0.118744 0.052002
0.987335 0.120239 0.052490
0.996277 0.122467 0.052948
0.267853 0.189941 0.000000
0.269073 0.188690 0.000000
0.270294 0.187469 0.000000
0.272125 0.185944 0.000000
0.274078 0.184387 0.000000
0.276215 0.183014 0.000000
0.290649 0.177856 0.000000
0.311401 0.173737 0.000000
0.321350 0.174530 0.000000
0.327606 0.177734 0.000000
0.338287 0.181213 0.000000
0.355103 0.186127 0.000000
0.395020 0.188263 0.012024
0.441162 0.191559 0.042877
0.483093 0.190186 0.061554
0.525238 0.186188 0.064758
0.569855 0.184143 0.065948
0.613739 0.179047 0.062927
0.661774 0.172119 0.057678
0.708252 0.165344 0.052551
0.754608 0.159851 0.049713
0.807526 0.155426 0.049591
0.855438 0.151001 0.048584
0.903900 0.145538 0.048737
0.920990 0.143188 0.049530
0.932709 0.141022 0.050079
0.942139 0.140167 0.050537
0.951294 0.140869 0.050995
0.960419 0.141663 0.051483
0.969543 0.142426 0.051971
0.978790 0.142822 0.052429
0.987976 0.144135 0.052917
0.996887 0.145996 0.053406
0.298004 0.213776 0.000000
0.298920 0.212494 0.000000
0.299896 0.211243 0.000000
0.300476 0.209656 0.000000
0.302155 0.208130 0.000000
0.304077 0.206512 0.000000
0.312500 0.203491 0.000000
0.335785 0.197083 0.000000
0.351196 0.196228 0.000000
0.360748 0.198120 0.000000
0.369049 0.201569 0.000000
0.382843 0.201935 0.000000
0.400818 0.207275 0.000000
0.435333 0.212646 0.015808
0.481293 0.214294 0.045227
0.525635 0.212463 0.068573
0.569824 0.211853 0.077179
0.612885 0.209106 0.077637
0.657562 0.203735 0.073425
0.703278 0.198059 0.067932
0.748993 0.190918 0.062714
0.799408 0.183838 0.057373
0.848114 0.178650 0.054138
0.899384 0.172119 0.052521
0.922211 0.168091 0.051331
0.934998 0.165375 0.051086
0.943787 0.164154 0.051270
0.952271 0.164734 0.051697
0.960754 0.165436 0.052185
0.969177 0.166138 0.052765
0.977631 0.166382 0.053284
0.985992 0.167542 0.053986
0.994354 0.169556 0.054840
0.326233 0.236023 0.000000
0.328308 0.235443 0.000000
0.330017 0.234650 0.000000
0.331207 0.233490 0.000000
0.333038 0.232269 0.000000
0.334930 0.230804 0.000000
0.336731 0.229248 0.000000
0.357208 0.222961 0.000000
0.379089 0.218140 0.000000
0.396576 0.218292 0.000000
0.404816 0.220581 0.000000
0.418121 0.221771 0.000000
0.428345 0.224548 0.000000
0.440552 0.231598 0.000000
0.478455 0.234894 0.012817
0.525391 0.237335 0.046906
0.572998 0.240265 0.079468
0.613708 0.240387 0.090149
0.656830 0.237915 0.090271
0.701813 0.233246 0.088074
0.747223 0.227173 0.082275
0.793945 0.219208 0.075165
0.841705 0.210449 0.068390
0.892639 0.205017 0.065979
0.921051 0.198853 0.061310
0.938751 0.194183 0.058411
0.946533 0.191315 0.057129
0.954041 0.191498 0.057678
0.961548 0.191772 0.058289
0.969147 0.192566 0.059021
0.977173 0.193359 0.059692
0.985413 0.195160 0.060730
0.993713 0.197876 0.062134
0.355774 0.258667 0.000000
0.357971 0.257812 0.000000
0.360168 0.257111 0.000000
0.361755 0.256165 0.000000
0.363922 0.255127 0.000000
0.365936 0.253693 0.000000
0.367798 0.252228 0.000000
0.378418 0.248413 0.000000
0.399780 0.242371 0.000000
0.424408 0.238373 0.000000
0.438599 0.238983 0.000000
0.449677 0.241547 0.000000
0.460052 0.244019 0.000000
0.468201 0.249969 0.000000
0.480988 0.255249 0.000000
0.518250 0.259796 0.012726
0.569183 0.263733 0.052307
0.613220 0.266907 0.083252
0.656830 0.268829 0.100555
0.703552 0.265656 0.104431
0.747772 0.261597 0.102020
0.792847 0.254486 0.095276
0.837067 0.245697 0.087463
0.884888 0.239990 0.083130
0.921082 0.233917 0.077362
0.941620 0.228699 0.073853
0.949554 0.225830 0.072266
0.956757 0.225281 0.071930
0.963928 0.224945 0.071808
0.971161 0.224640 0.071594
0.978485 0.224487 0.071259
0.985992 0.226318 0.072174
0.993591 0.228882 0.073517
0.389069 0.284546 0.000000
0.391205 0.283356 0.000000
0.393219 0.281982 0.000000
0.394867 0.280548 0.000000
0.396423 0.279236 0.000000
0.397980 0.277863 0.000000
0.399658 0.276245 0.000000
0.405640 0.274475 0.000000
0.421295 0.269409 0.000000
0.446259 0.263031 0.000000
0.468140 0.259674 0.000000
0.480194 0.260468 0.000000
0.488922 0.263916 0.000000
0.499237 0.266724 0.000000
0.499725 0.274536 0.000000
0.514404 0.282532 0.000000
0.560333 0.285950 0.015656
0.609406 0.288818 0.055084
0.654846 0.293793 0.088440
0.702606 0.294983 0.109833
0.747284 0.291626 0.114044
0.792908 0.287140 0.114594
0.836700 0.281403 0.109955
0.879578 0.273499 0.100800
0.916199 0.268616 0.095947
0.942932 0.264282 0.092590
0.950897 0.261017 0.089996
0.958191 0.259766 0.088348
0.965454 0.259308 0.087585
0.972748 0.258789 0.087006
0.980225 0.257782 0.085876
0.987732 0.257965 0.085266
0.995209 0.259399 0.085449
0.419067 0.308502 0.000000
0.421417 0.307800 0.000000
0.423431 0.306702 0.000000
0.425415 0.305573 0.000000
0.427002 0.304413 0.000000
0.428192 0.303009 0.000000
0.429321 0.301636 0.000000
0.430786 0.299927 0.000000
0.446564 0.296295 0.000000
0.469452 0.290039 0.000000
0.495026 0.284180 0.000000
0.512909 0.281952 0.000000
0.521027 0.283844 0.000000
0.529724 0.286224 0.000000
0.530762 0.294037 0.000000
0.527771 0.304901 0.000000
0.553925 0.306335 0.000000
0.601379 0.310425 0.018494
0.649658 0.314636 0.057159
0.699738 0.319550 0.090790
0.747467 0.321777 0.116180
0.794891 0.318634 0.124573
0.835510 0.314911 0.126221
0.879456 0.308472 0.120361
0.919830 0.302460 0.114929
0.950317 0.298737 0.112366
0.957153 0.295471 0.109375
0.963837 0.293365 0.106659
0.970703 0.292084 0.104431
0.977539 0.291107 0.102844
0.983978 0.290131 0.101715
0.990631 0.290192 0.101074
0.997040 0.291168 0.101013
0.447784 0.331818 0.000000
0.449738 0.331116 0.000000
0.451813 0.330536 0.000000
0.453674 0.329742 0.000000
0.455200 0.328735 0.000000
0.456451 0.327484 0.000000
0.457458 0.326050 0.000000
0.458405 0.324463 0.000000
0.470215 0.322052 0.000000
0.491486 0.316101 0.000000
0.517303 0.308838 0.000000
0.544464 0.304413 0.000000
0.555603 0.304504 0.000000
0.560883 0.308411 0.000000
0.568634 0.312378 0.000000
0.574951 0.319000 0.000000
0.570221 0.327454 0.000000
0.596771 0.331512 0.000000
0.644958 0.336914 0.019836
0.694366 0.342041 0.060303
0.745483 0.348511 0.098206
0.794861 0.347534 0.122070
0.839081 0.348022 0.137177
0.884033 0.343903 0.137390
0.924896 0.337128 0.133881
0.958649 0.333649 0.132874
0.966736 0.330597 0.130127
0.971863 0.328156 0.127136
0.977234 0.326843 0.124756
0.982178 0.325928 0.122925
0.986938 0.324951 0.121643
0.991913 0.325226 0.121033
0.996887 0.326324 0.120941
0.479889 0.357758 0.000000
0.482117 0.357178 0.000000
0.484222 0.356506 0.000000
0.486206 0.355743 0.000000
0.487732 0.354614 0.000000
0.489075 0.353333 0.000000
0.490112 0.351837 0.000000
0.491119 0.349976 0.000000
0.496429 0.346191 0.000000
0.510742 0.342438 0.000000
0.536011 0.336426 0.000000
0.564972 0.331421 0.000000
0.586975 0.327362 0.000000
0.595520 0.328186 0.000000
0.599762 0.332428 0.000000
0.614960 0.334808 0.000000
0.615173 0.340729 0.000000
0.613525 0.350433 0.000000
0.643311 0.356171 0.000000
0.689453 0.362091 0.023743
0.740479 0.368958 0.066223
0.792084 0.370605 0.100372
0.839935 0.373749 0.129730
0.888763 0.374115 0.148499
0.929016 0.370605 0.149597
0.964203 0.366516 0.148895
0.975067 0.364166 0.147675
0.977875 0.362274 0.145721
0.981812 0.361267 0.143646
0.985535 0.360718 0.142090
0.988770 0.360809 0.141418
0.992706 0.361664 0.141113
0.996887 0.363098 0.141083
0.511322 0.383087 0.000000
0.513306 0.382660 0.000000
0.515320 0.382141 0.000000
0.517120 0.381500 0.000000
0.518707 0.380615 0.000000
0.520172 0.379669 0.000000
0.521454 0.378540 0.000000
0.522705 0.377014 0.000000
0.523895 0.374939 0.000000
0.536560 0.369476 0.000000
0.557861 0.365326 0.000000
0.585999 0.360077 0.000000
0.611328 0.354431 0.000000
0.630005 0.350250 0.000000
0.639160 0.351501 0.000000
0.646851 0.355133 0.000000
0.660004 0.356750 0.000000
0.664642 0.361267 0.000000
0.656921 0.375275 0.000000
0.684998 0.381622 0.000000
0.735626 0.387329 0.025696
0.783691 0.392303 0.066467
0.834442 0.396881 0.104767
0.888153 0.398895 0.137756
0.932617 0.399628 0.156921
0.967072 0.398071 0.160065
0.980316 0.395782 0.159485
0.982666 0.394287 0.158478
0.985291 0.394226 0.157898
0.988251 0.393860 0.156891
0.991028 0.393829 0.156433
0.993835 0.394897 0.156433
0.996887 0.396729 0.156677
0.533356 0.408295 0.000000
0.535889 0.407562 0.000000
0.537811 0.407013 0.000000
0.539459 0.406403 0.000000
0.541443 0.405853 0.000000
0.543304 0.405151 0.000000
0.545074 0.404449 0.000000
0.546936 0.403046 0.000000
0.549469 0.401276 0.000000
0.562805 0.397614 0.000000
0.580750 0.393555 0.000000
0.605072 0.387024 0.000000
0.632996 0.380768 0.000000
0.657562 0.374725 0.000000
0.674896 0.371429 0.000000
0.682251 0.374512 0.000000
0.686584 0.379883 0.000000
0.707825 0.379150 0.000000
0.711731 0.386353 0.000000
0.705750 0.399231 0.000000
0.728912 0.406891 0.000000
0.778229 0.412872 0.024109
0.825134 0.419159 0.066895
0.879425 0.422180 0.105530
0.930511 0.424561 0.139160
0.965759 0.427063 0.159241
0.981964 0.426575 0.163635
0.984497 0.425354 0.164215
0.987152 0.425751 0.164520
0.989532 0.425934 0.164825
0.991974 0.425751 0.165070
0.994415 0.426758 0.165131
0.996887 0.428223 0.165131
0.541748 0.442200 0.000000
0.544617 0.440796 0.000000
0.547516 0.439178 0.000000
0.550323 0.437927 0.000000
0.553619 0.436981 0.000000
0.557220 0.435822 0.000000
0.560120 0.434906 0.000000
0.562927 0.433075 0.000000
0.566193 0.429718 0.000000
0.575287 0.425720 0.000000
0.597595 0.421112 0.000000
0.621063 0.415314 0.000000
0.650482 0.407684 0.000000
0.679535 0.400543 0.000000
0.702820 0.395203 0.000000
0.716492 0.394745 0.000000
0.716583 0.399719 0.000000
0.728516 0.404266 0.000000
0.756317 0.402954 0.000000
0.759338 0.410553 0.000000
0.741882 0.425903 0.000000
0.774902 0.430481 0.000000
0.819672 0.438660 0.024231
0.869476 0.444977 0.068298
0.920044 0.449249 0.106903
0.961182 0.453796 0.138977
0.983215 0.456085 0.154510
0.986328 0.454590 0.156586
0.989044 0.454987 0.157776
0.991455 0.455414 0.159027
0.993317 0.455902 0.160461
0.995087 0.457001 0.160553
0.996887 0.458435 0.160614
0.568207 0.589966 0.007385
0.568420 0.582306 0.005615
0.568451 0.573547 0.004486
0.567902 0.562805 0.002808
0.567261 0.550751 0.000366
0.567993 0.541748 0.000000
0.568878 0.532471 0.000000
0.570343 0.522827 0.000000
0.569977 0.508942 0.000000
0.569702 0.495087 0.000000
0.585510 0.467468 0.000000
0.610352 0.452850 0.000000
0.649689 0.442566 0.000000
0.687927 0.431274 0.000000
0.721558 0.422577 0.000000
0.744995 0.418549 0.000000
0.753052 0.418610 0.000000
0.758820 0.424377 0.000000
0.774902 0.427887 0.000000
0.800995 0.427063 0.000000
0.800537 0.439056 0.000000
0.784149 0.448853 0.000000
0.813232 0.456055 0.000000
0.861420 0.462830 0.024841
0.913208 0.473511 0.074280
0.957703 0.477600 0.111877
0.984467 0.483765 0.140350
0.987213 0.482971 0.143921
0.989075 0.483002 0.145782
0.991272 0.483307 0.147369
0.993164 0.483917 0.149597
0.995026 0.485809 0.151215
0.996887 0.487823 0.152313
0.612732 0.780243 0.065399
0.615753 0.778412 0.066010
0.617828 0.774780 0.065247
0.618317 0.767883 0.062256
0.621216 0.763153 0.061646
0.623413 0.757080 0.060272
0.622681 0.747375 0.055908
0.622009 0.737366 0.051453
0.621124 0.724579 0.045410
0.619781 0.710144 0.038391
0.621246 0.672638 0.019470
0.621429 0.599243 0.000000
0.628601 0.529327 0.000000
0.660004 0.478485 0.000000
0.714386 0.460663 0.000000
0.758972 0.450592 0.000000
0.786194 0.445435 0.000000
0.796600 0.445862 0.000000
0.802399 0.450012 0.000000
0.821075 0.451050 0.000000
0.844482 0.452515 0.000000
0.836578 0.460907 0.000000
0.827484 0.472656 0.000000
0.857880 0.481140 0.000000
0.909119 0.493073 0.034393
0.957031 0.499573 0.076172
0.979309 0.506317 0.110535
0.986847 0.508514 0.122803
0.989349 0.509644 0.127991
0.991272 0.510803 0.131592
0.993164 0.511536 0.134094
0.995026 0.513275 0.135712
0.996887 0.515350 0.136993
0.619171 0.833130 0.064331
0.621094 0.831726 0.064697
0.622986 0.830170 0.065094
0.625214 0.828461 0.065613
0.629395 0.826416 0.066986
0.634125 0.824097 0.068604
0.638916 0.821594 0.070282
0.643311 0.819031 0.071838
0.646576 0.816803 0.072815
0.648529 0.810455 0.071472
0.653625 0.800781 0.068695
0.666168 0.768768 0.053741
0.670471 0.713562 0.023041
0.670624 0.638336 0.001862
0.667999 0.534119 0.000000
0.716003 0.500519 0.000000
0.773926 0.485901 0.000000
0.810822 0.477509 0.000000
0.827728 0.475098 0.000000
0.842926 0.476471 0.000000
0.863770 0.475677 0.000000
0.886383 0.472565 0.000000
0.885773 0.483276 0.000000
0.865448 0.501190 0.000000
0.905396 0.507629 0.000000
0.949188 0.519989 0.028931
0.975281 0.527954 0.069397
0.984192 0.531281 0.089020
0.988861 0.533173 0.097900
0.991333 0.534424 0.102478
0.993164 0.535553 0.106110
0.995026 0.537598 0.108215
0.996887 0.539856 0.109985
0.643768 0.873810 0.065369
0.646606 0.873169 0.065887
0.649292 0.872345 0.066376
0.652008 0.871552 0.066895
0.655304 0.870392 0.067688
0.657166 0.868774 0.068024
0.658905 0.866974 0.068359
0.660431 0.865021 0.068665
0.662323 0.862579 0.069183
0.664185 0.859955 0.069733
0.666077 0.857391 0.070282
0.683868 0.854523 0.073883
0.708130 0.842224 0.075989
0.716339 0.805725 0.055603
0.719635 0.747681 0.023315
0.717468 0.656158 0.000000
0.719543 0.551758 0.000000
0.774628 0.524750 0.000000
0.823853 0.511627 0.000000
0.855042 0.505859 0.000000
0.877441 0.504761 0.000000
0.900543 0.500519 0.000000
0.919861 0.498535 0.000000
0.912750 0.514221 0.000000
0.910187 0.527405 0.000000
0.941833 0.535248 0.000000
0.974030 0.544556 0.019226
0.982117 0.554504 0.050659
0.988892 0.555542 0.063873
0.991333 0.556732 0.068726
0.993164 0.558167 0.073364
0.995026 0.560486 0.076599
0.996887 0.562958 0.079285
0.665619 0.903229 0.067535
0.668732 0.903046 0.068054
0.671875 0.902832 0.068573
0.674957 0.902557 0.069122
0.678284 0.902374 0.069702
0.682709 0.901855 0.070801
0.687042 0.901184 0.071869
0.691101 0.900696 0.072815
0.692383 0.899750 0.072784
0.693573 0.898743 0.072723
0.694580 0.897583 0.072632
0.706238 0.896271 0.074646
0.729828 0.892395 0.080719
0.747925 0.875916 0.076843
0.754028 0.836761 0.054749
0.758148 0.779388 0.022308
0.759003 0.702484 0.000000
0.760437 0.633240 0.000000
0.783325 0.588440 0.000000
0.814362 0.562073 0.000000
0.848206 0.549011 0.000000
0.883545 0.541229 0.000000
0.921692 0.531342 0.000000
0.937561 0.530365 0.000000
