nova/tdt-studio/app/Lut_mau/IWLTBAP/1 - LUTs by IWLTBAP (CUBE)/02 - Generic LOG/Cinematic/H-9110-LOG.cube
# Copyright: (C) Copyright 2010-2019 by IWLTBAP SAS
# Cannot be resold, shared or otherwise redistributed
# Website: https://luts.iwltbap.com
TITLE "IWLTBAP 9110 (LOG)"
LUT_3D_SIZE 5
0.000000 0.000000 0.000000
0.269470 0.000000 0.014801
0.639160 0.000000 0.035095
0.926025 0.000000 0.050842
0.993744 0.000000 0.054474
0.178650 0.125702 0.000000
0.238953 0.120392 0.000000
0.583771 0.093750 0.031433
0.924988 0.067963 0.049133
0.993744 0.075592 0.052673
0.419067 0.308502 0.000000
0.446564 0.296295 0.000000
0.553925 0.306335 0.000000
0.919830 0.302460 0.114929
0.997040 0.291168 0.101013
0.619171 0.833130 0.064331
0.646576 0.816803 0.072815
0.773926 0.485901 0.000000
0.905396 0.507629 0.000000
0.996887 0.539856 0.109985
0.703217 0.952942 0.071838
0.729462 0.952942 0.076233
0.816956 0.845032 0.027649
0.905243 0.633759 0.000000
0.996887 0.640076 0.000000
0.003082 0.000000 0.291534
0.259308 0.002747 0.258728
0.632111 0.000092 0.247650
0.922729 0.000000 0.241028
0.993713 0.000000 0.256622
0.022705 0.175354 0.211456
0.196014 0.193970 0.194763
0.565002 0.175690 0.201752
0.925842 0.145630 0.212830
0.993744 0.159790 0.229919
0.394104 0.313202 0.025055
0.416382 0.296387 0.024597
0.545990 0.328735 0.080444
0.908386 0.320923 0.159912
0.996155 0.324829 0.172943
0.625122 0.824768 0.082397
0.646088 0.785736 0.077026
0.790985 0.472931 0.014893
0.893524 0.526337 0.043579
0.996887 0.549805 0.150024
0.704285 0.955994 0.086365
0.722778 0.954895 0.088043
0.817780 0.854858 0.048584
0.927338 0.622803 0.014893
0.996887 0.661133 0.015839
0.007080 0.000000 0.673553
0.261383 0.007874 0.651733
0.622223 0.007874 0.622467
0.922760 0.010742 0.588287
0.994568 0.011414 0.582794
0.008026 0.154785 0.640198
0.162537 0.184998 0.592896
0.557648 0.180481 0.555237
0.922913 0.176941 0.547913
0.994110 0.189819 0.550873
0.061279 0.437775 0.516663
0.151459 0.443787 0.495544
0.480865 0.476105 0.477966
0.878540 0.474701 0.477264
0.993652 0.480835 0.492279
0.569733 0.816528 0.248749
0.612335 0.775482 0.233398
0.710999 0.572449 0.212097
0.860718 0.631622 0.355194
0.994629 0.657684 0.424713
0.749329 0.947174 0.164154
0.754578 0.919952 0.147675
0.805634 0.622772 0.074066
0.947388 0.691986 0.231842
0.996887 0.741791 0.256439
0.009674 0.000000 0.922882
0.257294 0.008240 0.922821
0.615448 0.014343 0.925598
0.924927 0.009827 0.921143
0.996887 0.012390 0.925049
0.011719 0.158691 0.922668
0.219330 0.207642 0.926025
0.566071 0.193451 0.923950
0.921906 0.160522 0.917480
0.995880 0.176880 0.916138
0.008484 0.373474 0.933624
0.033203 0.364319 0.931091
0.227753 0.392395 0.932709
0.868591 0.462891 0.860931
0.993774 0.476898 0.869812
0.106018 0.714386 0.845398
0.155090 0.713440 0.831177
0.415253 0.737885 0.803528
0.785522 0.779175 0.783569
0.993774 0.803406 0.798309
0.403351 0.978210 0.638123
0.425873 0.976440 0.628082
0.564545 0.976288 0.623932
0.916595 0.857452 0.646057
0.996490 0.897797 0.710449
0.041412 0.026978 0.993744
0.266205 0.020355 0.995178
0.612732 0.015137 0.993622
0.927979 0.015015 0.996857
0.996887 0.010590 0.991821
0.012634 0.168701 0.996918
0.233704 0.224182 0.993713
0.571594 0.211609 0.993744
0.927155 0.184082 0.995789
0.994354 0.170868 0.989197
0.010803 0.373657 0.989868
0.039032 0.366577 0.992859
0.225891 0.402100 0.993713
0.891327 0.484924 0.993744
0.993988 0.469299 0.985565
0.000000 0.632568 0.997009
0.026733 0.632019 0.993469
0.136902 0.633331 0.993774
0.706512 0.768616 0.993622
0.993835 0.789154 0.981781
0.111481 0.821289 0.993744
0.152466 0.835510 0.993744
0.376740 0.880157 0.993622
0.745209 0.939056 0.990540
0.993744 0.990540 0.993225
