nova/tdt-studio/app/Lut_mau/IWLTBAP/1 - LUTs by IWLTBAP (CUBE)/02 - Generic LOG/Cinematic/H-9110-LOG.cube
# Copyright: (C) Copyright 2010-2019 by IWLTBAP SAS
# Cannot be resold, shared or otherwise redistributed
# Website: https://luts.iwltbap.com
TITLE "IWLTBAP 9110 (LOG)"
LUT_3D_SIZE 9
0.000000 0.000000 0.000000
0.099152 0.000000 0.005432
0.269470 0.000000 0.014801
0.449860 0.000000 0.024689
0.639160 0.000000 0.035095
0.835358 0.000000 0.045868
0.926025 0.000000 0.050842
0.960968 0.000000 0.052734
0.993744 0.000000 0.054474
0.057709 0.043579 0.000000
0.086884 0.041962 0.001892
0.242340 0.030182 0.013855
0.425049 0.015991 0.022827
0.615021 0.009277 0.033386
0.818298 0.008118 0.045258
0.922821 0.007446 0.050354
0.957886 0.010315 0.052185
0.993744 0.014557 0.054016
0.178650 0.125702 0.000000
0.185516 0.118622 0.000000
0.238953 0.120392 0.000000
0.397949 0.115936 0.037109
0.583771 0.093750 0.031433
0.784515 0.081573 0.041626
0.924988 0.067963 0.049133
0.960999 0.068146 0.051056
0.993744 0.075592 0.052673
0.298004 0.213776 0.000000
0.302155 0.208130 0.000000
0.351196 0.196228 0.000000
0.400818 0.207275 0.000000
0.569824 0.211853 0.077179
0.748993 0.190918 0.062714
0.922211 0.168091 0.051331
0.960754 0.165436 0.052185
0.994354 0.169556 0.054840
0.419067 0.308502 0.000000
0.427002 0.304413 0.000000
0.446564 0.296295 0.000000
0.521027 0.283844 0.000000
0.553925 0.306335 0.000000
0.747467 0.321777 0.116180
0.919830 0.302460 0.114929
0.970703 0.292084 0.104431
0.997040 0.291168 0.101013
0.533356 0.408295 0.000000
0.541443 0.405853 0.000000
0.549469 0.401276 0.000000
0.632996 0.380768 0.000000
0.686584 0.379883 0.000000
0.728912 0.406891 0.000000
0.930511 0.424561 0.139160
0.987152 0.425751 0.164520
0.996887 0.428223 0.165131
0.619171 0.833130 0.064331
0.629395 0.826416 0.066986
0.646576 0.816803 0.072815
0.670471 0.713562 0.023041
0.773926 0.485901 0.000000
0.863770 0.475677 0.000000
0.905396 0.507629 0.000000
0.988861 0.533173 0.097900
0.996887 0.539856 0.109985
0.678467 0.920135 0.069031
0.691589 0.920135 0.071198
0.705627 0.920135 0.073730
0.735229 0.920105 0.078613
0.787994 0.794891 0.015594
0.821808 0.638428 0.000000
0.932312 0.585205 0.000000
0.988953 0.613953 0.000000
0.996887 0.623688 0.000702
0.703217 0.952942 0.071838
0.716339 0.952942 0.074036
0.729462 0.952942 0.076233
0.762573 0.952942 0.081879
0.816956 0.845032 0.027649
0.850006 0.708160 0.000000
0.905243 0.633759 0.000000
0.987579 0.632416 0.000000
0.996887 0.640076 0.000000
0.001801 0.002014 0.149292
0.093536 0.001007 0.092804
0.266663 0.000000 0.093506
0.446014 0.000000 0.094025
0.637787 0.000000 0.096222
0.833649 0.000000 0.100922
0.928680 0.000000 0.102478
0.963562 0.000000 0.114014
0.996857 0.000000 0.131866
0.004974 0.060150 0.075958
0.066895 0.066193 0.066132
0.236023 0.056458 0.069794
0.418213 0.041138 0.076752
0.609985 0.025299 0.080536
0.812592 0.014343 0.087372
0.923981 0.011688 0.091431
0.960144 0.016388 0.104614
0.993713 0.033844 0.125214
0.159393 0.131012 0.007446
0.165192 0.119324 0.007446
0.226776 0.129547 0.030243
0.388977 0.128723 0.065277
0.578522 0.110321 0.066528
0.779510 0.095978 0.075775
0.925110 0.084167 0.082458
0.960968 0.085052 0.085724
0.994812 0.095306 0.092865
0.285858 0.214783 0.007446
0.290955 0.207947 0.007446
0.340149 0.194275 0.007446
0.390045 0.218262 0.029144
0.561920 0.222168 0.098969
0.743195 0.202362 0.088745
0.919006 0.184143 0.085754
0.960358 0.179962 0.085144
0.994904 0.185608 0.090179
0.413116 0.308289 0.007446
0.418518 0.302307 0.007446
0.439270 0.294739 0.007446
0.517120 0.283295 0.007446
0.551392 0.316040 0.017975
0.743439 0.326294 0.136688
0.916168 0.309326 0.133698
0.969238 0.300903 0.126648
0.997101 0.302216 0.126709
0.532379 0.409882 0.007446
0.540649 0.403412 0.007446
0.546356 0.399536 0.007446
0.624969 0.380066 0.007446
0.683136 0.378113 0.007446
0.723297 0.415741 0.012054
0.925720 0.430725 0.159637
0.987305 0.431213 0.183746
0.995300 0.434387 0.183868
0.621002 0.829041 0.073517
0.634552 0.823059 0.076691
0.645142 0.808167 0.077271
0.665405 0.685394 0.019989
0.781311 0.480408 0.007446
0.861725 0.475159 0.007446
0.900848 0.517761 0.011444
0.988831 0.537964 0.118622
0.996887 0.544464 0.128845
0.678558 0.920166 0.076508
0.686798 0.920715 0.076660
0.700745 0.920166 0.079315
0.736145 0.919952 0.086334
0.788696 0.805573 0.029358
0.819366 0.616028 0.007446
0.936035 0.582397 0.007446
0.988800 0.621338 0.007446
0.996887 0.631714 0.013275
0.704010 0.953491 0.079498
0.715393 0.953522 0.080994
0.724670 0.952942 0.081818
0.763702 0.952942 0.089600
0.816925 0.849915 0.038239
0.849884 0.701508 0.007446
0.915161 0.628784 0.007446
0.987549 0.637756 0.007446
0.996887 0.649902 0.007446
0.003082 0.000000 0.291534
0.098572 0.002991 0.274841
0.259308 0.002747 0.258728
0.443787 0.005066 0.250732
0.632111 0.000092 0.247650
0.828461 0.000000 0.246765
0.922729 0.000000 0.241028
0.960388 0.000000 0.245789
0.993713 0.000000 0.256622
0.004150 0.053162 0.311127
0.043335 0.060120 0.264038
0.230957 0.059357 0.231628
0.412048 0.054657 0.225708
0.604645 0.037231 0.229767
0.806030 0.025116 0.233337
0.922363 0.014771 0.229034
0.958038 0.026855 0.233093
0.993744 0.048035 0.248108
0.022705 0.175354 0.211456
0.048340 0.177765 0.201416
0.196014 0.193970 0.194763
0.372803 0.190704 0.196289
0.565002 0.175690 0.201752
0.766632 0.160980 0.207275
0.925842 0.145630 0.212830
0.960968 0.146820 0.216522
0.993744 0.159790 0.229919
0.241608 0.334198 0.094421
0.256744 0.322968 0.097961
0.288086 0.234924 0.075409
0.368774 0.259583 0.139771
0.535767 0.262207 0.174255
0.732086 0.245392 0.171783
0.918243 0.228119 0.176758
0.960541 0.226074 0.180756
0.993744 0.235870 0.195862
0.394104 0.313202 0.025055
0.398590 0.307953 0.024780
0.416382 0.296387 0.024597
0.502899 0.293854 0.037415
0.545990 0.328735 0.080444
0.732025 0.335999 0.165802
0.908386 0.320923 0.159912
0.967285 0.313751 0.157532
0.996155 0.324829 0.172943
0.530121 0.409576 0.014893
0.537689 0.403839 0.014893
0.539185 0.395538 0.014893
0.615875 0.377838 0.014893
0.676697 0.376984 0.014893
0.716797 0.423187 0.046844
0.917786 0.437927 0.179749
0.987213 0.437256 0.203125
0.995239 0.443024 0.203156
0.625122 0.824768 0.082397
0.637329 0.815491 0.082520
0.646088 0.785736 0.077026
0.654663 0.626434 0.016052
0.790985 0.472931 0.014893
0.856842 0.475647 0.014893
0.893524 0.526337 0.043579
0.989471 0.543427 0.142487
0.996887 0.549805 0.150024
0.675140 0.920197 0.082642
0.685120 0.920197 0.083618
0.697937 0.922028 0.085205
0.736786 0.919525 0.093811
0.791199 0.814484 0.041199
0.825378 0.603027 0.014893
0.940430 0.581940 0.014893
0.988464 0.631348 0.018341
0.996887 0.641144 0.035889
0.704285 0.955994 0.086365
0.713470 0.956024 0.087036
0.722778 0.954895 0.088043
0.766357 0.952942 0.097656
0.817780 0.854858 0.048584
0.849091 0.691498 0.014893
0.927338 0.622803 0.014893
0.987457 0.647156 0.014893
0.996887 0.661133 0.015839
0.004944 0.000000 0.472717
0.099823 0.003326 0.464691
0.261963 0.006775 0.452881
0.437683 0.004669 0.435577
0.628510 0.007416 0.423431
0.824615 0.008789 0.413422
0.926056 0.002869 0.405334
0.960938 0.001160 0.402802
0.994232 0.000763 0.407104
0.005859 0.054962 0.453094
0.072021 0.070099 0.434235
0.233429 0.061676 0.423553
0.409546 0.046661 0.408997
0.600342 0.040833 0.399628
0.801453 0.042328 0.396851
0.924957 0.033112 0.392792
0.960968 0.039276 0.392029
0.993744 0.059845 0.398407
0.005676 0.156921 0.458435
0.013031 0.151642 0.449158
0.074799 0.155670 0.435394
0.368896 0.188110 0.367340
0.561005 0.186890 0.364746
0.762329 0.173431 0.368835
0.922882 0.160858 0.369537
0.960419 0.161346 0.370239
0.996185 0.173279 0.379303
0.051544 0.315369 0.360687
0.072968 0.306183 0.349030
0.144562 0.300720 0.334656
0.333801 0.329895 0.332672
0.518677 0.333618 0.330933
0.718994 0.321350 0.337006
0.913055 0.307434 0.342133
0.960510 0.303345 0.344818
0.993774 0.311859 0.355194
0.256165 0.509277 0.215485
0.267059 0.501526 0.212158
0.299591 0.484100 0.212280
0.430664 0.378998 0.213867
0.517700 0.405090 0.276154
0.691803 0.410645 0.309052
0.888824 0.396423 0.307373
0.960938 0.390106 0.308960
0.993744 0.398834 0.320801
0.491669 0.453674 0.053925
0.496155 0.444824 0.053528
0.495697 0.421600 0.052765
0.561310 0.410309 0.060272
0.663177 0.443146 0.184875
0.699615 0.478302 0.215179
0.896210 0.488098 0.297150
0.983002 0.484467 0.301453
0.996887 0.494934 0.312195
0.627228 0.660919 0.050842
0.630676 0.641266 0.047546
0.627563 0.594452 0.043488
0.660187 0.500732 0.043518
0.781067 0.471619 0.041016
0.844116 0.513336 0.100952
0.878967 0.556091 0.139984
0.988861 0.564850 0.213470
0.996887 0.575439 0.226227
0.657440 0.919708 0.096039
0.666992 0.921661 0.096191
0.682190 0.920502 0.099182
0.725037 0.919739 0.108368
0.788696 0.809814 0.056610
0.851868 0.582947 0.028137
0.945038 0.589783 0.027130
0.987885 0.640900 0.049011
0.996887 0.651703 0.072784
0.685120 0.956085 0.100250
0.693390 0.956085 0.100464
0.707703 0.956085 0.103119
0.748810 0.955780 0.111115
0.819458 0.877350 0.080902
0.842957 0.655121 0.030396
0.943634 0.613190 0.026733
0.987335 0.661957 0.027374
0.996887 0.673126 0.042114
0.007080 0.000000 0.673553
0.102844 0.003601 0.666260
0.261383 0.007874 0.651733
0.436737 0.009918 0.637390
0.622223 0.007874 0.622467
0.820312 0.009888 0.605652
0.922760 0.010742 0.588287
0.960388 0.011108 0.583221
0.994568 0.011414 0.582794
0.008514 0.056763 0.650970
0.079010 0.074615 0.636047
0.239655 0.066284 0.626251
0.411102 0.053955 0.613159
0.598633 0.044403 0.597351
0.799561 0.045624 0.586365
0.924408 0.046967 0.572754
0.960693 0.047363 0.569672
0.995270 0.070923 0.573334
0.008026 0.154785 0.640198
0.015594 0.152069 0.630676
0.162537 0.184998 0.592896
0.374725 0.193237 0.571838
0.557648 0.180481 0.555237
0.758331 0.176941 0.550201
0.922913 0.176941 0.547913
0.960388 0.178070 0.544830
0.994110 0.189819 0.550873
0.003113 0.265167 0.604523
0.010803 0.260559 0.598175
0.036224 0.253845 0.591278
0.188965 0.284027 0.581757
0.515747 0.325195 0.512054
0.714478 0.327179 0.510773
0.910431 0.316681 0.515015
0.960388 0.315857 0.517273
0.995880 0.324402 0.525818
0.061279 0.437775 0.516663
0.085602 0.434174 0.507996
0.151459 0.443787 0.495544
0.295776 0.452850 0.481110
0.480865 0.476105 0.477966
0.671295 0.483215 0.475647
0.878540 0.474701 0.477264
0.961029 0.471466 0.481415
0.993652 0.480835 0.492279
0.306671 0.667603 0.348114
0.316772 0.663147 0.343018
0.325134 0.653320 0.338654
0.417053 0.636505 0.351257
0.577515 0.526154 0.351440
0.671356 0.555939 0.418945
0.851440 0.569672 0.452179
0.962128 0.562408 0.449280
0.993744 0.570251 0.458160
0.569733 0.816528 0.248749
0.591766 0.801636 0.244385
0.612335 0.775482 0.233398
0.651886 0.685303 0.198395
0.710999 0.572449 0.212097
0.823730 0.600037 0.331818
0.860718 0.631622 0.355194
0.987640 0.646606 0.413544
0.994629 0.657684 0.424713
0.705292 0.771393 0.091675
0.711334 0.757507 0.082855
0.717621 0.747314 0.075165
0.733795 0.715363 0.074799
0.787811 0.591095 0.072723
0.902252 0.622864 0.165100
0.946930 0.671783 0.251587
0.985657 0.711884 0.269165
0.996887 0.721069 0.284393
0.749329 0.947174 0.164154
0.752472 0.936493 0.157654
0.754578 0.919952 0.147675
0.772888 0.857391 0.113647
0.805634 0.622772 0.074066
0.906311 0.640533 0.135681
0.947388 0.691986 0.231842
0.987335 0.739807 0.250580
0.996887 0.741791 0.256439
0.009125 0.000000 0.870636
0.103302 0.003754 0.867584
0.260681 0.008240 0.860718
0.432434 0.012268 0.846344
0.617889 0.013031 0.829498
0.814972 0.010193 0.815460
0.922760 0.011658 0.795837
0.960388 0.011902 0.784790
0.997009 0.012207 0.780884
0.011230 0.059265 0.857910
0.087189 0.078125 0.847290
0.239349 0.071381 0.835999
0.412323 0.062744 0.825195
0.597473 0.048706 0.807953
0.792603 0.045624 0.793793
0.922913 0.047455 0.777649
0.960846 0.046021 0.769501
0.993713 0.063293 0.768127
0.010406 0.156860 0.823883
0.033264 0.158875 0.813324
0.202576 0.201660 0.793365
0.379608 0.197021 0.782135
0.563293 0.187103 0.768616
0.754456 0.174927 0.752106
0.925812 0.169342 0.744263
0.960968 0.172913 0.740387
0.993744 0.186523 0.739929
0.009735 0.257782 0.798004
0.017120 0.255035 0.791351
0.042511 0.250580 0.783447
0.178833 0.280457 0.764313
0.523376 0.332367 0.726562
0.711395 0.318817 0.707367
0.908844 0.316345 0.703339
0.960724 0.316681 0.703796
0.994110 0.326843 0.708588
0.000000 0.380829 0.748322
0.007446 0.377014 0.742981
0.023010 0.368835 0.737091
0.060059 0.363464 0.738983
0.368134 0.440460 0.738586
0.668457 0.469177 0.662567
0.873199 0.474640 0.662476
0.960541 0.471741 0.667450
0.996399 0.481140 0.676819
0.079285 0.570770 0.679169
0.103607 0.567352 0.671539
0.135406 0.569946 0.660980
0.286469 0.593323 0.646820
0.443787 0.603180 0.632324
0.631256 0.625732 0.627899
0.829773 0.634521 0.626617
0.960388 0.636841 0.627777
0.993744 0.649689 0.640961
0.363586 0.834473 0.489746
0.372101 0.829224 0.482086
0.379364 0.820374 0.475586
0.428680 0.808014 0.475861
0.545502 0.790710 0.500946
0.726410 0.678589 0.496399
0.829590 0.711029 0.567291
0.972382 0.730530 0.600037
0.993835 0.742950 0.611328
0.469269 0.932739 0.414337
0.485046 0.933197 0.410400
0.499115 0.933777 0.404205
0.536499 0.931396 0.397919
0.720581 0.918701 0.424652
0.850464 0.722107 0.372192
0.945374 0.754547 0.473694
0.984680 0.791138 0.493225
0.996887 0.804718 0.508240
0.502258 0.965240 0.402191
0.515167 0.965149 0.398590
0.528687 0.967590 0.394440
0.569977 0.965332 0.390900
0.784943 0.948425 0.431732
0.882141 0.742859 0.365692
0.947357 0.774139 0.459595
0.987366 0.815125 0.480927
0.996887 0.820435 0.484344
0.009674 0.000000 0.922882
0.110779 0.004059 0.925934
0.257294 0.008240 0.922821
0.431183 0.012604 0.925201
0.615448 0.014343 0.925598
0.811768 0.014557 0.925659
0.924927 0.009827 0.921143
0.961029 0.011139 0.924011
0.996887 0.012390 0.925049
0.013397 0.063049 0.928375
0.093750 0.085114 0.924011
0.243378 0.078461 0.923920
0.411224 0.068604 0.926025
0.597504 0.056061 0.924164
0.793823 0.050934 0.924774
0.926056 0.046234 0.920532
0.960999 0.045471 0.923553
0.996887 0.052643 0.924438
0.011719 0.158691 0.922668
0.054810 0.166199 0.922729
0.219330 0.207642 0.926025
0.382782 0.199951 0.924591
0.566071 0.193451 0.923950
0.759399 0.181732 0.922852
0.921906 0.160522 0.917480
0.960449 0.163544 0.915741
0.995880 0.176880 0.916138
0.011292 0.260498 0.923218
0.024384 0.259827 0.923248
0.086761 0.268158 0.924316
0.277740 0.317596 0.923370
0.529480 0.336121 0.918518
0.720032 0.327271 0.915833
0.906799 0.314850 0.902740
0.960388 0.311920 0.899658
0.996185 0.322418 0.902252
0.008484 0.373474 0.933624
0.016357 0.369812 0.933197
0.033203 0.364319 0.931091
0.070740 0.358856 0.934875
0.227753 0.392395 0.932709
0.677551 0.478821 0.885254
0.868591 0.462891 0.860931
0.960388 0.466766 0.862061
0.993774 0.476898 0.869812
0.000000 0.498322 0.896912
0.007446 0.497620 0.893555
0.014893 0.491943 0.883423
0.054016 0.486664 0.879395
0.098572 0.481934 0.895996
0.529358 0.593414 0.896362
0.824829 0.620209 0.815796
0.960388 0.625397 0.818604
0.995331 0.637695 0.830536
0.106018 0.714386 0.845398
0.133026 0.720154 0.840790
0.155090 0.713440 0.831177
0.236969 0.711029 0.816376
0.415253 0.737885 0.803528
0.593781 0.760498 0.788971
0.785522 0.779175 0.783569
0.960999 0.787781 0.783264
0.993774 0.803406 0.798309
0.365997 0.945587 0.666077
0.375427 0.944641 0.659088
0.391937 0.943787 0.647766
0.431854 0.945160 0.631470
0.540222 0.942810 0.630310
0.684113 0.937347 0.655609
0.884705 0.833191 0.651917
0.975281 0.867737 0.717316
0.996307 0.883087 0.733673
0.403351 0.978210 0.638123
0.412415 0.976868 0.635315
0.425873 0.976440 0.628082
0.464355 0.977844 0.621613
0.564545 0.976288 0.623932
0.714844 0.973602 0.650665
0.916595 0.857452 0.646057
0.984436 0.891205 0.714966
0.996490 0.897797 0.710449
0.018646 0.007477 0.960358
0.119293 0.004822 0.960876
0.260010 0.008362 0.959961
0.428162 0.012604 0.960999
0.612701 0.014740 0.960571
0.805634 0.015137 0.960663
0.927307 0.013367 0.960480
0.960999 0.010132 0.958466
0.996887 0.011536 0.959412
0.012848 0.070312 0.961151
0.108002 0.095734 0.958038
0.248657 0.090363 0.960358
0.414429 0.082520 0.960968
0.597687 0.067444 0.959015
0.792053 0.052460 0.959015
0.928955 0.048676 0.957916
0.960999 0.045685 0.958008
0.996887 0.045990 0.959503
0.012207 0.162811 0.960449
0.070160 0.174591 0.960480
0.223389 0.214081 0.960907
0.386719 0.206696 0.960693
0.567474 0.200775 0.959381
0.760040 0.186798 0.958527
0.926544 0.173645 0.960236
0.960358 0.158844 0.953339
0.995056 0.172333 0.954468
0.011780 0.264069 0.959747
0.034210 0.267029 0.960114
0.130493 0.286316 0.958862
0.312500 0.332642 0.958496
0.534607 0.343994 0.959320
0.724213 0.334503 0.960480
0.912384 0.323029 0.960785
0.960968 0.307220 0.955719
0.993958 0.317322 0.955597
0.010193 0.371368 0.964691
0.017975 0.368805 0.964996
0.036194 0.363953 0.967590
0.073090 0.362030 0.974640
0.204803 0.388977 0.977936
0.685394 0.485077 0.961090
0.883301 0.475769 0.960297
0.960358 0.460480 0.949707
0.993591 0.471008 0.950409
0.000000 0.494629 0.961578
0.007446 0.494019 0.960968
0.014893 0.489014 0.961029
0.051697 0.482758 0.967682
0.090118 0.478180 0.984924
0.487946 0.582733 0.982147
0.838104 0.633911 0.958557
0.960419 0.615509 0.949615
0.993744 0.628693 0.949738
0.000000 0.631897 0.960144
0.011444 0.633667 0.957550
0.041992 0.635040 0.957062
0.145874 0.648834 0.957794
0.253235 0.662720 0.960693
0.344940 0.672028 0.977570
0.706390 0.758453 0.980988
0.960388 0.775604 0.946106
0.993866 0.791992 0.947479
0.112518 0.803131 0.960388
0.135193 0.806030 0.957916
0.158691 0.810699 0.957794
0.214722 0.830475 0.960480
0.380005 0.855988 0.955658
0.564636 0.887970 0.952026
0.748047 0.915100 0.946320
0.945435 0.939606 0.941620
0.991669 0.955139 0.954437
0.243866 0.930420 0.983124
0.261292 0.937225 0.981964
0.277985 0.940979 0.981537
0.322632 0.947174 0.980621
0.463867 0.962982 0.971985
0.631073 0.989380 0.956390
0.790253 0.988708 0.927734
0.978058 0.972351 0.932709
0.993744 0.973694 0.941559
0.041412 0.026978 0.993744
0.133301 0.027496 0.994202
0.266205 0.020355 0.995178
0.429901 0.012695 0.993683
0.612732 0.015137 0.993622
0.803528 0.015656 0.993744
0.927979 0.015015 0.996857
0.963409 0.013672 0.994293
0.996887 0.010590 0.991821
0.022430 0.083099 0.993713
0.121521 0.109650 0.993713
0.256012 0.105835 0.995239
0.419037 0.099396 0.994507
0.599731 0.084503 0.993744
0.792816 0.072052 0.993744
0.929565 0.049622 0.993835
0.963989 0.048706 0.994324
0.996887 0.046143 0.991821
0.012634 0.168701 0.996918
0.088745 0.186249 0.995453
0.233704 0.224182 0.993713
0.393463 0.217285 0.993744
0.571594 0.211609 0.993744
0.763367 0.196991 0.994934
0.927155 0.184082 0.995789
0.965363 0.174805 0.994324
0.994354 0.170868 0.989197
0.012268 0.268188 0.995880
0.043457 0.274445 0.995972
0.180054 0.307678 0.992889
0.349579 0.351654 0.993744
0.541534 0.352448 0.993774
0.730133 0.343323 0.993591
0.915222 0.331116 0.993713
0.966522 0.321411 0.993744
0.993744 0.315399 0.987762
0.010803 0.373657 0.989868
0.018402 0.371613 0.989685
0.039032 0.366577 0.992859
0.074615 0.367462 0.992950
0.225891 0.402100 0.993713
0.694519 0.494385 0.993744
0.891327 0.484924 0.993744
0.968872 0.477722 0.993744
0.993988 0.469299 0.985565
0.000000 0.495697 0.993347
0.007446 0.493896 0.993378
0.015717 0.491547 0.993500
0.053467 0.487213 0.993469
0.091583 0.484924 0.993408
0.493347 0.592102 0.993469
0.849396 0.644897 0.993744
0.969879 0.637268 0.993744
0.993744 0.626465 0.983429
0.000000 0.632568 0.997009
0.009216 0.632843 0.993958
0.026733 0.632019 0.993469
0.099640 0.637543 0.990509
0.136902 0.633331 0.993774
0.317108 0.671875 0.993744
0.706512 0.768616 0.993622
0.969879 0.801056 0.993866
0.993835 0.789154 0.981781
0.022552 0.732697 0.983154
0.047577 0.737152 0.980530
0.078613 0.744110 0.980530
0.149658 0.762268 0.979950
0.342743 0.807281 0.980011
0.545258 0.856354 0.983826
0.730011 0.900848 0.988098
0.942871 0.948730 0.993713
0.993744 0.955139 0.992401
0.111481 0.821289 0.993744
0.131104 0.829529 0.993744
0.152466 0.835510 0.993744
0.202911 0.843475 0.993896
0.376740 0.880157 0.993622
0.559631 0.915466 0.993225
0.745209 0.939056 0.990540
0.945709 0.979950 0.990570
0.993744 0.990540 0.993225
