nova/tdt-studio/app/Lut_mau/IWLTBAP/1 - LUTs by IWLTBAP (CUBE)/02 - Generic LOG/Cinematic/X-6500-LOG.cube
# Copyright: (C) Copyright 2010-2019 by IWLTBAP SAS
# Cannot be resold, shared or otherwise redistributed
# Website: https://luts.iwltbap.com
TITLE "IWLTBAP 6500 (LOG)"
LUT_3D_SIZE 9
0.048309 0.063385 0.065094
0.085924 0.070963 0.070825
0.187100 0.127469 0.131326
0.341875 0.229402 0.234985
0.466333 0.315071 0.321672
0.534085 0.362736 0.369485
0.540997 0.367720 0.374279
0.542957 0.369130 0.375630
0.544922 0.370544 0.376984
0.053630 0.083423 0.074115
0.074105 0.081016 0.070758
0.164681 0.116514 0.117507
0.316421 0.212535 0.216913
0.451375 0.304723 0.310999
0.530560 0.360362 0.366920
0.541668 0.368294 0.374628
0.543628 0.369694 0.375989
0.545593 0.371107 0.377343
0.083627 0.138140 0.110106
0.081687 0.134273 0.107189
0.132285 0.124151 0.103332
0.284613 0.197134 0.194650
0.433072 0.294618 0.296366
0.526515 0.358993 0.362659
0.547893 0.373799 0.377956
0.548874 0.374348 0.378805
0.550432 0.375381 0.379922
0.136749 0.227277 0.166851
0.133645 0.221910 0.163443
0.127394 0.209441 0.153094
0.244031 0.206650 0.175502
0.417804 0.298042 0.287027
0.525432 0.367618 0.361276
0.565288 0.392739 0.388869
0.565400 0.391588 0.388827
0.566743 0.392104 0.389734
0.210294 0.349338 0.247159
0.207512 0.344678 0.243954
0.202151 0.335257 0.237519
0.198556 0.314229 0.221234
0.380168 0.325424 0.270679
0.524797 0.394810 0.365557
0.590053 0.431576 0.409446
0.592254 0.430229 0.410474
0.593472 0.430097 0.411137
0.291447 0.480220 0.338459
0.288949 0.476082 0.335493
0.283513 0.467232 0.329174
0.279122 0.457877 0.321619
0.299770 0.437891 0.298861
0.495043 0.448494 0.357346
0.611607 0.484543 0.429742
0.628417 0.487988 0.440394
0.630013 0.487510 0.441299
0.365097 0.599642 0.427576
0.363016 0.596213 0.424900
0.358989 0.589652 0.419731
0.354744 0.582117 0.413568
0.354264 0.569942 0.402377
0.418485 0.554107 0.381384
0.602385 0.555690 0.433901
0.667547 0.562003 0.472278
0.670407 0.560786 0.473948
0.385873 0.633605 0.454213
0.386184 0.634049 0.454537
0.386490 0.634486 0.454854
0.386789 0.634917 0.455166
0.391716 0.639523 0.457133
0.409773 0.635202 0.447571
0.533687 0.633748 0.440761
0.695954 0.639428 0.499241
0.701464 0.638600 0.502321
0.390198 0.640686 0.459808
0.390509 0.641129 0.460131
0.390820 0.641571 0.460454
0.391126 0.642009 0.460772
0.395544 0.646698 0.463116
0.409821 0.642970 0.455582
0.513570 0.640780 0.441244
0.687970 0.644299 0.495530
0.703705 0.645538 0.504608
0.053868 0.067090 0.084689
0.085748 0.071122 0.086199
0.182693 0.126100 0.132257
0.336033 0.226106 0.231981
0.464326 0.314097 0.320932
0.533788 0.362650 0.369440
0.541069 0.367888 0.374471
0.543029 0.369298 0.375822
0.544994 0.370712 0.377176
0.054281 0.086699 0.089695
0.070297 0.085446 0.088021
0.161210 0.116856 0.119301
0.313408 0.210735 0.215268
0.449855 0.303808 0.310136
0.530127 0.360178 0.366810
0.541806 0.368530 0.374896
0.543772 0.369945 0.376241
0.545737 0.371359 0.377595
0.083566 0.138702 0.112000
0.081342 0.134221 0.108250
0.131376 0.124604 0.103716
0.282211 0.195849 0.193375
0.431596 0.293753 0.295579
0.525928 0.358720 0.362519
0.547992 0.373969 0.378227
0.548937 0.374482 0.379044
0.550515 0.375539 0.380173
0.136350 0.227107 0.167832
0.133391 0.221964 0.164492
0.127421 0.209838 0.154341
0.242262 0.205872 0.174620
0.416338 0.297319 0.286307
0.524922 0.367481 0.361205
0.565516 0.393014 0.389254
0.565618 0.391869 0.389215
0.566963 0.392382 0.390114
0.210314 0.349630 0.248335
0.207598 0.345022 0.245195
0.202191 0.335612 0.238764
0.198793 0.314995 0.222596
0.378752 0.325058 0.270176
0.524189 0.394777 0.365542
0.590171 0.431908 0.409833
0.592564 0.430600 0.410962
0.593795 0.430490 0.411638
0.291436 0.480516 0.339882
0.288888 0.476334 0.336885
0.283540 0.467593 0.330587
0.279154 0.458193 0.322896
0.299529 0.438074 0.300110
0.494242 0.448762 0.357599
0.611467 0.484848 0.430019
0.628756 0.488429 0.440943
0.630317 0.487941 0.441825
0.364975 0.599859 0.429271
0.362815 0.596289 0.426472
0.358862 0.589843 0.421351
0.354646 0.582345 0.415201
0.354251 0.570273 0.403841
0.417990 0.554463 0.382672
0.601592 0.555742 0.433975
0.667808 0.562249 0.472706
0.670616 0.561030 0.474346
0.386508 0.635067 0.456957
0.386819 0.635510 0.457281
0.387125 0.635947 0.457598
0.387424 0.636373 0.457898
0.392328 0.640954 0.459728
0.410348 0.636689 0.450320
0.532114 0.635187 0.441994
0.696024 0.640095 0.499609
0.701641 0.638709 0.502672
0.390833 0.642148 0.462552
0.391145 0.642591 0.462875
0.391455 0.643033 0.463198
0.391761 0.643465 0.463505
0.396111 0.648103 0.465700
0.410454 0.644462 0.458250
0.511888 0.642252 0.442663
0.687311 0.645245 0.495622
0.704160 0.646508 0.505243
0.075110 0.090091 0.142694
0.083781 0.087374 0.143366
0.180647 0.119765 0.150296
0.335057 0.225777 0.239850
0.460554 0.313725 0.323920
0.533941 0.365438 0.374185
0.542069 0.370757 0.378855
0.543964 0.371933 0.379747
0.545912 0.373246 0.380897
0.074204 0.099207 0.140752
0.079853 0.098949 0.139557
0.161009 0.114125 0.140155
0.311177 0.210747 0.222567
0.445636 0.303470 0.312568
0.529803 0.362213 0.370346
0.542792 0.371007 0.378423
0.544684 0.372144 0.379358
0.546634 0.373457 0.380581
0.091376 0.153429 0.166074
0.088271 0.148679 0.160072
0.129087 0.149089 0.152889
0.285784 0.208589 0.210524
0.431641 0.297335 0.300942
0.526581 0.361195 0.365826
0.549560 0.376269 0.381049
0.550035 0.376123 0.381168
0.551492 0.377009 0.382090
0.143564 0.246254 0.200561
0.139880 0.239739 0.194552
0.135494 0.228918 0.181984
0.239914 0.213410 0.179858
0.414179 0.298997 0.287498
0.524464 0.368334 0.362134
0.565463 0.392976 0.389505
0.565411 0.391588 0.389240
0.566794 0.392131 0.390152
0.213822 0.356767 0.259760
0.210613 0.351179 0.255026
0.203179 0.338191 0.243933
0.197858 0.314273 0.223226
0.375466 0.322765 0.268220
0.522241 0.393385 0.364499
0.589670 0.431451 0.409730
0.592454 0.430332 0.411104
0.593762 0.430351 0.411844
0.290266 0.478933 0.339945
0.287883 0.475013 0.337110
0.282624 0.466404 0.330853
0.278201 0.457033 0.323130
0.297815 0.436947 0.300570
0.492265 0.447806 0.356980
0.610447 0.484236 0.429677
0.628782 0.488346 0.441244
0.630270 0.487796 0.442060
0.364161 0.598946 0.430050
0.362081 0.595507 0.427314
0.358201 0.589161 0.422271
0.353878 0.581482 0.415935
0.353520 0.569626 0.404605
0.416579 0.553973 0.383305
0.600274 0.555346 0.433739
0.667862 0.562049 0.472978
0.670585 0.560773 0.474549
0.387147 0.636536 0.459683
0.387458 0.636979 0.460007
0.387764 0.637416 0.460319
0.388063 0.637842 0.460619
0.392888 0.642387 0.462348
0.410645 0.638203 0.453179
0.529661 0.636651 0.443128
0.695221 0.640123 0.499417
0.701812 0.638746 0.503003
0.391466 0.643606 0.465289
0.391778 0.644049 0.465612
0.392089 0.644491 0.465935
0.392395 0.644923 0.466242
0.396657 0.649494 0.468292
0.410889 0.646007 0.460957
0.509930 0.643739 0.444244
0.686256 0.646173 0.495552
0.704615 0.647477 0.505877
0.129648 0.148144 0.242718
0.127993 0.144118 0.236131
0.172879 0.150146 0.257700
0.346592 0.228938 0.290975
0.468240 0.317290 0.350939
0.540993 0.371201 0.392742
0.549335 0.377774 0.395341
0.550640 0.378913 0.395036
0.552401 0.380308 0.395697
0.126336 0.147958 0.236325
0.124144 0.144127 0.231013
0.153924 0.142049 0.241258
0.319454 0.211513 0.267214
0.451503 0.306269 0.335821
0.534457 0.367108 0.386028
0.548559 0.377924 0.392962
0.549951 0.378985 0.392852
0.551805 0.380379 0.393722
0.137104 0.181954 0.255413
0.132799 0.176187 0.247629
0.146263 0.182723 0.249519
0.293209 0.214744 0.262250
0.435467 0.304975 0.328171
0.528765 0.368698 0.383036
0.554076 0.384906 0.395608
0.554183 0.384077 0.394126
0.555491 0.384662 0.394381
0.165418 0.274001 0.301285
0.161309 0.267917 0.293957
0.155570 0.259991 0.280623
0.248163 0.273608 0.277841
0.427940 0.331720 0.332350
0.533357 0.385594 0.386242
0.575746 0.407337 0.407313
0.574469 0.403945 0.404423
0.575434 0.403707 0.404339
0.232445 0.400827 0.346862
0.229303 0.395143 0.340772
0.222361 0.382372 0.326726
0.222541 0.366677 0.300833
0.384639 0.362675 0.303431
0.531853 0.416054 0.386137
0.599980 0.446396 0.424419
0.601545 0.442526 0.423073
0.602252 0.441542 0.422899
0.303615 0.509547 0.395811
0.300763 0.504489 0.390323
0.294615 0.493638 0.379015
0.289671 0.481002 0.362313
0.312678 0.458746 0.334146
0.494214 0.462498 0.369397
0.613877 0.491833 0.435798
0.631949 0.493026 0.445413
0.632973 0.491802 0.445639
0.368494 0.610357 0.454664
0.366105 0.606065 0.449957
0.361613 0.598040 0.441441
0.356085 0.587614 0.429646
0.354632 0.572617 0.411878
0.414460 0.553942 0.385425
0.597417 0.553518 0.432478
0.667467 0.560814 0.472900
0.670117 0.559624 0.474424
0.388912 0.640701 0.467631
0.388887 0.640345 0.466438
0.388606 0.639387 0.464054
0.388688 0.639317 0.463359
0.393372 0.643831 0.465043
0.410538 0.639786 0.456264
0.525394 0.638104 0.444041
0.694061 0.639880 0.498986
0.701904 0.638542 0.503258
0.392105 0.645103 0.468146
0.392402 0.645505 0.468388
0.392713 0.645947 0.468711
0.393013 0.646385 0.469002
0.397168 0.650874 0.470969
0.410999 0.647630 0.463865
0.505904 0.645273 0.445636
0.684617 0.647089 0.495229
0.705075 0.648452 0.506517
0.197594 0.222434 0.358486
0.193829 0.217961 0.351219
0.201491 0.215283 0.350561
0.327961 0.244888 0.403636
0.491171 0.325592 0.434585
0.560860 0.381040 0.449734
0.568868 0.388467 0.445729
0.569791 0.389614 0.442722
0.571362 0.391025 0.441634
0.192378 0.218469 0.349368
0.190107 0.215407 0.344834
0.191810 0.209035 0.336040
0.300816 0.230428 0.382121
0.473905 0.314524 0.416790
0.552674 0.376262 0.439150
0.567080 0.388461 0.438678
0.568104 0.389579 0.436139
0.569782 0.391063 0.435525
0.200922 0.240590 0.364621
0.196976 0.235352 0.357778
0.197449 0.231011 0.351065
0.273720 0.237838 0.380760
0.452595 0.308572 0.404123
0.544176 0.376898 0.432735
0.570035 0.395708 0.436093
0.569407 0.394687 0.431367
0.570507 0.395303 0.430232
0.225849 0.308225 0.408233
0.222098 0.302782 0.401882
0.217850 0.296886 0.393181
0.261406 0.314730 0.407122
0.441103 0.351284 0.425186
0.544904 0.403562 0.444155
0.588051 0.426262 0.451929
0.586155 0.422241 0.445262
0.587072 0.422053 0.443898
0.261615 0.425240 0.466460
0.258513 0.420534 0.461020
0.250822 0.408823 0.447740
0.255149 0.409798 0.436204
0.403908 0.442321 0.449813
0.557717 0.468072 0.468633
0.621662 0.479925 0.476425
0.622767 0.472682 0.468542
0.623030 0.470535 0.466249
0.318156 0.549642 0.509245
0.315723 0.545228 0.503740
0.310105 0.535369 0.491901
0.308164 0.527255 0.475906
0.343648 0.518592 0.449471
0.520594 0.525251 0.452374
0.639679 0.538035 0.487139
0.658089 0.532823 0.487786
0.658665 0.530219 0.486305
0.381695 0.645852 0.543129
0.379531 0.641795 0.537889
0.375387 0.634260 0.528472
0.370402 0.624370 0.514769
0.372802 0.612997 0.492674
0.436316 0.597709 0.461224
0.610298 0.591935 0.470997
0.683429 0.588596 0.497188
0.685592 0.585847 0.497192
0.402817 0.675299 0.544071
0.402629 0.674543 0.541358
0.402191 0.673141 0.537103
0.401264 0.670512 0.529929
0.404831 0.671817 0.521945
0.423243 0.665254 0.502751
0.527169 0.659563 0.472183
0.697892 0.650842 0.507207
0.706850 0.648201 0.510905
0.405391 0.678229 0.540269
0.405198 0.677463 0.537581
0.404790 0.676199 0.533764
0.403920 0.673722 0.527000
0.406888 0.674873 0.520169
0.420990 0.669031 0.502685
0.507996 0.662613 0.470359
0.685969 0.656373 0.501377
0.708614 0.655887 0.511817
0.246956 0.277890 0.441145
0.247347 0.278377 0.441549
0.247875 0.276272 0.437905
0.305009 0.287774 0.482501
0.478228 0.335858 0.533396
0.586431 0.387991 0.546298
0.597494 0.397945 0.536867
0.598312 0.399496 0.531416
0.599804 0.401206 0.528705
0.250207 0.283365 0.446694
0.248978 0.281736 0.444590
0.245923 0.275855 0.436220
0.288151 0.282372 0.469904
0.459391 0.326733 0.521293
0.577648 0.383099 0.535144
0.595259 0.398353 0.526438
0.595982 0.399853 0.521185
0.597448 0.401523 0.518806
0.258979 0.300385 0.461888
0.256036 0.296468 0.456879
0.255564 0.294502 0.453212
0.285949 0.298274 0.469339
0.436816 0.325733 0.513293
0.566718 0.381700 0.525712
0.595992 0.404471 0.516187
0.594794 0.403924 0.508282
0.595622 0.404827 0.505454
0.283889 0.356809 0.506758
0.280861 0.352190 0.501425
0.277372 0.346660 0.494533
0.293111 0.348563 0.495684
0.413728 0.360801 0.532169
0.561731 0.403279 0.534650
0.611684 0.433673 0.526455
0.609859 0.431268 0.517053
0.610639 0.431608 0.514193
0.317593 0.451299 0.563970
0.314951 0.446987 0.559373
0.308325 0.436064 0.548078
0.314391 0.440389 0.547991
0.399508 0.463940 0.571556
0.574883 0.493757 0.585624
0.642959 0.503737 0.563716
0.643400 0.496360 0.549206
0.643354 0.494216 0.544951
0.351036 0.569180 0.619450
0.348462 0.565059 0.614784
0.342893 0.556063 0.604950
0.340276 0.551919 0.595972
0.370909 0.561407 0.591510
0.552661 0.606703 0.622251
0.679699 0.610884 0.613626
0.694153 0.592395 0.591062
0.694037 0.587706 0.585804
0.393437 0.679043 0.657687
0.391242 0.675245 0.652993
0.387331 0.668509 0.644702
0.382464 0.659663 0.632517
0.387672 0.656044 0.616791
0.459525 0.659967 0.599480
0.650119 0.670204 0.595918
0.722937 0.658207 0.591008
0.724703 0.653999 0.587631
0.415614 0.714282 0.653905
0.415648 0.713664 0.650739
0.415512 0.712490 0.645844
0.415085 0.710238 0.637704
0.419884 0.713358 0.629793
0.439335 0.712665 0.608545
0.544218 0.712509 0.576621
0.718467 0.699622 0.564795
0.729931 0.694926 0.564090
0.418602 0.717170 0.647502
0.418631 0.716502 0.644277
0.418522 0.715372 0.639671
0.418117 0.713088 0.631577
0.421852 0.715398 0.623922
0.436848 0.714308 0.603660
0.525305 0.712368 0.570883
0.700658 0.702262 0.554509
0.728248 0.698080 0.556127
0.250495 0.281975 0.447089
0.251432 0.283142 0.448439
0.252427 0.282489 0.446865
0.299620 0.293578 0.488131
0.464632 0.338381 0.545345
0.589249 0.388167 0.572802
0.606921 0.400267 0.573571
0.609574 0.402310 0.573559
0.612234 0.404359 0.573547
0.254785 0.288367 0.454351
0.254199 0.287429 0.453341
0.252863 0.284375 0.449092
0.286811 0.293529 0.478300
0.441361 0.332472 0.540052
0.580705 0.383868 0.573354
0.607951 0.401396 0.575176
0.610620 0.403434 0.575170
0.613280 0.405483 0.575158
0.271413 0.314250 0.482676
0.270675 0.312902 0.481365
0.272647 0.314567 0.483265
0.293200 0.320499 0.493933
0.413667 0.340322 0.549684
0.565630 0.383721 0.581282
0.613093 0.407177 0.583115
0.614252 0.407438 0.580721
0.616306 0.408770 0.579714
0.300812 0.366896 0.533965
0.299351 0.363880 0.531284
0.298598 0.361097 0.529261
0.311183 0.366686 0.536325
0.391769 0.378537 0.580901
0.546929 0.404211 0.605211
0.629774 0.429532 0.608496
0.631130 0.429027 0.602977
0.633106 0.429977 0.601108
0.348715 0.468832 0.617505
0.347367 0.465554 0.615169
0.343754 0.457436 0.609045
0.347686 0.457138 0.610010
0.389484 0.461243 0.622024
0.530193 0.469748 0.656995
0.651554 0.481138 0.644907
0.660500 0.479147 0.632216
0.661957 0.478610 0.628467
0.391814 0.581210 0.690495
0.390060 0.577538 0.687359
0.386393 0.569882 0.680947
0.385204 0.566041 0.676925
0.401396 0.569688 0.678565
0.514819 0.596254 0.711503
0.690142 0.618458 0.724310
0.721059 0.606553 0.698961
0.721436 0.603013 0.693068
0.424717 0.693590 0.746100
0.422766 0.690187 0.742744
0.419342 0.684129 0.736827
0.414468 0.675880 0.728042
0.416953 0.676925 0.723150
0.465568 0.691429 0.726484
0.670081 0.743766 0.769503
0.774275 0.750209 0.763749
0.776217 0.745797 0.757941
0.435816 0.741719 0.755883
0.435212 0.741808 0.753923
0.434195 0.741632 0.750727
0.432452 0.740869 0.745133
0.435227 0.747337 0.742664
0.449898 0.755242 0.734289
0.554922 0.776017 0.731659
0.767143 0.791112 0.730065
0.781621 0.786409 0.724323
0.435955 0.746782 0.752252
0.435402 0.746789 0.750070
0.434525 0.746554 0.746945
0.433002 0.745613 0.741121
0.435515 0.750724 0.737849
0.447728 0.757149 0.728498
0.534202 0.773284 0.719162
0.742482 0.789864 0.711006
0.775702 0.784556 0.701998
0.253219 0.285118 0.451643
0.254197 0.286363 0.453082
0.254878 0.285766 0.451595
0.297667 0.295988 0.489322
0.459270 0.338626 0.548062
0.588847 0.387726 0.577979
0.608152 0.400554 0.578985
0.610996 0.402645 0.578985
0.613656 0.404694 0.578973
0.257070 0.290897 0.458178
0.256521 0.289970 0.457201
0.255750 0.287923 0.454229
0.286206 0.296270 0.479598
0.436093 0.332914 0.542672
0.579741 0.383439 0.578324
0.609171 0.401672 0.580584
0.612027 0.403747 0.580590
0.614686 0.405796 0.580578
0.273680 0.316740 0.486476
0.272998 0.315489 0.485252
0.274708 0.316860 0.486876
0.292952 0.322206 0.496009
0.408286 0.340646 0.551751
0.562659 0.382849 0.584868
0.613753 0.406829 0.587676
0.615000 0.407016 0.585166
0.617043 0.408341 0.584176
0.301587 0.366479 0.535153
0.300221 0.363706 0.532661
0.299419 0.360911 0.530582
0.310994 0.366458 0.537526
0.387058 0.377957 0.580895
0.541783 0.402576 0.607725
0.629629 0.428067 0.613887
0.632296 0.427772 0.610892
0.634561 0.428797 0.609929
0.348989 0.466583 0.618064
0.347660 0.463312 0.615729
0.344112 0.455115 0.609697
0.347665 0.454218 0.610681
0.385961 0.457646 0.622601
0.518562 0.463775 0.661359
0.646366 0.472505 0.657126
0.660501 0.469345 0.651101
0.662735 0.468531 0.649199
0.394861 0.579304 0.695422
0.393672 0.575838 0.693301
0.391105 0.568657 0.688778
0.391305 0.564877 0.687449
0.405421 0.566086 0.691797
0.492468 0.577045 0.719707
0.660108 0.583708 0.743950
0.709574 0.567384 0.724045
0.712112 0.563219 0.720563
0.434796 0.693270 0.765199
0.433853 0.690235 0.763555
0.432004 0.684572 0.760379
0.429516 0.676538 0.755952
0.433956 0.677610 0.758113
0.467745 0.685609 0.768528
0.629756 0.726146 0.821269
0.775934 0.739669 0.835251
0.780403 0.734918 0.831089
0.454815 0.749387 0.796752
0.455139 0.750034 0.797207
0.455456 0.750674 0.797661
0.455762 0.751298 0.798111
0.460208 0.759798 0.803994
0.470918 0.771410 0.810707
0.538807 0.796042 0.830073
0.771727 0.858843 0.894121
0.803532 0.862969 0.897288
0.457355 0.756264 0.800574
0.457679 0.756911 0.801029
0.458007 0.757545 0.801483
0.458326 0.758163 0.801933
0.461474 0.765311 0.805780
0.469391 0.775867 0.809608
0.523330 0.799483 0.823027
0.740743 0.860792 0.878670
0.802511 0.872945 0.888898
0.255951 0.288269 0.456207
0.256987 0.289600 0.457747
0.257489 0.289120 0.456446
0.297192 0.298728 0.491146
0.455366 0.339482 0.551098
0.588833 0.387609 0.583165
0.609386 0.400841 0.584412
0.612231 0.402933 0.584412
0.615082 0.405029 0.584412
0.259573 0.293739 0.462364
0.259034 0.292793 0.461388
0.258667 0.291469 0.459368
0.286719 0.299204 0.481830
0.432334 0.333925 0.545645
0.579355 0.383402 0.583340
0.610406 0.401960 0.586012
0.613261 0.404035 0.586017
0.616112 0.406131 0.586017
0.276194 0.319636 0.490701
0.275534 0.318435 0.489530
0.277189 0.319734 0.491117
0.293889 0.324679 0.499260
0.404969 0.341922 0.554784
0.560893 0.382999 0.589022
0.614753 0.406865 0.592765
0.615995 0.407045 0.590255
0.618205 0.408380 0.589257
0.303127 0.367578 0.537706
0.301777 0.364830 0.535243
0.301233 0.362544 0.533633
0.312092 0.367880 0.540331
0.384766 0.378942 0.582683
0.538981 0.402626 0.611127
0.630128 0.427592 0.618545
0.632980 0.427458 0.615623
0.635491 0.428418 0.614713
0.350153 0.466380 0.620071
0.348747 0.462958 0.617584
0.345276 0.454932 0.611692
0.348439 0.453582 0.612222
0.385006 0.456722 0.623674
0.514510 0.461974 0.663028
0.644866 0.470420 0.660236
0.660133 0.467510 0.654582
0.662796 0.466713 0.652951
0.396182 0.578862 0.697613
0.394988 0.575375 0.695481
0.392422 0.568254 0.690977
0.392462 0.564172 0.689465
0.405850 0.564943 0.693586
0.488735 0.573505 0.719889
0.655370 0.578886 0.745156
0.707230 0.562661 0.725453
0.710353 0.558427 0.722091
0.435915 0.692588 0.767251
0.434919 0.689399 0.765519
0.433111 0.683800 0.762355
0.430647 0.675776 0.757938
0.435007 0.676741 0.760182
0.467472 0.684035 0.770457
0.624801 0.722262 0.822337
0.773435 0.734779 0.836664
0.778352 0.729851 0.832181
0.456145 0.749818 0.799364
0.456469 0.750465 0.799819
0.456786 0.751105 0.800279
0.457092 0.751729 0.800735
0.461455 0.760152 0.806612
0.471782 0.771212 0.813293
0.536976 0.794872 0.834681
0.766505 0.859662 0.906455
0.802472 0.866375 0.914665
0.458649 0.756683 0.803162
0.458972 0.757330 0.803617
0.459295 0.757975 0.804071
0.459608 0.758606 0.804521
0.463328 0.765893 0.809633
0.472011 0.776772 0.816082
0.522169 0.800155 0.834163
0.730345 0.866141 0.902564
0.799225 0.886597 0.924805
