nova/tdt-studio/app/Lut_mau/IWLTBAP/1 - LUTs by IWLTBAP (CUBE)/02 - Generic LOG/Cinematic/X-6500-LOG.cube
# Copyright: (C) Copyright 2010-2019 by IWLTBAP SAS
# Cannot be resold, shared or otherwise redistributed
# Website: https://luts.iwltbap.com
TITLE "IWLTBAP 6500 (LOG)"
LUT_3D_SIZE 33
0.048309 0.063385 0.065094
0.049722 0.063524 0.065094
0.059225 0.064581 0.065161
0.071698 0.066889 0.066320
0.085924 0.070963 0.070825
0.103793 0.079510 0.080559
0.125471 0.091090 0.093855
0.154247 0.107680 0.111396
0.187100 0.127469 0.131326
0.224034 0.150612 0.154623
0.262743 0.175767 0.179993
0.302812 0.202684 0.207492
0.341875 0.229402 0.234985
0.377930 0.254025 0.259918
0.410549 0.276322 0.282526
0.440124 0.296795 0.303201
0.466333 0.315071 0.321672
0.489434 0.331203 0.338079
0.508652 0.344761 0.351719
0.524392 0.355853 0.362721
0.534085 0.362736 0.369485
0.539488 0.366633 0.373237
0.540015 0.367013 0.373602
0.540504 0.367365 0.373939
0.540997 0.367720 0.374279
0.541486 0.368072 0.374616
0.541980 0.368427 0.374956
0.542468 0.368779 0.375293
0.542957 0.369130 0.375630
0.543451 0.369485 0.375970
0.543940 0.369837 0.376307
0.544433 0.370192 0.376647
0.544922 0.370544 0.376984
0.048407 0.063984 0.065374
0.049155 0.064062 0.065216
0.056553 0.064791 0.065216
0.069067 0.066736 0.065963
0.083116 0.070453 0.069802
0.100355 0.077926 0.078486
0.121707 0.089179 0.091494
0.149407 0.104954 0.108482
0.181736 0.124267 0.128014
0.218642 0.147228 0.151128
0.257142 0.172126 0.176273
0.297633 0.199214 0.203869
0.337087 0.226163 0.231632
0.373800 0.251237 0.257043
0.406806 0.273777 0.279892
0.437130 0.294740 0.301079
0.463586 0.313178 0.319704
0.487311 0.329754 0.336558
0.506975 0.343610 0.350509
0.523260 0.355076 0.361899
0.533711 0.362503 0.369194
0.539285 0.366512 0.373063
0.540182 0.367158 0.373687
0.540670 0.367505 0.374029
0.541164 0.367860 0.374369
0.541653 0.368212 0.374706
0.542146 0.368567 0.375046
0.542635 0.368919 0.375383
0.543124 0.369270 0.375719
0.543618 0.369626 0.376060
0.544106 0.369977 0.376396
0.544600 0.370332 0.376737
0.545089 0.370684 0.377073
0.049135 0.068417 0.067447
0.049800 0.067985 0.067051
0.053963 0.067904 0.065910
0.066470 0.068696 0.066070
0.080836 0.071073 0.069136
0.097725 0.077079 0.077076
0.117772 0.087179 0.089029
0.144920 0.102481 0.105744
0.176351 0.121053 0.124689
0.213136 0.143824 0.147613
0.251710 0.168598 0.172666
0.292205 0.195579 0.200076
0.331989 0.222706 0.228006
0.369348 0.248231 0.253945
0.403205 0.271330 0.277357
0.433982 0.292573 0.298846
0.460878 0.311314 0.317768
0.484977 0.328158 0.334885
0.505242 0.342420 0.349258
0.522098 0.354284 0.361069
0.533332 0.362267 0.368900
0.538981 0.366318 0.372820
0.540350 0.367306 0.373771
0.540839 0.367651 0.374114
0.541333 0.368002 0.374459
0.541821 0.368353 0.374796
0.542315 0.368709 0.375136
0.542804 0.369060 0.375473
0.543293 0.369412 0.375810
0.543786 0.369767 0.376150
0.544275 0.370119 0.376487
0.544769 0.370474 0.376827
0.545257 0.370826 0.377164
0.050746 0.075189 0.070312
0.051293 0.074723 0.069981
0.053106 0.074165 0.069344
0.062941 0.074047 0.067612
0.078073 0.075114 0.069137
0.095595 0.079365 0.076230
0.115036 0.087448 0.087280
0.140038 0.100746 0.102661
0.169728 0.117863 0.120668
0.205907 0.139593 0.142978
0.243670 0.163462 0.167270
0.284116 0.190204 0.194529
0.324225 0.217419 0.222494
0.362559 0.243634 0.249249
0.397061 0.267150 0.273066
0.428607 0.288865 0.295061
0.456203 0.308074 0.314440
0.481178 0.325536 0.332173
0.502067 0.340199 0.346982
0.519539 0.352523 0.359282
0.532128 0.361446 0.368034
0.538510 0.366004 0.372460
0.540517 0.367452 0.373855
0.541006 0.367798 0.374198
0.541499 0.368147 0.374544
0.541988 0.368494 0.374885
0.542482 0.368849 0.375225
0.542971 0.369200 0.375562
0.543460 0.369552 0.375899
0.543953 0.369907 0.376239
0.544442 0.370259 0.376576
0.544936 0.370614 0.376916
0.545424 0.370966 0.377253
0.053630 0.083423 0.074115
0.053974 0.082876 0.073763
0.054324 0.082330 0.073410
0.059662 0.081449 0.071944
0.074105 0.081016 0.070758
0.091906 0.083372 0.075561
0.112608 0.090188 0.086102
0.136477 0.100991 0.100263
0.164681 0.116514 0.117507
0.198514 0.136283 0.138301
0.235976 0.159338 0.162040
0.276160 0.185467 0.189005
0.316421 0.212535 0.216913
0.355652 0.239119 0.244368
0.390865 0.263026 0.268680
0.423061 0.285041 0.291152
0.451375 0.304723 0.310999
0.476980 0.322627 0.329160
0.498598 0.337779 0.344485
0.516814 0.350648 0.357376
0.530560 0.360362 0.366920
0.537788 0.365508 0.371926
0.540686 0.367599 0.373939
0.541174 0.367945 0.374282
0.541668 0.368294 0.374628
0.542157 0.368640 0.374971
0.542650 0.368990 0.375316
0.543139 0.369342 0.375652
0.543628 0.369694 0.375989
0.544122 0.370049 0.376329
0.544610 0.370401 0.376666
0.545104 0.370756 0.377006
0.545593 0.371107 0.377343
0.058718 0.093955 0.080121
0.058770 0.093343 0.079708
0.058796 0.092655 0.079259
0.060076 0.091478 0.078314
0.068869 0.090210 0.075902
0.086273 0.089420 0.076033
0.107460 0.093924 0.084439
0.132607 0.103123 0.098050
0.159656 0.116141 0.114360
0.191499 0.133904 0.133885
0.227334 0.155282 0.156432
0.267421 0.180732 0.182674
0.307067 0.206996 0.210053
0.347422 0.234119 0.238168
0.384614 0.259239 0.263975
0.417929 0.281918 0.287148
0.446803 0.301878 0.307520
0.473096 0.320195 0.326151
0.495404 0.335727 0.342049
0.514122 0.348933 0.355360
0.528551 0.359008 0.365460
0.537021 0.364989 0.371365
0.540853 0.367745 0.374023
0.541341 0.368091 0.374365
0.541835 0.368440 0.374711
0.542324 0.368786 0.375054
0.542817 0.369135 0.375400
0.543306 0.369482 0.375742
0.543795 0.369834 0.376079
0.544289 0.370189 0.376419
0.544777 0.370541 0.376756
0.545271 0.370896 0.377096
0.545760 0.371247 0.377433
0.066275 0.107420 0.088857
0.065935 0.106606 0.088284
0.065775 0.105820 0.087768
0.065328 0.104558 0.086953
0.068376 0.102688 0.085228
0.078504 0.100957 0.082082
0.099382 0.099743 0.083156
0.125545 0.106191 0.095028
0.154686 0.117665 0.111624
0.185698 0.133366 0.130326
0.219325 0.152431 0.151369
0.258894 0.176504 0.176921
0.298511 0.202168 0.203650
0.338920 0.229101 0.231733
0.377212 0.254724 0.258082
0.412018 0.278398 0.282576
0.442205 0.299111 0.303859
0.469563 0.318122 0.323323
0.492926 0.334424 0.339870
0.512450 0.348105 0.353775
0.527942 0.358991 0.364705
0.537623 0.365811 0.371485
0.542610 0.369302 0.374946
0.542726 0.369311 0.375077
0.542797 0.369283 0.375194
0.543128 0.369490 0.375457
0.543475 0.369711 0.375729
0.543839 0.369947 0.376009
0.544192 0.370174 0.376284
0.544536 0.370396 0.376551
0.544944 0.370681 0.376845
0.545438 0.371036 0.377185
0.545927 0.371388 0.377522
0.074735 0.122195 0.099017
0.074461 0.121610 0.098567
0.074110 0.120885 0.098019
0.073496 0.119515 0.097061
0.073479 0.117855 0.095811
0.077181 0.115246 0.093197
0.087972 0.112769 0.089123
0.114427 0.111452 0.092092
0.145653 0.119732 0.107510
0.179516 0.133889 0.127174
0.213189 0.151639 0.147892
0.251033 0.173687 0.172155
0.291053 0.198704 0.198463
0.331009 0.224830 0.225541
0.369873 0.250645 0.252332
0.406124 0.275102 0.277629
0.437201 0.296389 0.299905
0.465211 0.315633 0.319796
0.489846 0.332836 0.337247
0.510624 0.347283 0.351942
0.527339 0.359005 0.363768
0.538785 0.367041 0.371837
0.545080 0.371505 0.376339
0.545126 0.371458 0.376417
0.545157 0.371397 0.376488
0.545306 0.371437 0.376633
0.545585 0.371589 0.376855
0.545894 0.371770 0.377093
0.546209 0.371957 0.377333
0.546525 0.372145 0.377575
0.546823 0.372322 0.377817
0.547306 0.372661 0.378158
0.547786 0.372999 0.378496
0.083627 0.138140 0.110106
0.083347 0.137570 0.109641
0.083076 0.137015 0.109185
0.082409 0.135734 0.108228
0.081687 0.134273 0.107189
0.082399 0.132562 0.105181
0.086114 0.128902 0.101735
0.100996 0.124777 0.097238
0.132285 0.124151 0.103332
0.169197 0.135151 0.122701
0.206509 0.152085 0.144359
0.244770 0.173317 0.168612
0.284613 0.197134 0.194650
0.324761 0.222639 0.221279
0.363468 0.247928 0.247472
0.400276 0.272451 0.273067
0.433072 0.294618 0.296366
0.461776 0.314201 0.316747
0.487263 0.331818 0.334826
0.508786 0.346712 0.350117
0.526515 0.358993 0.362659
0.539089 0.367801 0.371568
0.547916 0.373968 0.377777
0.547864 0.373842 0.377840
0.547893 0.373799 0.377956
0.547974 0.373801 0.378096
0.548270 0.373986 0.378341
0.548573 0.374168 0.378574
0.548874 0.374348 0.378805
0.549156 0.374511 0.379027
0.549453 0.374687 0.379257
0.549943 0.375034 0.379590
0.550432 0.375381 0.379922
0.094006 0.155986 0.122013
0.093627 0.155346 0.121546
0.093239 0.154691 0.121070
0.092445 0.153359 0.120152
0.091529 0.151826 0.119101
0.091075 0.150571 0.117330
0.091839 0.148331 0.114557
0.096564 0.142942 0.110229
0.116131 0.138118 0.108069
0.153708 0.137967 0.117007
0.195619 0.153488 0.139608
0.237544 0.174214 0.164768
0.278626 0.197529 0.191263
0.318771 0.221813 0.217865
0.357295 0.246457 0.243552
0.394673 0.270847 0.269022
0.428809 0.293528 0.292988
0.458506 0.313538 0.313875
0.484662 0.331365 0.332408
0.507276 0.346802 0.348409
0.525938 0.359699 0.361689
0.540360 0.369648 0.371878
0.550369 0.376546 0.378918
0.551496 0.377169 0.379779
0.551382 0.376928 0.379783
0.551331 0.376778 0.379835
0.551586 0.376913 0.380055
0.551851 0.377057 0.380279
0.552088 0.377179 0.380487
0.552341 0.377321 0.380703
0.552584 0.377456 0.380913
0.553074 0.377808 0.381255
0.553561 0.378159 0.381595
0.106248 0.176186 0.134797
0.105777 0.175361 0.134239
0.105333 0.174586 0.133705
0.104437 0.173066 0.132700
0.103493 0.171466 0.131646
0.102407 0.169542 0.130228
0.101578 0.167870 0.127540
0.102233 0.164331 0.124161
0.108965 0.159315 0.119400
0.136463 0.154326 0.118075
0.180596 0.157298 0.133419
0.226644 0.176298 0.160033
0.271873 0.199342 0.188027
0.313571 0.223001 0.215138
0.352095 0.246577 0.240881
0.389560 0.270632 0.266119
0.424409 0.293347 0.289990
0.455670 0.314014 0.311760
0.482695 0.332128 0.330734
0.506159 0.347905 0.347197
0.525510 0.361000 0.360885
0.541014 0.371533 0.371852
0.552635 0.379460 0.380047
0.555537 0.381262 0.382128
0.555401 0.380931 0.382090
0.555214 0.380560 0.382024
0.555429 0.380614 0.382200
0.555660 0.380690 0.382388
0.555892 0.380779 0.382585
0.556152 0.380894 0.382798
0.556401 0.381005 0.383004
0.556898 0.381358 0.383351
0.557393 0.381711 0.383697
0.120732 0.200297 0.149798
0.120199 0.199328 0.149158
0.119677 0.198378 0.148529
0.118692 0.196646 0.147401
0.117602 0.194740 0.146157
0.116196 0.192313 0.144591
0.114845 0.189475 0.142033
0.113420 0.186804 0.138830
0.114634 0.183342 0.135772
0.124931 0.178921 0.128143
0.162845 0.174933 0.131425
0.211124 0.180629 0.153354
0.260253 0.201480 0.182938
0.307329 0.225708 0.212408
0.347510 0.248740 0.238794
0.385720 0.272407 0.264314
0.420928 0.295053 0.288250
0.452989 0.315954 0.310433
0.480746 0.334251 0.329657
0.505148 0.350271 0.346645
0.525418 0.363694 0.360789
0.542145 0.374796 0.372500
0.554556 0.382975 0.381180
0.559991 0.386330 0.384960
0.560065 0.386080 0.385045
0.559833 0.385590 0.384917
0.559989 0.385541 0.385044
0.560187 0.385537 0.385188
0.560388 0.385538 0.385334
0.560567 0.385510 0.385465
0.560768 0.385510 0.385611
0.561271 0.385853 0.385959
0.561772 0.386197 0.386305
0.136749 0.227277 0.166851
0.136230 0.226366 0.166274
0.135625 0.225310 0.165604
0.134634 0.223610 0.164523
0.133645 0.221910 0.163443
0.132215 0.219424 0.161789
0.130617 0.216221 0.159462
0.128855 0.212455 0.156078
0.127394 0.209441 0.153094
0.130610 0.205703 0.148667
0.144274 0.201895 0.139404
0.191639 0.199088 0.149915
0.244031 0.206650 0.175502
0.296099 0.228832 0.207453
0.341478 0.252197 0.236187
0.381781 0.275686 0.262831
0.417804 0.298042 0.287027
0.450781 0.319216 0.309701
0.479203 0.337630 0.329303
0.504531 0.354152 0.346841
0.525432 0.367618 0.361276
0.543186 0.379214 0.373670
0.556625 0.387933 0.382952
0.564176 0.392550 0.388178
0.565288 0.392739 0.388869
0.564991 0.392016 0.388611
0.565014 0.391723 0.388598
0.565208 0.391656 0.388713
0.565400 0.391588 0.388827
0.565551 0.391478 0.388917
0.565728 0.391405 0.389026
0.566234 0.391751 0.389379
0.566743 0.392104 0.389734
0.154089 0.256275 0.185550
0.153567 0.255355 0.184962
0.153059 0.254458 0.184389
0.152182 0.252944 0.183418
0.151090 0.251070 0.182212
0.149769 0.248814 0.180760
0.148350 0.246352 0.179173
0.146919 0.243127 0.176805
0.144742 0.239206 0.173605
0.143599 0.234796 0.169665
0.147819 0.230371 0.163889
0.167890 0.226720 0.155946
0.221219 0.224613 0.169479
0.278180 0.234337 0.198750
0.329908 0.256310 0.230976
0.375481 0.279812 0.260197
0.413747 0.302090 0.285514
0.447920 0.323232 0.308775
0.477452 0.341990 0.329082
0.503612 0.358702 0.347080
0.525750 0.372947 0.362357
0.544507 0.384801 0.375263
0.559185 0.394120 0.385339
0.568752 0.400018 0.391914
0.571177 0.401013 0.393507
0.570953 0.400164 0.393247
0.570866 0.399655 0.393117
0.570966 0.399411 0.393135
0.571120 0.399248 0.393199
0.571301 0.399123 0.393285
0.571474 0.398994 0.393368
0.571992 0.399345 0.393725
0.572513 0.399704 0.394085
0.172116 0.286178 0.205155
0.171553 0.285252 0.204538
0.170910 0.284194 0.203835
0.170008 0.282665 0.202838
0.169122 0.281146 0.201853
0.167759 0.278828 0.200347
0.166222 0.276250 0.198665
0.165031 0.273908 0.197163
0.163351 0.270383 0.194522
0.160526 0.264947 0.190376
0.160109 0.259781 0.185924
0.166745 0.255356 0.179099
0.194649 0.252007 0.173509
0.253618 0.251201 0.190657
0.312414 0.263164 0.222416
0.363987 0.285405 0.254876
0.406664 0.307215 0.282714
0.443542 0.328439 0.307253
0.475102 0.347402 0.328631
0.502505 0.364435 0.347508
0.526132 0.379102 0.363678
0.545848 0.391474 0.377215
0.561706 0.401210 0.388022
0.573495 0.408350 0.396005
0.576962 0.409932 0.398261
0.577379 0.409440 0.398433
0.577213 0.408745 0.398230
0.577337 0.408489 0.398258
0.577452 0.408234 0.398275
0.577544 0.407942 0.398272
0.577669 0.407700 0.398296
0.578202 0.408045 0.398656
0.578734 0.408394 0.399016
0.190913 0.317493 0.225787
0.190402 0.316577 0.225182
0.189905 0.315683 0.224591
0.189167 0.314387 0.223735
0.188283 0.312846 0.222718
0.186838 0.310435 0.221119
0.185310 0.307956 0.219470
0.183646 0.305255 0.217674
0.182448 0.302766 0.216040
0.180010 0.297935 0.212454
0.177616 0.291896 0.207782
0.178176 0.286058 0.203036
0.188158 0.282221 0.195145
0.225049 0.278593 0.192828
0.288263 0.280152 0.213522
0.347017 0.293896 0.246600
0.395609 0.314428 0.277735
0.436575 0.334809 0.304502
0.470783 0.353984 0.327380
0.500581 0.371233 0.347484
0.526012 0.386476 0.364902
0.547337 0.399275 0.379418
0.564608 0.409731 0.391128
0.577894 0.417565 0.400151
0.583411 0.420373 0.403763
0.584686 0.420292 0.404471
0.584343 0.419308 0.404101
0.584406 0.418933 0.404065
0.584519 0.418633 0.404072
0.584640 0.418345 0.404088
0.584747 0.418052 0.404104
0.585296 0.418407 0.404482
0.585834 0.418751 0.404851
0.210294 0.349338 0.247159
0.209726 0.348389 0.246497
0.209174 0.347460 0.245853
0.208369 0.346112 0.244932
0.207512 0.344678 0.243954
0.206118 0.342364 0.242385
0.204654 0.339937 0.240739
0.202930 0.337047 0.238796
0.202151 0.335257 0.237519
0.200750 0.332364 0.235482
0.198367 0.327313 0.231718
0.196500 0.320720 0.226620
0.198556 0.314229 0.221234
0.212941 0.310368 0.212328
0.259228 0.307460 0.214518
0.323609 0.311548 0.238122
0.380168 0.325424 0.270679
0.426219 0.343857 0.300133
0.464663 0.362271 0.325235
0.496928 0.379350 0.346785
0.524797 0.394810 0.365557
0.548028 0.407971 0.381255
0.567026 0.418843 0.394060
0.581774 0.427232 0.403956
0.590053 0.431576 0.409446
0.592645 0.432327 0.411058
0.592139 0.431040 0.410554
0.592197 0.430635 0.410514
0.592254 0.430229 0.410474
0.592322 0.429836 0.410443
0.592362 0.429403 0.410389
0.592924 0.429756 0.410768
0.593472 0.430097 0.411137
0.230702 0.382348 0.269767
0.230138 0.381420 0.269115
0.229574 0.380492 0.268464
0.228853 0.379311 0.267638
0.227933 0.377805 0.266582
0.226569 0.375584 0.265024
0.225091 0.373178 0.263339
0.223338 0.370323 0.261351
0.221977 0.367978 0.259678
0.221419 0.366332 0.258381
0.219922 0.363111 0.256056
0.217877 0.357969 0.252132
0.216690 0.350949 0.246748
0.221087 0.344400 0.240348
0.240448 0.340967 0.230817
0.295017 0.339113 0.238444
0.357265 0.344310 0.263362
0.411136 0.357119 0.293747
0.454397 0.373484 0.321036
0.491131 0.389557 0.345002
0.521860 0.404672 0.365351
0.547979 0.418056 0.382767
0.568890 0.429156 0.396834
0.585698 0.438132 0.408029
0.595913 0.443264 0.414744
0.601046 0.445349 0.418017
0.600507 0.443929 0.417477
0.600547 0.443422 0.417419
0.600632 0.442994 0.417400
0.600676 0.442542 0.417356
0.600738 0.442122 0.417327
0.601304 0.442468 0.417712
0.601871 0.442820 0.418098
0.251232 0.415383 0.292699
0.250681 0.414471 0.292053
0.250133 0.413560 0.291408
0.249385 0.412331 0.290541
0.248596 0.411034 0.289627
0.247257 0.408852 0.288096
0.245899 0.406645 0.286548
0.244138 0.403799 0.284553
0.242446 0.401066 0.282636
0.241664 0.399531 0.281336
0.240598 0.397129 0.279516
0.238959 0.393375 0.276574
0.237231 0.387748 0.272165
0.237996 0.380953 0.266847
0.244613 0.375081 0.259361
0.273475 0.372550 0.252965
0.329986 0.371207 0.263373
0.389858 0.377151 0.288157
0.440189 0.388334 0.315771
0.481899 0.402659 0.341522
0.516701 0.416255 0.363908
0.546082 0.429465 0.383223
0.569891 0.440535 0.399018
0.589056 0.450091 0.411820
0.602317 0.456437 0.420541
0.610182 0.459913 0.425611
0.609559 0.458275 0.424985
0.609436 0.457474 0.424783
0.609433 0.456863 0.424682
0.609521 0.456380 0.424657
0.609620 0.455917 0.424642
0.610213 0.456265 0.425042
0.610799 0.456620 0.425439
0.271532 0.448073 0.315671
0.270996 0.447190 0.315039
0.270447 0.446287 0.314391
0.269765 0.445168 0.313591
0.268963 0.443859 0.312655
0.267794 0.441959 0.311300
0.266507 0.439868 0.309815
0.264831 0.437151 0.307901
0.263212 0.434522 0.306046
0.262181 0.432581 0.304586
0.261230 0.430807 0.303051
0.260032 0.427945 0.300807
0.258484 0.423584 0.297345
0.257591 0.417905 0.292834
0.260254 0.411497 0.287235
0.271081 0.406861 0.278850
0.307048 0.404505 0.276492
0.364297 0.404216 0.288858
0.419762 0.409747 0.311536
0.468322 0.419486 0.337251
0.507804 0.430842 0.360852
0.541962 0.442814 0.382421
0.569176 0.453509 0.400225
0.591401 0.463049 0.414910
0.607748 0.470210 0.425710
0.618692 0.474896 0.432870
0.619009 0.473693 0.432887
0.618820 0.472638 0.432624
0.618846 0.471998 0.432544
0.618923 0.471458 0.432506
0.618993 0.470915 0.432464
0.619624 0.471268 0.432885
0.620248 0.471617 0.433302
0.291447 0.480220 0.338459
0.290935 0.479368 0.337847
0.290411 0.478496 0.337221
0.289726 0.477363 0.336410
0.288949 0.476082 0.335493
0.287797 0.474194 0.334145
0.286658 0.472338 0.332819
0.285159 0.469904 0.331080
0.283513 0.467232 0.329174
0.281903 0.464597 0.327283
0.281358 0.463287 0.326177
0.280480 0.461341 0.324471
0.279122 0.457877 0.321619
0.277981 0.453172 0.317849
0.278325 0.447369 0.313180
0.283298 0.441359 0.307023
0.299770 0.437891 0.298861
0.341263 0.435672 0.300049
0.395787 0.436001 0.313024
0.449015 0.440925 0.334279
0.495043 0.448494 0.357346
0.534144 0.458461 0.380110
0.566430 0.468018 0.400227
0.592041 0.477183 0.416878
0.611607 0.484543 0.429742
0.626050 0.490250 0.439238
0.628639 0.490019 0.440781
0.628338 0.488691 0.440434
0.628417 0.487988 0.440394
0.628576 0.487402 0.440417
0.628724 0.486835 0.440436
0.629375 0.487180 0.440872
0.630013 0.487510 0.441299
0.310894 0.511591 0.361173
0.310398 0.510772 0.360564
0.309889 0.509934 0.359940
0.309237 0.508871 0.359152
0.308573 0.507789 0.358349
0.307515 0.506071 0.357081
0.306403 0.504270 0.355771
0.304981 0.501971 0.354100
0.303392 0.499383 0.352217
0.301765 0.496716 0.350274
0.300874 0.495073 0.348983
0.300339 0.493657 0.347755
0.299405 0.491204 0.345503
0.298170 0.487319 0.342347
0.297899 0.482336 0.338315
0.299889 0.476498 0.333142
0.308405 0.471598 0.326488
0.329870 0.468346 0.319603
0.373753 0.466587 0.323537
0.426260 0.466987 0.336230
0.476853 0.470996 0.355649
0.522366 0.477012 0.377394
0.559949 0.485105 0.398771
0.590446 0.492899 0.417587
0.613810 0.500251 0.432749
0.631559 0.506069 0.444353
0.638459 0.507580 0.448816
0.638335 0.506062 0.448581
0.638459 0.505364 0.448581
0.638551 0.504613 0.448555
0.638697 0.503962 0.448573
0.639412 0.504287 0.449048
0.640121 0.504607 0.449519
0.329551 0.541893 0.383565
0.328974 0.540934 0.382843
0.328494 0.540136 0.382240
0.327880 0.539118 0.381474
0.327242 0.538061 0.380678
0.326323 0.536548 0.379544
0.325319 0.534900 0.378311
0.324022 0.532777 0.376726
0.322604 0.530456 0.374992
0.321015 0.527858 0.373054
0.319441 0.525298 0.371163
0.319191 0.524437 0.370305
0.318555 0.522638 0.368649
0.317675 0.519717 0.366097
0.316886 0.515551 0.362662
0.317738 0.510533 0.358297
0.321836 0.505169 0.352688
0.334228 0.500907 0.345669
0.360318 0.497900 0.340840
0.405165 0.496196 0.345824
0.455699 0.496487 0.358062
0.505272 0.499464 0.376318
0.549497 0.504420 0.396818
0.585351 0.510579 0.416920
0.613802 0.516985 0.434405
0.634960 0.522573 0.448093
0.646924 0.525291 0.455831
0.648121 0.524040 0.456478
0.648337 0.523258 0.456546
0.648559 0.522469 0.456616
0.648775 0.521745 0.456685
0.649534 0.522071 0.457191
0.650272 0.522369 0.457680
0.347737 0.571475 0.405852
0.347280 0.570735 0.405268
0.346827 0.569995 0.404684
0.346174 0.568912 0.403839
0.345579 0.567924 0.403066
0.344808 0.566649 0.402083
0.343899 0.565149 0.400942
0.342585 0.562990 0.399306
0.341240 0.560781 0.397634
0.339755 0.558347 0.395793
0.338187 0.555776 0.393851
0.337565 0.554443 0.392734
0.337111 0.553141 0.391396
0.336435 0.550854 0.389328
0.335587 0.547463 0.386368
0.335655 0.543140 0.382749
0.337486 0.538081 0.378005
0.344201 0.533227 0.371701
0.359687 0.529325 0.364698
0.390344 0.526532 0.361716
0.434716 0.524697 0.366756
0.484886 0.524589 0.378621
0.533405 0.526696 0.396057
0.576286 0.530511 0.415668
0.609927 0.535490 0.434474
0.636182 0.540362 0.450580
0.653281 0.543803 0.461598
0.657774 0.543183 0.464373
0.658199 0.542282 0.464555
0.658514 0.541487 0.464679
0.658821 0.540688 0.464797
0.659695 0.540972 0.465372
0.660547 0.541227 0.465931
0.365097 0.599642 0.427576
0.364644 0.598893 0.426991
0.364191 0.598146 0.426407
0.363625 0.597215 0.425681
0.363016 0.596213 0.424900
0.362204 0.594883 0.423862
0.361449 0.593653 0.422886
0.360292 0.591771 0.421401
0.358989 0.589652 0.419731
0.357597 0.587389 0.417949
0.356146 0.585028 0.416113
0.354840 0.582799 0.414355
0.354744 0.582117 0.413568
0.354198 0.580357 0.411848
0.353616 0.577839 0.409497
0.353310 0.574178 0.406294
0.354264 0.569942 0.402377
0.357752 0.565010 0.397021
0.366416 0.560625 0.390278
0.385655 0.556922 0.383535
0.418485 0.554107 0.381384
0.463977 0.552168 0.386720
0.513721 0.551633 0.398386
0.561665 0.552960 0.415351
0.602385 0.555690 0.433901
0.634020 0.559456 0.451667
0.657925 0.562872 0.466400
0.665800 0.562900 0.471283
0.667547 0.562003 0.472278
0.668066 0.561133 0.472515
0.668541 0.560253 0.472725
0.669479 0.560521 0.473340
0.670407 0.560786 0.473948
0.382140 0.627493 0.449384
0.381733 0.626811 0.448838
0.381316 0.626112 0.448279
0.380678 0.625055 0.447436
0.380128 0.624140 0.446705
0.379511 0.623117 0.445890
0.378777 0.621902 0.444931
0.377594 0.619953 0.443398
0.376397 0.617987 0.441851
0.375076 0.615824 0.440150
0.373634 0.613463 0.438295
0.372181 0.611083 0.436423
0.371797 0.610197 0.435491
0.371527 0.609104 0.434327
0.370961 0.607020 0.432213
0.370516 0.604197 0.429512
0.370693 0.600347 0.426018
0.372485 0.595888 0.421677
0.377467 0.591265 0.415811
0.388488 0.587129 0.408452
0.410434 0.583724 0.401859
0.445696 0.580856 0.400053
0.492173 0.578641 0.405724
0.542896 0.577706 0.417668
0.589066 0.578249 0.433989
0.627966 0.580156 0.451859
0.657313 0.582739 0.468500
0.671403 0.583099 0.476969
0.676568 0.582517 0.480044
0.677135 0.581594 0.480294
0.677656 0.580589 0.480506
0.678726 0.580807 0.481192
0.679785 0.581021 0.481870
0.383635 0.629942 0.451319
0.383702 0.630035 0.451385
0.383780 0.630146 0.451467
0.383858 0.630256 0.451547
0.383936 0.630368 0.451628
0.384011 0.630475 0.451706
0.384074 0.630565 0.451769
0.384042 0.630497 0.451708
0.383771 0.630040 0.451340
0.383425 0.629460 0.450873
0.383187 0.629055 0.450546
0.382496 0.627911 0.449634
0.382622 0.627988 0.449617
0.383424 0.628852 0.449983
0.383745 0.628568 0.449322
0.384085 0.627632 0.447980
0.384662 0.625689 0.445894
0.386188 0.622954 0.443113
0.389651 0.619403 0.439132
0.396456 0.615834 0.433361
0.409732 0.612833 0.425717
0.434159 0.609491 0.418828
0.472397 0.606478 0.417740
0.521178 0.603885 0.424043
