nova/tdt-studio/app/Lut_mau/IWLTBAP/1 - LUTs by IWLTBAP (CUBE)/02 - Generic LOG/Cinematic/X-6500-LOG.cube
# Copyright: (C) Copyright 2010-2019 by IWLTBAP SAS
# Cannot be resold, shared or otherwise redistributed
# Website: https://luts.iwltbap.com
TITLE "IWLTBAP 6500 (LOG)"
LUT_3D_SIZE 5
0.048309 0.063385 0.065094
0.187100 0.127469 0.131326
0.466333 0.315071 0.321672
0.540997 0.367720 0.374279
0.544922 0.370544 0.376984
0.083627 0.138140 0.110106
0.132285 0.124151 0.103332
0.433072 0.294618 0.296366
0.547893 0.373799 0.377956
0.550432 0.375381 0.379922
0.210294 0.349338 0.247159
0.202151 0.335257 0.237519
0.380168 0.325424 0.270679
0.590053 0.431576 0.409446
0.593472 0.430097 0.411137
0.365097 0.599642 0.427576
0.358989 0.589652 0.419731
0.354264 0.569942 0.402377
0.602385 0.555690 0.433901
0.670407 0.560786 0.473948
0.390198 0.640686 0.459808
0.390820 0.641571 0.460454
0.395544 0.646698 0.463116
0.513570 0.640780 0.441244
0.703705 0.645538 0.504608
0.075110 0.090091 0.142694
0.180647 0.119765 0.150296
0.460554 0.313725 0.323920
0.542069 0.370757 0.378855
0.545912 0.373246 0.380897
0.091376 0.153429 0.166074
0.129087 0.149089 0.152889
0.431641 0.297335 0.300942
0.549560 0.376269 0.381049
0.551492 0.377009 0.382090
0.213822 0.356767 0.259760
0.203179 0.338191 0.243933
0.375466 0.322765 0.268220
0.589670 0.431451 0.409730
0.593762 0.430351 0.411844
0.364161 0.598946 0.430050
0.358201 0.589161 0.422271
0.353520 0.569626 0.404605
0.600274 0.555346 0.433739
0.670585 0.560773 0.474549
0.391466 0.643606 0.465289
0.392089 0.644491 0.465935
0.396657 0.649494 0.468292
0.509930 0.643739 0.444244
0.704615 0.647477 0.505877
0.197594 0.222434 0.358486
0.201491 0.215283 0.350561
0.491171 0.325592 0.434585
0.568868 0.388467 0.445729
0.571362 0.391025 0.441634
0.200922 0.240590 0.364621
0.197449 0.231011 0.351065
0.452595 0.308572 0.404123
0.570035 0.395708 0.436093
0.570507 0.395303 0.430232
0.261615 0.425240 0.466460
0.250822 0.408823 0.447740
0.403908 0.442321 0.449813
0.621662 0.479925 0.476425
0.623030 0.470535 0.466249
0.381695 0.645852 0.543129
0.375387 0.634260 0.528472
0.372802 0.612997 0.492674
0.610298 0.591935 0.470997
0.685592 0.585847 0.497192
0.405391 0.678229 0.540269
0.404790 0.676199 0.533764
0.406888 0.674873 0.520169
0.507996 0.662613 0.470359
0.708614 0.655887 0.511817
0.250495 0.281975 0.447089
0.252427 0.282489 0.446865
0.464632 0.338381 0.545345
0.606921 0.400267 0.573571
0.612234 0.404359 0.573547
0.271413 0.314250 0.482676
0.272647 0.314567 0.483265
0.413667 0.340322 0.549684
0.613093 0.407177 0.583115
0.616306 0.408770 0.579714
0.348715 0.468832 0.617505
0.343754 0.457436 0.609045
0.389484 0.461243 0.622024
0.651554 0.481138 0.644907
0.661957 0.478610 0.628467
0.424717 0.693590 0.746100
0.419342 0.684129 0.736827
0.416953 0.676925 0.723150
0.670081 0.743766 0.769503
0.776217 0.745797 0.757941
0.435955 0.746782 0.752252
0.434525 0.746554 0.746945
0.435515 0.750724 0.737849
0.534202 0.773284 0.719162
0.775702 0.784556 0.701998
0.255951 0.288269 0.456207
0.257489 0.289120 0.456446
0.455366 0.339482 0.551098
0.609386 0.400841 0.584412
0.615082 0.405029 0.584412
0.276194 0.319636 0.490701
0.277189 0.319734 0.491117
0.404969 0.341922 0.554784
0.614753 0.406865 0.592765
0.618205 0.408380 0.589257
0.350153 0.466380 0.620071
0.345276 0.454932 0.611692
0.385006 0.456722 0.623674
0.644866 0.470420 0.660236
0.662796 0.466713 0.652951
0.435915 0.692588 0.767251
0.433111 0.683800 0.762355
0.435007 0.676741 0.760182
0.624801 0.722262 0.822337
0.778352 0.729851 0.832181
0.458649 0.756683 0.803162
0.459295 0.757975 0.804071
0.463328 0.765893 0.809633
0.522169 0.800155 0.834163
0.799225 0.886597 0.924805
