nova/tdt-studio/app/Lut_mau/IWLTBAP/1 - LUTs by IWLTBAP (CUBE)/02 - Generic LOG/Cinematic/X-9400-LOG.cube
# Copyright: (C) Copyright 2010-2019 by IWLTBAP SAS
# Cannot be resold, shared or otherwise redistributed
# Website: https://luts.iwltbap.com
TITLE "IWLTBAP 9400 (LOG)"
LUT_3D_SIZE 33
0.027710 0.024811 0.078156
0.034544 0.025773 0.078968
0.043085 0.026914 0.079925
0.052917 0.028201 0.080950
0.064282 0.029475 0.081923
0.078488 0.030495 0.082646
0.097428 0.031409 0.083207
0.122938 0.032724 0.083987
0.153875 0.034585 0.085410
0.185710 0.036940 0.088263
0.215345 0.039169 0.091275
0.244517 0.040933 0.093667
0.274179 0.042535 0.095547
0.304036 0.044711 0.097257
0.335220 0.048538 0.099255
0.367312 0.053776 0.101892
0.398197 0.059324 0.104731
0.426364 0.064523 0.107207
0.451605 0.069231 0.109625
0.477755 0.073792 0.112035
0.507887 0.078109 0.113317
0.537965 0.081534 0.113083
0.563534 0.084428 0.112840
0.584172 0.087603 0.113557
0.606110 0.091152 0.113850
0.631410 0.093957 0.112054
0.657316 0.098263 0.109836
0.686250 0.104540 0.107938
0.720753 0.111009 0.106102
0.753619 0.116452 0.103265
0.789475 0.118103 0.100142
0.821064 0.120052 0.097332
0.838104 0.129181 0.095551
0.031286 0.028418 0.078938
0.036879 0.028977 0.079261
0.044742 0.030047 0.080054
0.053939 0.031353 0.080984
0.064576 0.032614 0.081954
0.077369 0.033806 0.082752
0.095298 0.034897 0.083395
0.121415 0.036232 0.084207
0.153796 0.037969 0.085636
0.187186 0.039959 0.088335
0.216941 0.042100 0.091362
0.245752 0.043942 0.093802
0.274861 0.045599 0.095662
0.303254 0.047708 0.097315
0.330611 0.051085 0.099086
0.359265 0.055704 0.101469
0.390285 0.061225 0.104320
0.420978 0.067022 0.107056
0.448034 0.072289 0.109702
0.474347 0.077138 0.112199
0.503718 0.081703 0.113761
0.533431 0.085717 0.114074
0.562265 0.089868 0.114144
0.587617 0.094404 0.114984
0.610347 0.098667 0.115284
0.635372 0.102966 0.113232
0.660731 0.108667 0.110991
0.685552 0.116795 0.109274
0.711819 0.126057 0.107811
0.742885 0.134281 0.105115
0.779069 0.136037 0.101935
0.816079 0.136398 0.098826
0.844796 0.142021 0.096426
0.034949 0.032231 0.079897
0.040062 0.032689 0.080197
0.047443 0.033623 0.080439
0.056303 0.034816 0.081225
0.066676 0.036040 0.082055
0.078951 0.037274 0.082804
0.094737 0.038602 0.083576
0.119580 0.040064 0.084463
0.152453 0.041795 0.085960
0.187161 0.043706 0.088645
0.218077 0.045676 0.091686
0.246806 0.047453 0.094108
0.275243 0.049094 0.095932
0.302604 0.051103 0.097511
0.327860 0.054300 0.099162
0.353053 0.058429 0.101151
0.381227 0.063377 0.103729
0.412423 0.069284 0.106654
0.442797 0.075341 0.109642
0.471860 0.081078 0.112505
0.502076 0.086405 0.114444
0.531869 0.090926 0.115099
0.561401 0.095606 0.115409
0.590103 0.101544 0.116278
0.616218 0.108114 0.116606
0.641704 0.114691 0.114376
0.667193 0.123424 0.111959
0.691633 0.133553 0.110175
0.713372 0.144656 0.108696
0.736580 0.155502 0.106751
0.768804 0.160493 0.103843
0.807436 0.161695 0.100530
0.843952 0.166551 0.097625
0.038150 0.036196 0.080922
0.043472 0.036650 0.081245
0.050295 0.037571 0.081624
0.059167 0.038705 0.081712
0.069605 0.039829 0.082291
0.082046 0.040989 0.082974
0.097545 0.042391 0.083709
0.119528 0.044156 0.084707
0.151323 0.046045 0.086357
0.186798 0.048024 0.089152
0.217891 0.049873 0.092135
0.246601 0.051557 0.094551
0.274460 0.053213 0.096375
0.300916 0.055108 0.097894
0.325142 0.058100 0.099465
0.348454 0.062050 0.101254
0.373275 0.066645 0.103498
0.402001 0.072275 0.106310
0.434024 0.078815 0.109512
0.467020 0.085628 0.112830
0.499956 0.091958 0.115425
0.531455 0.097333 0.116530
0.562161 0.102722 0.116886
0.592308 0.109735 0.117626
0.621374 0.118986 0.117901
0.650195 0.128947 0.115322
0.676234 0.140206 0.112685
0.700399 0.153682 0.110792
0.719946 0.166277 0.109147
0.739939 0.178104 0.107285
0.763698 0.187330 0.105148
0.799714 0.190453 0.101995
0.840647 0.195986 0.098743
0.040113 0.040437 0.082047
0.046144 0.040865 0.082309
0.053260 0.041767 0.082833
0.061810 0.042897 0.083032
0.072490 0.044035 0.082800
0.085510 0.045113 0.083281
0.101746 0.046510 0.083992
0.123331 0.048409 0.085046
0.151678 0.050683 0.086758
0.187063 0.052916 0.089800
0.218374 0.054761 0.092852
0.245880 0.056332 0.095165
0.272633 0.057962 0.096943
0.297986 0.059948 0.098479
0.321674 0.062827 0.100036
0.344453 0.066678 0.101756
0.367505 0.071361 0.103912
0.392696 0.076949 0.106682
0.423052 0.083674 0.109807
0.458359 0.091256 0.113281
0.494266 0.098583 0.116591
0.528761 0.105016 0.118405
0.562048 0.111286 0.118887
0.594314 0.119521 0.119240
0.625241 0.131284 0.119411
0.657587 0.144788 0.116463
0.687161 0.159770 0.113142
0.709753 0.175248 0.110970
0.728641 0.189871 0.109261
0.748123 0.201879 0.107319
0.768987 0.212158 0.105287
0.796290 0.220908 0.102960
0.839585 0.224893 0.099554
0.037412 0.045596 0.083135
0.044434 0.045727 0.083200
0.053217 0.046541 0.083726
0.063355 0.047691 0.084191
0.075042 0.048916 0.084221
0.088578 0.050180 0.084095
0.106055 0.051596 0.084694
0.128272 0.053618 0.085913
0.155138 0.056214 0.087781
0.186224 0.059062 0.090771
0.220653 0.061253 0.094206
0.249847 0.062808 0.096628
0.274657 0.064300 0.098227
0.298054 0.066179 0.099650
0.320951 0.068988 0.101149
0.343475 0.073316 0.103014
0.366107 0.079038 0.105520
0.389965 0.085691 0.108622
0.416956 0.092951 0.111869
0.448228 0.100229 0.115162
0.482950 0.107572 0.118500
0.519355 0.115423 0.120841
0.555235 0.123414 0.121395
0.590317 0.132736 0.121215
0.624877 0.145134 0.121288
0.660883 0.161176 0.118381
0.695497 0.179719 0.114283
0.720851 0.198516 0.111011
0.739948 0.213728 0.109068
0.759434 0.226455 0.107386
0.783370 0.233901 0.105144
0.810775 0.241369 0.103059
0.848043 0.249727 0.101029
0.032068 0.052804 0.084621
0.038695 0.053072 0.084613
0.048224 0.053660 0.084858
0.060931 0.054492 0.085263
0.075516 0.055563 0.085504
0.091779 0.056791 0.085523
0.110079 0.058423 0.086152
0.133105 0.060543 0.087497
0.160020 0.063372 0.089584
0.189126 0.066880 0.092693
0.220356 0.070546 0.096373
0.252898 0.072659 0.099119
0.280627 0.073990 0.100763
0.303890 0.075659 0.102060
0.326005 0.078311 0.103456
0.348420 0.082939 0.105395
0.371268 0.089349 0.108153
0.394924 0.096665 0.111524
0.420660 0.104312 0.114871
0.448921 0.111951 0.117889
0.479825 0.119811 0.120710
0.513503 0.128380 0.123025
0.547913 0.138113 0.124190
0.582067 0.149607 0.123878
0.617575 0.163662 0.123267
0.655048 0.179276 0.121498
0.692138 0.197645 0.116622
0.722402 0.216979 0.112068
0.746997 0.232715 0.109676
0.773298 0.247762 0.107656
0.804483 0.256194 0.105153
0.834316 0.262664 0.103223
0.865110 0.273520 0.102385
0.028558 0.063775 0.087678
0.033343 0.064909 0.087658
0.039770 0.067131 0.087975
0.051664 0.068700 0.088568
0.068829 0.069220 0.088718
0.089960 0.068755 0.088463
0.113554 0.068650 0.088738
0.137883 0.070530 0.090163
0.165327 0.073513 0.092454
0.194359 0.077488 0.095765
0.223811 0.082327 0.099692
0.255189 0.086699 0.103059
0.286501 0.088919 0.105097
0.312771 0.090299 0.106337
0.334982 0.092511 0.107548
0.356675 0.096465 0.109327
0.379401 0.102459 0.111849
0.403387 0.109804 0.114896
0.428971 0.117597 0.117906
0.455828 0.125794 0.120663
0.484039 0.134833 0.123277
0.515153 0.144686 0.125153
0.547745 0.155544 0.125958
0.580884 0.168461 0.125684
0.616064 0.183664 0.124576
0.652391 0.199429 0.123051
0.690271 0.215979 0.118728
0.722315 0.234218 0.113322
0.751079 0.250426 0.110876
0.782401 0.265615 0.108583
0.817623 0.276160 0.106068
0.852439 0.283610 0.104155
0.878948 0.295295 0.104143
0.027875 0.079501 0.092769
0.030972 0.082045 0.092886
0.034028 0.086175 0.093347
0.041383 0.090151 0.094136
0.055745 0.092448 0.094918
0.079160 0.090512 0.094155
0.110354 0.086138 0.093517
0.141716 0.085097 0.094364
0.170892 0.087515 0.096701
0.200419 0.091650 0.100146
0.230175 0.097094 0.104198
0.260814 0.103232 0.107863
0.292078 0.108477 0.110591
0.321081 0.111159 0.112123
0.345329 0.112857 0.113136
0.366735 0.115643 0.114583
0.388721 0.120014 0.116564
0.412581 0.126106 0.118859
0.438241 0.133578 0.121045
0.464487 0.142205 0.123203
0.491350 0.152289 0.125588
0.521014 0.163569 0.127208
0.553019 0.175878 0.127372
0.586796 0.189462 0.126222
0.622106 0.204452 0.124967
0.657028 0.220175 0.123449
0.693433 0.236155 0.119470
0.725717 0.252531 0.114107
0.755860 0.269374 0.112174
0.789440 0.283301 0.109865
0.825761 0.294092 0.107529
0.860740 0.302791 0.105849
0.886120 0.314760 0.106308
0.027691 0.100922 0.099886
0.030406 0.105593 0.100273
0.032202 0.111478 0.100709
0.036679 0.117339 0.101379
0.046520 0.122103 0.102224
0.061720 0.124655 0.102240
0.095498 0.116905 0.101028
0.137332 0.109117 0.100984
0.175486 0.107760 0.102806
0.207101 0.110945 0.106093
0.238031 0.116223 0.109900
0.269106 0.123064 0.113215
0.299573 0.130743 0.115861
0.328486 0.137478 0.117775
0.354396 0.140728 0.118847
0.376878 0.142444 0.119891
0.398561 0.144928 0.121233
0.422009 0.148660 0.122626
0.446963 0.154605 0.124130
0.472543 0.163170 0.125828
0.499348 0.173786 0.127515
0.528653 0.185660 0.128452
0.560418 0.198675 0.127862
0.593764 0.212610 0.126194
0.627518 0.226947 0.125162
0.661540 0.242187 0.123763
0.696996 0.258095 0.120200
0.729307 0.274245 0.115478
0.761347 0.290192 0.113679
0.796634 0.301662 0.111339
0.832983 0.311867 0.109253
0.866486 0.321546 0.107905
0.890570 0.334416 0.108416
0.024762 0.126954 0.107098
0.027515 0.133605 0.106553
0.030156 0.142810 0.106126
0.034477 0.150691 0.106196
0.042631 0.157193 0.106554
0.053205 0.163681 0.106568
0.073049 0.163251 0.106031
0.117713 0.150394 0.106014
0.170540 0.139577 0.107864
0.213239 0.138075 0.111599
0.247304 0.142324 0.115030
0.278282 0.148815 0.117660
0.307671 0.156638 0.119659
0.335247 0.165011 0.121219
0.361501 0.171180 0.122309
0.385785 0.174872 0.123325
0.408660 0.177076 0.124365
0.432159 0.178802 0.125246
0.456598 0.182232 0.126341
0.482078 0.189213 0.127677
0.509241 0.199413 0.128781
0.537929 0.210959 0.129181
0.568348 0.223254 0.128056
0.599841 0.236544 0.126280
0.632019 0.251030 0.125863
0.665855 0.266423 0.124743
0.700753 0.281946 0.121507
0.732722 0.297353 0.117300
0.765616 0.311259 0.115663
0.803272 0.320681 0.113118
0.839916 0.330773 0.111048
0.872356 0.343174 0.109749
0.894904 0.360455 0.109936
0.022262 0.155988 0.112922
0.024837 0.164831 0.111284
0.027907 0.176271 0.109916
0.033274 0.187307 0.108882
0.042098 0.195657 0.108482
0.053759 0.204289 0.108036
0.067033 0.207466 0.107948
0.095866 0.200511 0.108148
0.152302 0.184469 0.110109
0.214100 0.176102 0.114463
0.258334 0.177039 0.117794
0.289993 0.181450 0.119986
0.317595 0.187046 0.121648
0.343357 0.193692 0.122918
0.368666 0.200512 0.124038
0.394549 0.206839 0.125093
0.419441 0.211158 0.126046
0.443210 0.213132 0.126830
0.467306 0.215549 0.127784
0.492779 0.220791 0.128939
0.519853 0.228968 0.129669
0.547551 0.239093 0.129771
0.576715 0.249886 0.128749
0.607046 0.261502 0.127164
0.638917 0.275102 0.126971
0.672675 0.290149 0.125801
0.705373 0.305462 0.123146
0.736644 0.320430 0.119400
0.769749 0.334137 0.117843
0.809847 0.342894 0.114912
0.847253 0.356723 0.112224
0.878804 0.372810 0.110992
0.899925 0.391759 0.111265
0.021367 0.186907 0.117522
0.024380 0.197425 0.115167
0.028537 0.210756 0.112674
0.034708 0.223439 0.110886
0.044511 0.233762 0.109583
0.057812 0.242909 0.108788
0.072474 0.245414 0.108777
0.093393 0.243148 0.109200
0.134537 0.233508 0.110715
0.204251 0.223017 0.115352
0.264248 0.218895 0.118516
0.304208 0.219262 0.119544
0.332932 0.221335 0.120473
0.357355 0.224245 0.121887
0.381357 0.228943 0.123519
0.407319 0.235779 0.124849
0.433843 0.242669 0.125972
0.458199 0.246949 0.127197
0.481086 0.250162 0.128656
0.505250 0.255076 0.130115
0.531371 0.261506 0.130724
0.558359 0.269364 0.130444
0.586539 0.278016 0.129704
0.616510 0.287853 0.128768
0.648526 0.299793 0.128490
0.681941 0.313037 0.126814
0.711868 0.328272 0.124355
0.742364 0.345872 0.121088
0.775855 0.362381 0.119240
0.817168 0.371767 0.116120
0.855939 0.387261 0.113477
0.886246 0.405577 0.112009
0.905446 0.423018 0.112990
0.021657 0.218928 0.121691
0.025843 0.229526 0.118897
0.031656 0.243679 0.115422
0.039797 0.257806 0.112643
0.050748 0.268524 0.110988
0.063673 0.275934 0.109980
0.079517 0.276623 0.109960
0.101379 0.275109 0.110559
0.134209 0.272800 0.111802
0.193853 0.268315 0.115866
0.260612 0.263077 0.119671
0.309421 0.260184 0.121189
0.343315 0.259193 0.120604
0.371783 0.258725 0.120075
0.398238 0.259707 0.121079
0.424414 0.263949 0.122792
0.451051 0.271348 0.124632
0.476571 0.278833 0.126799
0.500039 0.284102 0.128988
0.522820 0.288503 0.130766
0.546669 0.293887 0.131578
0.572426 0.300588 0.131236
0.599910 0.308596 0.130757
0.629293 0.317569 0.130662
0.660220 0.327337 0.130277
0.691680 0.338508 0.127769
0.719858 0.354506 0.124956
0.750722 0.374319 0.122014
0.785837 0.392726 0.119195
0.827420 0.403623 0.116152
0.865757 0.419172 0.114231
0.895407 0.436972 0.113570
0.910862 0.452044 0.115186
0.025890 0.250879 0.126562
0.029950 0.258324 0.123638
0.035088 0.269585 0.120127
0.043720 0.283767 0.116520
0.055726 0.296398 0.113979
0.069607 0.305005 0.112185
0.086520 0.303852 0.111736
0.108271 0.300962 0.112156
0.138872 0.299971 0.113352
0.187209 0.300096 0.116656
0.254894 0.298599 0.121253
0.309829 0.296494 0.124086
0.346673 0.295137 0.124178
0.377297 0.294335 0.122842
0.407571 0.294019 0.122102
0.438295 0.294744 0.122324
0.467742 0.299206 0.123777
0.495025 0.307444 0.126377
0.520472 0.315159 0.128905
0.543659 0.320622 0.130663
0.566108 0.325713 0.131460
0.590557 0.331842 0.131398
0.617069 0.339510 0.131442
0.644997 0.348661 0.132210
0.673411 0.358753 0.131889
0.701826 0.370349 0.128262
0.729527 0.386690 0.124614
0.761415 0.404998 0.121662
0.799642 0.421346 0.118771
0.842401 0.433889 0.116318
0.877072 0.449429 0.114947
0.903259 0.465443 0.114984
0.915439 0.477550 0.116439
0.031081 0.281083 0.133558
0.034301 0.283884 0.130296
0.038583 0.291448 0.126634
0.045359 0.302669 0.122969
0.056940 0.316501 0.119649
0.073160 0.328978 0.116599
0.090540 0.332779 0.114873
0.114016 0.328437 0.114462
0.143684 0.324234 0.115196
0.186836 0.322217 0.117834
0.252655 0.322356 0.122475
0.312849 0.323775 0.126022
0.352722 0.324997 0.127629
0.381410 0.326476 0.127837
0.409972 0.328172 0.127533
0.442733 0.329086 0.126762
0.476916 0.330347 0.126352
0.508129 0.334939 0.127548
0.535796 0.342562 0.129621
0.561374 0.350060 0.130943
0.585984 0.356537 0.131300
0.610883 0.363011 0.131426
0.636899 0.370613 0.131651
0.663037 0.380298 0.132119
0.687756 0.392184 0.131060
0.713326 0.405523 0.127393
0.741628 0.420287 0.123939
0.775622 0.435374 0.121231
0.818204 0.448184 0.118726
0.859843 0.463175 0.116711
0.888520 0.475807 0.115899
0.908689 0.489113 0.116136
0.919179 0.498212 0.117291
0.035735 0.311762 0.143167
0.038667 0.312013 0.139672
0.042649 0.316082 0.135268
0.047861 0.323758 0.130876
0.057054 0.334537 0.127433
0.073655 0.346575 0.124288
0.092736 0.357777 0.120615
0.118763 0.359387 0.118482
0.152719 0.352968 0.118171
0.196341 0.345691 0.120115
0.257350 0.342758 0.124149
0.317307 0.344723 0.127618
0.362242 0.348831 0.129800
0.391947 0.353673 0.131304
0.416909 0.358350 0.132500
0.445275 0.362025 0.132908
0.478227 0.363953 0.132407
0.512518 0.365387 0.131934
0.544053 0.369476 0.132234
0.572920 0.376946 0.132456
0.600858 0.385918 0.132098
0.627955 0.395086 0.132105
0.654306 0.404304 0.132140
0.678544 0.414455 0.131529
0.700854 0.426204 0.129358
0.726142 0.439700 0.126390
0.757531 0.453202 0.123070
0.793969 0.465483 0.121075
0.839046 0.475082 0.118764
0.875441 0.489177 0.117196
0.899103 0.499735 0.116800
0.913084 0.508788 0.117451
0.922616 0.515533 0.118692
0.042023 0.345836 0.155232
0.044939 0.345933 0.152039
0.048360 0.347340 0.147282
0.052624 0.351572 0.141479
0.059141 0.358007 0.136638
0.073925 0.364220 0.134415
0.094842 0.376327 0.128969
0.123685 0.386297 0.124309
0.162318 0.385687 0.122386
0.211975 0.375877 0.123694
0.271354 0.367859 0.127094
0.326372 0.366172 0.129845
0.371769 0.369694 0.131897
0.405430 0.376755 0.133886
0.430936 0.384437 0.135491
0.454581 0.390615 0.136694
0.481180 0.395136 0.137467
0.512596 0.397762 0.137464
0.546216 0.399909 0.136813
0.579082 0.405078 0.135237
0.610266 0.414657 0.133296
0.639305 0.426743 0.132726
0.665853 0.438816 0.132587
0.689331 0.449948 0.131292
0.712892 0.460167 0.128354
0.741029 0.472051 0.125846
0.776073 0.484246 0.122742
0.816293 0.495564 0.120483
0.858435 0.502744 0.118643
0.887434 0.511703 0.117925
0.906665 0.520289 0.117945
0.916976 0.526359 0.118951
0.926048 0.531979 0.120359
0.048576 0.381343 0.169181
0.051527 0.381811 0.166325
0.055067 0.382935 0.161881
0.059077 0.384875 0.155497
0.064833 0.388504 0.148422
0.079629 0.391235 0.144799
0.099275 0.400190 0.137399
0.129558 0.411535 0.130354
0.170569 0.418427 0.126577
0.224769 0.412557 0.126809
0.287776 0.400315 0.130140
0.342248 0.393480 0.132756
0.385324 0.393583 0.134324
0.420506 0.399720 0.136194
0.447283 0.408899 0.137464
0.468786 0.417328 0.138174
0.490720 0.423992 0.139006
0.516618 0.429482 0.139817
0.547760 0.433812 0.139799
0.582452 0.438048 0.137694
0.616645 0.445469 0.134688
0.647180 0.457067 0.133343
0.673541 0.469897 0.132917
0.697915 0.481540 0.131282
0.725846 0.491905 0.127333
0.759489 0.502928 0.124711
0.796720 0.512220 0.122556
0.838130 0.520950 0.120177
0.874252 0.527244 0.119014
0.896090 0.532460 0.118932
0.911100 0.537628 0.119579
0.920690 0.542689 0.121045
0.929529 0.548008 0.123204
0.057326 0.415701 0.184381
0.060393 0.416152 0.181306
0.064328 0.417811 0.176739
0.069304 0.420459 0.169710
0.076267 0.424002 0.160411
0.093541 0.429398 0.150749
0.111691 0.436241 0.141407
0.136828 0.444735 0.133835
0.175169 0.452139 0.129501
0.227465 0.451969 0.128748
0.295091 0.440145 0.131278
0.356427 0.428718 0.134193
0.402224 0.424383 0.135883
0.436783 0.427002 0.137239
0.462815 0.434434 0.137960
0.483815 0.443738 0.138268
0.504312 0.452647 0.138677
0.527350 0.460366 0.139084
0.554821 0.467060 0.139358
0.587347 0.472445 0.138345
0.622511 0.477830 0.135990
0.654528 0.486346 0.134272
0.680931 0.497345 0.133102
0.707415 0.508869 0.130907
0.740552 0.520417 0.126635
0.779287 0.529794 0.123819
0.817808 0.536642 0.122023
0.855226 0.540975 0.120864
0.886352 0.546579 0.121150
0.902782 0.550465 0.121903
0.915299 0.554334 0.123267
0.924473 0.558405 0.125529
0.933059 0.563266 0.128860
0.072176 0.447183 0.201332
0.075396 0.447855 0.197125
0.079967 0.450363 0.190729
0.085751 0.454014 0.182904
0.093735 0.459481 0.172282
0.110590 0.468657 0.159042
0.128804 0.476752 0.144386
0.149416 0.484072 0.135383
0.178985 0.490130 0.131279
0.224087 0.491753 0.130434
0.290601 0.483774 0.131040
0.358342 0.471142 0.133379
0.411536 0.461637 0.135526
0.449262 0.459169 0.136792
0.476375 0.462584 0.137538
0.498422 0.469994 0.138016
0.519486 0.479673 0.138312
0.541830 0.489306 0.138428
0.566872 0.497315 0.138515
0.596492 0.503564 0.137826
0.630218 0.509215 0.136082
0.662448 0.515933 0.134394
0.690845 0.524613 0.132271
0.721567 0.535148 0.129310
0.758562 0.545354 0.126130
0.797761 0.551214 0.124114
0.835664 0.556173 0.122805
0.869278 0.559571 0.122518
0.896068 0.563751 0.125315
0.909044 0.566575 0.127830
0.919457 0.569734 0.130037
0.928225 0.573322 0.132975
0.936548 0.577707 0.136878
0.090292 0.473548 0.220476
0.093648 0.475162 0.214958
0.099059 0.479003 0.205618
0.105264 0.483097 0.197381
0.112996 0.488677 0.188952
0.125770 0.499162 0.182167
0.142421 0.511114 0.161346
0.164208 0.522199 0.142360
0.189896 0.529755 0.133791
0.225467 0.531964 0.131848
0.281675 0.526281 0.131451
0.347939 0.515284 0.132600
0.406795 0.503571 0.134605
0.452547 0.496046 0.136184
0.486349 0.494542 0.137246
0.512423 0.498057 0.138025
0.535315 0.505674 0.138417
0.558017 0.515699 0.138263
0.582239 0.525295 0.137712
0.609496 0.533287 0.136675
0.639721 0.540869 0.135249
0.670498 0.548048 0.133799
0.702759 0.553657 0.131394
0.739366 0.559617 0.128251
0.779174 0.565954 0.126180
0.816791 0.570512 0.125034
0.852191 0.573825 0.124520
0.881525 0.576937 0.125345
0.902971 0.579818 0.130495
0.914397 0.581721 0.134805
0.923521 0.584285 0.137897
0.931938 0.587399 0.141170
0.939955 0.591365 0.145348
0.108328 0.496101 0.240414
0.112016 0.498541 0.234731
0.117466 0.503559 0.223508
0.124094 0.509288 0.213244
0.131347 0.514270 0.207335
0.140615 0.522827 0.209554
0.153326 0.536461 0.196145
0.172774 0.552952 0.166865
0.200038 0.566425 0.144371
0.231672 0.570715 0.136336
0.275218 0.567248 0.134177
0.334075 0.557966 0.133093
0.392140 0.547247 0.133631
0.443841 0.537620 0.135127
0.488481 0.531816 0.136619
0.524089 0.531500 0.137639
0.551924 0.535607 0.138038
0.575837 0.543050 0.137773
0.599660 0.552109 0.136732
0.625272 0.561065 0.135438
0.652316 0.570078 0.134624
0.681254 0.578101 0.133868
0.716081 0.582425 0.131879
0.757845 0.583180 0.128967
0.799834 0.584897 0.127562
0.835965 0.588020 0.126995
0.867863 0.591347 0.127524
0.893432 0.594059 0.130288
0.908725 0.595789 0.136223
0.918826 0.597229 0.141386
0.927501 0.599384 0.145951
0.935727 0.601974 0.149542
0.943503 0.604963 0.153475
0.124116 0.519027 0.257423
0.127885 0.522028 0.252369
0.132660 0.527167 0.242807
0.138406 0.533324 0.232467
0.144914 0.539107 0.227749
0.152988 0.543643 0.236186
0.163095 0.554351 0.234886
0.178454 0.573150 0.213408
0.203023 0.594447 0.177150
0.237681 0.606570 0.152536
0.276486 0.605413 0.142515
0.327325 0.597465 0.136767
0.382584 0.587977 0.134668
0.433235 0.579362 0.135019
0.483015 0.572416 0.135951
0.529228 0.569341 0.136810
0.566181 0.570308 0.137030
0.594682 0.573858 0.136634
0.618990 0.579560 0.135758
0.642660 0.587190 0.135152
0.667604 0.595533 0.135292
0.696890 0.602469 0.135139
0.733203 0.606212 0.133921
0.775954 0.605471 0.131686
0.817557 0.605003 0.130999
0.852531 0.606230 0.131718
0.881302 0.608630 0.133814
0.903180 0.610797 0.138367
0.914059 0.611813 0.143351
0.923128 0.613327 0.148693
0.931364 0.615926 0.154310
0.939390 0.619096 0.158648
0.947297 0.621513 0.162074
0.136351 0.547906 0.269253
0.139530 0.551469 0.264273
0.142941 0.556134 0.258806
0.147363 0.560918 0.253327
0.152590 0.565073 0.251581
0.160342 0.566259 0.262977
0.169863 0.569423 0.270725
0.183195 0.584703 0.261533
0.205545 0.611688 0.230122
0.243448 0.641128 0.184754
0.286761 0.643763 0.159134
0.338914 0.632802 0.146346
0.391236 0.622799 0.140736
0.436725 0.615433 0.138958
0.481582 0.609561 0.138028
0.529802 0.605689 0.137867
0.575010 0.603871 0.137720
0.611422 0.603812 0.137096
0.639020 0.606509 0.136832
0.661443 0.612142 0.137444
0.685677 0.618035 0.137838
0.716089 0.622129 0.137041
0.752340 0.625635 0.135913
0.792351 0.627879 0.135186
0.830896 0.628013 0.136761
0.865371 0.626620 0.140446
0.891118 0.626476 0.144006
0.908721 0.627332 0.148292
0.918512 0.628525 0.152979
0.926843 0.631000 0.159004
0.934704 0.634458 0.164244
0.942638 0.638784 0.169058
0.951150 0.643207 0.172696
0.142732 0.581664 0.281251
0.145606 0.586036 0.275957
0.148714 0.591200 0.271459
0.152816 0.594659 0.271784
0.157984 0.596395 0.275570
0.165783 0.594983 0.286664
0.174756 0.593014 0.298248
0.187941 0.601093 0.296108
0.209325 0.628807 0.271631
0.247610 0.671819 0.222337
0.294740 0.685431 0.184972
0.352472 0.671660 0.162074
0.405892 0.656243 0.150799
0.449421 0.647530 0.146462
0.492346 0.642032 0.144578
0.539104 0.637846 0.143660
0.585834 0.634200 0.142699
0.626157 0.631403 0.141464
0.656038 0.631969 0.141032
0.679357 0.635940 0.141227
0.703935 0.640635 0.140601
0.733049 0.644588 0.139444
0.767277 0.647584 0.139323
0.803893 0.650382 0.142158
0.839363 0.650678 0.146607
0.872935 0.648564 0.152212
0.897737 0.646513 0.156752
0.912783 0.646450 0.160616
0.921768 0.648417 0.165643
0.929312 0.652560 0.172432
0.937430 0.655643 0.176569
0.945759 0.659191 0.180546
0.955124 0.662780 0.183285
0.146202 0.616359 0.294174
0.149184 0.619338 0.291298
0.153304 0.621396 0.292579
0.157661 0.624377 0.294499
0.163317 0.624363 0.303867
0.170809 0.623248 0.314153
0.179855 0.622134 0.321378
0.193951 0.626835 0.319357
0.216229 0.649361 0.298118
0.254037 0.695075 0.250582
0.300249 0.715995 0.210566
0.361854 0.707670 0.182257
0.419390 0.689058 0.165142
0.464351 0.676882 0.156799
0.507799 0.671341 0.153131
0.554058 0.667452 0.151321
0.599496 0.663815 0.149667
0.638827 0.660041 0.147755
0.669147 0.658612 0.146677
0.695245 0.659890 0.145904
0.722087 0.662014 0.144390
0.749629 0.666051 0.143584
0.780139 0.670032 0.145541
0.812861 0.673048 0.153231
