nova/tdt-studio/app/Lut_mau/IWLTBAP/1 - LUTs by IWLTBAP (CUBE)/02 - Generic LOG/Cinematic/X-9400-LOG.cube
# Copyright: (C) Copyright 2010-2019 by IWLTBAP SAS
# Cannot be resold, shared or otherwise redistributed
# Website: https://luts.iwltbap.com
TITLE "IWLTBAP 9400 (LOG)"
LUT_3D_SIZE 9
0.027710 0.024811 0.078156
0.064282 0.029475 0.081923
0.153875 0.034585 0.085410
0.274179 0.042535 0.095547
0.398197 0.059324 0.104731
0.507887 0.078109 0.113317
0.606110 0.091152 0.113850
0.720753 0.111009 0.106102
0.838104 0.129181 0.095551
0.040113 0.040437 0.082047
0.072490 0.044035 0.082800
0.151678 0.050683 0.086758
0.272633 0.057962 0.096943
0.367505 0.071361 0.103912
0.494266 0.098583 0.116591
0.625241 0.131284 0.119411
0.728641 0.189871 0.109261
0.839585 0.224893 0.099554
0.027875 0.079501 0.092769
0.055745 0.092448 0.094918
0.170892 0.087515 0.096701
0.292078 0.108477 0.110591
0.388721 0.120014 0.116564
0.491350 0.152289 0.125588
0.622106 0.204452 0.124967
0.755860 0.269374 0.112174
0.886120 0.314760 0.106308
0.021367 0.186907 0.117522
0.044511 0.233762 0.109583
0.134537 0.233508 0.110715
0.332932 0.221335 0.120473
0.433843 0.242669 0.125972
0.531371 0.261506 0.130724
0.648526 0.299793 0.128490
0.775855 0.362381 0.119240
0.905446 0.423018 0.112990
0.035735 0.311762 0.143167
0.057054 0.334537 0.127433
0.152719 0.352968 0.118171
0.362242 0.348831 0.129800
0.478227 0.363953 0.132407
0.600858 0.385918 0.132098
0.700854 0.426204 0.129358
0.839046 0.475082 0.118764
0.922616 0.515533 0.118692
0.072176 0.447183 0.201332
0.093735 0.459481 0.172282
0.178985 0.490130 0.131279
0.411536 0.461637 0.135526
0.519486 0.479673 0.138312
0.630218 0.509215 0.136082
0.758562 0.545354 0.126130
0.896068 0.563751 0.125315
0.936548 0.577707 0.136878
0.136351 0.547906 0.269253
0.152590 0.565073 0.251581
0.205545 0.611688 0.230122
0.391236 0.622799 0.140736
0.575010 0.603871 0.137720
0.685677 0.618035 0.137838
0.830896 0.628013 0.136761
0.918512 0.628525 0.152979
0.951150 0.643207 0.172696
0.155627 0.670870 0.338670
0.178259 0.669315 0.369760
0.232567 0.690527 0.356945
0.450423 0.742392 0.208256
0.625396 0.711027 0.169790
0.748663 0.710923 0.159003
0.857085 0.720414 0.182028
0.927555 0.719854 0.208386
0.967654 0.714721 0.212708
0.192688 0.744690 0.486847
0.220148 0.743342 0.490552
0.282871 0.761042 0.508484
0.466370 0.780266 0.433771
0.659566 0.794603 0.309886
0.797314 0.796424 0.247776
0.895535 0.800026 0.228552
0.940400 0.808221 0.233486
0.980438 0.800781 0.251007
0.039597 0.029097 0.094971
0.069217 0.031596 0.098177
0.151023 0.037355 0.102031
0.282193 0.044285 0.109913
0.410973 0.061596 0.117675
0.555696 0.080129 0.122351
0.660998 0.093106 0.117650
0.742209 0.101891 0.113678
0.844720 0.136271 0.109653
0.029363 0.044100 0.097480
0.065797 0.047516 0.101131
0.153946 0.054148 0.103445
0.286829 0.059304 0.111671
0.392288 0.072149 0.118043
0.539184 0.092649 0.123786
0.661419 0.117573 0.120757
0.748792 0.152113 0.115675
0.846503 0.212589 0.112309
0.028052 0.085432 0.111665
0.042559 0.101358 0.113350
0.172408 0.099210 0.114660
0.311983 0.107024 0.123914
0.422339 0.106398 0.126669
0.541960 0.130258 0.132544
0.683833 0.183899 0.125341
0.805307 0.267029 0.117261
0.888909 0.302997 0.121506
0.021540 0.186485 0.142438
0.035307 0.231938 0.135429
0.100616 0.256047 0.129697
0.349535 0.234681 0.132486
0.469948 0.258046 0.138789
0.601413 0.256760 0.138063
0.734801 0.305044 0.128104
0.861634 0.363999 0.124681
0.911785 0.415659 0.138531
0.037725 0.323699 0.179540
0.055910 0.345869 0.168835
0.135188 0.383465 0.149166
0.320326 0.411761 0.144144
0.510004 0.408046 0.149642
0.663896 0.442693 0.142931
0.786891 0.466767 0.132810
0.887838 0.492189 0.130174
0.921147 0.510209 0.142314
0.073257 0.451244 0.237152
0.089413 0.457622 0.221887
0.124970 0.467625 0.243887
0.308731 0.528468 0.146070
0.553573 0.545754 0.147956
0.699978 0.565965 0.142898
0.820692 0.566987 0.136364
0.901084 0.570075 0.141677
0.931371 0.582360 0.158941
0.138393 0.550362 0.301719
0.152161 0.560502 0.293431
0.177388 0.568793 0.350110
0.319240 0.663208 0.200996
0.603808 0.639723 0.155817
0.731174 0.644909 0.151217
0.846347 0.636684 0.154651
0.913880 0.636427 0.175951
0.944635 0.665579 0.206530
0.158610 0.671100 0.378068
0.181584 0.671350 0.411283
0.219663 0.680471 0.455091
0.371337 0.728629 0.410526
0.584325 0.746907 0.236180
0.750957 0.714828 0.179165
0.850929 0.721083 0.202553
0.919953 0.727992 0.246234
0.959023 0.742454 0.269753
0.196045 0.747114 0.514061
0.227009 0.749430 0.533755
0.287153 0.771179 0.565322
0.429650 0.796113 0.521171
0.631955 0.800919 0.429634
0.761049 0.805460 0.355835
0.888186 0.804237 0.268802
0.934289 0.808711 0.271360
0.963853 0.819988 0.351478
0.029216 0.035470 0.150062
0.069511 0.038277 0.154866
0.123009 0.041244 0.153526
0.243398 0.044373 0.132031
0.365887 0.056182 0.133980
0.575668 0.085403 0.138428
0.690952 0.095231 0.129109
0.753953 0.105155 0.126697
0.846133 0.146889 0.132525
0.028436 0.060872 0.134103
0.057331 0.061486 0.157738
0.141596 0.063521 0.165924
0.282658 0.067186 0.153195
0.393067 0.079729 0.148511
0.547145 0.099438 0.146276
0.708458 0.124636 0.131815
0.778965 0.162125 0.129175
0.854081 0.215061 0.135589
0.014268 0.114460 0.169283
0.021913 0.131576 0.180395
0.110333 0.133978 0.193328
0.319466 0.127015 0.165667
0.433512 0.118677 0.165483
0.542327 0.138561 0.172356
0.699712 0.188955 0.142941
0.826462 0.267996 0.138733
0.884532 0.302152 0.161914
0.019657 0.211388 0.214477
0.032961 0.239101 0.212922
0.078989 0.267832 0.199708
0.349373 0.267181 0.174185
0.476355 0.283144 0.184043
0.604585 0.272683 0.192253
0.754525 0.321986 0.167898
0.872492 0.364581 0.174582
0.905234 0.413137 0.237568
0.034418 0.342192 0.269501
0.050858 0.367702 0.256495
0.101947 0.396293 0.275770
0.264471 0.412092 0.229887
0.527191 0.438112 0.178141
0.677137 0.487720 0.177806
0.818876 0.489357 0.169032
0.884992 0.503262 0.209495
0.911752 0.501594 0.274465
0.085179 0.472277 0.307789
0.110156 0.481903 0.290670
0.130562 0.499413 0.350563
0.285656 0.549757 0.287618
0.524328 0.609666 0.193499
0.732889 0.605695 0.164727
0.846085 0.610286 0.177500
0.898001 0.610879 0.223096
0.921893 0.592309 0.296487
0.144770 0.570800 0.347579
0.156695 0.579491 0.341854
0.180770 0.588642 0.392083
0.240965 0.623850 0.445044
0.517402 0.699122 0.229605
0.736633 0.691585 0.194594
0.866082 0.686932 0.225036
0.902074 0.700203 0.280729
0.935788 0.698793 0.315361
0.165171 0.682969 0.438671
0.187586 0.684698 0.466343
0.225462 0.691673 0.508672
0.323286 0.733616 0.537187
0.543349 0.738156 0.417695
0.760965 0.754528 0.277866
0.865310 0.752145 0.269899
0.906063 0.766166 0.333111
0.948280 0.765496 0.369370
0.206460 0.755173 0.555994
0.243559 0.759089 0.578019
0.303173 0.784404 0.610015
0.391095 0.810892 0.629106
0.585727 0.809865 0.574326
0.741282 0.817328 0.466167
0.865357 0.820521 0.355063
0.922301 0.828533 0.353495
0.949730 0.853222 0.487775
0.028033 0.083653 0.279279
0.059669 0.085593 0.279680
0.098631 0.082393 0.264716
0.201646 0.076822 0.239947
0.345942 0.070183 0.205620
0.463954 0.094867 0.210934
0.600187 0.116349 0.208989
0.740036 0.123835 0.173458
0.836861 0.174452 0.203626
0.019964 0.115746 0.237038
0.044880 0.099787 0.292794
0.084350 0.099738 0.339923
0.193561 0.106169 0.314482
0.367658 0.099235 0.221950
0.478488 0.111155 0.211458
0.678453 0.157297 0.208681
0.764417 0.197283 0.198213
0.842311 0.233890 0.213707
0.000000 0.186187 0.255872
0.011086 0.195454 0.274861
0.070184 0.174699 0.331489
0.272048 0.158459 0.321321
0.455086 0.186343 0.267048
0.561869 0.192766 0.261709
0.694618 0.223399 0.261945
0.822122 0.289033 0.256725
0.869665 0.324895 0.296545
0.000043 0.265231 0.309180
0.010997 0.270581 0.321611
0.022261 0.296971 0.357524
0.218301 0.311295 0.366001
0.489104 0.320086 0.333906
0.617751 0.309874 0.339384
0.726640 0.338266 0.355375
0.832349 0.379100 0.343922
0.888398 0.427191 0.378438
0.048918 0.378997 0.363295
0.062590 0.386950 0.371332
0.097494 0.428667 0.389748
0.206495 0.438198 0.403266
0.542247 0.462416 0.336785
0.669613 0.492026 0.365685
0.765480 0.484475 0.397080
0.847871 0.497358 0.410933
0.907450 0.518756 0.429382
0.094575 0.492416 0.419020
0.123970 0.506443 0.397261
0.159058 0.534869 0.420672
0.233606 0.578932 0.483809
0.484614 0.586221 0.409359
0.710954 0.601628 0.360917
0.807140 0.603721 0.401219
0.871313 0.589217 0.433856
0.923351 0.616603 0.460868
0.153770 0.592590 0.451438
0.167320 0.612548 0.426523
0.196628 0.628892 0.471303
0.276647 0.671364 0.548776
0.507098 0.685105 0.471230
0.693992 0.712395 0.429892
0.814231 0.720778 0.422327
0.896695 0.703130 0.453790
0.945000 0.712983 0.510884
0.176674 0.701937 0.513632
0.199689 0.704496 0.529889
0.237713 0.712551 0.565652
0.311615 0.746607 0.609994
0.476592 0.753256 0.594816
0.695855 0.769142 0.477624
0.824732 0.801873 0.433887
0.900402 0.795612 0.466574
0.970631 0.793986 0.553284
0.231763 0.770256 0.606991
0.269110 0.780125 0.631655
0.322009 0.804630 0.661572
0.396023 0.826805 0.693495
0.556045 0.831958 0.683568
0.711248 0.837003 0.602845
0.853901 0.851764 0.468654
0.907036 0.866382 0.480103
0.964392 0.877498 0.597249
0.043845 0.082966 0.428955
0.078491 0.084862 0.420770
0.106145 0.086829 0.402796
0.166007 0.091422 0.394271
0.353150 0.111941 0.330021
0.490898 0.143585 0.306624
0.598043 0.166422 0.315166
0.695489 0.196209 0.357210
0.799130 0.233065 0.373460
0.036940 0.159510 0.362951
0.064927 0.099241 0.446889
0.113808 0.099762 0.464897
0.205847 0.106139 0.456520
0.378221 0.128461 0.384212
0.500334 0.161890 0.314984
0.596982 0.188979 0.325676
0.718505 0.239371 0.349322
0.812208 0.281452 0.379632
0.000000 0.262171 0.353645
0.032780 0.225280 0.388847
0.104514 0.139773 0.467821
0.228813 0.136504 0.514580
0.411007 0.169210 0.458628
0.553242 0.221002 0.361247
0.661395 0.249747 0.352905
0.806191 0.326286 0.434365
0.867657 0.356542 0.455738
0.004120 0.343930 0.405417
0.012412 0.340016 0.421659
0.046242 0.338985 0.463237
0.223204 0.332844 0.506646
0.469404 0.341086 0.493852
0.622768 0.375859 0.486703
0.753401 0.373285 0.487439
0.840283 0.404179 0.489666
0.907934 0.453411 0.501611
0.072832 0.446055 0.455007
0.086401 0.450173 0.464542
0.114026 0.467079 0.502803
0.197231 0.503987 0.547765
0.466464 0.508536 0.531931
0.677749 0.511864 0.503410
0.783165 0.496477 0.522472
0.859051 0.501694 0.541499
0.924826 0.545540 0.551067
0.125687 0.532030 0.510111
0.142524 0.538207 0.511970
0.173984 0.563533 0.531766
0.240463 0.617103 0.576822
0.434568 0.621816 0.567820
0.705656 0.627709 0.520581
0.799068 0.633501 0.551092
0.882504 0.611964 0.577361
0.941461 0.655472 0.623827
0.165191 0.617953 0.566444
0.183100 0.631364 0.559910
0.213840 0.656310 0.569757
0.301793 0.705577 0.630028
0.463301 0.721385 0.640813
0.659569 0.718181 0.587991
0.814145 0.741434 0.564154
0.899985 0.744830 0.600976
0.956347 0.756991 0.683411
0.200928 0.712008 0.630555
0.226599 0.723282 0.617512
0.274032 0.745140 0.636925
0.347152 0.780186 0.685812
0.507580 0.791339 0.708957
0.696710 0.800831 0.648413
0.809837 0.833646 0.621149
0.908043 0.836605 0.614248
0.970238 0.841885 0.701698
0.263189 0.796631 0.689874
0.301325 0.812143 0.693473
0.349775 0.831626 0.722359
0.408687 0.850649 0.752286
0.524899 0.863422 0.778101
0.680038 0.867051 0.763388
0.823444 0.885371 0.664591
0.918215 0.903068 0.633198
0.977769 0.907279 0.751151
0.056778 0.100727 0.567051
0.110131 0.099844 0.543919
0.166944 0.099366 0.522210
0.252533 0.103323 0.521389
0.384251 0.119734 0.503601
0.518154 0.142655 0.467270
0.628118 0.172913 0.461722
0.731335 0.209647 0.513990
0.826847 0.232583 0.562058
0.049860 0.188466 0.510897
0.092415 0.124761 0.571734
0.176854 0.122299 0.572963
0.275320 0.124139 0.552891
0.376530 0.137206 0.525712
0.517067 0.160525 0.471979
0.636457 0.211339 0.482829
0.742253 0.266414 0.544241
0.835941 0.301626 0.585108
0.035926 0.325065 0.484727
0.059510 0.273182 0.515209
0.167589 0.193027 0.578660
0.308514 0.177222 0.615021
0.411613 0.206398 0.600571
0.566292 0.249237 0.551461
0.683682 0.283023 0.532288
0.779459 0.331793 0.574160
0.870842 0.365855 0.575553
0.069878 0.428438 0.514882
0.072539 0.419964 0.534618
0.123668 0.415486 0.569606
0.281438 0.336139 0.619371
0.413284 0.332664 0.672691
0.613509 0.366749 0.635127
0.739834 0.391573 0.596548
0.822718 0.407349 0.584717
0.924006 0.505402 0.620565
0.108504 0.508076 0.559032
0.125588 0.514320 0.564833
0.155303 0.536191 0.596752
0.232590 0.560160 0.641695
0.430871 0.538590 0.685973
0.675562 0.519109 0.660276
0.794276 0.535805 0.647283
0.875609 0.534493 0.648852
0.936100 0.604703 0.681036
0.152902 0.575620 0.611320
0.169597 0.583793 0.616477
0.201096 0.610577 0.637136
0.277018 0.653013 0.675611
0.382152 0.679227 0.723745
0.649776 0.674795 0.701049
0.810813 0.676718 0.674354
0.898402 0.647873 0.694823
0.947057 0.700016 0.756079
0.184474 0.655798 0.671976
0.205928 0.666394 0.672807
0.240865 0.689680 0.684436
0.322871 0.733310 0.718702
0.425965 0.760417 0.763401
0.647324 0.757354 0.733071
0.819129 0.779739 0.699320
0.905061 0.777971 0.735604
0.963142 0.791621 0.810519
0.226788 0.736752 0.735538
0.258994 0.750064 0.732394
0.310638 0.779603 0.740856
0.380224 0.812168 0.767191
0.493089 0.832125 0.815219
0.660835 0.846144 0.807742
0.802283 0.856656 0.765027
0.913721 0.864214 0.750866
0.975503 0.874422 0.817443
0.296613 0.832866 0.801303
0.342434 0.847530 0.797562
0.389388 0.863368 0.802255
0.459117 0.879362 0.824789
0.558523 0.895463 0.856722
0.665541 0.908663 0.874996
0.826417 0.918726 0.816080
0.913468 0.934744 0.799725
0.984804 0.934261 0.859962
0.085978 0.132000 0.700271
0.136122 0.129742 0.689373
0.250450 0.125432 0.641373
0.336692 0.138770 0.642538
0.434208 0.164964 0.651677
0.582724 0.175089 0.634421
0.688607 0.222559 0.636391
0.793545 0.261733 0.655575
0.869989 0.287497 0.696430
0.055659 0.266562 0.628486
0.126188 0.165573 0.688810
0.242245 0.153737 0.695486
0.341388 0.161326 0.668564
0.419939 0.186321 0.670775
0.583135 0.208791 0.654922
0.706734 0.275082 0.652145
0.802702 0.311958 0.674971
0.876286 0.325040 0.720166
0.080180 0.388696 0.623718
0.102140 0.347653 0.644016
0.230068 0.256346 0.699192
0.374890 0.230435 0.726413
0.457310 0.257472 0.740918
0.612601 0.280669 0.702952
0.739718 0.323690 0.676784
0.818567 0.352787 0.701956
0.888196 0.370445 0.760661
0.104141 0.494127 0.639388
0.121021 0.488874 0.660606
0.185060 0.462825 0.701363
0.363114 0.383113 0.758407
0.479210 0.364838 0.814771
0.666122 0.361907 0.793634
0.777622 0.382758 0.757707
0.842765 0.398974 0.750477
0.905885 0.470489 0.775210
0.140114 0.555870 0.678687
0.161100 0.568137 0.683403
0.197334 0.592809 0.706175
0.306872 0.603305 0.747414
0.458608 0.492303 0.840375
0.656190 0.435395 0.895103
0.805154 0.485944 0.831657
0.871693 0.527513 0.784199
0.931674 0.593259 0.769417
0.176855 0.626549 0.721329
0.197721 0.636984 0.724594
0.233570 0.663783 0.740138
0.331391 0.700838 0.766893
0.424088 0.720303 0.819056
0.644543 0.714503 0.840124
0.812631 0.700966 0.818795
0.901408 0.706379 0.805199
0.956100 0.751027 0.854689
0.211447 0.701440 0.772064
0.238737 0.713048 0.773183
0.289152 0.741809 0.788606
0.383490 0.775432 0.813274
0.452394 0.798489 0.856894
0.608988 0.816650 0.890240
0.787667 0.822518 0.864618
0.915779 0.814531 0.837517
0.971303 0.826265 0.893258
0.266769 0.781819 0.827756
0.308062 0.801397 0.828412
0.365754 0.824327 0.836109
0.427577 0.846015 0.857348
0.528989 0.864655 0.885063
0.627193 0.883609 0.918664
0.784792 0.889778 0.886303
0.921650 0.893847 0.854935
0.981901 0.893937 0.904430
0.354310 0.870763 0.876571
0.397304 0.878607 0.877300
0.446193 0.890476 0.885048
0.531226 0.902912 0.895178
0.599599 0.920769 0.911607
0.677525 0.936791 0.938354
0.812827 0.949428 0.919165
0.912281 0.954991 0.908434
0.990709 0.953941 0.929490
0.128485 0.160260 0.772444
0.223497 0.153097 0.773322
0.359395 0.171910 0.764395
0.439897 0.195951 0.778916
0.507659 0.215180 0.828147
0.650228 0.223599 0.822323
0.764287 0.255554 0.788749
0.844364 0.292674 0.780439
0.909509 0.343562 0.824677
0.103244 0.351554 0.756471
0.203332 0.228189 0.773473
0.345452 0.194135 0.778618
0.446721 0.223811 0.795063
0.521399 0.241269 0.851226
0.667852 0.262442 0.845100
0.774047 0.307082 0.808049
0.856727 0.341701 0.819711
0.920827 0.391952 0.875776
0.119963 0.422973 0.797895
0.176880 0.393674 0.806197
0.326354 0.324428 0.812277
0.454813 0.273134 0.826823
0.540715 0.278188 0.888418
0.681124 0.306677 0.868973
0.788229 0.347975 0.832438
0.867679 0.378659 0.857289
0.925739 0.437858 0.899333
0.144980 0.524093 0.794787
0.176674 0.519311 0.810003
0.289410 0.484372 0.841786
0.432080 0.425202 0.857661
0.570060 0.361961 0.926031
0.722251 0.370528 0.896521
0.814028 0.390800 0.875843
0.877456 0.431074 0.889265
0.935141 0.500111 0.916226
0.179959 0.595022 0.811489
0.203165 0.617231 0.806768
0.274313 0.639648 0.820999
0.404495 0.637637 0.853958
0.541378 0.572367 0.929686
0.734111 0.508179 0.947019
0.849681 0.513866 0.927660
0.904334 0.553174 0.916122
0.949423 0.632123 0.909636
0.213581 0.674090 0.829210
0.242265 0.694098 0.826475
0.304483 0.726149 0.834651
0.398540 0.747933 0.859576
0.516014 0.762672 0.894394
0.694986 0.729782 0.920995
0.849767 0.687279 0.921018
0.917458 0.713184 0.911144
0.963008 0.769006 0.912998
0.262927 0.757754 0.856477
0.298802 0.774162 0.861117
0.355956 0.794585 0.871811
0.432022 0.818112 0.889244
0.523162 0.839560 0.915130
0.656637 0.853038 0.937172
0.816865 0.852934 0.927013
0.920161 0.830337 0.930261
0.978213 0.853923 0.940426
0.330875 0.835133 0.897010
0.371083 0.844426 0.899075
0.424927 0.859571 0.906184
0.506641 0.874880 0.919074
0.586966 0.892319 0.934747
0.668283 0.910061 0.955739
0.787096 0.921185 0.959889
0.905333 0.920863 0.950076
0.987340 0.917722 0.954242
0.412569 0.896906 0.927360
0.458172 0.903502 0.930518
0.534802 0.912323 0.933151
0.588008 0.924872 0.941575
0.644992 0.940412 0.953553
0.710100 0.956514 0.969607
0.816540 0.965759 0.969995
0.923391 0.972014 0.958343
0.994977 0.973081 0.968010
0.225708 0.233704 0.825897
0.351413 0.184919 0.818995
0.457128 0.211963 0.834554
0.524327 0.227181 0.883996
0.636070 0.231916 0.906842
0.735937 0.243662 0.900921
0.812974 0.280432 0.910256
0.885786 0.360135 0.905388
0.938324 0.461395 0.951813
0.204889 0.407128 0.867582
0.319064 0.302776 0.861369
0.439774 0.239482 0.832854
0.525697 0.250823 0.894433
0.648098 0.263786 0.925771
0.746042 0.293963 0.927320
0.825845 0.337053 0.931908
0.898063 0.411340 0.932137
0.945554 0.534772 0.950653
0.190533 0.506844 0.888173
0.300981 0.469414 0.892885
0.409273 0.390829 0.881667
0.532609 0.305525 0.932298
0.668861 0.302513 0.949733
0.765406 0.343723 0.938773
0.846805 0.399504 0.939977
0.910495 0.460346 0.949478
0.953229 0.627857 0.942843
0.205005 0.608387 0.874771
0.272140 0.607372 0.883802
0.396779 0.586066 0.900737
0.493893 0.500733 0.932021
0.668398 0.404035 0.966958
0.790128 0.409274 0.952477
0.860464 0.456574 0.956635
0.920411 0.515046 0.960982
0.957639 0.700194 0.935509
0.239593 0.684798 0.876746
0.286297 0.700074 0.877521
0.379545 0.708056 0.887640
0.476154 0.705603 0.917696
0.643181 0.643886 0.952751
0.793297 0.566497 0.969900
0.881501 0.557530 0.967140
0.935614 0.606102 0.958099
0.964817 0.756844 0.945708
0.286495 0.753412 0.895390
0.328759 0.764251 0.898173
0.392659 0.778801 0.905675
0.463742 0.793371 0.925689
0.615702 0.797922 0.940746
0.753438 0.770924 0.952501
0.883190 0.725322 0.951699
0.948764 0.740669 0.950596
0.974934 0.821189 0.962015
0.345461 0.817145 0.919239
0.383915 0.824800 0.921955
0.430200 0.836616 0.929457
0.498946 0.854146 0.943960
0.598820 0.870548 0.957809
0.704177 0.882197 0.969807
0.842623 0.862977 0.963665
0.947275 0.825585 0.965146
0.983048 0.875857 0.975049
0.412138 0.872788 0.942939
0.445159 0.878357 0.946387
0.513817 0.887916 0.951307
0.574046 0.901303 0.959347
0.640165 0.918252 0.970236
0.711994 0.934710 0.983415
0.816064 0.944051 0.983927
0.925228 0.939134 0.979033
0.990943 0.934720 0.984792
0.511841 0.921967 0.960144
0.548455 0.926213 0.963221
0.592738 0.935523 0.967345
0.643287 0.947394 0.974834
0.695928 0.960586 0.984938
0.771034 0.970052 0.989812
0.869111 0.975381 0.985337
0.940059 0.979644 0.987363
0.997009 0.982391 0.992615
