nova/tdt-studio/app/Lut_mau/IWLTBAP/1 - LUTs by IWLTBAP (CUBE)/02 - Generic LOG/Cinematic/X-9400-LOG.cube
# Copyright: (C) Copyright 2010-2019 by IWLTBAP SAS
# Cannot be resold, shared or otherwise redistributed
# Website: https://luts.iwltbap.com
TITLE "IWLTBAP 9400 (LOG)"
LUT_3D_SIZE 5
0.027710 0.024811 0.078156
0.153875 0.034585 0.085410
0.398197 0.059324 0.104731
0.606110 0.091152 0.113850
0.838104 0.129181 0.095551
0.027875 0.079501 0.092769
0.170892 0.087515 0.096701
0.388721 0.120014 0.116564
0.622106 0.204452 0.124967
0.886120 0.314760 0.106308
0.035735 0.311762 0.143167
0.152719 0.352968 0.118171
0.478227 0.363953 0.132407
0.700854 0.426204 0.129358
0.922616 0.515533 0.118692
0.136351 0.547906 0.269253
0.205545 0.611688 0.230122
0.575010 0.603871 0.137720
0.830896 0.628013 0.136761
0.951150 0.643207 0.172696
0.192688 0.744690 0.486847
0.282871 0.761042 0.508484
0.659566 0.794603 0.309886
0.895535 0.800026 0.228552
0.980438 0.800781 0.251007
0.029216 0.035470 0.150062
0.123009 0.041244 0.153526
0.365887 0.056182 0.133980
0.690952 0.095231 0.129109
0.846133 0.146889 0.132525
0.014268 0.114460 0.169283
0.110333 0.133978 0.193328
0.433512 0.118677 0.165483
0.699712 0.188955 0.142941
0.884532 0.302152 0.161914
0.034418 0.342192 0.269501
0.101947 0.396293 0.275770
0.527191 0.438112 0.178141
0.818876 0.489357 0.169032
0.911752 0.501594 0.274465
0.144770 0.570800 0.347579
0.180770 0.588642 0.392083
0.517402 0.699122 0.229605
0.866082 0.686932 0.225036
0.935788 0.698793 0.315361
0.206460 0.755173 0.555994
0.303173 0.784404 0.610015
0.585727 0.809865 0.574326
0.865357 0.820521 0.355063
0.949730 0.853222 0.487775
0.043845 0.082966 0.428955
0.106145 0.086829 0.402796
0.353150 0.111941 0.330021
0.598043 0.166422 0.315166
0.799130 0.233065 0.373460
0.000000 0.262171 0.353645
0.104514 0.139773 0.467821
0.411007 0.169210 0.458628
0.661395 0.249747 0.352905
0.867657 0.356542 0.455738
0.072832 0.446055 0.455007
0.114026 0.467079 0.502803
0.466464 0.508536 0.531931
0.783165 0.496477 0.522472
0.924826 0.545540 0.551067
0.165191 0.617953 0.566444
0.213840 0.656310 0.569757
0.463301 0.721385 0.640813
0.814145 0.741434 0.564154
0.956347 0.756991 0.683411
0.263189 0.796631 0.689874
0.349775 0.831626 0.722359
0.524899 0.863422 0.778101
0.823444 0.885371 0.664591
0.977769 0.907279 0.751151
0.085978 0.132000 0.700271
0.250450 0.125432 0.641373
0.434208 0.164964 0.651677
0.688607 0.222559 0.636391
0.869989 0.287497 0.696430
0.080180 0.388696 0.623718
0.230068 0.256346 0.699192
0.457310 0.257472 0.740918
0.739718 0.323690 0.676784
0.888196 0.370445 0.760661
0.140114 0.555870 0.678687
0.197334 0.592809 0.706175
0.458608 0.492303 0.840375
0.805154 0.485944 0.831657
0.931674 0.593259 0.769417
0.211447 0.701440 0.772064
0.289152 0.741809 0.788606
0.452394 0.798489 0.856894
0.787667 0.822518 0.864618
0.971303 0.826265 0.893258
0.354310 0.870763 0.876571
0.446193 0.890476 0.885048
0.599599 0.920769 0.911607
0.812827 0.949428 0.919165
0.990709 0.953941 0.929490
0.225708 0.233704 0.825897
0.457128 0.211963 0.834554
0.636070 0.231916 0.906842
0.812974 0.280432 0.910256
0.938324 0.461395 0.951813
0.190533 0.506844 0.888173
0.409273 0.390829 0.881667
0.668861 0.302513 0.949733
0.846805 0.399504 0.939977
0.953229 0.627857 0.942843
0.239593 0.684798 0.876746
0.379545 0.708056 0.887640
0.643181 0.643886 0.952751
0.881501 0.557530 0.967140
0.964817 0.756844 0.945708
0.345461 0.817145 0.919239
0.430200 0.836616 0.929457
0.598820 0.870548 0.957809
0.842623 0.862977 0.963665
0.983048 0.875857 0.975049
0.511841 0.921967 0.960144
0.592738 0.935523 0.967345
0.695928 0.960586 0.984938
0.869111 0.975381 0.985337
0.997009 0.982391 0.992615
