nova/tdt-studio/app/Lut_mau/IWLTBAP/1 - LUTs by IWLTBAP (CUBE)/01 - Standard/Psychedelia/Choweed - Standard.cube
# Copyright: (C) Copyright 2010-2018 by IWLTBAP SAS
# Cannot be resold, shared or otherwise redistributed
# Website: https://luts.iwltbap.com
TITLE "IWLTBAP Choweed (Rec.709, sRGB, DCI-P3)"
LUT_3D_SIZE 9
0.002380 0.000000 0.000793
0.088806 0.023560 0.040924
0.205383 0.061768 0.068420
0.301208 0.085510 0.086334
0.380981 0.103241 0.101349
0.454132 0.120758 0.115295
0.519867 0.133850 0.127472
0.599976 0.146484 0.133728
0.721344 0.152649 0.101013
0.007874 0.030762 0.038635
0.039429 0.045471 0.059265
0.220581 0.106812 0.026123
0.340240 0.120300 0.039246
0.437531 0.139648 0.066284
0.528351 0.163544 0.087677
0.607880 0.180573 0.102539
0.686371 0.194092 0.107513
0.763062 0.205170 0.101746
0.050995 0.087860 0.090881
0.068390 0.101074 0.103760
0.171234 0.124329 0.102631
0.346954 0.176880 0.051575
0.487030 0.230286 0.022491
0.593536 0.233978 0.041351
0.678955 0.242493 0.061188
0.750061 0.252380 0.072388
0.819092 0.268646 0.076660
0.114990 0.147247 0.152832
0.121735 0.154633 0.158966
0.196350 0.202820 0.192108
0.356232 0.227417 0.120728
0.497955 0.256378 0.086517
0.613861 0.325104 0.043365
0.728058 0.353851 0.024841
0.808258 0.349304 0.039398
0.878662 0.352295 0.049744
0.185638 0.222076 0.236847
0.188995 0.228760 0.248199
0.247131 0.290192 0.296143
0.381531 0.326691 0.244354
0.519623 0.347809 0.167236
0.639282 0.375854 0.130280
0.722534 0.421875 0.084412
0.823120 0.456665 0.049591
0.937134 0.471313 0.033417
0.276489 0.325470 0.352203
0.282501 0.336212 0.361206
0.328003 0.391449 0.420013
0.422882 0.460907 0.445770
0.549194 0.457611 0.321503
0.664185 0.478668 0.244202
0.750854 0.503571 0.196350
0.809235 0.524658 0.146240
0.898468 0.550507 0.086700
0.359833 0.415344 0.451721
0.368347 0.434082 0.468994
0.410614 0.485413 0.519653
0.479767 0.565918 0.595032
0.559113 0.579041 0.505676
0.670746 0.560669 0.369873
0.764191 0.582367 0.303558
0.824707 0.589325 0.256226
0.859131 0.593109 0.223358
0.416229 0.477356 0.522186
0.424408 0.501984 0.539307
0.454803 0.545990 0.592499
0.508423 0.611877 0.662292
0.557892 0.655884 0.642242
0.660706 0.632690 0.489838
0.752808 0.627380 0.394897
0.831848 0.642609 0.338043
0.875244 0.649078 0.301849
0.511505 0.589325 0.648804
0.510406 0.600281 0.661102
0.524445 0.628876 0.684357
0.544067 0.652405 0.703369
0.565979 0.682800 0.734619
0.605621 0.720398 0.709198
0.682678 0.689880 0.560120
0.792297 0.668945 0.430206
0.896362 0.689575 0.363190
0.002380 0.006287 0.008667
0.095490 0.056824 0.079590
0.228241 0.116364 0.123688
0.305664 0.132599 0.147919
0.375122 0.137115 0.159912
0.446564 0.143127 0.171265
0.512177 0.149658 0.178375
0.588654 0.161835 0.189087
0.721100 0.170776 0.158508
0.019714 0.051025 0.061035
0.056183 0.066742 0.074158
0.232819 0.111389 0.087402
0.359589 0.132080 0.097931
0.453003 0.153992 0.115326
0.532562 0.172394 0.136688
0.602264 0.185486 0.146057
0.689758 0.198334 0.141571
0.764801 0.212860 0.132080
0.086517 0.116730 0.118744
0.086060 0.114655 0.114990
0.195740 0.146973 0.113251
0.377625 0.210846 0.093842
0.496368 0.232727 0.109863
0.597229 0.235474 0.115845
0.676270 0.244110 0.128937
0.744476 0.254730 0.133759
0.806915 0.264496 0.128510
0.165802 0.193115 0.200104
0.144501 0.178253 0.184357
0.200104 0.214233 0.210938
0.369110 0.238464 0.126556
0.510437 0.264862 0.087585
0.618225 0.326599 0.107819
0.724762 0.345001 0.119904
0.802612 0.342163 0.123932
0.862457 0.340668 0.124054
0.248199 0.284363 0.301941
0.226044 0.263367 0.281708
0.251434 0.296539 0.314606
0.368622 0.334686 0.270142
0.519623 0.342682 0.158691
0.641296 0.353027 0.112549
0.725403 0.403320 0.113586
0.829285 0.447815 0.120361
0.928772 0.456512 0.121552
0.337280 0.379425 0.416199
0.322296 0.372467 0.408081
0.334808 0.398529 0.428345
0.406128 0.460541 0.468903
0.534027 0.460999 0.340363
0.666840 0.469147 0.227570
0.761963 0.481445 0.172180
0.825134 0.510559 0.150604
0.905243 0.537842 0.136078
0.405579 0.459961 0.508026
0.399750 0.464111 0.507935
0.416229 0.490448 0.528870
0.466278 0.557007 0.597351
0.539032 0.597748 0.564728
0.667480 0.568390 0.385651
0.785645 0.589966 0.297913
0.857666 0.600525 0.249451
0.883850 0.596985 0.213135
0.449463 0.514130 0.558533
0.446686 0.522522 0.568481
0.459076 0.549805 0.596405
0.502899 0.602966 0.661957
0.554321 0.665344 0.683594
0.644592 0.653442 0.534485
0.764954 0.639923 0.402588
0.864685 0.659790 0.338898
0.895630 0.664246 0.316132
0.535156 0.607178 0.667877
0.523254 0.611725 0.675385
0.532745 0.629608 0.687714
0.542480 0.648895 0.702423
0.562866 0.676941 0.731384
0.603058 0.724060 0.735260
0.667847 0.712708 0.617126
0.786011 0.680359 0.457611
0.903870 0.697876 0.375580
0.003937 0.029175 0.040985
0.085602 0.068909 0.101471
0.231598 0.136261 0.155151
0.321747 0.184357 0.193939
0.376251 0.209259 0.215515
0.429993 0.210419 0.231934
0.487518 0.199982 0.241638
0.559723 0.207794 0.259094
0.670593 0.229706 0.266937
0.043243 0.088287 0.098724
0.041748 0.074646 0.084717
0.208893 0.129974 0.127502
0.342285 0.176025 0.148071
0.424622 0.204102 0.169464
0.504883 0.214111 0.199432
0.575226 0.219116 0.209839
0.656372 0.229584 0.205750
0.740356 0.244720 0.190460
0.113617 0.144226 0.153076
0.094269 0.126221 0.132111
0.188995 0.173523 0.168915
0.377106 0.229218 0.166931
0.498810 0.242981 0.158691
0.599518 0.259155 0.168396
0.675873 0.269287 0.178619
0.740540 0.279297 0.181183
0.797852 0.285553 0.175812
0.193939 0.218384 0.230774
0.180695 0.205719 0.215332
0.209290 0.228424 0.246063
0.359344 0.282257 0.198730
0.517822 0.331360 0.172760
0.628021 0.359650 0.215302
0.727753 0.352051 0.198029
0.802246 0.350555 0.190613
0.856201 0.346069 0.183838
0.292358 0.320618 0.351288
0.276611 0.311340 0.339722
0.271820 0.310394 0.334808
0.353210 0.360626 0.352905
0.515594 0.377625 0.219421
0.663879 0.389557 0.144501
0.744476 0.432983 0.181763
0.846375 0.464996 0.214813
0.918610 0.449280 0.205292
0.377808 0.417297 0.456848
0.373871 0.418365 0.459045
0.363464 0.416473 0.454468
0.403717 0.464172 0.500122
0.497162 0.494232 0.440704
0.660309 0.485352 0.256805
0.772217 0.489044 0.174683
0.841339 0.523071 0.180908
0.917236 0.541534 0.200104
0.440765 0.490753 0.547607
0.439392 0.498352 0.547211
0.438293 0.511444 0.555359
0.472687 0.557617 0.602264
0.524994 0.619507 0.636505
0.642700 0.595581 0.450684
0.785217 0.598541 0.317505
0.873566 0.615875 0.252472
0.898712 0.600159 0.215363
0.480682 0.540527 0.593140
0.478790 0.547760 0.596985
0.480682 0.564758 0.615814
0.507965 0.606812 0.663910
0.555878 0.669708 0.709595
0.630096 0.681885 0.599152
0.763733 0.654694 0.429169
0.879517 0.675842 0.352631
0.921509 0.689148 0.337921
0.554596 0.629272 0.697021
0.542938 0.625763 0.691132
0.543945 0.635559 0.698364
0.553802 0.655457 0.713196
0.566498 0.677704 0.734009
0.602692 0.721375 0.751495
0.661377 0.732391 0.658356
0.783508 0.697510 0.491211
0.917114 0.710693 0.388672
0.011017 0.067291 0.086060
0.104523 0.080536 0.127502
0.247284 0.146423 0.181335
0.332733 0.196747 0.221008
0.391449 0.228271 0.251129
0.436981 0.250061 0.270020
0.463898 0.267914 0.280273
0.511322 0.273865 0.301514
0.600922 0.291901 0.346497
0.061035 0.120728 0.138000
0.032318 0.087402 0.105286
0.170074 0.135071 0.178040
0.306702 0.204163 0.230103
0.396240 0.243256 0.257843
0.462219 0.272522 0.276489
0.506622 0.293121 0.288513
0.580505 0.298584 0.301575
0.678680 0.293610 0.272156
0.138000 0.181335 0.196564
0.097107 0.147522 0.167480
0.162659 0.181763 0.207977
0.358856 0.252014 0.251129
0.478180 0.293640 0.255188
0.559509 0.314941 0.257111
0.623260 0.319305 0.264832
0.682098 0.317383 0.259155
0.751434 0.316650 0.231506
0.211304 0.238007 0.257111
0.200684 0.229614 0.249451
0.212402 0.234406 0.253693
0.344696 0.311676 0.313782
0.507690 0.360260 0.299500
0.624298 0.369293 0.278076
0.711182 0.376556 0.272003
0.774506 0.377869 0.267242
0.822021 0.364990 0.241180
0.293243 0.320374 0.348511
0.309662 0.338043 0.371033
0.305969 0.334381 0.366882
0.364075 0.377258 0.405762
0.496338 0.428345 0.367462
0.652527 0.462250 0.298584
0.749908 0.483002 0.329407
0.842041 0.475037 0.308777
0.895660 0.450592 0.278076
0.399292 0.436676 0.486450
0.415466 0.453308 0.505371
0.400787 0.446381 0.493011
0.423370 0.471924 0.521759
0.489716 0.528625 0.544769
0.641113 0.542725 0.386932
0.791931 0.542816 0.253540
0.863647 0.566406 0.274231
0.944275 0.568481 0.303284
0.464600 0.517303 0.576233
0.474609 0.529205 0.584259
0.468719 0.534515 0.580170
0.488892 0.564178 0.615784
0.537292 0.625793 0.678528
0.613892 0.652679 0.593048
0.777344 0.644348 0.397736
0.896088 0.653473 0.294403
0.930389 0.629486 0.256348
0.504517 0.563904 0.621307
0.505432 0.572021 0.624390
0.502899 0.581116 0.637207
0.522827 0.620056 0.680298
0.565063 0.672485 0.726562
0.629639 0.717468 0.691345
0.757538 0.695740 0.512421
0.895264 0.711151 0.403992
0.937683 0.723755 0.387207
0.570831 0.645477 0.717529
0.559448 0.639496 0.707397
0.555725 0.643127 0.707397
0.563202 0.659882 0.719849
0.576294 0.683533 0.745331
0.606018 0.721558 0.771332
0.662781 0.749939 0.704346
0.788422 0.729980 0.547272
0.928528 0.736633 0.421417
0.017365 0.093414 0.121735
0.120056 0.094238 0.154388
0.267212 0.156921 0.208160
0.355957 0.206635 0.248840
0.408783 0.237823 0.274872
0.452271 0.268188 0.297668
0.484619 0.289307 0.318787
0.509613 0.305237 0.336334
0.545929 0.348511 0.377472
0.075653 0.148865 0.174011
0.038635 0.112213 0.143127
0.162415 0.142273 0.204742
0.301971 0.205505 0.252350
0.394745 0.253082 0.292633
0.464844 0.296143 0.324463
0.507904 0.316345 0.340485
0.543091 0.341522 0.362488
0.600525 0.365814 0.361328
0.152039 0.208160 0.235413
0.101074 0.176483 0.203613
0.122375 0.191284 0.229431
0.304504 0.260315 0.324005
0.428345 0.325012 0.366516
0.521576 0.363281 0.388733
0.576904 0.377350 0.388641
0.615143 0.383728 0.379211
0.671600 0.361877 0.291321
0.229248 0.266235 0.294525
0.216217 0.264648 0.295532
0.195740 0.248993 0.283569
0.325012 0.320251 0.371399
0.492279 0.387482 0.403198
0.602966 0.415070 0.389374
0.665161 0.422638 0.367950
0.703400 0.418274 0.349457
0.754852 0.392487 0.285217
0.302673 0.329559 0.363007
0.323975 0.352509 0.389648
0.318085 0.346558 0.382904
0.363678 0.379486 0.423431
0.487000 0.453827 0.470490
0.634918 0.491730 0.440125
0.740997 0.494965 0.406891
0.807953 0.491364 0.385895
0.846588 0.458344 0.332123
0.396667 0.430603 0.476288
0.432495 0.467560 0.523865
0.438690 0.476990 0.535400
0.448517 0.489777 0.552124
0.506622 0.544373 0.593658
0.623444 0.588898 0.536896
0.781097 0.606537 0.434784
0.870880 0.610840 0.447174
0.943665 0.583069 0.411346
0.490234 0.537781 0.599091
0.504791 0.558197 0.620148
0.508026 0.567169 0.626099
0.513367 0.580139 0.637482
0.554230 0.632843 0.698914
0.616028 0.687439 0.703278
0.769897 0.688477 0.523315
0.911194 0.694305 0.406708
0.949707 0.674896 0.369659
0.527161 0.585510 0.651123
0.536469 0.598022 0.662354
0.535400 0.605255 0.664734
0.543182 0.628662 0.694519
0.579529 0.678772 0.743103
0.638153 0.745148 0.778442
0.756531 0.742615 0.619354
0.911743 0.747925 0.487488
0.955383 0.751282 0.460022
0.585419 0.659546 0.734436
0.577545 0.655975 0.727325
0.568848 0.652557 0.722168
0.571899 0.663483 0.727448
0.589691 0.691467 0.751434
0.613403 0.726868 0.785614
0.664978 0.769348 0.765076
0.796021 0.756134 0.601624
0.937195 0.752716 0.453613
0.022888 0.116394 0.151550
0.139709 0.112915 0.185638
0.294769 0.174896 0.238495
0.378937 0.219421 0.278809
0.433228 0.249146 0.305145
0.475037 0.281860 0.331024
0.502838 0.301239 0.346466
0.531952 0.319244 0.366913
0.562500 0.367279 0.411652
0.099121 0.185852 0.218750
0.047577 0.143951 0.188171
0.143677 0.160461 0.226227
0.313812 0.209839 0.280914
0.414734 0.259735 0.323090
0.486816 0.305481 0.358063
0.527222 0.333588 0.380707
0.558533 0.363770 0.408264
0.582520 0.401733 0.432922
0.164612 0.234589 0.273071
0.115356 0.212036 0.255798
0.113617 0.217316 0.272095
0.289032 0.267334 0.357269
0.415314 0.323303 0.393921
0.511139 0.375580 0.434937
0.565887 0.406708 0.451569
0.597961 0.424652 0.464691
0.632141 0.427155 0.436127
0.241974 0.297394 0.338562
0.223114 0.294128 0.338898
0.179138 0.271545 0.322876
0.268188 0.330231 0.394562
0.437286 0.394623 0.471405
0.551147 0.451111 0.510986
0.622223 0.476288 0.516296
0.659546 0.480469 0.506042
0.688232 0.442413 0.405273
0.314240 0.351807 0.398438
0.330994 0.372467 0.423279
0.319672 0.368622 0.421173
0.332306 0.382263 0.439697
0.474243 0.461334 0.535400
0.620422 0.528748 0.556000
0.703674 0.540588 0.531158
0.742004 0.533112 0.493622
0.752686 0.476074 0.384125
0.400940 0.432526 0.476379
0.435486 0.465546 0.515015
0.449554 0.481995 0.535706
0.454041 0.487762 0.546265
0.511719 0.543671 0.612427
0.622314 0.623047 0.653778
0.760010 0.641296 0.590576
0.854797 0.632416 0.541901
0.887726 0.583038 0.467041
0.494202 0.537292 0.598328
0.524109 0.573975 0.637482
0.547211 0.599274 0.664001
0.555664 0.616638 0.678589
0.579254 0.647491 0.718750
0.642151 0.711914 0.781677
0.757690 0.746033 0.685638
0.910461 0.750610 0.583801
0.976227 0.726257 0.562988
0.558167 0.617340 0.679382
0.570160 0.635468 0.702850
0.576233 0.647797 0.719421
0.578583 0.656769 0.728058
0.602966 0.686981 0.761780
0.662872 0.761353 0.828979
0.737244 0.806396 0.798859
0.910156 0.805725 0.637634
0.976654 0.803772 0.592804
0.608490 0.678406 0.753571
0.604980 0.677979 0.752380
0.596527 0.673340 0.746887
0.589050 0.674500 0.746155
0.603424 0.694641 0.764465
0.629333 0.737610 0.804932
0.674042 0.790588 0.834045
0.790955 0.802124 0.703796
0.949707 0.776123 0.510223
0.025238 0.130585 0.172424
0.182404 0.132690 0.226715
0.327118 0.194550 0.274719
0.402435 0.234253 0.316132
0.456421 0.267639 0.342621
0.497437 0.294525 0.362427
0.523895 0.312164 0.378876
0.553528 0.329895 0.399597
0.584381 0.379120 0.445923
0.122711 0.220673 0.267090
0.059875 0.176025 0.228607
0.145630 0.184143 0.249908
0.321075 0.218201 0.320618
0.425873 0.266907 0.357269
0.505768 0.313202 0.390472
0.550964 0.340668 0.409729
0.580017 0.374908 0.443024
0.606201 0.428772 0.486481
0.178925 0.267639 0.317169
0.131500 0.247131 0.307892
0.118073 0.245270 0.317871
0.258575 0.278503 0.366791
0.419769 0.322632 0.417236
0.520752 0.373871 0.453674
0.580719 0.411865 0.481445
0.613098 0.442413 0.505981
0.625793 0.467987 0.520142
0.244812 0.319489 0.367584
0.225342 0.317047 0.371246
0.182648 0.304749 0.367767
0.244812 0.346558 0.422974
0.425873 0.387115 0.490936
0.536682 0.440155 0.524200
0.611328 0.480194 0.551422
0.642456 0.507202 0.566437
0.660522 0.510162 0.552368
0.321747 0.375031 0.429504
0.324768 0.388214 0.445465
0.299866 0.377930 0.441040
0.292480 0.390625 0.456055
0.428345 0.461334 0.546326
0.568573 0.521545 0.603088
0.655273 0.562286 0.631104
0.698975 0.578979 0.632874
0.713226 0.549622 0.570587
0.412292 0.447968 0.504608
0.434998 0.472504 0.531158
0.446594 0.486877 0.549286
0.442780 0.487976 0.550842
0.497864 0.535706 0.601074
0.620270 0.624207 0.701752
0.747131 0.674683 0.698669
0.813416 0.670532 0.655365
0.805115 0.606079 0.555450
0.495483 0.533295 0.595642
0.520386 0.562653 0.631989
0.545197 0.588074 0.660706
0.558411 0.603912 0.676849
0.584045 0.639557 0.710083
0.656464 0.712585 0.799835
0.748688 0.787048 0.825317
0.883545 0.788269 0.737823
0.947540 0.742462 0.655518
0.555939 0.603699 0.676941
0.581207 0.640594 0.710876
0.605225 0.667999 0.744019
0.620239 0.688934 0.766327
0.636322 0.712463 0.790588
0.686279 0.776062 0.852936
0.755310 0.848053 0.927124
0.881042 0.884644 0.832581
0.985840 0.885193 0.766479
0.622498 0.690247 0.767578
0.631439 0.703949 0.783112
0.630402 0.705933 0.784607
0.627106 0.705902 0.782593
0.627869 0.711792 0.785156
0.647888 0.746887 0.815765
0.695312 0.808289 0.885681
0.778717 0.854309 0.838013
0.958832 0.821655 0.616028
0.052338 0.175812 0.226593
0.229889 0.158203 0.266663
0.375763 0.222229 0.319489
0.441620 0.258728 0.352325
0.487885 0.289948 0.379059
0.525116 0.312988 0.400543
0.552063 0.328033 0.410980
0.573212 0.342896 0.428711
0.610565 0.395782 0.479248
0.149109 0.254883 0.316132
0.075653 0.198730 0.257874
0.197357 0.204376 0.299042
0.353333 0.238617 0.355347
0.443268 0.286438 0.387878
0.519501 0.326569 0.423706
0.570648 0.354614 0.446014
0.602295 0.383636 0.470001
0.631317 0.443787 0.522705
0.203217 0.303925 0.359467
0.145081 0.278931 0.344727
0.136566 0.270142 0.345215
0.262787 0.290436 0.381653
0.421173 0.326233 0.439331
0.524261 0.375458 0.473633
0.597809 0.416626 0.504944
0.629150 0.445923 0.527313
0.649597 0.490112 0.564850
0.257538 0.345123 0.402893
0.229767 0.334167 0.398529
0.184357 0.322876 0.398804
0.235718 0.350983 0.433228
0.403046 0.374542 0.497101
0.533600 0.429413 0.529266
0.614258 0.471924 0.557678
0.652069 0.504730 0.578827
0.671936 0.538849 0.607330
0.324127 0.398529 0.454224
0.309906 0.394470 0.452637
0.274994 0.379425 0.449036
0.262939 0.394653 0.471588
0.389099 0.459503 0.550201
0.549866 0.493622 0.595215
0.630920 0.537445 0.620911
0.681580 0.568390 0.644043
0.698853 0.590851 0.660156
0.417969 0.463959 0.527618
0.422394 0.472198 0.535767
0.415314 0.473907 0.539398
0.391815 0.469940 0.538788
0.435577 0.510864 0.584320
0.590332 0.591064 0.685486
0.688354 0.643921 0.725464
0.754456 0.674042 0.739441
0.781860 0.672485 0.716431
0.501038 0.541962 0.607361
0.516418 0.557495 0.622314
0.537079 0.576233 0.643066
0.547791 0.588470 0.656494
0.569580 0.616180 0.679535
0.642731 0.690674 0.771118
0.740479 0.772217 0.851562
0.872955 0.823090 0.818542
0.910828 0.788574 0.743652
0.563690 0.606293 0.678284
0.580536 0.631409 0.699738
0.600769 0.652588 0.723450
0.615112 0.672089 0.746338
0.632629 0.694885 0.770508
0.681458 0.756165 0.838409
0.762939 0.847595 0.947815
0.879272 0.917725 0.944092
0.988007 0.915710 0.882751
0.609955 0.667725 0.742981
0.621307 0.683044 0.760864
0.631592 0.697083 0.773560
0.641479 0.711243 0.789062
0.654541 0.731812 0.806824
0.673279 0.757019 0.831482
0.722290 0.819580 0.897400
0.799744 0.892212 0.953339
0.966339 0.919373 0.819214
0.077148 0.201691 0.255219
0.221863 0.167267 0.276367
0.388184 0.230103 0.332764
0.456635 0.270020 0.364777
0.501984 0.298889 0.389404
0.543304 0.322540 0.414825
0.571686 0.341644 0.438019
0.602234 0.369965 0.467072
0.637878 0.438385 0.529633
0.178925 0.286041 0.341248
0.095886 0.227234 0.295044
0.208557 0.230591 0.324921
0.380707 0.264496 0.381653
0.465546 0.302460 0.408447
0.536133 0.336212 0.440125
0.587219 0.375458 0.473419
0.628723 0.425629 0.516174
0.661774 0.482758 0.571411
0.236359 0.330688 0.387695
0.175598 0.302826 0.368164
0.143127 0.286835 0.363098
0.276917 0.299866 0.398468
0.432587 0.329559 0.445343
0.528473 0.371613 0.476807
0.603271 0.423615 0.516876
0.648651 0.471069 0.559631
0.679352 0.528442 0.612396
0.293243 0.373779 0.434326
0.246704 0.347809 0.410400
0.184814 0.324799 0.401245
0.224487 0.342926 0.427032
0.386475 0.356873 0.481049
0.518127 0.406555 0.512421
0.610840 0.462433 0.556488
0.667816 0.516235 0.600067
0.695679 0.567047 0.651184
0.356140 0.425629 0.486755
0.316010 0.402344 0.464355
0.264954 0.374756 0.446106
0.229431 0.367584 0.450409
0.323761 0.409698 0.497192
0.514954 0.447906 0.559174
0.618469 0.510101 0.600739
0.683746 0.562286 0.647888
0.713562 0.613892 0.695892
0.436432 0.483521 0.549988
0.408325 0.467072 0.532196
0.373413 0.448578 0.513519
0.329041 0.429901 0.502716
0.322754 0.443024 0.526611
0.505768 0.524628 0.620972
0.637146 0.581604 0.679626
0.707550 0.635925 0.721924
0.751831 0.682831 0.765686
0.504395 0.545807 0.611938
0.497742 0.539856 0.602295
0.492554 0.537048 0.600159
0.483521 0.534454 0.599121
0.466217 0.533539 0.600586
0.543182 0.592682 0.670410
0.694092 0.698944 0.802307
0.797638 0.752991 0.814362
0.872864 0.800018 0.830933
0.566254 0.606689 0.676941
0.572388 0.618103 0.682281
0.580719 0.628418 0.696045
0.593079 0.640839 0.707886
0.605774 0.655609 0.725800
0.626923 0.683594 0.760071
0.711761 0.783752 0.872131
0.841553 0.884521 0.947266
0.978027 0.936127 0.929871
0.612885 0.666138 0.739929
0.621948 0.677551 0.750549
0.627960 0.685516 0.761475
0.634277 0.693604 0.768524
0.641479 0.703003 0.780640
0.656158 0.721497 0.797729
0.682373 0.757080 0.830627
0.786682 0.873352 0.973511
1.000000 0.999481 1.000000
