nova/tdt-studio/app/Lut_mau/IWLTBAP/1 - LUTs by IWLTBAP (CUBE)/01 - Standard/Psychedelia/Choweed - Standard.cube
# Copyright: (C) Copyright 2010-2018 by IWLTBAP SAS
# Cannot be resold, shared or otherwise redistributed
# Website: https://luts.iwltbap.com
TITLE "IWLTBAP Choweed (Rec.709, sRGB, DCI-P3)"
LUT_3D_SIZE 5
0.002380 0.000000 0.000793
0.205383 0.061768 0.068420
0.380981 0.103241 0.101349
0.519867 0.133850 0.127472
0.721344 0.152649 0.101013
0.050995 0.087860 0.090881
0.171234 0.124329 0.102631
0.487030 0.230286 0.022491
0.678955 0.242493 0.061188
0.819092 0.268646 0.076660
0.185638 0.222076 0.236847
0.247131 0.290192 0.296143
0.519623 0.347809 0.167236
0.722534 0.421875 0.084412
0.937134 0.471313 0.033417
0.359833 0.415344 0.451721
0.410614 0.485413 0.519653
0.559113 0.579041 0.505676
0.764191 0.582367 0.303558
0.859131 0.593109 0.223358
0.511505 0.589325 0.648804
0.524445 0.628876 0.684357
0.565979 0.682800 0.734619
0.682678 0.689880 0.560120
0.896362 0.689575 0.363190
0.003937 0.029175 0.040985
0.231598 0.136261 0.155151
0.376251 0.209259 0.215515
0.487518 0.199982 0.241638
0.670593 0.229706 0.266937
0.113617 0.144226 0.153076
0.188995 0.173523 0.168915
0.498810 0.242981 0.158691
0.675873 0.269287 0.178619
0.797852 0.285553 0.175812
0.292358 0.320618 0.351288
0.271820 0.310394 0.334808
0.515594 0.377625 0.219421
0.744476 0.432983 0.181763
0.918610 0.449280 0.205292
0.440765 0.490753 0.547607
0.438293 0.511444 0.555359
0.524994 0.619507 0.636505
0.785217 0.598541 0.317505
0.898712 0.600159 0.215363
0.554596 0.629272 0.697021
0.543945 0.635559 0.698364
0.566498 0.677704 0.734009
0.661377 0.732391 0.658356
0.917114 0.710693 0.388672
0.017365 0.093414 0.121735
0.267212 0.156921 0.208160
0.408783 0.237823 0.274872
0.484619 0.289307 0.318787
0.545929 0.348511 0.377472
0.152039 0.208160 0.235413
0.122375 0.191284 0.229431
0.428345 0.325012 0.366516
0.576904 0.377350 0.388641
0.671600 0.361877 0.291321
0.302673 0.329559 0.363007
0.318085 0.346558 0.382904
0.487000 0.453827 0.470490
0.740997 0.494965 0.406891
0.846588 0.458344 0.332123
0.490234 0.537781 0.599091
0.508026 0.567169 0.626099
0.554230 0.632843 0.698914
0.769897 0.688477 0.523315
0.949707 0.674896 0.369659
0.585419 0.659546 0.734436
0.568848 0.652557 0.722168
0.589691 0.691467 0.751434
0.664978 0.769348 0.765076
0.937195 0.752716 0.453613
0.025238 0.130585 0.172424
0.327118 0.194550 0.274719
0.456421 0.267639 0.342621
0.523895 0.312164 0.378876
0.584381 0.379120 0.445923
0.178925 0.267639 0.317169
0.118073 0.245270 0.317871
0.419769 0.322632 0.417236
0.580719 0.411865 0.481445
0.625793 0.467987 0.520142
0.321747 0.375031 0.429504
0.299866 0.377930 0.441040
0.428345 0.461334 0.546326
0.655273 0.562286 0.631104
0.713226 0.549622 0.570587
0.495483 0.533295 0.595642
0.545197 0.588074 0.660706
0.584045 0.639557 0.710083
0.748688 0.787048 0.825317
0.947540 0.742462 0.655518
0.622498 0.690247 0.767578
0.630402 0.705933 0.784607
0.627869 0.711792 0.785156
0.695312 0.808289 0.885681
0.958832 0.821655 0.616028
0.077148 0.201691 0.255219
0.388184 0.230103 0.332764
0.501984 0.298889 0.389404
0.571686 0.341644 0.438019
0.637878 0.438385 0.529633
0.236359 0.330688 0.387695
0.143127 0.286835 0.363098
0.432587 0.329559 0.445343
0.603271 0.423615 0.516876
0.679352 0.528442 0.612396
0.356140 0.425629 0.486755
0.264954 0.374756 0.446106
0.323761 0.409698 0.497192
0.618469 0.510101 0.600739
0.713562 0.613892 0.695892
0.504395 0.545807 0.611938
0.492554 0.537048 0.600159
0.466217 0.533539 0.600586
0.694092 0.698944 0.802307
0.872864 0.800018 0.830933
0.612885 0.666138 0.739929
0.627960 0.685516 0.761475
0.641479 0.703003 0.780640
0.682373 0.757080 0.830627
1.000000 0.999481 1.000000
