nova/tdt-studio/app/Lut_mau/IWLTBAP/1 - LUTs by IWLTBAP (CUBE)/01 - Standard/Psychedelia/Choweed - Standard.cube
# Copyright: (C) Copyright 2010-2018 by IWLTBAP SAS
# Cannot be resold, shared or otherwise redistributed
# Website: https://luts.iwltbap.com
TITLE "IWLTBAP Choweed (Rec.709, sRGB, DCI-P3)"
LUT_3D_SIZE 33
0.002380 0.000000 0.000793
0.016235 0.001038 0.007324
0.035645 0.005219 0.018860
0.062134 0.013092 0.030182
0.088806 0.023560 0.040924
0.119354 0.034332 0.049927
0.147644 0.046143 0.056854
0.176331 0.054413 0.063416
0.205383 0.061768 0.068420
0.230682 0.068420 0.072632
0.257324 0.074280 0.076843
0.280090 0.080200 0.082367
0.301208 0.085510 0.086334
0.321747 0.090302 0.091095
0.343445 0.094696 0.095642
0.362213 0.098907 0.098541
0.380981 0.103241 0.101349
0.399384 0.107727 0.104584
0.418915 0.113770 0.110168
0.437195 0.117371 0.112671
0.454132 0.120758 0.115295
0.470703 0.124176 0.118134
0.487061 0.127350 0.122772
0.503540 0.130585 0.125153
0.519867 0.133850 0.127472
0.539001 0.137024 0.130035
0.556702 0.140625 0.132538
0.576538 0.143890 0.135773
0.599976 0.146484 0.133728
0.629486 0.147766 0.129089
0.658508 0.148682 0.122040
0.691162 0.150146 0.111725
0.721344 0.152649 0.101013
0.002380 0.003143 0.004730
0.005524 0.006287 0.010254
0.022888 0.013733 0.021027
0.072723 0.027191 0.014404
0.101379 0.031067 0.018616
0.124176 0.037048 0.029816
0.151154 0.046844 0.039612
0.177490 0.054352 0.046478
0.205872 0.061584 0.052460
0.231293 0.068756 0.059967
0.258423 0.075623 0.064758
0.281982 0.082184 0.069641
0.304565 0.088501 0.077026
0.327545 0.094604 0.081757
0.349854 0.100311 0.086761
0.370178 0.105530 0.092377
0.390106 0.110809 0.096161
0.411316 0.116638 0.099915
0.431824 0.123169 0.105927
0.450623 0.127655 0.109650
0.468750 0.131836 0.112640
0.486725 0.135712 0.115234
0.506683 0.139343 0.120453
0.524597 0.142975 0.122986
0.542511 0.146515 0.125305
0.560944 0.149811 0.127075
0.580505 0.152924 0.128387
0.604156 0.156189 0.128906
0.626740 0.158691 0.127930
0.650604 0.160461 0.125061
0.678101 0.161865 0.119385
0.703888 0.163696 0.112030
0.732208 0.166046 0.102722
0.003143 0.009460 0.014984
0.004730 0.012604 0.018127
0.009460 0.017334 0.023651
0.023682 0.022858 0.039429
0.081512 0.044342 0.028015
0.132416 0.056061 0.018463
0.160583 0.059692 0.023071
0.184662 0.064758 0.032074
0.211853 0.069733 0.039459
0.237122 0.075623 0.045471
0.264282 0.082031 0.053436
0.288727 0.088226 0.059265
0.312408 0.094879 0.064575
0.337830 0.101379 0.072296
0.359955 0.107513 0.077576
0.381561 0.113159 0.082520
0.404266 0.118988 0.088928
0.426605 0.125610 0.093140
0.447235 0.132904 0.097778
0.467285 0.137970 0.103912
0.489105 0.142700 0.107635
0.507996 0.147003 0.110901
0.526733 0.151001 0.113373
0.545380 0.154785 0.117706
0.564087 0.158295 0.120514
0.585876 0.161621 0.121918
0.605927 0.164825 0.122711
0.626892 0.167969 0.122925
0.649384 0.170685 0.122314
0.672363 0.172821 0.120575
0.694122 0.174927 0.115448
0.716431 0.177063 0.111420
0.741882 0.179413 0.105255
0.003937 0.018921 0.024445
0.006287 0.022064 0.027588
0.009460 0.026031 0.035461
0.019714 0.029968 0.040985
0.042511 0.035492 0.051666
0.092987 0.055695 0.045746
0.149719 0.076141 0.029236
0.196747 0.086365 0.018158
0.223572 0.087646 0.024506
0.248322 0.090088 0.032471
0.275208 0.094177 0.039001
0.300262 0.099243 0.045807
0.325012 0.104828 0.053467
0.350708 0.110687 0.059204
0.374023 0.116608 0.064880
0.397766 0.122467 0.071869
0.421295 0.128387 0.077148
0.443573 0.134979 0.084320
0.465424 0.142487 0.088806
0.488861 0.147919 0.093201
0.509064 0.152740 0.097717
0.528717 0.157501 0.103058
0.547852 0.161743 0.106110
0.569275 0.165619 0.108490
0.588226 0.169373 0.110352
0.607330 0.172791 0.112244
0.626984 0.176117 0.114258
0.649536 0.179260 0.114929
0.669617 0.182220 0.114136
0.689545 0.184998 0.113129
0.709229 0.187500 0.111633
0.731659 0.189880 0.109192
0.751892 0.192291 0.105347
0.007874 0.030762 0.038635
0.009460 0.033112 0.041748
0.013397 0.037048 0.044739
0.020508 0.040985 0.048981
0.039429 0.045471 0.059265
0.066742 0.050354 0.066193
0.110718 0.069183 0.058777
0.169800 0.092712 0.038849
0.220581 0.106812 0.026123
0.261993 0.115051 0.017761
0.288147 0.114990 0.025787
0.313446 0.117096 0.032745
0.340240 0.120300 0.039246
0.364990 0.124664 0.047241
0.388794 0.129303 0.053284
0.414276 0.134338 0.058533
0.437531 0.139648 0.066284
0.461151 0.146088 0.071655
0.485687 0.153259 0.077423
0.507477 0.158661 0.083313
0.528351 0.163544 0.087677
0.550781 0.168396 0.091644
0.570190 0.172760 0.095428
0.589172 0.176880 0.099945
0.607880 0.180573 0.102539
0.629028 0.183929 0.104309
0.647919 0.187439 0.105835
0.667114 0.190765 0.106842
0.686371 0.194092 0.107513
0.705170 0.197052 0.107239
0.726135 0.199829 0.106781
0.744476 0.202576 0.105469
0.763062 0.205170 0.101746
0.013397 0.043274 0.050323
0.014984 0.045471 0.052979
0.018127 0.048279 0.058655
0.025238 0.054291 0.062805
0.042511 0.061646 0.066742
0.065643 0.065094 0.076660
0.097534 0.070526 0.076141
0.133759 0.078552 0.069061
0.197388 0.106628 0.046875
0.246307 0.124817 0.032898
0.290009 0.136963 0.023529
0.326172 0.143585 0.019836
0.352966 0.143463 0.027039
0.378265 0.144989 0.033508
0.404663 0.147522 0.040863
0.428864 0.150879 0.047089
0.452881 0.154968 0.052765
0.478760 0.160980 0.059082
0.502045 0.166748 0.065918
0.524506 0.171539 0.070740
0.548157 0.176331 0.076874
0.568634 0.180908 0.081787
0.588348 0.185211 0.085541
0.608673 0.189209 0.089111
0.628265 0.192932 0.091919
0.646637 0.196472 0.094727
0.665070 0.199921 0.097443
0.683533 0.203247 0.098999
0.704498 0.206573 0.099884
0.722595 0.209747 0.100067
0.740387 0.212738 0.099426
0.757996 0.215607 0.097748
0.775482 0.218597 0.096283
0.022064 0.059875 0.065643
0.022858 0.061066 0.066193
0.026001 0.064514 0.068390
0.037048 0.068939 0.073639
0.048981 0.074646 0.080048
0.069458 0.079590 0.085144
0.097534 0.083801 0.088715
0.130890 0.089600 0.081940
0.173981 0.096313 0.071564
0.227020 0.119965 0.053162
0.277802 0.141907 0.039001
0.320618 0.157074 0.029724
0.357574 0.167755 0.022980
0.391144 0.172699 0.021729
0.416870 0.172211 0.027802
0.442108 0.173065 0.033691
0.468597 0.175293 0.041138
0.493164 0.180054 0.046783
0.517242 0.183777 0.052582
0.542206 0.187836 0.059845
0.564270 0.191895 0.064728
0.585266 0.195953 0.069305
0.607391 0.199951 0.075378
0.626678 0.203522 0.079651
0.645325 0.207092 0.082977
0.663544 0.210449 0.085693
0.681458 0.213684 0.087799
0.701813 0.216949 0.089478
0.719757 0.220184 0.090576
0.737549 0.223389 0.091248
0.754944 0.226440 0.091400
0.772003 0.230438 0.091431
0.790649 0.234772 0.090881
0.037842 0.074158 0.079559
0.037842 0.074158 0.080048
0.040222 0.076660 0.081940
0.046173 0.081482 0.085144
0.058044 0.088287 0.090454
0.076172 0.094269 0.098724
0.101868 0.098724 0.105286
0.130890 0.103790 0.099121
0.171936 0.109711 0.084717
0.213684 0.117065 0.074158
0.264069 0.134949 0.060425
0.312805 0.159241 0.045135
0.351776 0.176605 0.035126
0.389008 0.189148 0.027802
0.422943 0.198456 0.022736
0.454285 0.201752 0.022705
0.480316 0.202515 0.028564
0.505890 0.203522 0.034882
0.532349 0.205353 0.041199
0.556274 0.207977 0.046936
0.579041 0.210999 0.052216
0.602509 0.214020 0.058807
0.623108 0.217133 0.063080
0.642853 0.220367 0.067474
0.661682 0.223389 0.071777
0.681946 0.226471 0.076508
0.699829 0.229401 0.079224
0.717499 0.232330 0.081055
0.735016 0.235291 0.082581
0.752441 0.238373 0.083649
0.769531 0.243256 0.084290
0.788544 0.246857 0.084839
0.804932 0.249939 0.085114
0.050995 0.087860 0.090881
0.050323 0.087860 0.090454
0.052338 0.089600 0.093414
0.058044 0.094269 0.099518
0.068390 0.101074 0.103760
0.084259 0.108246 0.109711
0.107880 0.113617 0.123657
0.133301 0.119080 0.114319
0.171234 0.124329 0.102631
0.212769 0.131805 0.087402
0.259888 0.140320 0.078613
0.304840 0.151093 0.067200
0.346954 0.176880 0.051575
0.386230 0.195618 0.040619
0.420105 0.211609 0.032410
0.454407 0.222107 0.026825
0.487030 0.230286 0.022491
0.517273 0.232330 0.023834
0.543365 0.231964 0.029205
0.568329 0.232635 0.036041
0.593536 0.233978 0.041351
0.616150 0.235657 0.046417
0.637512 0.237885 0.051208
0.657928 0.240112 0.057159
0.678955 0.242493 0.061188
0.697357 0.244843 0.064728
0.715179 0.247253 0.067749
0.732697 0.249695 0.070160
0.750061 0.252380 0.072388
0.767883 0.257385 0.073853
0.786194 0.260437 0.075348
0.802826 0.263458 0.075897
0.819092 0.268646 0.076660
0.066742 0.102631 0.105286
0.065063 0.101868 0.104919
0.066193 0.103394 0.106018
0.071045 0.107147 0.108246
0.080048 0.113953 0.112915
0.095886 0.122070 0.125916
0.115692 0.129364 0.140594
0.138885 0.135681 0.134186
0.173767 0.140869 0.122375
0.212769 0.147522 0.104919
0.260468 0.155914 0.089172
0.306793 0.168182 0.081024
0.347290 0.175568 0.073120
0.385071 0.197815 0.058197
0.421600 0.217285 0.046478
0.453552 0.232361 0.037689
0.485413 0.244141 0.031555
0.518768 0.253754 0.027191
0.550537 0.261322 0.022400
0.579163 0.262024 0.024872
0.604248 0.261475 0.030518
0.627869 0.261505 0.036224
0.651764 0.262238 0.041138
0.672943 0.263306 0.045715
0.692871 0.264557 0.049561
0.711792 0.266022 0.054321
0.729919 0.267700 0.058411
0.747467 0.270905 0.061249
0.766693 0.273804 0.063599
0.783813 0.276367 0.065613
0.800720 0.280426 0.067139
0.817230 0.283905 0.068390
0.833374 0.286621 0.069672
0.081940 0.117401 0.117401
0.080536 0.116394 0.116028
0.080994 0.117065 0.117065
0.084259 0.120758 0.122040
0.093842 0.127167 0.128113
0.107513 0.135681 0.142273
0.125580 0.145325 0.152832
0.147247 0.153595 0.154907
0.179810 0.159210 0.144775
0.215332 0.168213 0.126556
0.261047 0.175812 0.108246
0.308136 0.184784 0.095886
0.351685 0.193115 0.084717
0.386932 0.199707 0.079559
0.423462 0.216003 0.066864
0.454865 0.236755 0.053284
0.488312 0.253052 0.044006
0.519012 0.266113 0.037506
0.551239 0.276855 0.032166
0.581482 0.285400 0.026794
0.612091 0.292236 0.022430
0.638885 0.291534 0.026031
0.662537 0.290497 0.031891
0.684723 0.290161 0.036438
0.705566 0.290161 0.040741
0.725189 0.292236 0.044525
0.744751 0.293030 0.047943
0.763489 0.294128 0.050995
0.780975 0.296692 0.054047
0.798157 0.299438 0.056763
0.815063 0.301697 0.059021
0.831635 0.304138 0.061127
0.847931 0.306641 0.063141
0.101074 0.132111 0.133301
0.099121 0.130585 0.131500
0.099121 0.131195 0.131775
0.102234 0.134491 0.137146
0.107880 0.140594 0.145599
0.119080 0.149139 0.154388
0.135071 0.160461 0.169128
0.160461 0.175140 0.175781
0.187958 0.182861 0.168182
0.225342 0.187561 0.149933
0.264221 0.193329 0.129669
0.309906 0.201294 0.111511
0.354431 0.210571 0.100677
0.391357 0.218536 0.089142
0.428192 0.224854 0.083801
0.458466 0.235046 0.076813
0.492035 0.256653 0.062714
0.521606 0.274109 0.052246
0.553162 0.288208 0.044281
0.582001 0.299744 0.037445
0.610931 0.309082 0.031647
0.641602 0.317078 0.026855
0.671509 0.323700 0.022614
0.695007 0.321808 0.027924
0.716949 0.320587 0.032471
0.738953 0.320496 0.036407
0.758453 0.321075 0.039825
0.777039 0.321289 0.042969
0.794891 0.321991 0.045959
0.812225 0.323059 0.048584
0.829346 0.324738 0.050873
0.846130 0.326569 0.053162
0.864258 0.328461 0.055176
0.114990 0.147247 0.152832
0.112549 0.145355 0.150970
0.112213 0.145630 0.150970
0.114990 0.148590 0.153351
0.121735 0.154633 0.158966
0.132111 0.165833 0.168884
0.145599 0.179138 0.185638
0.169830 0.192108 0.196136
0.196350 0.202820 0.192108
0.233093 0.208527 0.175140
0.269745 0.212616 0.153870
0.312622 0.218719 0.134796
0.356232 0.227417 0.120728
0.394562 0.236542 0.107147
0.433441 0.244507 0.099518
0.464447 0.250671 0.090027
0.497955 0.256378 0.086517
0.527344 0.280701 0.071808
0.557556 0.298492 0.060272
0.584686 0.312775 0.050873
0.613861 0.325104 0.043365
0.641022 0.335663 0.037231
0.669098 0.343262 0.031952
0.698151 0.349518 0.027344
0.728058 0.353851 0.024841
0.750000 0.352020 0.029297
0.770569 0.350616 0.032928
0.789886 0.349731 0.036407
0.808258 0.349304 0.039398
0.826111 0.349426 0.042145
0.843445 0.350067 0.044830
0.862122 0.351135 0.047363
0.878662 0.352295 0.049744
0.132080 0.165100 0.168671
0.129639 0.161438 0.167236
0.129028 0.161194 0.166992
0.131500 0.166779 0.168671
0.136566 0.173553 0.173065
0.144775 0.182434 0.185852
0.161438 0.194336 0.200287
0.180237 0.208710 0.216217
0.206085 0.222260 0.216400
0.241180 0.230438 0.205872
0.276215 0.234589 0.185852
0.317627 0.238647 0.161438
0.359924 0.245270 0.143402
0.397095 0.253998 0.127502
0.436646 0.266785 0.114990
0.473450 0.274719 0.106781
0.504974 0.285156 0.101074
0.537994 0.290192 0.096313
0.564606 0.305969 0.082428
0.589844 0.323669 0.069000
0.617249 0.337921 0.059174
0.642334 0.349487 0.050995
0.668427 0.359131 0.044464
0.697021 0.367218 0.038788
0.724945 0.374115 0.033630
0.754089 0.380096 0.028748
0.781708 0.383118 0.026611
0.802063 0.381042 0.030273
0.821289 0.379517 0.033752
0.840363 0.378540 0.036865
0.858826 0.378143 0.039856
0.876221 0.378143 0.042664
0.893097 0.378387 0.045319
0.146698 0.183502 0.187744
0.144501 0.181793 0.185425
0.143677 0.181549 0.184784
0.145874 0.184357 0.187531
0.151001 0.190247 0.193329
0.162659 0.198730 0.203796
0.174225 0.210571 0.221893
0.191895 0.225708 0.237335
0.217316 0.241180 0.241974
0.250061 0.252930 0.235535
0.288513 0.262787 0.215881
0.325226 0.265503 0.191895
0.364838 0.269592 0.170319
0.400604 0.278503 0.151794
0.440399 0.289032 0.137726
0.478027 0.297760 0.126221
0.510651 0.305725 0.116028
0.545197 0.312378 0.108612
0.572693 0.317963 0.105286
0.600800 0.328430 0.097351
0.622894 0.346222 0.082611
0.645874 0.360748 0.071228
0.671844 0.372498 0.061188
0.696411 0.382568 0.052917
0.722137 0.391235 0.046051
0.749146 0.398682 0.039795
0.777649 0.405060 0.034210
0.807556 0.410461 0.029236
0.834869 0.412292 0.028229
0.854126 0.410187 0.031769
0.872589 0.408630 0.035156
0.890411 0.407532 0.038177
0.907623 0.406647 0.041016
0.166992 0.201691 0.209442
0.164612 0.199921 0.206635
0.164124 0.199921 0.205872
0.165802 0.202637 0.209259
0.170532 0.208527 0.215668
0.178253 0.216766 0.230255
0.189636 0.228607 0.247131
0.205505 0.243866 0.258728
0.232422 0.264801 0.268463
0.260040 0.283844 0.268036
0.297394 0.292236 0.252777
0.333405 0.295532 0.229279
0.372437 0.297760 0.201294
0.410370 0.302094 0.182007
0.444244 0.308716 0.165802
0.482178 0.317383 0.150177
0.515381 0.326477 0.140869
0.550903 0.334473 0.129333
0.580017 0.341217 0.123016
0.609009 0.346344 0.116364
0.631104 0.351227 0.110565
0.651489 0.369293 0.094818
0.675720 0.383850 0.081635
0.697815 0.396057 0.070801
0.721191 0.406525 0.061584
0.745972 0.415527 0.053680
0.773895 0.423309 0.046875
0.801514 0.429993 0.040771
0.830780 0.435760 0.035217
0.861511 0.440948 0.030334
0.886261 0.441620 0.030334
0.904663 0.439301 0.033722
0.922272 0.437286 0.037170
0.185638 0.222076 0.236847
0.183075 0.220337 0.234253
0.182434 0.220490 0.234253
0.184357 0.223114 0.237488
0.188995 0.228760 0.248199
0.196136 0.237518 0.254425
0.207214 0.249298 0.266205
0.226196 0.268494 0.281311
0.247131 0.290192 0.296143
0.273346 0.307526 0.300110
0.307526 0.319458 0.293610
0.342072 0.325226 0.272095
0.381531 0.326691 0.244354
0.419037 0.328339 0.217316
0.451263 0.332184 0.195557
0.486908 0.339111 0.180450
0.519623 0.347809 0.167236
0.556274 0.356842 0.152832
0.585938 0.364746 0.145325
0.616547 0.371124 0.136261
0.639282 0.375854 0.130280
0.663696 0.379425 0.126526
0.682068 0.393860 0.111938
0.701691 0.408508 0.096802
0.722534 0.421875 0.084412
0.747040 0.433136 0.074036
0.770660 0.442474 0.064697
0.796082 0.450073 0.056641
0.823120 0.456665 0.049591
0.851959 0.462494 0.043274
0.882507 0.467682 0.037628
0.914551 0.472260 0.032440
0.937134 0.471313 0.033417
0.206451 0.244965 0.265503
0.203796 0.243103 0.261627
0.203003 0.243408 0.261047
0.204742 0.246368 0.263062
0.209656 0.252350 0.271545
0.218719 0.264954 0.278778
0.231445 0.279053 0.292603
0.245422 0.295654 0.314941
0.264374 0.313446 0.330872
0.292114 0.332306 0.340240
0.319794 0.348022 0.339722
0.355652 0.356354 0.322083
0.389923 0.358948 0.292358
0.428589 0.359436 0.260040
0.460022 0.360229 0.235413
0.493683 0.364075 0.215332
0.525055 0.371033 0.197540
0.560394 0.379608 0.186066
0.594574 0.392609 0.171448
0.622314 0.400177 0.162903
0.646820 0.406464 0.152832
0.671783 0.410950 0.147766
0.690796 0.414551 0.143402
0.707764 0.423828 0.131012
0.729248 0.437866 0.112183
0.748535 0.449524 0.096863
0.769409 0.459564 0.084930
0.792267 0.468079 0.074829
0.816925 0.475494 0.065704
0.843567 0.481995 0.057739
0.872162 0.487793 0.050629
0.902527 0.492798 0.044250
0.935089 0.497101 0.038422
0.232758 0.273346 0.294006
0.229919 0.271423 0.291077
0.228912 0.271698 0.289917
0.230774 0.275269 0.292236
0.235565 0.285004 0.297516
0.242920 0.294006 0.313080
0.253235 0.305725 0.323547
0.266357 0.320251 0.341522
0.287079 0.337708 0.361115
0.309082 0.357361 0.375275
0.334686 0.375763 0.380035
0.366791 0.391632 0.368805
0.398682 0.396423 0.345093
0.436646 0.396484 0.315887
0.470825 0.395966 0.280396
0.502167 0.396484 0.255768
0.534485 0.399902 0.235229
0.565674 0.407074 0.216217
0.599091 0.415985 0.203400
0.627716 0.424652 0.191284
0.653870 0.432098 0.182404
0.679016 0.437927 0.171692
0.698730 0.442261 0.165558
0.718506 0.445312 0.156677
0.735352 0.449951 0.148926
0.751617 0.463623 0.129639
0.769897 0.475098 0.113495
0.790100 0.484772 0.099548
0.812134 0.493103 0.087952
0.836334 0.500366 0.077515
0.864563 0.506714 0.068268
0.892761 0.512085 0.059998
0.922668 0.516510 0.051849
0.255157 0.301849 0.323975
0.252350 0.300262 0.322052
0.251556 0.300873 0.321503
0.253540 0.304413 0.323639
0.258270 0.310638 0.331421
0.265503 0.319794 0.340790
0.275391 0.331329 0.354736
0.291473 0.345306 0.372437
0.307404 0.362701 0.390259
0.327332 0.382446 0.406616
0.354828 0.406464 0.417542
0.380066 0.421722 0.415039
0.412292 0.428925 0.398346
0.443390 0.430359 0.365814
0.480103 0.428925 0.335449
0.509705 0.427582 0.300110
0.542694 0.427826 0.274170
0.570251 0.431549 0.254150
0.603943 0.439087 0.236206
0.631165 0.447968 0.224487
0.661194 0.456207 0.211304
0.684296 0.463013 0.199127
0.705261 0.468292 0.190674
0.727814 0.471924 0.181976
0.743347 0.474396 0.173523
0.756592 0.475800 0.168884
0.771698 0.487976 0.148865
0.789093 0.499176 0.129211
0.811279 0.508728 0.112549
0.832611 0.516998 0.099457
0.856445 0.524017 0.087677
0.882324 0.529816 0.077332
0.910278 0.534424 0.067902
0.276489 0.325470 0.352203
0.274292 0.324799 0.349976
0.274048 0.326019 0.349976
0.275940 0.329803 0.355042
0.282501 0.336212 0.361206
0.291473 0.345093 0.369751
0.301086 0.356659 0.385376
0.313080 0.370941 0.401886
0.328003 0.391449 0.420013
0.350159 0.411560 0.440063
0.372162 0.432343 0.451111
0.395447 0.449921 0.454681
0.422882 0.460907 0.445770
0.451050 0.463257 0.419281
0.485413 0.462219 0.384460
0.517029 0.459808 0.349335
0.549194 0.457611 0.321503
0.576721 0.457977 0.292633
0.607056 0.462585 0.273468
0.635071 0.470276 0.255920
0.664185 0.478668 0.244202
0.688599 0.486176 0.231262
0.710449 0.492218 0.217651
0.733704 0.499207 0.208527
0.750854 0.503571 0.196350
0.764496 0.505524 0.190857
0.776123 0.506226 0.185425
0.793091 0.513794 0.166534
0.809235 0.524658 0.146240
0.827759 0.533997 0.129242
0.848999 0.541840 0.114380
0.872742 0.545776 0.100708
0.898468 0.550507 0.086700
0.300995 0.348541 0.380249
0.299744 0.348846 0.380066
0.299866 0.351013 0.380798
0.302063 0.355133 0.383728
0.306305 0.361420 0.391235
0.312958 0.370270 0.402588
0.322083 0.381897 0.412628
0.334045 0.400177 0.428345
0.352722 0.417206 0.446655
0.369965 0.436584 0.466187
0.389557 0.457520 0.486420
0.414978 0.476715 0.493591
0.436646 0.490265 0.489166
0.459076 0.497375 0.469055
0.490234 0.495697 0.437897
0.520691 0.492218 0.401825
0.555023 0.488983 0.366028
0.581970 0.486328 0.338348
0.611908 0.487152 0.314392
0.637207 0.492279 0.291595
0.667480 0.503937 0.275269
0.691132 0.511719 0.261078
0.714661 0.518250 0.249603
0.738586 0.523315 0.235229
0.755951 0.526855 0.225525
0.771332 0.528961 0.213867
0.787598 0.530060 0.206848
0.797607 0.530243 0.198120
0.807922 0.533905 0.187164
0.824097 0.545166 0.165161
0.842743 0.554626 0.146515
0.863861 0.561951 0.128235
0.887329 0.567261 0.111328
0.320496 0.370941 0.406372
0.320374 0.372284 0.406647
0.321075 0.375031 0.407990
0.323090 0.379425 0.411896
0.327148 0.387482 0.421387
0.333710 0.398682 0.428436
0.344574 0.410461 0.442078
0.358337 0.424835 0.454102
0.372437 0.441772 0.472107
0.389191 0.460907 0.491791
0.410858 0.481293 0.513580
0.430176 0.505707 0.529602
0.450226 0.521515 0.530396
0.472412 0.529510 0.515015
0.495483 0.530365 0.487793
0.523193 0.527710 0.450073
0.557953 0.523590 0.412964
0.586578 0.519318 0.380707
0.615967 0.516541 0.348846
0.640106 0.518127 0.328125
0.668152 0.523956 0.313690
0.693787 0.531525 0.292877
0.719116 0.538300 0.277832
0.741699 0.543854 0.262512
0.760681 0.547760 0.251740
0.776031 0.550262 0.238953
0.793579 0.551544 0.230438
0.804871 0.552002 0.219086
0.813446 0.551910 0.213867
0.820648 0.551788 0.209106
0.837006 0.563721 0.183807
0.855804 0.572968 0.160736
0.876831 0.579895 0.141907
0.339203 0.396088 0.429962
0.339630 0.398346 0.431061
0.340912 0.401855 0.435944
0.345001 0.406494 0.441864
0.350769 0.412994 0.446289
0.356934 0.421906 0.453064
0.365723 0.433441 0.466461
0.377167 0.447815 0.481842
0.390900 0.464691 0.498993
0.409607 0.483307 0.517090
0.427948 0.507324 0.542023
0.445831 0.528015 0.556335
0.462799 0.545807 0.566254
0.484314 0.556366 0.556915
0.502258 0.559387 0.533447
0.526489 0.556885 0.500061
0.559113 0.552948 0.460175
0.590698 0.547638 0.422882
0.619171 0.542267 0.387848
0.642578 0.539978 0.362000
0.669495 0.542847 0.342377
0.693573 0.549164 0.325226
0.722290 0.556122 0.307648
0.743469 0.561981 0.293396
0.763062 0.566254 0.277710
0.783752 0.569061 0.262939
0.797974 0.570740 0.253693
0.810089 0.571533 0.243561
0.820312 0.571869 0.234253
0.827820 0.571960 0.229767
0.833801 0.571594 0.224487
0.847321 0.579742 0.202728
0.868805 0.589111 0.179565
0.359833 0.415344 0.451721
0.361023 0.418549 0.453888
0.362396 0.422394 0.459930
0.364655 0.427490 0.464661
0.368347 0.434082 0.468994
0.374451 0.443024 0.476685
0.383026 0.454559 0.488800
0.393921 0.468933 0.504883
0.410614 0.485413 0.519653
0.426331 0.507507 0.545410
0.442780 0.527039 0.565155
0.459656 0.547516 0.581360
0.479767 0.565918 0.595032
0.494080 0.579590 0.593872
0.510284 0.584595 0.574829
0.531036 0.583771 0.545380
0.559113 0.579041 0.505676
0.590210 0.573639 0.464813
0.621216 0.566986 0.426270
0.643829 0.561462 0.397369
0.670746 0.560669 0.369873
0.693390 0.565033 0.353210
0.721191 0.571472 0.338135
0.744629 0.577667 0.321869
0.764191 0.582367 0.303558
0.786102 0.585449 0.290833
0.801422 0.587372 0.276215
0.814026 0.588562 0.264648
0.824707 0.589325 0.256226
0.833496 0.589844 0.250061
0.841309 0.589966 0.244202
0.849304 0.589050 0.237488
0.859131 0.593109 0.223358
0.374817 0.432831 0.471405
0.376312 0.436676 0.474884
0.378021 0.440887 0.481903
0.380524 0.446167 0.485138
0.384125 0.452942 0.489441
0.389832 0.461792 0.498810
0.397980 0.473267 0.509583
0.412476 0.487274 0.524170
0.425140 0.507202 0.545013
0.439697 0.524933 0.563354
0.455322 0.543915 0.589111
0.475067 0.563660 0.602631
0.490601 0.582306 0.618073
0.504669 0.597809 0.620239
0.516998 0.605927 0.610565
0.537048 0.605835 0.581970
0.558411 0.602234 0.546539
0.587494 0.596527 0.504272
0.620361 0.589264 0.463867
0.645020 0.581970 0.427002
0.670197 0.577942 0.400604
0.693237 0.579468 0.379028
0.717987 0.584747 0.361908
0.742889 0.590820 0.345734
0.764343 0.595856 0.333191
0.786469 0.599426 0.317749
0.802979 0.601776 0.298401
0.817169 0.603271 0.286713
0.828308 0.604584 0.277039
0.837402 0.605469 0.270996
0.849091 0.606079 0.261658
0.855469 0.605835 0.256531
0.860107 0.604645 0.252197
0.388214 0.448730 0.489838
0.390106 0.453033 0.493469
0.392151 0.457611 0.500061
0.394379 0.463043 0.504456
0.397736 0.469788 0.508850
0.403107 0.478546 0.515137
0.414825 0.489655 0.527954
0.424835 0.507050 0.544312
0.436890 0.522461 0.559601
0.450684 0.539459 0.582367
0.465546 0.557556 0.602753
0.484344 0.576569 0.622528
0.498871 0.594940 0.637329
0.512482 0.614990 0.642151
0.524445 0.625854 0.636993
0.540344 0.628967 0.616577
0.558533 0.625854 0.580048
0.584137 0.620117 0.539185
0.617157 0.611206 0.498688
0.643555 0.601471 0.459656
0.669159 0.594940 0.427887
0.690765 0.593201 0.403473
0.713745 0.596313 0.384125
