nova/tdt-studio/app/Lut_mau/IWLTBAP/1 - LUTs by IWLTBAP (CUBE)/01 - Standard/Psychedelia/Copy of HALCYON_HYPEMONSTER.cube
LUT_3D_SIZE 6
0.042528 0.061803 0.068991
0.076187 0.061739 0.068688
0.257922 0.061643 0.069751
0.558629 0.061574 0.071539
0.861485 0.061478 0.072314
1.046201 0.061533 0.072074
0.042476 0.102561 0.068660
0.075837 0.102035 0.072456
0.257922 0.134241 0.068991
0.558629 0.172359 0.068991
0.861485 0.191409 0.068991
1.046201 0.182599 0.068991
0.042398 0.293764 0.069851
0.105903 0.293764 0.068991
0.257922 0.291667 0.105439
0.558259 0.382098 0.072385
0.861485 0.424672 0.068991
1.046201 0.405303 0.068992
0.042346 0.599505 0.071792
0.142409 0.599505 0.068991
0.347660 0.599505 0.068991
0.557815 0.595716 0.193249
0.852708 0.664910 0.190565
1.046201 0.633455 0.068992
0.042268 0.900605 0.072560
0.160035 0.900605 0.068992
0.388010 0.900605 0.068992
0.623760 0.900605 0.068992
0.856671 0.895288 0.290861
1.024657 0.866370 0.366482
0.042364 1.138253 0.069690
0.155366 1.138253 0.067977
0.372451 1.138253 0.067870
0.596493 1.138253 0.067796
0.818136 1.138253 0.067686
1.051702 1.134782 0.424103
0.036950 -0.528987 0.122786
0.074766 -0.528968 0.123327
0.254743 -0.528968 0.159129
0.556759 -0.528968 0.208415
0.866114 -0.528968 0.232086
1.046930 -0.528968 0.222049
0.042528 0.102900 0.117429
0.076187 0.102594 0.117713
0.257922 0.102169 0.123136
0.558630 0.101741 0.130829
0.861485 0.100866 0.133158
1.046201 0.101417 0.132374
0.042528 0.293764 0.153826
0.075858 0.293763 0.124056
0.258235 0.292337 0.140674
0.558630 0.363914 0.117823
0.861485 0.397612 0.117823
1.046201 0.378109 0.117823
0.042528 0.599505 0.196993
0.075479 0.599505 0.132694
0.329051 0.599505 0.117823
0.557874 0.596108 0.213459
0.854377 0.655620 0.196263
1.046201 0.621735 0.117823
0.042528 0.900605 0.217282
0.074735 0.900605 0.135027
0.360673 0.900605 0.117823
0.614308 0.900605 0.117823
0.856712 0.895544 0.303692
1.025356 0.862255 0.368498
0.042507 1.138253 0.194236
0.076448 1.138253 0.106993
0.349261 1.138253 0.106669
0.586412 1.138253 0.105444
0.814300 1.138253 0.103422
1.051742 1.134773 0.430195
0.040490 -0.529018 0.340581
0.111769 -0.528968 0.342146
0.272134 -0.528968 0.343231
0.557956 -0.528968 0.425384
0.866431 -0.528968 0.473682
1.046952 -0.528968 0.452452
0.042528 0.138922 0.327182
0.075645 0.102894 0.327182
0.265833 0.102561 0.326569
0.558630 0.102561 0.396606
0.861485 0.102561 0.432972
1.046201 0.102561 0.412881
0.042528 0.301318 0.326207
0.076187 0.300385 0.326569
0.257922 0.293921 0.327088
0.558629 0.293304 0.333060
0.861485 0.291344 0.332117
1.046201 0.292878 0.331328
0.042528 0.599505 0.412400
0.076187 0.599505 0.398366
0.257495 0.599505 0.334620
0.557752 0.597204 0.354399
0.860986 0.622759 0.328895
1.046201 0.588367 0.327182
0.042528 0.900605 0.455206
0.076187 0.900605 0.433127
0.255564 0.900605 0.333556
0.581718 0.900605 0.327182
0.856767 0.896345 0.410358
1.029691 0.850391 0.430162
0.042490 1.138253 0.421188
0.075277 1.138253 0.397136
0.256434 1.138253 0.306266
0.550765 1.138253 0.302575
0.801259 1.138253 0.295779
1.051924 1.134993 0.495240
0.045318 -0.528994 0.659893
0.151465 -0.528968 0.660528
0.359208 -0.528968 0.661845
0.574097 -0.528968 0.661158
0.866828 -0.528968 0.717477
1.046971 -0.528968 0.685396
0.042528 0.177185 0.643702
0.075175 0.103456 0.643702
0.337053 0.102561 0.643702
0.568000 0.102561 0.641999
0.861485 0.102561 0.691162
1.046201 0.102561 0.658654
0.042528 0.390293 0.643702
0.076187 0.373647 0.643702
0.257257 0.294894 0.643702
0.562543 0.293764 0.642424
0.861485 0.293764 0.664401
1.046201 0.293764 0.628765
0.042528 0.607634 0.641796
0.076187 0.606816 0.641999
0.257922 0.602653 0.642424
0.558629 0.599501 0.643368
0.861485 0.597767 0.638403
1.046201 0.600499 0.637815
0.042528 0.900605 0.698043
0.076187 0.900605 0.690935
0.257922 0.900605 0.663990
0.556858 0.900605 0.637472
0.859110 0.898698 0.662896
1.042807 0.853707 0.650823
0.042478 1.138253 0.651617
0.074755 1.138253 0.641485
0.254509 1.138253 0.608701
0.557755 1.138253 0.615600
0.804723 1.138253 0.612103
1.052637 1.135588 0.699659
0.046090 -0.529027 0.950383
0.166697 -0.528968 0.950578
0.392525 -0.528968 0.950889
0.626315 -0.528968 0.950964
0.860395 -0.528968 0.948292
1.046869 -0.528968 0.914327
0.042528 0.192153 0.935333
0.074200 0.102464 0.935333
0.362931 0.102561 0.935333
0.612949 0.102561 0.935333
0.856630 0.102561 0.934230
1.046201 0.102561 0.897675
0.042528 0.423587 0.935333
0.076187 0.399960 0.935333
0.254607 0.292058 0.935333
0.580085 0.293764 0.935333
0.853927 0.293764 0.934635
1.046201 0.293764 0.888406
0.042528 0.660612 0.935333
0.076187 0.652110 0.935333
0.257922 0.620582 0.935333
0.555697 0.595601 0.935333
0.854953 0.599505 0.935317
1.046201 0.599505 0.890488
0.042528 0.896762 0.934198
0.076187 0.896207 0.934230
0.257922 0.894176 0.934635
0.558629 0.894974 0.935317
0.861485 0.900428 0.935573
1.046201 0.904322 0.937035
0.042461 1.138253 0.875806
0.073898 1.138253 0.872223
0.250178 1.138253 0.861118
0.549852 1.138253 0.862386
0.862755 1.138253 0.919897
1.053271 1.135920 0.949134
0.045906 -0.529005 1.098715
0.158736 -0.528968 1.098770
0.374885 -0.528968 1.098865
0.599212 -0.528968 1.098839
0.821338 -0.528968 1.097341
1.048383 -0.528968 1.095667
0.042528 0.184882 1.085051
0.074893 0.103220 1.085051
0.347110 0.102561 1.085051
0.586771 0.102561 1.085051
0.822209 0.102561 1.085051
1.049155 0.102561 1.085051
0.042528 0.407415 1.085051
0.076187 0.383955 1.085051
0.256860 0.294100 1.085051
0.552472 0.293764 1.085051
0.810214 0.293764 1.085051
1.049217 0.293764 1.085051
0.042528 0.636042 1.085051
0.076187 0.625879 1.085051
0.257922 0.592693 1.085051
0.559720 0.599156 1.085051
0.812626 0.599505 1.085051
1.049231 0.599505 1.085051
0.042528 0.865496 1.085051
0.076187 0.861878 1.085051
0.257922 0.850600 1.085051
0.558629 0.852209 1.085051
0.866920 0.905477 1.085051
1.047769 0.900605 1.085051
0.042528 1.059748 1.085051
0.076188 1.059799 1.085051
0.257922 1.059888 1.085051
0.558629 1.059902 1.085051
0.861485 1.058422 1.085051
1.046201 1.056836 1.085051
