nova/tdt-studio/app/Lut_mau/IWLTBAP/1 - LUTs by IWLTBAP (CUBE)/01 - Standard/Psychedelia/Copy of HALCYON_HYPEMONSTER.cube
LUT_3D_SIZE 16
0.042528 0.061803 0.068991
0.044205 0.061803 0.068976
0.054816 0.061779 0.068747
0.076187 0.061739 0.068688
0.116067 0.061706 0.068846
0.177519 0.061665 0.069207
0.257922 0.061643 0.069751
0.352138 0.061620 0.070375
0.453370 0.061600 0.070988
0.558629 0.061574 0.071539
0.663515 0.061552 0.071965
0.765113 0.061512 0.072218
0.861485 0.061478 0.072314
0.946973 0.061469 0.072260
0.989913 0.061495 0.072163
1.046201 0.061533 0.072074
0.042525 0.063916 0.068958
0.044191 0.063899 0.068991
0.054814 0.063924 0.068991
0.076187 0.064001 0.068991
0.116067 0.064161 0.068991
0.177519 0.064441 0.068991
0.257922 0.064819 0.068991
0.352138 0.065246 0.068991
0.453370 0.065651 0.068991
0.558629 0.066035 0.068991
0.663515 0.066374 0.068991
0.765113 0.066705 0.068991
0.861485 0.067034 0.068991
0.946973 0.067323 0.068991
0.989913 0.066724 0.068991
1.046201 0.066310 0.068991
0.042506 0.077038 0.068710
0.044225 0.077033 0.068991
0.054692 0.076879 0.070021
0.076152 0.077608 0.068991
0.116067 0.080123 0.068991
0.177519 0.084727 0.068991
0.257922 0.090839 0.068991
0.352138 0.097539 0.068991
0.453370 0.103855 0.068991
0.558629 0.109523 0.068991
0.663515 0.114108 0.068991
0.765113 0.117483 0.068991
0.861485 0.119760 0.068991
0.946973 0.120637 0.068991
0.989913 0.117360 0.068991
1.046201 0.114837 0.068991
0.042476 0.102561 0.068660
0.044300 0.102561 0.068991
0.055280 0.102534 0.068991
0.075837 0.102035 0.072456
0.114850 0.109204 0.071800
0.177519 0.120327 0.068991
0.257922 0.134241 0.068991
0.352138 0.148560 0.068991
0.453370 0.161325 0.068991
0.558629 0.172359 0.068991
0.663515 0.181055 0.068991
0.765113 0.187349 0.068991
0.861485 0.191409 0.068991
0.946973 0.192797 0.068991
0.989913 0.187081 0.068991
1.046201 0.182599 0.068991
0.042448 0.145942 0.068837
0.044408 0.145942 0.068991
0.057397 0.145942 0.068991
0.082001 0.145860 0.068991
0.115606 0.144920 0.077524
0.174002 0.163766 0.084207
0.257805 0.184606 0.069512
0.352138 0.205811 0.068991
0.453370 0.224547 0.068991
0.558629 0.240512 0.068991
0.663515 0.253074 0.068991
0.765112 0.262039 0.068991
0.861485 0.267775 0.068991
0.946973 0.269689 0.068991
0.989913 0.261665 0.068991
1.046201 0.255299 0.068991
0.042415 0.210384 0.069249
0.044603 0.210384 0.068991
0.061289 0.210384 0.068991
0.092532 0.210384 0.068991
0.133862 0.210246 0.068991
0.177258 0.208804 0.087751
0.251844 0.238034 0.111476
0.350268 0.266207 0.080296
0.453370 0.290043 0.068991
0.558629 0.310758 0.068991
0.663515 0.326955 0.068991
0.765113 0.338521 0.068991
0.861485 0.345884 0.068991
0.946973 0.348236 0.068991
0.989913 0.338017 0.068991
1.046201 0.329920 0.068991
0.042398 0.293764 0.069851
0.044858 0.293764 0.068991
0.066446 0.293764 0.068991
0.105903 0.293764 0.068991
0.154674 0.293764 0.068991
0.206321 0.293570 0.068991
0.257922 0.291667 0.105439
0.343765 0.326870 0.152386
0.448595 0.357766 0.110232
0.558259 0.382098 0.072385
0.663515 0.401750 0.068991
0.765113 0.415777 0.068991
0.861485 0.424672 0.068991
0.946973 0.427571 0.068991
0.989913 0.415158 0.068991
1.046201 0.405303 0.068992
0.042379 0.390374 0.070530
0.045150 0.390374 0.068991
0.072148 0.390374 0.068991
0.119704 0.390374 0.068991
0.175343 0.390374 0.068991
0.233897 0.390374 0.068991
0.293647 0.390217 0.068991
0.352455 0.388021 0.130830
0.442937 0.423551 0.200381
0.550419 0.455132 0.156350
0.661115 0.477561 0.095788
0.765113 0.493410 0.068991
0.861485 0.503875 0.068991
0.946973 0.507258 0.068992
0.989913 0.492686 0.068992
1.046201 0.481105 0.068992
0.042365 0.493418 0.071202
0.045424 0.493418 0.068991
0.077524 0.493418 0.068991
0.131923 0.493418 0.068991
0.193427 0.493418 0.068991
0.257598 0.493418 0.068991
0.323136 0.493418 0.068991
0.389229 0.493227 0.068991
0.453569 0.490563 0.160730
0.546384 0.524768 0.251747
0.651776 0.554121 0.209820
0.759743 0.572708 0.139121
0.860881 0.583545 0.078374
0.946973 0.587185 0.068992
0.989913 0.570515 0.068992
1.046201 0.557212 0.068992
0.042346 0.599505 0.071792
0.045680 0.599505 0.068991
0.082391 0.599505 0.068991
0.142409 0.599505 0.068991
0.208769 0.599505 0.068991
0.277578 0.599505 0.068991
0.347660 0.599505 0.068991
0.418474 0.599505 0.068991
0.489543 0.599261 0.068991
0.557815 0.595716 0.193249
0.649857 0.626433 0.303245
0.750098 0.651199 0.264948
0.852708 0.664910 0.190565
0.944632 0.668010 0.109987
0.990016 0.648413 0.069069
1.046201 0.633455 0.068992
0.042329 0.704188 0.072232
0.045910 0.704188 0.068991
0.086335 0.704188 0.068991
0.150525 0.704188 0.068991
0.220557 0.704188 0.068991
0.292901 0.704188 0.068991
0.366441 0.704188 0.068991
0.440713 0.704188 0.068992
0.515554 0.704188 0.068992
0.590289 0.704006 0.068992
0.660742 0.699297 0.226388
0.750189 0.725201 0.352443
0.843682 0.744127 0.318795
0.935721 0.749759 0.241495
0.986261 0.727640 0.151394
1.043960 0.710531 0.110626
0.042297 0.804960 0.072487
0.046149 0.804960 0.068992
0.089251 0.804960 0.068992
0.156288 0.804960 0.068992
0.228869 0.804960 0.068992
0.303631 0.804960 0.068992
0.379597 0.804960 0.068992
0.456235 0.804960 0.068992
0.533407 0.804960 0.068992
0.610936 0.804960 0.068992
0.688016 0.804457 0.068992
0.760404 0.799166 0.259071
0.845730 0.819309 0.398536
0.928269 0.828929 0.367872
0.978469 0.807192 0.284509
1.034740 0.789544 0.239419
0.042268 0.900605 0.072560
0.046409 0.900605 0.068992
0.091230 0.900605 0.068992
0.160035 0.900605 0.068992
0.234200 0.900605 0.068992
0.310523 0.900605 0.068992
0.388010 0.900605 0.068992
0.466154 0.900605 0.068992
0.544782 0.900605 0.068992
0.623760 0.900605 0.068992
0.703020 0.900605 0.068992
0.781774 0.899984 0.068992
0.856671 0.895288 0.290861
0.931967 0.904457 0.439225
0.973366 0.883414 0.402458
1.024657 0.866370 0.366482
0.042260 0.973892 0.072509
0.046644 0.973892 0.068992
0.092036 0.973892 0.068992
0.161283 0.973892 0.068992
0.235912 0.973892 0.068992
0.312681 0.973892 0.068992
0.390602 0.973892 0.068992
0.469193 0.973892 0.068992
0.548306 0.973892 0.068992
0.627724 0.973892 0.068992
0.707451 0.973892 0.068992
0.787464 0.973892 0.068992
0.866927 0.973621 0.068992
0.945677 0.972909 0.321120
0.978497 0.952860 0.462970
1.022146 0.937724 0.460068
0.042281 0.999004 0.072404
0.046162 0.999004 0.068992
0.088999 0.999004 0.068992
0.155764 0.999004 0.068992
0.228093 0.999004 0.068992
0.302631 0.999004 0.068992
0.378367 0.999004 0.068992
0.454728 0.999004 0.068992
0.531732 0.999004 0.068992
0.609025 0.999004 0.068992
0.686538 0.999004 0.068992
0.764328 0.999004 0.068992
0.842120 0.999004 0.068992
0.921017 0.999212 0.068992
0.990975 0.999366 0.339325
1.034270 0.989300 0.443161
0.042364 1.138253 0.069690
0.047988 1.138253 0.068049
0.090116 1.138253 0.068024
0.155366 1.138253 0.067977
0.226003 1.138253 0.067941
0.298695 1.138253 0.067898
0.372451 1.138253 0.067870
0.446841 1.138253 0.067841
0.521630 1.138253 0.067823
0.596493 1.138253 0.067796
0.670780 1.138253 0.067771
0.744587 1.138253 0.067719
0.818136 1.138253 0.067686
0.893915 1.138253 0.067676
0.972020 1.136745 0.244725
1.051702 1.134782 0.424103
0.039521 -0.528968 0.073961
0.041560 -0.528968 0.073945
0.054059 -0.528968 0.070500
0.074686 -0.528968 0.067745
0.113490 -0.528968 0.068356
0.174115 -0.528968 0.071420
0.254117 -0.528968 0.075984
0.348378 -0.528968 0.081161
0.450144 -0.528968 0.086131
0.556430 -0.528968 0.090544
0.663368 -0.528968 0.093980
0.767429 -0.528968 0.096106
0.866027 -0.528968 0.097078
0.951342 -0.528968 0.097062
0.992007 -0.528968 0.095752
1.046924 -0.528968 0.094754
0.042528 0.063776 0.073171
0.044205 0.063903 0.073176
0.054816 0.063875 0.072890
0.076187 0.063763 0.072778
0.116067 0.063614 0.073130
0.177519 0.063485 0.074050
0.257922 0.063373 0.075375
0.352138 0.063295 0.076896
0.453370 0.063220 0.078403
0.558629 0.063143 0.079754
0.663514 0.063029 0.080792
0.765112 0.062879 0.081419
0.861485 0.062730 0.081640
0.946973 0.062694 0.081526
0.989913 0.062824 0.081278
1.046201 0.062964 0.081079
0.042528 0.077038 0.072772
0.044175 0.077038 0.072859
0.054740 0.076939 0.073818
0.076170 0.077727 0.073185
0.116067 0.079744 0.073185
0.177519 0.083283 0.073185
0.257922 0.087955 0.073185
0.352138 0.093099 0.073185
0.453370 0.097975 0.073185
0.558629 0.102378 0.073185
0.663514 0.106044 0.073185
0.765112 0.108787 0.073185
0.861485 0.110665 0.073185
0.946973 0.111446 0.073185
0.989913 0.108664 0.073185
1.046201 0.106536 0.073185
0.042528 0.102561 0.072801
0.044086 0.102561 0.072753
0.055394 0.102545 0.073185
0.075903 0.102108 0.076171
0.115145 0.108959 0.075097
0.177519 0.119429 0.073185
0.257922 0.132402 0.073185
0.352138 0.145771 0.073185
0.453370 0.157703 0.073185
0.558629 0.168024 0.073185
0.663514 0.176249 0.073185
0.765112 0.182170 0.073185
0.861485 0.185993 0.073185
0.946973 0.187325 0.073185
0.989913 0.181812 0.073185
1.046201 0.177513 0.073185
0.042528 0.145942 0.073723
0.043965 0.145942 0.073154
0.057068 0.145942 0.073185
0.081826 0.145872 0.073185
0.115641 0.144959 0.081085
0.174204 0.163367 0.086708
0.257869 0.183560 0.073405
0.352138 0.204138 0.073185
0.453370 0.222269 0.073185
0.558629 0.237768 0.073185
0.663514 0.249959 0.073185
0.765112 0.258663 0.073185
0.861485 0.264220 0.073185
0.946973 0.266057 0.073185
0.989913 0.258169 0.073185
1.046201 0.251928 0.073185
0.042528 0.210384 0.075541
0.043860 0.210384 0.074145
0.060013 0.210384 0.073185
0.091652 0.210384 0.073185
0.133453 0.210259 0.073185
0.177312 0.208868 0.091053
0.251976 0.237640 0.113329
0.350451 0.265190 0.082940
0.453370 0.288637 0.073185
0.558629 0.308967 0.073185
0.663514 0.324856 0.073185
0.765112 0.336144 0.073185
0.861485 0.343344 0.073185
0.946973 0.345673 0.073185
0.989913 0.335482 0.073185
1.046201 0.327489 0.073185
0.042528 0.293764 0.078008
0.043777 0.293764 0.075545
0.063909 0.293764 0.073185
0.104076 0.293764 0.073185
0.153626 0.293764 0.073185
0.205872 0.293606 0.073185
0.257995 0.291740 0.108395
0.343797 0.326513 0.153710
0.448775 0.356918 0.111744
0.558304 0.380835 0.075813
0.663514 0.400296 0.073185
0.765112 0.414102 0.073185
0.861485 0.422881 0.073185
0.946973 0.425689 0.073185
0.989913 0.413340 0.073185
1.046201 0.403431 0.073185
0.042528 0.390374 0.080738
0.043711 0.390374 0.077158
0.068218 0.390374 0.073185
0.116921 0.390374 0.073185
0.173650 0.390374 0.073185
0.232898 0.390374 0.073185
0.293177 0.390200 0.073185
0.352512 0.388125 0.133242
0.442965 0.423219 0.201374
0.550536 0.454446 0.157079
0.661283 0.476610 0.097835
0.765112 0.492242 0.073185
0.861485 0.502622 0.073185
0.946973 0.505831 0.073185
0.989913 0.491327 0.073185
1.046201 0.479761 0.073185
0.042528 0.493418 0.083345
0.043652 0.493418 0.078721
0.072292 0.493418 0.073185
0.128305 0.493418 0.073185
0.191160 0.493418 0.073185
0.256136 0.493418 0.073185
0.322290 0.493418 0.073185
0.388844 0.493203 0.073185
0.453620 0.490588 0.162664
0.546384 0.524523 0.252521
0.651946 0.553578 0.210182
0.759836 0.571929 0.140075
0.860976 0.582618 0.081461
0.946973 0.586160 0.073185
0.989913 0.569458 0.073185
1.046201 0.556189 0.073185
0.042528 0.599505 0.085692
0.043593 0.599505 0.080119
0.075991 0.599505 0.073185
0.138116 0.599505 0.073185
0.205989 0.599505 0.073185
0.275725 0.599505 0.073185
0.346446 0.599505 0.073185
0.417785 0.599505 0.073185
0.489224 0.599266 0.073185
0.557778 0.595749 0.194840
0.649846 0.626219 0.303915
0.750189 0.650709 0.265191
0.852896 0.664295 0.190988
0.944758 0.667283 0.111876
0.990021 0.647641 0.073218
1.046201 0.632609 0.073185
0.042528 0.704188 0.087564
0.043501 0.704187 0.081154
0.079009 0.704187 0.073185
0.145742 0.704187 0.073185
0.217451 0.704187 0.073185
0.290799 0.704187 0.073185
0.364982 0.704187 0.073185
0.439777 0.704187 0.073185
0.514962 0.704187 0.073185
0.590006 0.704011 0.073185
0.660729 0.699337 0.227703
0.750169 0.724969 0.353038
0.843751 0.743772 0.319003
0.935816 0.749187 0.241720
0.986341 0.726991 0.152468
1.044028 0.709864 0.112652
0.042528 0.804960 0.088878
0.043383 0.804960 0.081743
0.081282 0.804960 0.073185
0.151191 0.804960 0.073185
0.225508 0.804960 0.073185
0.301291 0.804960 0.073185
0.377972 0.804960 0.073185
0.455086 0.804960 0.073185
0.532603 0.804960 0.073185
0.610470 0.804960 0.073185
0.687774 0.804462 0.073185
0.760420 0.799203 0.260181
0.845707 0.819116 0.399068
0.928317 0.828623 0.368072
0.978469 0.806742 0.284693
1.034849 0.789042 0.239746
0.042528 0.900605 0.089672
0.043265 0.900605 0.081926
0.082873 0.900605 0.073185
0.154725 0.900605 0.073185
0.230662 0.900605 0.073185
0.307998 0.900605 0.073185
0.386142 0.900605 0.073185
0.464804 0.900605 0.073185
0.543833 0.900605 0.073185
0.623150 0.900605 0.073185
0.702659 0.900605 0.073185
0.781661 0.899990 0.073185
0.856687 0.895327 0.291850
0.932044 0.904388 0.439777
0.973392 0.883168 0.402753
1.024706 0.866168 0.366680
0.042528 0.973892 0.089844
0.043232 0.973892 0.081795
0.083529 0.973892 0.073185
0.155902 0.973892 0.073185
0.232300 0.973892 0.073185
0.310117 0.973892 0.073185
0.388689 0.973892 0.073185
0.467767 0.973892 0.073185
0.547246 0.973892 0.073185
0.626986 0.973892 0.073185
0.706908 0.973892 0.073185
0.787045 0.973892 0.073185
0.866741 0.973625 0.073185
0.945689 0.972932 0.322003
0.978576 0.952704 0.463522
1.022143 0.937540 0.460420
0.042528 0.999004 0.088732
0.043331 0.999004 0.081540
0.081073 0.999004 0.073185
0.150594 0.999004 0.073185
0.224585 0.999004 0.073185
0.300110 0.999004 0.073185
0.376491 0.999004 0.073185
0.453344 0.999004 0.073185
0.530614 0.999004 0.073185
0.608179 0.999004 0.073185
0.685892 0.999004 0.073185
0.763874 0.999004 0.073185
0.841799 0.999004 0.073185
0.920986 0.999213 0.073185
0.990981 0.999372 0.340113
1.034258 0.989350 0.443851
0.042525 1.138253 0.078206
0.043618 1.138253 0.070395
0.086034 1.138253 0.069453
0.152802 1.138253 0.069289
0.224331 1.138253 0.069074
0.297525 1.138253 0.068879
0.371617 1.138253 0.068725
0.446208 1.138253 0.068600
0.521180 1.138253 0.068488
0.596140 1.138253 0.068375
0.670520 1.138253 0.068214
0.744534 1.138253 0.067995
0.817947 1.138253 0.067781
0.893867 1.138253 0.067720
0.971942 1.136750 0.244588
1.051705 1.134786 0.424120
0.037472 -0.528975 0.090965
0.039225 -0.528971 0.091059
0.051874 -0.528968 0.091013
0.074824 -0.528968 0.089516
0.113645 -0.528968 0.091471
0.174275 -0.528968 0.099054
0.254269 -0.528968 0.109980
0.348456 -0.528968 0.121825
0.450169 -0.528968 0.132625
0.556531 -0.528968 0.141956
0.663365 -0.528968 0.149249
0.767477 -0.528968 0.154209
0.866065 -0.528968 0.157033
0.951367 -0.528968 0.157593
0.992018 -0.528968 0.153856
1.046926 -0.528968 0.150863
0.042525 0.063679 0.088322
0.044192 0.063874 0.088322
0.054619 0.063916 0.088221
0.076187 0.063916 0.089022
0.116067 0.063916 0.092117
0.177519 0.063916 0.098060
0.257922 0.063916 0.105896
0.352138 0.063916 0.114381
0.453370 0.063916 0.122171
0.558629 0.063916 0.128988
0.663514 0.063916 0.134420
0.765112 0.063916 0.138301
0.861485 0.063916 0.140690
0.946973 0.063916 0.141321
0.989913 0.063916 0.138069
1.046201 0.063916 0.135506
0.042528 0.076725 0.088177
0.044205 0.076824 0.088221
0.054816 0.077036 0.088266
0.076187 0.076991 0.088360
0.116067 0.076843 0.089014
0.177519 0.076668 0.090408
0.257922 0.076526 0.092363
0.352138 0.076405 0.094558
0.453370 0.076317 0.096692
0.558629 0.076200 0.098573
0.663515 0.076042 0.099992
0.765112 0.075822 0.100748
0.861485 0.075611 0.100940
0.946973 0.075556 0.100743
0.989913 0.075739 0.100438
1.046201 0.075947 0.100214
0.042528 0.102561 0.088943
0.044205 0.102561 0.089021
0.054775 0.102561 0.088385
0.076116 0.102377 0.089659
0.116004 0.106952 0.088324
0.177519 0.113979 0.088322
0.257922 0.122490 0.088322
0.352138 0.131409 0.088322
0.453370 0.139500 0.088322
0.558629 0.146586 0.088322
0.663515 0.152342 0.088322
0.765112 0.156547 0.088322
0.861485 0.159373 0.088322
0.946973 0.160346 0.088322
0.989913 0.156052 0.088322
1.046201 0.152714 0.088322
0.042528 0.145942 0.092396
0.044205 0.145942 0.092247
0.054657 0.145942 0.089117
0.080105 0.145911 0.088322
0.115863 0.145239 0.094091
0.175220 0.160999 0.095773
0.257922 0.178195 0.088322
0.352138 0.195807 0.088322
0.453370 0.211330 0.088322
0.558629 0.224689 0.088322
0.663515 0.235195 0.088322
0.765112 0.242746 0.088322
0.861485 0.247555 0.088322
0.946973 0.249074 0.088322
0.989913 0.241755 0.088322
1.046201 0.236036 0.088322
0.042528 0.210384 0.099064
0.044205 0.210384 0.098400
0.054516 0.210384 0.090715
0.086354 0.210384 0.088322
0.131090 0.210309 0.088322
0.177487 0.209113 0.103214
0.252526 0.235500 0.119739
0.351188 0.260412 0.092922
0.453370 0.281956 0.088322
0.558629 0.300550 0.088322
0.663515 0.315131 0.088322
0.765112 0.325470 0.088322
0.861485 0.331995 0.088322
0.946973 0.333920 0.088322
0.989913 0.324062 0.088322
1.046201 0.316303 0.088322
0.042528 0.293764 0.107784
0.044205 0.293764 0.106418
0.054396 0.293764 0.092857
0.094155 0.293764 0.088322
0.148192 0.293764 0.088322
0.203518 0.293642 0.088322
0.258126 0.291980 0.119236
0.344003 0.324686 0.158087
0.449546 0.353026 0.117031
0.558523 0.375472 0.088882
0.663515 0.393815 0.088322
0.765112 0.406677 0.088322
0.861485 0.414794 0.088322
0.946973 0.417212 0.088322
0.989913 0.404928 0.088322
1.046201 0.395330 0.088322
0.042528 0.390374 0.117116
0.044205 0.390374 0.115012
0.054300 0.390374 0.095249
0.102565 0.390374 0.088322
0.165195 0.390374 0.088322
0.228148 0.390374 0.088322
0.291108 0.390248 0.088322
0.352538 0.388301 0.142146
0.443040 0.421739 0.204743
0.551137 0.451345 0.159247
0.661841 0.472205 0.105332
0.765112 0.487118 0.088322
0.861485 0.496776 0.088322
0.946973 0.499602 0.088322
0.989913 0.485049 0.088322
1.046201 0.473550 0.088322
0.042528 0.493418 0.125543
0.044205 0.493418 0.122863
0.054217 0.493418 0.097553
0.110176 0.493418 0.088322
0.180133 0.493418 0.088322
0.249310 0.493418 0.088322
0.318338 0.493418 0.088322
0.387047 0.493249 0.088322
0.453655 0.490747 0.169907
0.546372 0.523279 0.255347
0.652297 0.551031 0.211084
0.760442 0.568361 0.143307
0.861065 0.578480 0.092860
0.946973 0.581593 0.088322
0.989913 0.564736 0.088322
1.046201 0.551392 0.088322
0.042528 0.599505 0.132831
0.044206 0.599505 0.129649
0.054129 0.599505 0.099551
0.116834 0.599505 0.088322
0.192860 0.599505 0.088322
0.267211 0.599505 0.088322
0.341000 0.599505 0.088322
0.414512 0.599505 0.088322
0.487679 0.599228 0.088322
0.557846 0.595877 0.200753
0.649753 0.625222 0.306410
0.750575 0.648738 0.265698
0.853317 0.661459 0.192152
0.945095 0.663886 0.118573
0.989913 0.644128 0.088322
1.046201 0.629040 0.088322
0.042528 0.704188 0.138504
0.044206 0.704187 0.134924
0.053994 0.704188 0.101000
0.122089 0.704188 0.088322
0.202700 0.704188 0.088322
0.280972 0.704188 0.088322
0.358314 0.704188 0.088322
0.435366 0.704188 0.088322
0.512252 0.704188 0.088322
0.588779 0.703987 0.088322
0.660916 0.699527 0.232707
0.750081 0.724043 0.355277
0.843931 0.742127 0.319484
0.936114 0.746897 0.242164
0.986600 0.724577 0.156190
1.044296 0.707098 0.119893
0.042528 0.804960 0.142486
0.044206 0.804960 0.138621
0.053825 0.804960 0.101724
0.125935 0.804960 0.088322
0.209660 0.804960 0.088322
0.290548 0.804960 0.088322
0.370439 0.804960 0.088322
0.449815 0.804960 0.088322
0.529059 0.804960 0.088322
0.608245 0.804960 0.088322
0.686674 0.804484 0.088322
0.760443 0.799285 0.264415
0.845736 0.818448 0.401160
0.928423 0.827317 0.368573
0.978766 0.804976 0.285154
1.035225 0.787024 0.240688
0.042528 0.900605 0.145003
0.044206 0.900605 0.140884
0.053651 0.900605 0.101873
0.128527 0.900605 0.088322
0.214125 0.900605 0.088322
0.296613 0.900605 0.088322
0.378093 0.900605 0.088322
0.458919 0.900605 0.088322
0.539631 0.900605 0.088322
0.620239 0.900605 0.088322
0.700843 0.900605 0.088322
0.780750 0.900014 0.088322
0.856735 0.895427 0.295524
0.931964 0.903829 0.441809
0.973382 0.882086 0.403484
1.024903 0.864742 0.367022
0.042528 0.973892 0.145734
0.044206 0.973892 0.141436
0.053599 0.973892 0.101623
0.129427 0.973892 0.088322
0.215455 0.973892 0.088322
0.298416 0.973892 0.088322
0.380220 0.973892 0.088322
0.461465 0.973892 0.088322
0.542562 0.973892 0.088322
0.623623 0.973892 0.088322
0.704523 0.973892 0.088322
0.785589 0.973892 0.088322
0.866048 0.973641 0.088322
0.945641 0.972942 0.325289
0.978462 0.952416 0.465590
1.022127 0.937011 0.461719
0.042528 0.999004 0.142087
0.044206 0.999004 0.138214
0.053755 0.999004 0.101326
0.125269 0.999004 0.088322
0.208343 0.999004 0.088322
0.288728 0.999004 0.088322
0.368086 0.999004 0.088322
0.447024 0.999004 0.088322
0.525864 0.999004 0.088322
0.604533 0.999004 0.088322
0.683202 0.999004 0.088322
0.762026 0.999004 0.088322
0.840635 0.999004 0.088322
0.920352 0.999161 0.088322
0.990991 0.999398 0.343178
1.034207 0.989168 0.446532
0.042518 1.138253 0.126080
0.044142 1.138253 0.121347
0.055009 1.138253 0.081517
0.132799 1.138253 0.082016
0.211306 1.138253 0.081700
0.288389 1.138253 0.081332
0.364861 1.138253 0.081029
0.441132 1.138253 0.080790
0.517270 1.138253 0.080581
0.593199 1.138253 0.080352
0.668316 1.138253 0.080047
0.742807 1.138253 0.079644
0.816834 1.138253 0.079234
0.893231 1.138253 0.079127
0.971689 1.136854 0.246812
1.051718 1.134803 0.425951
0.036950 -0.528987 0.122786
0.038855 -0.528974 0.123059
0.051618 -0.528968 0.123442
0.074766 -0.528968 0.123327
0.114223 -0.528968 0.128224
0.174835 -0.528968 0.141350
0.254743 -0.528968 0.159129
0.348930 -0.528968 0.177624
0.450514 -0.528968 0.194184
0.556759 -0.528968 0.208415
0.663599 -0.528968 0.219657
0.767639 -0.528968 0.227450
0.866114 -0.528968 0.232086
0.951471 -0.528968 0.233217
0.992059 -0.528968 0.227032
1.046930 -0.528968 0.222049
0.042518 0.063761 0.117823
0.044086 0.063737 0.117823
0.055474 0.063875 0.117823
0.076599 0.063916 0.117476
0.116067 0.063916 0.124024
0.177519 0.063916 0.136570
0.257922 0.063916 0.152082
0.352138 0.063916 0.167919
0.453370 0.063916 0.182008
0.558629 0.063916 0.194100
0.663514 0.063916 0.203628
0.765112 0.063916 0.210387
0.861485 0.063916 0.214633
0.946973 0.063916 0.215884
0.989913 0.063916 0.210043
1.046201 0.063916 0.205410
0.042528 0.077792 0.117823
0.044175 0.077848 0.117823
0.054775 0.077013 0.117823
0.076671 0.077038 0.117631
0.116067 0.077038 0.122754
0.177519 0.077038 0.132485
0.257922 0.077038 0.144407
0.352138 0.077038 0.156683
0.453370 0.077038 0.167671
0.558629 0.077038 0.177201
0.663515 0.077039 0.184744
0.765112 0.077039 0.190005
0.861485 0.077039 0.193222
0.946973 0.077039 0.194020
0.989913 0.077039 0.189334
1.046201 0.077039 0.185617
0.042528 0.102900 0.117429
0.044205 0.102986 0.117476
0.054816 0.103073 0.117631
0.076187 0.102594 0.117713
0.116067 0.102514 0.118612
0.177519 0.102363 0.120568
0.257922 0.102169 0.123136
0.352138 0.102031 0.125936
0.453370 0.101906 0.128579
0.558630 0.101741 0.130829
0.663514 0.101501 0.132436
0.765113 0.101187 0.133144
0.861485 0.100866 0.133158
0.946973 0.100798 0.132792
0.989913 0.101097 0.132524
1.046201 0.101417 0.132374
0.042528 0.145942 0.124418
0.044205 0.145942 0.124327
0.054816 0.145942 0.123057
0.076132 0.145942 0.118811
0.116127 0.145703 0.119985
0.177348 0.154801 0.118010
0.257922 0.165262 0.117823
0.352138 0.175883 0.117823
0.453370 0.185411 0.117823
0.558630 0.193777 0.117823
0.663514 0.200506 0.117823
0.765113 0.205399 0.117823
0.861485 0.208623 0.117823
0.946973 0.209575 0.117823
0.989913 0.203998 0.117823
1.046201 0.199717 0.117823
0.042528 0.210384 0.137607
0.044205 0.210384 0.137229
0.054816 0.210384 0.133108
0.076000 0.210384 0.121090
0.124912 0.210355 0.117823
0.177681 0.209545 0.127451
0.254150 0.230369 0.133464
0.352121 0.249681 0.117857
0.453370 0.266983 0.117823
0.558630 0.281854 0.117823
0.663514 0.293553 0.117823
0.765113 0.301837 0.117823
0.861485 0.307012 0.117823
0.946973 0.308364 0.117823
0.989913 0.299319 0.117823
1.046201 0.292350 0.117823
0.042528 0.293764 0.153826
0.044205 0.293764 0.152984
0.054816 0.293764 0.145287
0.075858 0.293763 0.124056
0.134865 0.293763 0.117823
0.197890 0.293679 0.117823
0.258235 0.292337 0.140674
0.344691 0.320591 0.167534
0.451139 0.344350 0.130702
0.558630 0.363914 0.117823
0.663514 0.379728 0.117823
0.765113 0.390745 0.117823
0.861485 0.397612 0.117823
0.946973 0.399267 0.117823
0.989913 0.387362 0.117823
1.046201 0.378109 0.117823
0.042528 0.390374 0.170242
0.044205 0.390374 0.168944
0.054816 0.390374 0.157756
0.075718 0.390374 0.127222
0.144933 0.390374 0.117823
0.217281 0.390374 0.117823
