nova/tdt-studio/app/Lut_mau/IWLTBAP/1 - LUTs by IWLTBAP (CUBE)/01 - Standard/Psychedelia/Esromen - Standard.cube
# Copyright: (C) Copyright 2010-2018 by IWLTBAP SAS
# Cannot be resold, shared or otherwise redistributed
# Website: https://luts.iwltbap.com
TITLE "IWLTBAP Esromen (Rec.709, sRGB, DCI-P3)"
LUT_3D_SIZE 9
0.000000 0.000000 0.000000
0.118988 0.006592 0.004303
0.235535 0.013702 0.005615
0.352997 0.020416 0.005096
0.474121 0.026886 0.004852
0.594513 0.032837 0.005096
0.709747 0.038391 0.005341
0.820068 0.043274 0.005341
0.927765 0.047913 0.005615
0.001556 0.075653 0.119751
0.092682 0.104401 0.079865
0.230591 0.124268 0.023407
0.356964 0.131714 0.013458
0.484100 0.138397 0.008118
0.606049 0.143982 0.006592
0.721527 0.148712 0.006866
0.832367 0.153107 0.007629
0.940643 0.157410 0.008636
0.002380 0.162903 0.246063
0.056396 0.187683 0.219055
0.171967 0.218933 0.136566
0.349579 0.244751 0.035706
0.485748 0.251282 0.019501
0.614624 0.256683 0.011932
0.733917 0.261353 0.010406
0.846466 0.265686 0.011169
0.955658 0.269806 0.012451
0.004730 0.255768 0.375183
0.030762 0.279053 0.364044
0.099396 0.304047 0.314575
0.256470 0.335114 0.191559
0.469391 0.365631 0.049683
0.612610 0.372162 0.028473
0.743469 0.377716 0.018524
0.861237 0.382111 0.015564
0.972107 0.385864 0.015350
0.011810 0.339539 0.493683
0.022858 0.361725 0.496674
0.055359 0.386139 0.471863
0.142975 0.411163 0.403503
0.340881 0.448059 0.246826
0.589203 0.487549 0.065399
0.739075 0.495087 0.037964
0.869995 0.500000 0.023560
0.986450 0.503143 0.017731
0.026001 0.413147 0.601013
0.030762 0.433289 0.611481
0.041046 0.456665 0.608795
0.079163 0.483643 0.571808
0.186707 0.513489 0.491821
0.427551 0.560791 0.302795
0.701355 0.606903 0.090851
0.860138 0.616241 0.044312
0.994629 0.620148 0.021362
0.037079 0.480011 0.701355
0.040222 0.498047 0.713806
0.042542 0.520203 0.722656
0.055573 0.548035 0.709412
0.104553 0.578217 0.666138
0.233246 0.613129 0.574310
0.507416 0.668762 0.352386
0.803772 0.720612 0.118896
0.990021 0.736511 0.037628
0.033112 0.540894 0.791656
0.037872 0.557983 0.803375
0.046173 0.581726 0.815704
0.056305 0.610474 0.816254
0.073334 0.637787 0.796082
0.126099 0.666077 0.745819
0.262207 0.701782 0.645172
0.580414 0.770447 0.397888
0.930725 0.838684 0.141113
0.017365 0.598267 0.872375
0.028381 0.616608 0.883179
0.047607 0.644562 0.897247
0.065155 0.675354 0.905670
0.068634 0.697510 0.894318
0.064331 0.712616 0.872528
0.091064 0.736755 0.838409
0.255249 0.790131 0.761627
0.686096 0.899414 0.504181
0.003937 0.009460 0.033112
0.104736 0.026825 0.051117
0.235596 0.013947 0.102386
0.353668 0.016876 0.103210
0.474182 0.018127 0.104950
0.593933 0.019501 0.107269
0.709595 0.022064 0.108429
0.820770 0.025513 0.108429
0.929077 0.028900 0.108093
0.003143 0.087402 0.148041
0.088013 0.106567 0.137909
0.232422 0.125092 0.123291
0.358887 0.130463 0.116791
0.485138 0.134125 0.112885
0.606598 0.136749 0.111420
0.722534 0.139435 0.110809
0.834106 0.142670 0.110504
0.942993 0.145966 0.110199
0.003937 0.175140 0.275513
0.064117 0.194214 0.254211
0.182678 0.221527 0.199585
0.353516 0.244873 0.140411
0.487854 0.250122 0.126984
0.615662 0.253784 0.119232
0.735260 0.257111 0.115875
0.848633 0.260529 0.114532
0.958618 0.263977 0.114136
0.005524 0.264954 0.404388
0.040222 0.283691 0.391418
0.117065 0.306183 0.350677
0.272949 0.336670 0.257385
0.473816 0.365906 0.155548
0.614777 0.371490 0.136353
0.745056 0.375916 0.125397
0.863495 0.379547 0.120636
0.975098 0.382782 0.118652
0.011810 0.344818 0.518097
0.029175 0.364471 0.517517
0.071106 0.387939 0.494904
0.165802 0.413788 0.438507
0.358368 0.451019 0.312714
0.593719 0.488281 0.171204
0.741730 0.494934 0.145966
0.872223 0.498993 0.131012
0.988831 0.501617 0.123627
0.023651 0.415833 0.619537
0.032318 0.435120 0.627838
0.049774 0.458496 0.624573
0.097809 0.487366 0.593292
0.210052 0.519226 0.526825
0.444061 0.566010 0.369995
0.706543 0.608673 0.195251
0.862793 0.617004 0.154297
0.995972 0.620361 0.132324
0.033905 0.481720 0.714813
0.039429 0.499542 0.726288
0.046875 0.522522 0.734680
0.067688 0.552429 0.723907
0.123749 0.585327 0.687561
0.254608 0.622070 0.609955
0.522675 0.676208 0.421661
0.809174 0.724121 0.223511
0.991150 0.738800 0.153839
0.037079 0.544464 0.802460
0.044006 0.561462 0.813690
0.054291 0.585327 0.825439
0.068695 0.615295 0.826630
0.090729 0.645172 0.809387
0.146454 0.675781 0.766174
0.283630 0.712769 0.680756
0.594788 0.779724 0.470306
0.935455 0.844055 0.249725
0.035461 0.606384 0.882782
0.048279 0.624420 0.893280
0.068390 0.650635 0.905701
0.087555 0.680267 0.912567
0.091492 0.704285 0.902557
0.085785 0.722137 0.883575
0.113861 0.748199 0.854767
0.280762 0.802216 0.791656
0.705078 0.908417 0.571564
0.003937 0.027588 0.075653
0.095093 0.040985 0.093414
0.200562 0.048279 0.103333
0.332733 0.031647 0.150482
0.475708 0.012207 0.205322
0.595001 0.010162 0.211182
0.710419 0.010925 0.215790
0.821716 0.012970 0.217712
0.930023 0.015137 0.217987
0.003174 0.101471 0.173981
0.084259 0.115356 0.175140
0.197083 0.129822 0.169342
0.344849 0.135559 0.187775
0.486847 0.131195 0.218506
0.608032 0.131470 0.219574
0.724030 0.132874 0.220795
0.835876 0.135132 0.220886
0.945038 0.137604 0.220306
0.003937 0.186493 0.296387
0.067291 0.199921 0.285278
0.175903 0.218048 0.263123
0.338440 0.240295 0.239197
0.490479 0.249573 0.236145
0.617188 0.252136 0.231140
0.736694 0.254547 0.228821
0.850586 0.257202 0.227295
0.961182 0.260040 0.225769
0.005524 0.273468 0.428040
0.048279 0.287750 0.416382
0.135071 0.307709 0.386017
0.292267 0.338409 0.324219
0.479736 0.366852 0.263641
0.617615 0.372162 0.249664
0.746613 0.375946 0.240936
0.865295 0.378937 0.236145
0.977570 0.381622 0.233154
0.010254 0.349884 0.543823
0.036255 0.366608 0.540924
0.091949 0.388550 0.519775
0.198883 0.415741 0.474823
0.384674 0.454834 0.382690
0.600586 0.490234 0.281372
0.744965 0.496552 0.261414
0.874115 0.500122 0.248474
0.990601 0.502228 0.241150
0.019714 0.418213 0.643158
0.034698 0.436127 0.648773
0.064697 0.459320 0.643707
0.130280 0.489960 0.615967
0.251312 0.525208 0.563263
0.472534 0.572906 0.441772
0.714752 0.612000 0.304657
0.866089 0.619598 0.271484
0.996887 0.622650 0.252899
0.031555 0.483307 0.733734
0.040222 0.500610 0.743530
0.057434 0.524139 0.750092
0.094727 0.556519 0.740021
0.165405 0.592865 0.709167
0.299072 0.632660 0.646576
0.551422 0.685974 0.494537
0.818237 0.729431 0.332611
0.992249 0.742676 0.275970
0.046173 0.548523 0.817841
0.055573 0.564972 0.827850
0.072113 0.588684 0.837921
0.098480 0.620361 0.838654
0.133179 0.653961 0.823456
0.195099 0.688263 0.786896
0.330475 0.727264 0.717499
0.623199 0.791718 0.545227
0.942413 0.850647 0.361938
0.067291 0.615753 0.897186
0.082397 0.632111 0.905884
0.107513 0.655884 0.915314
0.134399 0.685089 0.919952
0.143494 0.712799 0.911255
0.138123 0.735840 0.895538
0.167938 0.765015 0.871643
0.333649 0.818298 0.820435
0.735931 0.918030 0.637817
0.003937 0.051666 0.123352
0.079590 0.062225 0.146423
0.184967 0.065033 0.155945
0.311615 0.054016 0.156738
0.435425 0.033997 0.163666
0.589203 0.009094 0.289185
0.712708 0.006622 0.318665
0.823151 0.007904 0.325806
0.930969 0.009430 0.330719
0.003937 0.118408 0.198334
0.074158 0.129028 0.211304
0.185608 0.139587 0.216644
0.329010 0.144775 0.214813
0.466309 0.140747 0.213531
0.605682 0.129669 0.305969
0.726135 0.128998 0.327667
0.837616 0.131195 0.332306
0.946472 0.133881 0.335632
0.003937 0.197754 0.306335
0.064514 0.207764 0.307892
0.173340 0.222504 0.302521
0.325958 0.239105 0.289948
0.478424 0.249329 0.275879
0.617218 0.251831 0.328125
0.738312 0.253235 0.340790
0.852112 0.255859 0.342926
0.962738 0.258881 0.344452
0.005524 0.281464 0.438751
0.051666 0.292236 0.433838
0.145508 0.308868 0.417542
0.293182 0.332123 0.389587
0.458954 0.355011 0.358673
0.619843 0.373413 0.357178
0.748047 0.377472 0.357574
0.866241 0.380249 0.356232
0.978851 0.382812 0.355682
0.008667 0.355164 0.563202
0.040985 0.368927 0.561218
0.112793 0.388611 0.544495
0.238190 0.417358 0.510925
0.402283 0.451691 0.468048
0.604797 0.491089 0.396912
0.748566 0.499725 0.378998
0.875153 0.503235 0.370972
0.991272 0.505341 0.366516
0.016571 0.420593 0.668243
0.037842 0.436523 0.672455
0.086273 0.459015 0.665955
0.180023 0.491760 0.640503
0.316223 0.531647 0.600067
0.516235 0.581451 0.513977
0.726044 0.616577 0.415619
0.869690 0.623810 0.392029
0.997131 0.627075 0.378998
0.033905 0.484833 0.757843
0.046875 0.501007 0.765930
0.079590 0.524445 0.769928
0.145355 0.559143 0.758392
0.241943 0.600311 0.731171
0.377350 0.644379 0.682922
0.598419 0.697327 0.567993
0.831543 0.735962 0.443207
0.993469 0.747864 0.400269
0.068909 0.551666 0.837372
0.081940 0.567230 0.845551
0.110077 0.590759 0.853180
0.159058 0.624512 0.851929
0.217346 0.662903 0.837219
0.289398 0.702087 0.807007
0.416046 0.743713 0.753448
0.671509 0.805237 0.619690
0.951935 0.858002 0.474243
0.124939 0.621887 0.911377
0.145874 0.636719 0.917480
0.180908 0.659363 0.923615
0.221344 0.689819 0.926178
0.241791 0.722656 0.919098
0.243317 0.752106 0.907013
0.275604 0.784882 0.887787
0.427521 0.836731 0.847931
0.779694 0.928131 0.702728
0.004730 0.080536 0.167725
0.062225 0.090027 0.198547
0.162415 0.093842 0.216766
0.300079 0.080353 0.221252
0.438354 0.051514 0.216888
0.554596 0.025757 0.218170
0.679901 0.011536 0.316254
0.825226 0.006927 0.421539
0.932800 0.009674 0.435242
0.004730 0.139435 0.225525
0.059875 0.148865 0.250061
0.163879 0.157684 0.267639
0.314087 0.159698 0.274323
0.464600 0.148712 0.267883
0.588074 0.133270 0.263062
0.706146 0.127472 0.341797
0.839325 0.128571 0.431671
0.947937 0.133209 0.443604
0.004730 0.212402 0.316345
0.054932 0.220306 0.329773
0.156677 0.231781 0.339539
0.313507 0.245514 0.341339
0.476318 0.253143 0.331848
0.612579 0.253265 0.323120
0.730194 0.253326 0.379425
0.853577 0.254425 0.447327
0.963837 0.258972 0.456421
0.006287 0.291718 0.439087
0.048279 0.299744 0.442932
0.140869 0.312622 0.440399
0.295258 0.334625 0.430237
0.467834 0.358612 0.413544
0.622223 0.375549 0.398682
0.749573 0.382446 0.426331
0.867096 0.381561 0.466827
0.979370 0.384766 0.472168
0.009460 0.362915 0.568390
0.042511 0.373413 0.570190
0.122070 0.389648 0.562408
0.264221 0.418365 0.542236
0.436523 0.455627 0.516327
0.605774 0.488098 0.489532
0.754333 0.505646 0.478058
0.875824 0.506592 0.486298
0.991119 0.509094 0.486847
0.019714 0.425812 0.684753
0.044006 0.439026 0.689606
0.107147 0.458862 0.685608
0.229126 0.492950 0.665894
0.384583 0.537750 0.636414
0.550842 0.582764 0.599182
0.728333 0.618042 0.540131
0.872925 0.628204 0.508209
0.996887 0.632019 0.501312
0.048279 0.487762 0.780121
0.066193 0.502197 0.787476
0.114319 0.524445 0.790100
0.211456 0.561188 0.778442
0.336884 0.608124 0.754669
0.472748 0.657013 0.718384
0.653442 0.708832 0.638062
0.845978 0.742493 0.550934
0.994476 0.753113 0.522034
0.116364 0.554230 0.856018
0.134186 0.568787 0.862732
0.173309 0.591827 0.868286
0.244232 0.627563 0.865326
0.328339 0.671661 0.851227
0.411499 0.716461 0.826660
0.523376 0.760468 0.788147
0.729248 0.818604 0.692017
0.961853 0.865021 0.584442
0.224670 0.625519 0.920471
0.249146 0.640106 0.924500
0.287750 0.662903 0.928284
0.333923 0.695282 0.929657
0.366272 0.733002 0.924774
0.382172 0.768494 0.916382
0.418427 0.805145 0.902313
0.545380 0.855621 0.873932
0.826874 0.938202 0.765961
0.004730 0.113983 0.211151
0.047577 0.124634 0.250519
0.137726 0.130280 0.281586
0.278656 0.122345 0.298126
0.431061 0.091461 0.294067
0.559113 0.050232 0.275452
0.658203 0.025055 0.264801
0.756927 0.023041 0.325928
0.899719 0.026672 0.461761
0.005524 0.167480 0.263245
0.046875 0.175812 0.294891
0.137421 0.182648 0.324005
0.286041 0.184662 0.342285
0.449646 0.171600 0.338196
0.587280 0.145294 0.317688
0.692932 0.126801 0.303925
0.790314 0.131439 0.357208
0.921478 0.144318 0.480164
0.006287 0.233246 0.338348
0.044739 0.238953 0.358948
0.132111 0.246521 0.380341
0.284088 0.257355 0.396027
0.458679 0.263550 0.393677
0.609650 0.258606 0.376282
0.726501 0.252258 0.363647
0.825623 0.258270 0.406403
0.945160 0.267792 0.506958
0.008667 0.305847 0.441101
0.041748 0.311096 0.450989
0.123016 0.320129 0.460693
0.273651 0.338440 0.467224
0.456207 0.362213 0.464508
0.621948 0.379272 0.451965
0.754181 0.387543 0.441437
0.858948 0.393372 0.469696
0.968536 0.394165 0.540344
0.014191 0.374176 0.561920
0.040985 0.381653 0.567505
0.116028 0.394104 0.568665
0.261261 0.419403 0.564453
0.444427 0.457062 0.555756
0.618439 0.492096 0.541260
0.765106 0.513947 0.525909
0.880035 0.522980 0.534668
0.985901 0.519653 0.573425
0.028381 0.435669 0.685181
0.051025 0.445709 0.691528
0.117737 0.462372 0.692047
0.252716 0.494049 0.683014
0.425354 0.541046 0.666779
0.592377 0.589203 0.644379
0.744873 0.624084 0.617737
0.877594 0.642273 0.601349
0.994415 0.643005 0.606018
0.074158 0.495117 0.790466
0.094269 0.506805 0.797668
0.150208 0.526550 0.801361
0.265289 0.562286 0.795105
0.411957 0.613434 0.777863
0.551849 0.667206 0.752258
0.691315 0.712646 0.719604
0.843567 0.746582 0.679016
0.992004 0.762177 0.644592
0.181549 0.559753 0.867432
0.202057 0.572693 0.873322
0.246063 0.594177 0.878082
0.327942 0.630615 0.876251
0.428375 0.679291 0.865021
0.521484 0.730011 0.846649
0.622192 0.776886 0.821289
0.775848 0.828522 0.768829
0.966827 0.870728 0.695618
0.348206 0.632629 0.924225
0.369476 0.646759 0.927002
0.400940 0.668732 0.929504
0.441040 0.701416 0.931091
0.479187 0.742584 0.929169
0.511505 0.784149 0.925110
0.554504 0.825348 0.916687
0.655334 0.874420 0.899811
0.866455 0.947571 0.827576
0.005524 0.153107 0.263977
0.037048 0.163422 0.306946
0.113251 0.168671 0.346375
0.248383 0.167267 0.373505
0.409515 0.145874 0.381409
0.551788 0.099213 0.360962
0.662598 0.054626 0.329407
0.752167 0.052338 0.313812
0.836639 0.100494 0.323700
0.006317 0.200897 0.312408
0.037048 0.207214 0.346039
0.111847 0.211121 0.380707
0.249908 0.214050 0.408600
0.420288 0.206635 0.416962
0.573822 0.178345 0.396912
0.693085 0.145813 0.365601
0.786133 0.147217 0.350800
0.869629 0.194702 0.362213
0.007874 0.257996 0.373779
0.036255 0.261200 0.396057
0.107147 0.264801 0.423279
0.245605 0.272644 0.449249
0.425201 0.280762 0.460632
0.592957 0.276520 0.446655
0.724915 0.263275 0.420868
0.824524 0.267548 0.407959
0.908112 0.302582 0.417206
0.011017 0.322083 0.452942
0.035492 0.325104 0.465485
0.101074 0.330231 0.482391
0.237183 0.343750 0.502258
0.423584 0.366852 0.516388
0.605774 0.386261 0.512360
0.752502 0.393921 0.495178
0.861359 0.402100 0.483887
0.947418 0.422180 0.487854
0.018921 0.387054 0.554626
0.038635 0.391998 0.562073
0.099518 0.400696 0.570526
0.232269 0.420685 0.580444
0.420105 0.455933 0.590607
0.609039 0.493469 0.590790
0.766205 0.518341 0.578583
0.884552 0.532654 0.566803
0.976074 0.545959 0.564270
0.037048 0.448822 0.673615
0.054291 0.456055 0.680359
0.111847 0.468872 0.685638
0.240387 0.495300 0.687836
0.421967 0.540192 0.687897
0.603027 0.590454 0.682129
0.759216 0.629181 0.667542
0.886108 0.652649 0.652435
0.989594 0.668457 0.644257
0.092987 0.507904 0.786224
0.111847 0.516815 0.792786
0.165588 0.533173 0.798553
0.281982 0.564758 0.799042
0.440948 0.615540 0.792267
0.594940 0.672272 0.779327
0.738098 0.728058 0.762878
0.864227 0.757050 0.743469
0.986908 0.783234 0.729858
0.231415 0.571259 0.869293
0.251434 0.582031 0.874237
0.295013 0.600800 0.879395
0.379211 0.633820 0.881409
0.489746 0.683594 0.876068
0.597229 0.738678 0.865387
0.700287 0.790497 0.851532
0.817474 0.837708 0.837036
0.952728 0.878113 0.821686
0.446899 0.644501 0.925232
0.463287 0.657043 0.927246
0.487213 0.676697 0.929504
0.521820 0.706879 0.932526
0.564789 0.749390 0.934174
0.613525 0.796417 0.934753
0.667725 0.843445 0.932434
0.750153 0.892975 0.926575
0.878662 0.948547 0.917358
0.006317 0.195343 0.326141
0.028381 0.203033 0.367004
0.090454 0.205139 0.407501
0.214233 0.205505 0.441193
0.376068 0.200470 0.460022
0.531250 0.168732 0.452301
0.658813 0.115387 0.422333
0.762177 0.100891 0.393311
0.857391 0.165039 0.380554
0.007111 0.234894 0.367218
0.029968 0.238800 0.398346
0.089172 0.239258 0.433777
0.212433 0.240875 0.467865
0.380890 0.243713 0.488495
0.547058 0.228333 0.482483
0.684418 0.192352 0.454590
0.791992 0.184357 0.427155
0.885223 0.240906 0.415802
0.008667 0.282501 0.414825
0.029968 0.283813 0.435974
0.086517 0.284088 0.464844
0.207397 0.288513 0.498444
0.382477 0.300781 0.523315
0.562378 0.305634 0.524353
0.712921 0.293121 0.502380
0.827209 0.292786 0.477600
0.919098 0.332245 0.465271
0.011810 0.338348 0.474182
0.030762 0.339966 0.487213
0.082397 0.342194 0.508179
0.199738 0.350891 0.537415
0.379333 0.372833 0.566711
0.573273 0.397461 0.579102
0.739136 0.408905 0.567291
0.862000 0.417328 0.545990
0.954163 0.440399 0.530731
0.020508 0.399475 0.554932
0.035492 0.402802 0.563049
0.081482 0.408783 0.576508
0.193939 0.423309 0.597443
0.374939 0.453705 0.624084
0.577209 0.493317 0.643219
0.753265 0.523407 0.640594
0.883820 0.541290 0.623871
0.979095 0.557770 0.607361
0.039429 0.462219 0.660980
0.051025 0.467346 0.667297
0.093414 0.477203 0.676208
0.203217 0.497833 0.688019
0.381561 0.536255 0.703522
0.579529 0.586395 0.717072
0.754211 0.630219 0.717072
0.888885 0.658691 0.705414
0.990784 0.677826 0.692139
0.093414 0.523651 0.773468
0.107147 0.530487 0.779144
0.150208 0.543610 0.786407
0.255341 0.569916 0.792908
0.419189 0.614594 0.797455
0.595001 0.671051 0.799561
0.751648 0.724274 0.796661
0.882233 0.764160 0.789307
0.991425 0.792480 0.781281
0.242462 0.587860 0.863983
0.259155 0.596436 0.868195
0.298004 0.611816 0.873596
0.380615 0.640594 0.878265
0.502686 0.686157 0.879608
0.633453 0.742554 0.877960
0.754059 0.799011 0.875244
0.872253 0.857971 0.874084
0.974030 0.890839 0.871185
0.493347 0.660004 0.926300
0.507568 0.670135 0.927887
0.529663 0.686371 0.930084
0.566254 0.713104 0.933685
0.620514 0.753418 0.938385
0.689270 0.804108 0.943146
0.761261 0.857635 0.947418
0.838470 0.911804 0.952362
0.932770 0.967957 0.959564
0.007111 0.236053 0.390228
0.021301 0.240570 0.425018
0.068939 0.238495 0.463257
0.178925 0.236877 0.500275
0.336853 0.247467 0.528046
0.501617 0.245117 0.537170
0.647766 0.197906 0.520874
0.767914 0.163757 0.497375
0.872559 0.220703 0.485901
0.007904 0.266357 0.420959
0.024445 0.268341 0.447693
0.069458 0.265808 0.481750
0.176025 0.264954 0.520416
0.337708 0.277679 0.551453
0.512299 0.285309 0.563446
0.668274 0.256989 0.549500
0.794098 0.235138 0.527008
0.897827 0.283447 0.514587
0.008667 0.304901 0.456146
0.026031 0.305267 0.475250
0.068939 0.303314 0.504364
0.171692 0.304291 0.543152
0.336517 0.320251 0.580017
0.523346 0.339722 0.599823
0.692841 0.335205 0.591675
0.825928 0.328308 0.569946
0.928589 0.362671 0.553802
0.011017 0.353943 0.500031
0.027588 0.354462 0.513000
0.067841 0.354950 0.536316
0.165100 0.359558 0.572662
0.331543 0.379486 0.614624
0.531189 0.410858 0.646393
0.716156 0.429901 0.648590
0.857880 0.438629 0.628784
0.959930 0.461243 0.607635
0.020508 0.411407 0.562653
0.031525 0.413483 0.571198
0.066193 0.417725 0.588470
0.156708 0.427185 0.617615
0.323090 0.451752 0.657501
0.532227 0.492615 0.696625
0.728729 0.529572 0.709839
0.877563 0.552338 0.695984
0.981384 0.571625 0.674011
0.037048 0.474457 0.652283
0.044006 0.478180 0.658264
0.071594 0.485718 0.669891
0.157196 0.500885 0.689362
0.323334 0.531281 0.717560
0.534332 0.579285 0.750732
0.732574 0.628601 0.768433
0.884430 0.663940 0.763916
0.992157 0.687775 0.749207
0.080994 0.539612 0.759033
0.087830 0.544678 0.763519
0.116028 0.555023 0.771759
0.202820 0.575684 0.783325
0.365234 0.612183 0.797394
0.563354 0.665375 0.815186
0.746429 0.721985 0.828735
0.890533 0.768127 0.832153
0.998169 0.801727 0.829132
0.224670 0.606506 0.855804
0.236053 0.613007 0.859131
0.266510 0.625061 0.864471
0.344574 0.648651 0.871246
0.479126 0.688019 0.877502
0.637695 0.742737 0.885101
0.784485 0.802490 0.894226
0.904449 0.857483 0.903259
1.000000 0.905579 0.912537
0.497955 0.677429 0.927582
0.510925 0.685120 0.928802
0.533447 0.697723 0.930756
0.576324 0.720337 0.934448
0.647766 0.757141 0.940155
0.740936 0.809204 0.948608
0.836121 0.868958 0.960083
0.920227 0.930847 0.976013
0.999817 0.997040 0.998352
