nova/tdt-studio/app/Lut_mau/IWLTBAP/1 - LUTs by IWLTBAP (CUBE)/01 - Standard/Psychedelia/Esromen - Standard.cube
# Copyright: (C) Copyright 2010-2018 by IWLTBAP SAS
# Cannot be resold, shared or otherwise redistributed
# Website: https://luts.iwltbap.com
TITLE "IWLTBAP Esromen (Rec.709, sRGB, DCI-P3)"
LUT_3D_SIZE 5
0.000000 0.000000 0.000000
0.235535 0.013702 0.005615
0.474121 0.026886 0.004852
0.709747 0.038391 0.005341
0.927765 0.047913 0.005615
0.002380 0.162903 0.246063
0.171967 0.218933 0.136566
0.485748 0.251282 0.019501
0.733917 0.261353 0.010406
0.955658 0.269806 0.012451
0.011810 0.339539 0.493683
0.055359 0.386139 0.471863
0.340881 0.448059 0.246826
0.739075 0.495087 0.037964
0.986450 0.503143 0.017731
0.037079 0.480011 0.701355
0.042542 0.520203 0.722656
0.104553 0.578217 0.666138
0.507416 0.668762 0.352386
0.990021 0.736511 0.037628
0.017365 0.598267 0.872375
0.047607 0.644562 0.897247
0.068634 0.697510 0.894318
0.091064 0.736755 0.838409
0.686096 0.899414 0.504181
0.003937 0.027588 0.075653
0.200562 0.048279 0.103333
0.475708 0.012207 0.205322
0.710419 0.010925 0.215790
0.930023 0.015137 0.217987
0.003937 0.186493 0.296387
0.175903 0.218048 0.263123
0.490479 0.249573 0.236145
0.736694 0.254547 0.228821
0.961182 0.260040 0.225769
0.010254 0.349884 0.543823
0.091949 0.388550 0.519775
0.384674 0.454834 0.382690
0.744965 0.496552 0.261414
0.990601 0.502228 0.241150
0.031555 0.483307 0.733734
0.057434 0.524139 0.750092
0.165405 0.592865 0.709167
0.551422 0.685974 0.494537
0.992249 0.742676 0.275970
0.067291 0.615753 0.897186
0.107513 0.655884 0.915314
0.143494 0.712799 0.911255
0.167938 0.765015 0.871643
0.735931 0.918030 0.637817
0.004730 0.080536 0.167725
0.162415 0.093842 0.216766
0.438354 0.051514 0.216888
0.679901 0.011536 0.316254
0.932800 0.009674 0.435242
0.004730 0.212402 0.316345
0.156677 0.231781 0.339539
0.476318 0.253143 0.331848
0.730194 0.253326 0.379425
0.963837 0.258972 0.456421
0.009460 0.362915 0.568390
0.122070 0.389648 0.562408
0.436523 0.455627 0.516327
0.754333 0.505646 0.478058
0.991119 0.509094 0.486847
0.048279 0.487762 0.780121
0.114319 0.524445 0.790100
0.336884 0.608124 0.754669
0.653442 0.708832 0.638062
0.994476 0.753113 0.522034
0.224670 0.625519 0.920471
0.287750 0.662903 0.928284
0.366272 0.733002 0.924774
0.418427 0.805145 0.902313
0.826874 0.938202 0.765961
0.005524 0.153107 0.263977
0.113251 0.168671 0.346375
0.409515 0.145874 0.381409
0.662598 0.054626 0.329407
0.836639 0.100494 0.323700
0.007874 0.257996 0.373779
0.107147 0.264801 0.423279
0.425201 0.280762 0.460632
0.724915 0.263275 0.420868
0.908112 0.302582 0.417206
0.018921 0.387054 0.554626
0.099518 0.400696 0.570526
0.420105 0.455933 0.590607
0.766205 0.518341 0.578583
0.976074 0.545959 0.564270
0.092987 0.507904 0.786224
0.165588 0.533173 0.798553
0.440948 0.615540 0.792267
0.738098 0.728058 0.762878
0.986908 0.783234 0.729858
0.446899 0.644501 0.925232
0.487213 0.676697 0.929504
0.564789 0.749390 0.934174
0.667725 0.843445 0.932434
0.878662 0.948547 0.917358
0.007111 0.236053 0.390228
0.068939 0.238495 0.463257
0.336853 0.247467 0.528046
0.647766 0.197906 0.520874
0.872559 0.220703 0.485901
0.008667 0.304901 0.456146
0.068939 0.303314 0.504364
0.336517 0.320251 0.580017
0.692841 0.335205 0.591675
0.928589 0.362671 0.553802
0.020508 0.411407 0.562653
0.066193 0.417725 0.588470
0.323090 0.451752 0.657501
0.728729 0.529572 0.709839
0.981384 0.571625 0.674011
0.080994 0.539612 0.759033
0.116028 0.555023 0.771759
0.365234 0.612183 0.797394
0.746429 0.721985 0.828735
0.998169 0.801727 0.829132
0.497955 0.677429 0.927582
0.533447 0.697723 0.930756
0.647766 0.757141 0.940155
0.836121 0.868958 0.960083
0.999817 0.997040 0.998352
