nova/tdt-studio/app/Lut_mau/IWLTBAP/1 - LUTs by IWLTBAP (CUBE)/01 - Standard/Psychedelia/Esromen - Standard.cube
# Copyright: (C) Copyright 2010-2018 by IWLTBAP SAS
# Cannot be resold, shared or otherwise redistributed
# Website: https://luts.iwltbap.com
TITLE "IWLTBAP Esromen (Rec.709, sRGB, DCI-P3)"
LUT_3D_SIZE 33
0.000000 0.000000 0.000000
0.029816 0.001526 0.001251
0.060059 0.003296 0.002533
0.089630 0.004822 0.003296
0.118988 0.006592 0.004303
0.148254 0.008118 0.004822
0.177643 0.010162 0.005341
0.206604 0.011932 0.005585
0.235535 0.013702 0.005615
0.264465 0.015350 0.005615
0.293854 0.017090 0.005341
0.323212 0.018707 0.005096
0.352997 0.020416 0.005096
0.382965 0.022034 0.004852
0.413239 0.023560 0.004852
0.443634 0.025177 0.004852
0.474121 0.026886 0.004852
0.504517 0.028320 0.004852
0.534760 0.029846 0.004852
0.564819 0.031464 0.004852
0.594513 0.032837 0.005096
0.623840 0.034332 0.005096
0.652802 0.035736 0.005096
0.681458 0.037079 0.005096
0.709747 0.038391 0.005341
0.737732 0.039673 0.005341
0.765350 0.040924 0.005341
0.792786 0.042114 0.005341
0.820068 0.043274 0.005341
0.847107 0.044495 0.005615
0.874023 0.045624 0.005615
0.900909 0.046783 0.005615
0.927765 0.047913 0.005615
0.000793 0.018127 0.029175
0.027130 0.025299 0.024719
0.058777 0.030334 0.010406
0.088074 0.032104 0.010681
0.117645 0.033875 0.010925
0.146667 0.035583 0.010681
0.176056 0.037628 0.010406
0.205322 0.039276 0.009918
0.234772 0.041229 0.009399
0.264252 0.042877 0.008636
0.294189 0.044739 0.007874
0.324158 0.046509 0.007111
0.354462 0.048187 0.006592
0.384918 0.049774 0.006104
0.415619 0.051544 0.005829
0.446259 0.053131 0.005585
0.476929 0.054749 0.005341
0.507385 0.056305 0.005341
0.537811 0.057800 0.005066
0.567749 0.059235 0.005066
0.597504 0.060638 0.005341
0.626801 0.062073 0.005341
0.655762 0.063354 0.005341
0.684357 0.064636 0.005585
0.712646 0.065948 0.005585
0.740631 0.067139 0.005585
0.768311 0.068390 0.005829
0.795776 0.069519 0.005829
0.823059 0.070709 0.005829
0.850159 0.071838 0.006104
0.877136 0.072968 0.006104
0.904022 0.074097 0.006104
0.930847 0.075256 0.006348
0.000793 0.036255 0.059265
0.024506 0.042755 0.058533
0.050812 0.050812 0.045502
0.086914 0.059418 0.018524
0.115753 0.061249 0.017700
0.144897 0.063141 0.016876
0.174164 0.064911 0.015778
0.203949 0.066895 0.014648
0.233795 0.068756 0.013458
0.263885 0.070679 0.011932
0.294250 0.072327 0.010681
0.324829 0.074158 0.009399
0.355743 0.075928 0.008392
0.386719 0.077728 0.007629
0.417725 0.079315 0.006866
0.448700 0.080963 0.006348
0.479584 0.082520 0.006104
0.510315 0.084137 0.005829
0.540649 0.085602 0.005585
0.570679 0.087036 0.005585
0.600403 0.088409 0.005585
0.629730 0.089722 0.005585
0.658691 0.091034 0.005585
0.687256 0.092285 0.005829
0.715607 0.093445 0.005829
0.743561 0.094635 0.006104
0.771271 0.095795 0.006104
0.798767 0.096954 0.006348
0.826080 0.098145 0.006348
0.853210 0.099243 0.006592
0.880188 0.100311 0.006592
0.907104 0.101440 0.006866
0.933990 0.102539 0.007111
0.000793 0.056183 0.089600
0.022858 0.061646 0.087402
0.045166 0.067963 0.083008
0.072571 0.077179 0.063873
0.113983 0.088715 0.024872
0.142822 0.090668 0.023560
0.172363 0.092529 0.021698
0.202057 0.094421 0.019867
0.232422 0.096344 0.017914
0.263062 0.098297 0.015991
0.293976 0.100159 0.013947
0.325317 0.102020 0.012207
0.356567 0.103790 0.010681
0.388092 0.105530 0.009399
0.419617 0.107269 0.008392
0.450897 0.108856 0.007355
0.482056 0.110474 0.006866
0.512878 0.112030 0.006348
0.543396 0.113464 0.006104
0.573486 0.114838 0.006104
0.603271 0.116211 0.005829
0.632599 0.117432 0.006104
0.661591 0.118652 0.006104
0.690247 0.119904 0.006104
0.718506 0.121063 0.006348
0.746552 0.122192 0.006348
0.774323 0.123291 0.006592
0.801880 0.124451 0.006866
0.829163 0.125519 0.007111
0.856354 0.126617 0.007111
0.883392 0.127716 0.007355
0.910370 0.128845 0.007629
0.937286 0.129913 0.007874
0.001556 0.075653 0.119751
0.021271 0.081482 0.116028
0.041260 0.087860 0.110840
0.063232 0.094025 0.104095
0.092682 0.104401 0.079865
0.140900 0.118408 0.030792
0.169922 0.120422 0.028473
0.200348 0.122314 0.025970
0.230591 0.124268 0.023407
0.261780 0.126190 0.020599
0.293152 0.128052 0.018097
0.325012 0.129913 0.015778
0.356964 0.131714 0.013458
0.389008 0.133545 0.011688
0.420959 0.135223 0.010162
0.452698 0.136810 0.008881
0.484100 0.138397 0.008118
0.515228 0.139893 0.007355
0.545929 0.141357 0.006866
0.576202 0.142670 0.006592
0.606049 0.143982 0.006592
0.635468 0.145233 0.006592
0.664520 0.146423 0.006592
0.693176 0.147614 0.006592
0.721527 0.148712 0.006866
0.749634 0.149841 0.007111
0.777405 0.150940 0.007111
0.804993 0.152039 0.007355
0.832367 0.153107 0.007629
0.859589 0.154175 0.007874
0.886658 0.155273 0.008118
0.913696 0.156342 0.008392
0.940643 0.157410 0.008636
0.001587 0.096313 0.150970
0.018921 0.102234 0.146149
0.037170 0.108063 0.140289
0.056946 0.114807 0.132660
0.079773 0.121338 0.123932
0.112091 0.132477 0.094666
0.165100 0.147247 0.040955
0.197388 0.150269 0.033081
0.228546 0.152191 0.029572
0.259705 0.154205 0.026550
0.291809 0.156128 0.023071
0.324005 0.157928 0.020050
0.356567 0.159790 0.017303
0.389160 0.161591 0.014893
0.421661 0.163269 0.012695
0.453857 0.164886 0.010925
0.485748 0.166473 0.009644
0.517181 0.167938 0.008636
0.548157 0.169373 0.008118
0.578644 0.170624 0.007629
0.608673 0.171875 0.007355
0.638214 0.173096 0.007111
0.667419 0.174286 0.007111
0.696167 0.175415 0.007355
0.724609 0.176544 0.007355
0.752777 0.177643 0.007629
0.780609 0.178741 0.007874
0.808258 0.179840 0.008118
0.835663 0.180847 0.008392
0.862976 0.181915 0.008636
0.890106 0.183014 0.009155
0.917145 0.184082 0.009399
0.944183 0.185089 0.009644
0.001587 0.117737 0.181976
0.017334 0.123688 0.176910
0.033112 0.129669 0.171234
0.051514 0.136292 0.163361
0.071381 0.142883 0.153198
0.094940 0.148987 0.142853
0.131470 0.160919 0.108856
0.187286 0.175751 0.054291
0.225250 0.180420 0.037415
0.257446 0.182465 0.033203
0.289307 0.184235 0.029572
0.322327 0.186127 0.025665
0.355286 0.187988 0.022217
0.388458 0.189758 0.018921
0.421539 0.191437 0.016235
0.454285 0.193054 0.013947
0.486603 0.194641 0.011932
0.518555 0.196045 0.010681
0.549896 0.197449 0.009644
0.580719 0.198700 0.008881
0.611053 0.199982 0.008392
0.640839 0.201172 0.008118
0.670197 0.202301 0.008118
0.699158 0.203461 0.008118
0.727722 0.204559 0.008118
0.755981 0.205658 0.008392
0.783905 0.206726 0.008636
0.811646 0.207825 0.008881
0.839142 0.208893 0.009399
0.866486 0.209930 0.009644
0.893646 0.210968 0.009918
0.920807 0.212036 0.010162
0.947845 0.213104 0.010406
0.002350 0.140015 0.213867
0.015778 0.146149 0.208710
0.029968 0.151794 0.203003
0.045746 0.158325 0.195099
0.064453 0.165100 0.185455
0.085022 0.171478 0.174133
0.110565 0.177673 0.161743
0.151276 0.189758 0.122650
0.209625 0.204315 0.067230
0.253601 0.210663 0.041809
0.286560 0.212677 0.036835
0.319366 0.214478 0.032593
0.353119 0.216339 0.028168
0.386749 0.218109 0.024231
0.420319 0.219696 0.020782
0.453766 0.221375 0.017700
0.486664 0.222900 0.015350
0.519135 0.224304 0.013214
0.551025 0.225677 0.011688
0.582367 0.226990 0.010681
0.613068 0.228241 0.009918
0.643219 0.229431 0.009399
0.672882 0.230591 0.009155
0.702057 0.231720 0.009155
0.730835 0.232849 0.009155
0.759247 0.233917 0.009399
0.787354 0.235016 0.009644
0.815155 0.236084 0.009918
0.842743 0.237122 0.010162
0.870178 0.238220 0.010406
0.897400 0.239258 0.010925
0.924591 0.240265 0.011169
0.951660 0.241333 0.011444
0.002380 0.162903 0.246063
0.013397 0.168915 0.241333
0.026001 0.174896 0.235870
0.039520 0.181274 0.229309
0.056396 0.187683 0.219055
0.076447 0.194183 0.207550
0.098816 0.200348 0.194885
0.126465 0.206879 0.180603
0.171967 0.218933 0.136566
0.232422 0.233337 0.079834
0.282196 0.241028 0.046143
0.316101 0.243103 0.040588
0.349579 0.244751 0.035706
0.383972 0.246521 0.030792
0.418060 0.248169 0.026550
0.452118 0.249756 0.022736
0.485748 0.251282 0.019501
0.518921 0.252747 0.016876
0.551453 0.254120 0.014648
0.583405 0.255463 0.012970
0.614624 0.256683 0.011932
0.645264 0.257904 0.011169
0.675323 0.259094 0.010681
0.704865 0.260254 0.010406
0.733917 0.261353 0.010406
0.762573 0.262451 0.010406
0.790863 0.263580 0.010681
0.818787 0.264618 0.010925
0.846466 0.265686 0.011169
0.873932 0.266754 0.011444
0.901245 0.267761 0.011688
0.928497 0.268799 0.012207
0.955658 0.269806 0.012451
0.003143 0.186279 0.278503
0.012604 0.192322 0.274567
0.022858 0.198334 0.269867
0.034698 0.204163 0.264069
0.048859 0.210754 0.254730
0.066589 0.217285 0.243378
0.088623 0.223724 0.230225
0.113373 0.229706 0.215607
0.143036 0.235962 0.199310
0.193176 0.248352 0.150452
0.255463 0.262299 0.092529
0.310089 0.271149 0.051544
0.345551 0.273315 0.044312
0.379639 0.274963 0.039032
0.414673 0.276672 0.033691
0.449219 0.278259 0.029022
0.483612 0.279785 0.024872
0.517578 0.281311 0.021332
0.550873 0.282654 0.018524
0.583588 0.284027 0.016449
0.615570 0.285309 0.014648
0.646820 0.286560 0.013458
0.677460 0.287811 0.012695
0.707428 0.288971 0.012207
0.736877 0.290131 0.011932
0.765808 0.291229 0.011688
0.794312 0.292358 0.011932
0.822449 0.293427 0.011932
0.850250 0.294464 0.012207
0.877869 0.295532 0.012451
0.905212 0.296539 0.012695
0.932495 0.297546 0.012970
0.959747 0.298584 0.013214
0.003174 0.209656 0.311096
0.011047 0.215698 0.307861
0.019714 0.221558 0.304138
0.029175 0.227570 0.298859
0.042084 0.233734 0.291046
0.058014 0.240326 0.280426
0.077423 0.246613 0.267609
0.100922 0.252991 0.252625
0.127777 0.258484 0.236084
0.159760 0.264954 0.218048
0.214355 0.277435 0.164062
0.278687 0.291290 0.105103
0.334595 0.300201 0.062561
0.375000 0.303619 0.048157
0.409668 0.305176 0.042389
0.445190 0.306824 0.036621
0.480255 0.308411 0.031708
0.515015 0.309875 0.027313
0.549255 0.311401 0.023560
0.582825 0.312805 0.020599
0.615662 0.314148 0.018097
0.647705 0.315460 0.016449
0.679016 0.316742 0.015106
0.709595 0.317993 0.014191
0.739563 0.319153 0.013702
0.768860 0.320312 0.013214
0.797699 0.321411 0.013214
0.826050 0.322449 0.013214
0.854034 0.323517 0.013214
0.881744 0.324524 0.013458
0.909271 0.325562 0.013702
0.936584 0.326538 0.013947
0.963898 0.327515 0.014191
0.003937 0.232758 0.343201
0.010254 0.238800 0.341003
0.017334 0.244659 0.338135
0.025238 0.250671 0.334045
0.035583 0.256622 0.327972
0.049866 0.263184 0.318024
0.066986 0.269501 0.305878
0.088226 0.275635 0.291290
0.113922 0.281891 0.274780
0.142609 0.287262 0.256470
0.177002 0.293610 0.236603
0.235535 0.306519 0.177887
0.301819 0.319977 0.117645
0.358948 0.329132 0.073547
0.404205 0.333832 0.052216
0.439545 0.335388 0.045959
0.475647 0.337036 0.039856
0.511139 0.338593 0.034546
0.546356 0.340149 0.029968
0.580902 0.341644 0.025970
0.614777 0.343140 0.022736
0.647766 0.344513 0.020233
0.679932 0.345856 0.018311
0.711273 0.347168 0.016876
0.741821 0.348358 0.015778
0.771698 0.349518 0.015106
0.800873 0.350647 0.014648
0.829559 0.351685 0.014404
0.857758 0.352753 0.014404
0.885620 0.353760 0.014404
0.913239 0.354736 0.014648
0.940674 0.355713 0.014648
0.968018 0.356628 0.014893
0.004730 0.255768 0.375183
0.009460 0.261627 0.373779
0.014984 0.267365 0.371765
0.022064 0.273346 0.368713
0.030762 0.279053 0.364044
0.042358 0.285370 0.355621
0.057770 0.291718 0.344330
0.076355 0.298096 0.330872
0.099396 0.304047 0.314575
0.126801 0.310242 0.296356
0.157227 0.315369 0.276489
0.193970 0.321747 0.254974
0.256470 0.335114 0.191559
0.324738 0.348572 0.130371
0.383331 0.357971 0.084656
0.433350 0.364044 0.056396
0.469391 0.365631 0.049683
0.506012 0.367310 0.043274
0.542053 0.368988 0.037628
0.577728 0.370605 0.032715
0.612610 0.372162 0.028473
0.646729 0.373657 0.025024
0.679871 0.375061 0.022217
0.712158 0.376434 0.020050
0.743469 0.377716 0.018524
0.773987 0.378906 0.017303
0.803680 0.380035 0.016449
0.832794 0.381134 0.015991
0.861237 0.382111 0.015564
0.889374 0.383118 0.015564
0.917084 0.384033 0.015350
0.944641 0.384979 0.015350
0.972107 0.385864 0.015350
0.005524 0.277832 0.406097
0.009460 0.283447 0.405518
0.014191 0.289429 0.404663
0.019714 0.295135 0.402588
0.026794 0.301117 0.399017
0.036591 0.307098 0.392548
0.049530 0.313446 0.382568
0.065704 0.319641 0.369904
0.085968 0.325867 0.355072
0.110474 0.331543 0.337158
0.139801 0.337891 0.317810
0.171814 0.343048 0.296295
0.210724 0.349426 0.273407
0.277466 0.363403 0.205109
0.347290 0.377045 0.143311
0.407715 0.386780 0.095825
0.462402 0.394226 0.060791
0.499237 0.395996 0.053528
0.536407 0.397766 0.046844
0.573029 0.399506 0.040802
0.609131 0.401184 0.035492
0.644379 0.402802 0.031036
0.678711 0.404327 0.027313
0.711975 0.405792 0.024231
0.744293 0.407104 0.021881
0.775543 0.408356 0.020050
0.805969 0.409546 0.018707
0.835541 0.410583 0.017700
0.864441 0.411591 0.017090
0.892761 0.412537 0.016663
0.920776 0.413452 0.016449
0.948456 0.414307 0.016235
0.976074 0.415161 0.016022
0.007080 0.299133 0.436188
0.010254 0.304871 0.436554
0.014191 0.310516 0.436249
0.018921 0.316345 0.435242
0.024445 0.322083 0.432800
0.031616 0.327850 0.428406
0.042664 0.334259 0.419739
0.056274 0.340485 0.408600
0.074219 0.346649 0.394775
0.095764 0.352905 0.378754
0.121429 0.358704 0.359589
0.152374 0.364960 0.338928
0.186218 0.370148 0.315796
0.226746 0.376617 0.291901
0.298370 0.391663 0.218872
0.369659 0.405487 0.156525
0.432190 0.415588 0.107147
0.488983 0.423737 0.069397
0.529175 0.426392 0.057465
0.566895 0.428314 0.050446
0.604065 0.430176 0.043915
0.640564 0.431885 0.038391
0.676147 0.433594 0.033447
0.710632 0.435120 0.029449
0.743988 0.436523 0.026123
0.776215 0.437836 0.023407
0.807404 0.439026 0.021332
0.837646 0.440094 0.019867
0.867065 0.441071 0.018707
0.895844 0.442017 0.017914
0.924103 0.442871 0.017303
0.952026 0.443695 0.016876
0.979828 0.444489 0.016663
0.009460 0.319794 0.465454
0.011810 0.325348 0.466461
0.014984 0.330994 0.467041
0.018127 0.336517 0.466675
0.022858 0.342377 0.465454
0.029175 0.348114 0.462494
0.037659 0.354187 0.455688
0.049194 0.360565 0.446014
0.063812 0.366760 0.434021
0.082184 0.372986 0.419159
0.104919 0.379211 0.401947
0.132263 0.385101 0.381561
0.164581 0.391541 0.359985
0.200592 0.397003 0.335327
0.242615 0.403717 0.310822
0.319489 0.419861 0.232758
0.392120 0.433929 0.169861
0.456818 0.444458 0.118713
0.514893 0.453033 0.079559
0.559174 0.456940 0.061462
0.597443 0.458984 0.054077
0.635132 0.460876 0.047119
0.671967 0.462677 0.041107
0.707733 0.464355 0.035828
0.742310 0.465881 0.031433
0.775726 0.467255 0.027740
0.807861 0.468506 0.024872
0.838928 0.469574 0.022552
0.869019 0.470581 0.020966
0.898315 0.471497 0.019501
0.926971 0.472290 0.018524
0.955261 0.473083 0.017731
0.983307 0.473816 0.017090
0.011810 0.339539 0.493683
0.014191 0.345001 0.495270
0.016541 0.350464 0.496521
0.018921 0.356140 0.497162
0.022858 0.361725 0.496674
0.027588 0.367462 0.494812
0.034210 0.373474 0.490417
0.043732 0.379791 0.482239
0.055359 0.386139 0.471863
0.070953 0.392395 0.458984
0.090179 0.398682 0.443115
0.114258 0.404968 0.424957
0.142975 0.411163 0.403503
0.176697 0.417786 0.381134
0.215149 0.423615 0.355103
0.260284 0.431274 0.327271
0.340881 0.448059 0.246826
0.414795 0.462585 0.183258
0.481598 0.473480 0.130310
0.540924 0.482422 0.089844
0.589203 0.487549 0.065399
0.627930 0.489624 0.057526
0.666046 0.491638 0.050110
0.703125 0.493408 0.043640
0.739075 0.495087 0.037964
0.773682 0.496552 0.033203
0.807007 0.497833 0.029297
0.839050 0.498993 0.026123
0.869995 0.500000 0.023560
0.899963 0.500885 0.021698
0.929230 0.501678 0.020050
0.957947 0.502441 0.018738
0.986450 0.503143 0.017731
0.014984 0.358673 0.521301
0.016541 0.364075 0.523376
0.018921 0.369507 0.525177
0.021271 0.374908 0.526459
0.023651 0.380432 0.526703
0.027588 0.386017 0.525909
0.032379 0.391815 0.523560
0.039520 0.398285 0.516998
0.048859 0.404602 0.508270
0.061859 0.411011 0.497223
0.077698 0.417511 0.483490
0.098145 0.423859 0.466797
0.123077 0.430511 0.447998
0.153625 0.436798 0.425446
0.188751 0.443939 0.402435
0.229797 0.450256 0.375000
0.279144 0.459229 0.342590
0.362335 0.476227 0.261047
0.437744 0.491272 0.196686
0.506531 0.502472 0.141937
0.566986 0.511810 0.100067
0.619171 0.518127 0.069183
0.658295 0.520294 0.060944
0.696716 0.522278 0.052917
0.733978 0.524048 0.046051
0.769989 0.525665 0.039978
0.804596 0.527069 0.034790
0.837830 0.528259 0.030518
0.869781 0.529327 0.027008
0.900696 0.530243 0.024231
0.930664 0.531036 0.022034
0.960144 0.531738 0.020081
0.989227 0.532410 0.018341
0.018127 0.377380 0.548431
0.019714 0.382538 0.550781
0.021271 0.387756 0.552917
0.023651 0.393127 0.554779
0.026031 0.398590 0.555817
0.028381 0.404175 0.555939
0.032318 0.409882 0.554779
0.037628 0.416046 0.550293
0.044830 0.422577 0.543243
0.054443 0.429047 0.533966
0.067474 0.435516 0.522217
0.084625 0.442200 0.507904
0.105713 0.448730 0.490540
0.132080 0.455750 0.470917
0.164398 0.462494 0.447601
0.201141 0.469971 0.423676
0.244843 0.476746 0.394958
0.298309 0.487152 0.357697
0.384186 0.504547 0.275177
0.460724 0.519867 0.209961
0.531403 0.531464 0.153381
0.593048 0.541107 0.110199
0.648041 0.548279 0.074463
0.688354 0.550812 0.064148
0.727020 0.552765 0.055573
0.764404 0.554535 0.048157
0.800446 0.556061 0.041687
0.835022 0.557373 0.036163
0.868225 0.558502 0.031555
0.900238 0.559448 0.027740
0.931244 0.560272 0.024384
0.961578 0.561005 0.021545
0.991547 0.561707 0.018921
0.022064 0.395447 0.574890
0.023651 0.400452 0.577637
0.025238 0.405640 0.580048
0.026794 0.410797 0.582336
0.028381 0.416168 0.584015
0.029968 0.421753 0.584930
0.033112 0.427338 0.584656
0.036530 0.433380 0.582336
0.042175 0.439819 0.576691
0.049194 0.446411 0.569214
0.059814 0.453003 0.559357
0.073425 0.459747 0.547180
0.090820 0.466522 0.532166
0.113708 0.473450 0.514130
0.141205 0.480804 0.493835
0.175293 0.488037 0.469818
0.213776 0.495972 0.444916
0.260193 0.503326 0.414978
0.317749 0.515015 0.372742
0.405975 0.532776 0.289154
0.483673 0.548492 0.222961
0.556122 0.560364 0.164581
0.618744 0.570251 0.120087
0.674957 0.577728 0.082733
0.718018 0.581177 0.067108
0.756866 0.583069 0.058044
0.794342 0.584778 0.050171
0.830383 0.586212 0.043274
0.865082 0.587463 0.037170
0.898438 0.588531 0.032074
0.930695 0.589417 0.027588
0.962250 0.590210 0.023560
0.993378 0.590942 0.019897
0.026001 0.413147 0.601013
0.027588 0.418060 0.603943
0.028381 0.422974 0.606720
0.029968 0.428131 0.609344
0.030762 0.433289 0.611481
0.032318 0.438782 0.612885
0.034698 0.444336 0.613525
0.037048 0.450012 0.613037
0.041046 0.456665 0.608795
0.046631 0.463318 0.602783
0.054169 0.469971 0.594788
0.065002 0.476746 0.584534
0.079163 0.483643 0.571808
0.097626 0.490723 0.556274
0.121674 0.498077 0.537781
0.150726 0.505829 0.516663
0.186707 0.513489 0.491821
0.226959 0.521942 0.465851
0.275726 0.529755 0.434601
0.337341 0.542755 0.387451
0.427551 0.560791 0.302795
0.506317 0.576782 0.235565
0.580322 0.588989 0.175598
0.644043 0.599213 0.129547
0.701355 0.606903 0.090851
0.747253 0.611298 0.069824
0.786224 0.613159 0.060272
0.823914 0.614838 0.051819
0.860138 0.616241 0.044312
0.895111 0.617401 0.037628
0.928955 0.618439 0.031708
0.962006 0.619324 0.026428
0.994629 0.620148 0.021362
0.029968 0.430359 0.626770
0.030731 0.435120 0.629852
0.031525 0.439941 0.632904
0.033112 0.444855 0.635590
0.033905 0.450104 0.638092
0.034698 0.455383 0.640015
0.036285 0.460907 0.641327
0.037842 0.466583 0.641724
0.040741 0.472961 0.639404
0.044769 0.479645 0.634796
0.050262 0.486420 0.628387
0.058319 0.493256 0.620056
0.069458 0.500305 0.609467
0.084717 0.507477 0.596222
0.104553 0.514862 0.580170
0.129913 0.522583 0.560974
0.160553 0.530701 0.539124
0.198547 0.538818 0.513489
0.240234 0.547760 0.486359
0.291229 0.556030 0.453796
0.356781 0.570251 0.401642
0.448730 0.588501 0.316040
0.528503 0.604828 0.247559
0.603851 0.617249 0.186279
0.668732 0.627777 0.138702
0.727234 0.635773 0.098724
0.776093 0.641205 0.072205
0.815308 0.643066 0.062134
0.853333 0.644684 0.052917
0.890076 0.646088 0.044678
0.925781 0.647278 0.037079
0.960693 0.648346 0.030121
0.995117 0.649353 0.023407
0.032349 0.447296 0.652191
0.033905 0.451965 0.655334
0.034698 0.456512 0.658417
0.035492 0.461365 0.661377
0.036255 0.466370 0.664093
0.037048 0.471649 0.666565
0.037842 0.477081 0.668182
0.039429 0.482819 0.669434
0.040466 0.488922 0.668793
0.043640 0.495605 0.665222
0.047699 0.502502 0.660339
0.053864 0.509430 0.653625
0.063019 0.516418 0.644867
0.074890 0.523682 0.633881
0.091003 0.531189 0.620270
0.111969 0.538910 0.603577
0.138702 0.547028 0.583862
0.170868 0.555450 0.561127
0.210327 0.564026 0.534668
0.253571 0.573334 0.506256
0.306335 0.582001 0.472473
0.375671 0.597198 0.415009
0.469177 0.615906 0.328827
0.549896 0.632385 0.258911
0.626740 0.645142 0.196594
0.692749 0.655975 0.147278
0.752594 0.664307 0.106171
0.804749 0.670959 0.074188
0.844513 0.672791 0.063416
0.883301 0.674469 0.053223
0.921021 0.675903 0.043915
0.958130 0.677246 0.035004
0.994751 0.678497 0.026428
0.035492 0.463898 0.677124
0.036255 0.468292 0.680237
0.037048 0.472778 0.683350
0.037842 0.477417 0.686493
0.038635 0.482422 0.689331
0.039429 0.487549 0.691986
0.040222 0.493042 0.694214
0.040222 0.498627 0.695770
0.041748 0.504608 0.696747
0.044037 0.511322 0.694275
0.047272 0.518311 0.690521
0.051331 0.525269 0.685242
0.058075 0.532349 0.678223
0.067566 0.539642 0.669189
0.080688 0.546997 0.657715
0.097473 0.554810 0.643585
0.119812 0.562805 0.626343
0.147644 0.571198 0.606079
0.181122 0.579956 0.582458
0.222076 0.588745 0.554901
0.266418 0.598389 0.525299
0.320953 0.607361 0.490326
0.393768 0.623718 0.427643
0.488708 0.642609 0.340912
0.570557 0.659424 0.269501
0.648956 0.672546 0.206421
0.716370 0.683777 0.155273
0.777893 0.692535 0.112946
0.831818 0.699677 0.079071
0.874512 0.702484 0.063812
0.914612 0.704285 0.052368
0.954010 0.705963 0.041595
0.993195 0.707581 0.031036
0.037079 0.480011 0.701355
0.037872 0.484222 0.704468
0.038635 0.488586 0.707642
0.039429 0.493164 0.710663
0.040222 0.498047 0.713806
0.040222 0.503113 0.716583
0.041016 0.508575 0.719177
0.041779 0.514252 0.721252
0.042542 0.520203 0.722656
0.044464 0.526825 0.721954
0.046875 0.533783 0.719086
0.050171 0.540863 0.714996
0.055573 0.548035 0.709412
0.062775 0.555237 0.702057
0.072601 0.562622 0.692566
0.086731 0.570190 0.680725
0.104553 0.578217 0.666138
0.127594 0.586426 0.648285
0.156708 0.595032 0.627228
0.191101 0.604004 0.602753
0.233246 0.613129 0.574310
0.278503 0.622925 0.543396
0.334320 0.632050 0.507141
0.410828 0.649475 0.439423
0.507416 0.668762 0.352386
0.590515 0.685913 0.279419
0.670898 0.699554 0.215485
0.740112 0.711243 0.162537
0.803772 0.720612 0.118896
0.859772 0.728302 0.083252
0.906128 0.732391 0.063232
0.948212 0.734497 0.050171
0.990021 0.736511 0.037628
0.037079 0.495789 0.725067
0.037872 0.499878 0.728180
0.038635 0.504089 0.731201
0.039429 0.508575 0.734314
0.040222 0.513306 0.737427
0.041016 0.518372 0.740417
0.041779 0.523895 0.743164
0.043274 0.529633 0.745605
0.044006 0.535645 0.747589
0.044952 0.542023 0.748108
0.047241 0.549225 0.746124
0.050415 0.556305 0.743011
0.054382 0.563507 0.738647
0.059723 0.570801 0.732697
0.067963 0.578064 0.724945
0.078491 0.585541 0.715179
0.093018 0.593201 0.702759
0.111298 0.601257 0.687683
0.135406 0.609650 0.669220
0.165100 0.618286 0.647461
0.200195 0.627502 0.622070
0.243256 0.636658 0.592682
0.289429 0.646637 0.560455
0.346436 0.655975 0.523193
0.426849 0.674469 0.450500
0.525330 0.694336 0.363159
0.610229 0.711914 0.288788
0.693176 0.726318 0.223907
0.764862 0.738678 0.168976
0.831207 0.748779 0.123962
0.889832 0.757141 0.086487
0.940216 0.762756 0.061676
0.984802 0.765320 0.047028
0.037079 0.511139 0.747986
0.037872 0.515167 0.751068
0.038635 0.519257 0.753967
0.039429 0.523651 0.757141
0.040222 0.528412 0.760223
0.041779 0.533417 0.763245
0.042542 0.539032 0.766266
0.043274 0.544861 0.768982
0.044739 0.550964 0.771271
0.046204 0.557404 0.773010
0.048340 0.564545 0.771790
0.050720 0.571838 0.769440
0.053925 0.579102 0.766052
0.058533 0.586243 0.761292
0.064362 0.593536 0.754944
0.072968 0.600708 0.746857
0.083710 0.608124 0.736542
0.098633 0.615814 0.723755
0.117828 0.623779 0.708038
0.142242 0.632141 0.688995
0.172180 0.640869 0.666687
0.207977 0.649994 0.640411
0.251801 0.659332 0.610199
