nova/tdt-studio/app/Lut_mau/IWLTBAP/2 - LUTs by IWLTBAP (3DL)/01 - Standard/Psychedelia/Adoras - Standard.3dl
# Copyright: (C) Copyright 2010-2018 by IWLTBAP SAS
# Cannot be resold, shared or otherwise redistributed
# Website: https://luts.iwltbap.com
0 256 512 768 1023
   0    0    0
   6   33  256
   0  289  850
   0  633 1540
   0  993 2317
 714  726  716
 730  743  737
   3  821 1427
   0 1044 2034
   0 1292 2497
1913 1928 1917
1896 1910 1906
1927 1951 1951
   0 2060 3154
  59 2260 3615
3032 3032 3021
3016 3020 3010
3017 3023 3019
3080 3079 3092
1801 3150 4062
3748 3743 3739
3750 3746 3743
3758 3753 3755
3784 3780 3790
3826 3843 3864
 572   64   16
 634   87  426
   0  519 1617
   0  811 1982
   0 1146 2645
 857  850  849
 801  801  801
  67  922 1640
   0 1171 2312
   0 1386 2663
1971 1988 1972
1947 1969 1957
1965 1991 1990
  60 2135 3260
 304 2330 3682
3062 3057 3048
3051 3048 3041
3052 3050 3049
3102 3103 3114
1919 3183 4064
3766 3759 3758
3768 3762 3762
3775 3769 3774
3798 3798 3808
3839 3858 3876
1693  337    2
1773   24  738
1651  671 1572
1716 1235 3224
 859 1800 3771
1854  962    2
1775  899  820
1762 1183 1779
1139 1629 3337
 287 1925 3625
2197 2189 2187
2173 2164 2166
2084 2085 2085
1479 2389 3480
1181 2545 3876
3133 3139 3126
3130 3135 3125
3128 3136 3130
3143 3172 3186
2505 3307 4080
3813 3813 3816
3815 3816 3819
3820 3826 3832
3840 3853 3859
3884 3903 3918
2963  713    3
2865  548  819
3354    0 2174
2981 1680 3103
3283 2726 4006
3094 1225    3
3012 1097  825
3381  755 2251
3038 2111 3232
3157 2853 4018
3204 2230  141
3250 2198  956
3155 2088 1992
3247 2828 3611
2902 3131 4079
3296 3287 3278
3291 3284 3276
3288 3284 3280
3274 3274 3275
3144 3493 4077
3894 3902 3894
3896 3904 3897
3908 3913 3908
3935 3933 3930
3975 3974 3994
4021 1178  193
4062  973  886
4061  362 1830
4038 1537 3471
3792 3015 3885
4055 1505  219
4073 1390  920
4071 1107 1813
4049 1953 3548
3768 3125 3886
4079 2271  365
4078 2255 1090
4076 2191 1999
3992 2781 3738
3772 3398 3912
4019 3323 2070
4064 3283 1900
4075 3291 2462
4011 3226 3162
3811 3712 3974
4009 4003 3995
4010 4006 3999
4015 4015 4009
4022 4030 4026
4030 4046 4046
