nova/tdt-studio/app/Lut_mau/IWLTBAP/2 - LUTs by IWLTBAP (3DL)/01 - Standard/Psychedelia/Adoras - Standard.3dl
# Copyright: (C) Copyright 2010-2018 by IWLTBAP SAS
# Cannot be resold, shared or otherwise redistributed
# Website: https://luts.iwltbap.com
0 64 128 192 256 320 384 448 512 576 640 704 768 832 896 960 1023
   0    0    0
   0    1    0
   2    4    3
   8   14   75
   6   33  256
   0   77  437
   0  138  552
   0  212  707
   0  289  850
   0  374 1016
   0  456 1173
   0  545 1355
   0  633 1540
   0  723 1728
   0  803 1896
   0  893 2110
   0  993 2317
  33   37   39
  40   43   44
  45   42   35
  65   69  100
  57  101  262
   0  166  510
   0  221  632
   0  281  741
   0  350  887
   0  427 1050
   0  509 1230
   0  587 1386
   0  669 1550
   0  754 1726
   0  837 1919
   0  926 2116
   0 1018 2281
 185  195  195
 190  199  199
 204  212  212
 107  209  201
 171  234  299
  94  287  504
   4  351  773
   0  411  930
   0  467 1039
   0  530 1157
   0  590 1257
   0  655 1370
   0  729 1523
   0  812 1715
   0  890 1904
   0  974 2082
   0 1066 2263
 434  448  443
 433  447  443
 435  449  446
 452  464  461
 192  420  459
 253  448  583
 203  502  806
   0  568 1084
   0  644 1312
   0  688 1389
   0  744 1497
   0  802 1604
   0  862 1719
   0  920 1836
   0  983 1959
   0 1055 2098
   0 1146 2288
 714  726  716
 709  722  713
 706  720  712
 705  720  712
 730  743  737
 350  650  753
 185  689  932
 255  741 1121
   3  821 1427
   0  907 1722
   0  947 1831
   0  989 1913
   0 1044 2034
   0 1104 2147
   0 1169 2283
   0 1230 2391
   0 1292 2497
 987 1000  989
 981  995  985
 975  990  980
 972  988  980
 971  987  980
1001 1015 1009
 598  910 1081
   0  970 1335
   0 1018 1541
   0 1099 1852
   0 1207 2231
   0 1248 2325
   0 1289 2410
   0 1333 2499
   0 1378 2574
   0 1428 2667
   0 1485 2757
1274 1298 1281
1269 1294 1277
1262 1288 1273
1257 1284 1271
1254 1282 1270
1253 1282 1272
1288 1312 1303
 804 1209 1457
   0 1289 1811
   0 1351 2072
   0 1406 2339
   0 1506 2687
   0 1554 2788
   0 1600 2870
   0 1639 2928
   0 1690 3011
   0 1732 3070
1587 1608 1596
1583 1604 1593
1577 1599 1589
1570 1593 1585
1567 1590 1584
1564 1587 1583
1564 1589 1585
1600 1626 1621
1064 1551 1943
   0 1648 2375
   0 1712 2649
   0 1771 2862
   0 1829 3079
   0 1868 3181
   0 1908 3247
   0 1944 3293
   0 1988 3359
1913 1928 1917
1910 1925 1915
1906 1920 1912
1900 1914 1908
1896 1910 1906
1894 1907 1905
1891 1905 1905
1893 1908 1910
1927 1951 1951
1355 1926 2471
   0 2004 2838
   0 2013 2965
   0 2060 3154
   0 2142 3428
   0 2181 3513
   0 2217 3562
  59 2260 3615
2237 2248 2244
2234 2245 2242
2231 2241 2239
2226 2236 2235
2222 2231 2232
2220 2229 2232
2218 2228 2232
2216 2226 2233
2224 2237 2246
2253 2277 2286
1730 2318 2936
   0 2324 3242
   0 2319 3307
   0 2356 3440
   4 2409 3601
 697 2489 3761
 906 2528 3811
2547 2546 2544
2545 2545 2543
2543 2542 2541
2539 2538 2538
2535 2534 2535
2533 2532 2535
2532 2532 2536
2532 2532 2538
2532 2534 2541
2543 2549 2558
2564 2582 2594
2149 2706 3344
1044 2664 3569
  81 2609 3593
 413 2646 3686
 818 2693 3793
1205 2747 3920
2811 2807 2800
2808 2804 2798
2804 2801 2794
2801 2798 2793
2798 2795 2791
2795 2793 2790
2795 2793 2791
2796 2794 2794
2797 2795 2797
2801 2799 2802
2817 2815 2822
2837 2843 2855
2509 3029 3670
1774 2960 3827
1061 2873 3833
1246 2899 3900
1454 2938 3970
3032 3032 3021
3030 3030 3020
3026 3028 3017
3020 3023 3013
3016 3020 3010
3013 3019 3010
3013 3019 3011
3015 3021 3015
3017 3023 3019
3021 3026 3023
3029 3032 3032
3053 3052 3057
3080 3079 3092
2842 3301 3927
2298 3226 4025
1709 3132 4037
1801 3150 4062
3225 3244 3227
3224 3243 3226
3221 3241 3225
3218 3239 3222
3213 3236 3220
3210 3233 3218
3210 3233 3219
3212 3235 3222
3215 3238 3226
3219 3241 3231
3224 3245 3237
3234 3252 3247
3260 3270 3272
3289 3294 3304
3082 3492 4070
2704 3413 4066
2196 3333 4062
3420 3436 3421
3420 3436 3421
3419 3436 3422
3419 3435 3422
3417 3433 3421
3415 3431 3420
3413 3429 3419
3415 3431 3423
3417 3435 3427
3421 3439 3432
3425 3445 3438
3430 3451 3445
3439 3460 3455
3460 3478 3479
3483 3499 3506
3368 3658 4060
3175 3600 4075
3594 3601 3593
3594 3602 3593
3594 3602 3593
3594 3602 3594
3594 3602 3595
3594 3602 3596
3593 3602 3596
3594 3602 3598
3596 3606 3602
3598 3610 3607
3601 3615 3612
3605 3620 3619
3610 3627 3626
3616 3636 3634
3629 3652 3654
3643 3669 3675
3605 3792 4058
3748 3743 3739
3748 3744 3740
3749 3744 3740
3749 3745 3742
3750 3746 3743
3752 3747 3746
3754 3749 3749
3755 3750 3751
3758 3753 3755
3763 3758 3762
3769 3764 3770
3776 3772 3779
3784 3780 3790
3792 3791 3802
3801 3803 3815
3814 3823 3840
3826 3843 3864
  15    0    0
  12    1    0
   6   10   13
  21   26  110
  20   50  281
   0  107  500
   0  170  616
   0  240  766
   0  315  903
   0  398 1065
   0  479 1222
   0  565 1401
   0  652 1579
   0  740 1768
   0  818 1935
   0  909 2148
   0 1009 2353
  59   59   59
  63   63   63
  74   65   55
  83   90  132
  72  128  299
   8  185  542
   0  244  715
   0  310  862
   0  377  994
   0  453 1149
   0  532 1312
   0  610 1468
   0  688 1610
   0  772 1791
   0  852 1982
   0  938 2149
   0 1036 2340
 215  221  219
 215  221  220
 223  229  228
 189  217  214
 219  253  320
 139  307  534
   7  371  801
   0  430  978
   0  488 1089
   0  545 1188
   0  607 1300
   0  672 1417
   0  752 1597
   0  830 1775
   0  902 1931
   0  994 2147
   0 1085 2326
 455  465  460
 454  464  460
 451  463  460
 463  473  471
 288  427  461
 349  460  586
 240  514  827
   0  580 1114
   0  661 1354
   0  705 1429
   0  758 1527
   0  815 1634
   0  873 1741
   0  931 1857
   0  994 1981
   0 1067 2123
   0 1159 2312
 729  740  730
 725  737  727
 720  733  724
 718  732  725
 740  752  746
 325  658  773
 292  698  926
 279  755 1142
   0  830 1444
   0  920 1761
   0  958 1854
   0 1004 1958
   0 1057 2058
   0 1116 2170
   0 1180 2304
   0 1241 2411
   0 1301 2512
 999 1011 1000
 993 1006  996
 986 1001  991
 983  998  989
 980  996  989
1010 1023 1017
 583  917 1098
  28  972 1332
  55 1018 1539
   0 1111 1868
   0 1222 2266
   0 1263 2366
   0 1302 2448
   0 1342 2516
   0 1391 2610
   0 1438 2683
   0 1495 2774
1284 1306 1289
1279 1302 1286
1272 1296 1281
1265 1291 1278
1262 1289 1277
1260 1289 1278
1295 1318 1309
 793 1214 1469
   0 1296 1812
   0 1356 2062
   1 1409 2337
   0 1517 2702
   0 1564 2801
   0 1610 2886
   0 1655 2963
   0 1699 3024
   0 1745 3101
1594 1615 1602
1590 1612 1599
1584 1606 1595
1577 1600 1591
1573 1596 1589
1570 1594 1588
1570 1595 1591
1606 1631 1626
1056 1556 1954
   0 1652 2376
   0 1719 2655
   0 1774 2867
   0 1836 3089
   0 1877 3193
   0 1916 3255
   0 1952 3305
   0 1996 3370
1918 1934 1923
1915 1931 1921
1911 1926 1917
1905 1920 1913
1900 1915 1911
1898 1913 1910
1895 1911 1910
1897 1913 1914
1931 1956 1955
1349 1931 2481
   0 2006 2846
   0 2024 2995
   0 2074 3187
   0 2147 3434
   0 2195 3538
   0 2225 3571
  80 2268 3622
2241 2253 2248
2238 2250 2246
2235 2246 2244
2230 2241 2240
2226 2235 2237
2223 2234 2237
2222 2232 2237
2220 2231 2238
2226 2241 2249
2256 2281 2289
1727 2322 2944
   0 2327 3248
   0 2330 3331
   0 2367 3466
  55 2420 3624
 729 2497 3768
 929 2535 3817
2550 2550 2548
2548 2549 2547
2546 2546 2545
2543 2542 2542
2539 2538 2540
2536 2536 2539
2535 2536 2540
2535 2536 2542
2535 2538 2545
2545 2552 2561
2567 2585 2596
2149 2709 3349
1032 2666 3574
 137 2619 3611
 454 2653 3696
 872 2703 3810
1317 2767 3954
2813 2810 2803
2811 2807 2801
2808 2804 2798
2805 2801 2796
2802 2798 2794
2799 2796 2793
2799 2796 2795
2799 2797 2797
2800 2798 2800
2804 2802 2805
2819 2818 2825
2839 2846 2857
2509 3031 3674
1770 2962 3830
1085 2877 3841
1267 2904 3906
1499 2948 3986
3035 3035 3024
3033 3033 3022
3029 3030 3020
3024 3026 3016
3020 3023 3014
3017 3021 3013
3017 3022 3014
3018 3023 3018
3021 3026 3022
3025 3029 3027
3032 3035 3035
3055 3054 3060
3083 3082 3094
2843 3303 3929
2296 3227 4027
1711 3133 4037
1825 3155 4065
3228 3246 3229
3227 3245 3228
3224 3243 3227
3221 3241 3225
3216 3237 3222
3213 3235 3220
3212 3235 3221
3214 3237 3225
3218 3240 3229
3222 3243 3234
3227 3247 3240
3237 3254 3249
3262 3272 3274
3292 3296 3306
3078 3493 4073
2704 3414 4066
2197 3334 4062
3422 3438 3423
3422 3438 3423
3421 3438 3424
3420 3437 3423
3418 3435 3422
3417 3433 3421
3415 3431 3421
3417 3434 3424
3419 3437 3429
3423 3441 3434
3427 3447 3440
3432 3453 3447
3441 3462 3457
3462 3480 3480
3485 3500 3508
3369 3659 4060
3176 3601 4075
3595 3603 3594
3595 3603 3594
3595 3603 3595
3595 3604 3595
3595 3604 3597
3595 3604 3597
3595 3603 3598
3595 3604 3599
3597 3607 3603
3599 3611 3608
3602 3616 3614
3606 3622 3620
3611 3629 3627
3617 3638 3636
3630 3654 3655
3645 3671 3676
3606 3793 4058
3750 3745 3741
3750 3745 3742
3751 3746 3742
3751 3746 3743
3752 3747 3745
3754 3749 3748
3755 3751 3750
3757 3752 3753
3760 3755 3757
3765 3760 3764
3771 3766 3772
3778 3774 3781
3785 3782 3792
3793 3792 3803
3802 3804 3817
3816 3825 3842
3827 3845 3865
 142   15    0
 162    6   32
 155   12   52
 146   37  120
 139   88  292
  47  145  551
   0  224  761
   0  291  866
   0  365 1014
   0  441 1156
   0  524 1334
   0  601 1477
   0  684 1646
   0  767 1835
   0  850 2044
   0  938 2212
   0 1035 2404
 190   79   15
 206   63   79
 189   85  104
 143  129  174
 102  178  344
  37  230  583
   0  295  853
   0  357  982
   0  422 1100
   0  497 1257
   0  571 1409
   0  649 1569
   0  723 1710
   0  800 1889
   0  880 2081
   0  973 2274
   0 1063 2429
 264  262  261
 261  260  259
 256  256  256
 255  257  257
 265  290  372
 212  340  585
  21  405  849
   0  466 1075
   0  519 1165
   0  574 1253
   0  638 1385
   0  710 1538
   0  785 1702
   0  860 1887
   0  935 2050
   0 1021 2228
   0 1112 2401
 492  495  491
 490  494  490
 480  486  484
 483  489  487
 402  451  466
 406  488  618
 298  537  863
  28  602 1160
   0  688 1416
   0  733 1495
   0  785 1589
   0  840 1696
   0  897 1810
   0  955 1922
   0 1020 2049
   0 1102 2227
   0 1187 2390
 758  764  756
 753  761  753
 747  756  749
 740  751  744
 750  760  756
 460  680  771
 477  718  925
 325  777 1171
   0  847 1472
   0  944 1827
   0  981 1915
   0 1025 1999
   0 1083 2126
   0 1142 2238
   0 1200 2343
   0 1259 2443
   0 1317 2537
1021 1030 1019
1015 1025 1016
1008 1019 1010
1002 1014 1006
 997 1011 1004
1022 1033 1028
 552  931 1127
 287  975 1322
 358 1023 1537
   0 1133 1897
   0 1241 2295
   0 1285 2422
   0 1319 2479
   0 1362 2563
   0 1407 2633
   0 1455 2710
   0 1512 2799
1303 1321 1304
1297 1316 1301
1289 1311 1296
1281 1304 1291
1277 1302 1290
1274 1300 1290
1308 1328 1320
 774 1224 1494
  25 1298 1815
   5 1354 2049
   0 1421 2355
   0 1536 2727
   0 1591 2856
   0 1626 2910
   0 1672 2989
   0 1713 3043
   0 1758 3118
1608 1628 1614
1603 1624 1611
1597 1619 1607
1590 1612 1602
1584 1608 1599
1581 1605 1599
1580 1605 1600
1616 1640 1635
1040 1564 1974
   0 1652 2363
   0 1717 2635
   2 1780 2852
   0 1847 3109
   0 1899 3234
   0 1932 3278
   0 1972 3341
   0 2009 3385
1928 1945 1932
1925 1942 1930
1920 1937 1927
1914 1931 1923
1909 1925 1919
1906 1923 1919
1903 1921 1919
1905 1923 1922
1939 1964 1962
1336 1939 2498
   0 2015 2858
   0 2046 3052
   0 2102 3255
   0 2158 3441
   0 2208 3552
   0 2238 3583
 118 2281 3635
2248 2262 2256
2245 2260 2255
2242 2256 2252
2237 2251 2249
2233 2245 2245
2230 2242 2245
2228 2241 2245
2227 2240 2246
2231 2246 2254
2262 2288 2295
1722 2330 2957
   0 2332 3260
   0 2346 3366
   0 2384 3502
 152 2438 3653
 819 2514 3789
 960 2545 3825
2555 2558 2555
2554 2556 2554
2551 2553 2551
2548 2550 2549
2545 2546 2547
2542 2543 2545
2541 2543 2547
2540 2543 2549
2540 2544 2551
2549 2557 2566
2571 2591 2601
2148 2714 3358
1010 2670 3583
 236 2636 3639
 571 2669 3724
 958 2718 3838
1390 2785 3976
2818 2815 2807
2816 2812 2805
2813 2809 2804
2810 2807 2802
2808 2804 2800
2805 2802 2799
2804 2802 2800
2805 2802 2803
2806 2804 2806
2809 2807 2811
2823 2822 2829
2842 2851 2861
2510 3035 3682
1762 2965 3836
1142 2888 3860
1322 2915 3924
1527 2958 3996
3041 3039 3029
3039 3037 3027
3035 3034 3025
3029 3030 3021
3026 3028 3019
3024 3027 3019
3023 3026 3020
3025 3028 3023
3028 3031 3027
3031 3033 3032
3038 3039 3040
3060 3058 3064
3087 3086 3098
2845 3307 3933
2292 3229 4030
1748 3143 4049
1841 3160 4067
3233 3250 3233
3232 3248 3232
3229 3247 3231
3225 3244 3229
3221 3241 3226
3218 3239 3225
3217 3239 3225
3220 3241 3229
3223 3244 3233
3227 3247 3238
3233 3251 3244
3243 3258 3253
3267 3276 3278
3297 3299 3310
3072 3493 4076
2704 3415 4066
2205 3337 4062
3425 3442 3427
3425 3442 3427
3425 3441 3427
3423 3440 3426
3422 3438 3425
3420 3436 3425
3418 3435 3425
3420 3437 3428
3422 3441 3432
3426 3445 3437
3430 3450 3444
3436 3456 3451
3445 3465 3461
3466 3483 3483
3489 3503 3511
3376 3662 4061
3177 3603 4075
3597 3606 3597
3597 3606 3597
3597 3606 3597
3597 3606 3598
3597 3607 3599
3597 3606 3600
3597 3606 3600
3597 3606 3602
3599 3610 3606
3601 3614 3611
3604 3619 3616
3608 3625 3623
3613 3632 3629
3619 3640 3638
3632 3656 3657
3648 3673 3678
3611 3795 4057
3753 3748 3744
3754 3748 3745
3754 3748 3746
3755 3749 3747
3756 3750 3749
3757 3752 3751
3759 3753 3754
3760 3755 3756
3763 3758 3760
3768 3763 3767
3774 3769 3775
3781 3777 3785
3788 3785 3795
3796 3796 3807
3805 3808 3820
3818 3828 3844
3830 3847 3867
 349   31   15
 366   15   63
 328   39   90
 386   39  191
 404   81  325
 361  212  541
 229  280  859
   0  373 1211
   0  444 1239
   0  511 1309
   0  587 1467
   0  666 1630
   0  742 1802
   0  812 1950
   0  897 2155
   0  990 2346
   0 1077 2488
 397  112    0
 397  112   79
 397  119  186
 407  150  238
 375  224  362
 328  293  605
  59  365  897
   0  441 1174
   0  500 1280
   0  562 1391
   0  633 1540
   0  706 1698
   0  778 1859
   0  850 2044
   0  928 2191
   0 1018 2372
