nova/tdt-studio/app/Lut_mau/IWLTBAP/2 - LUTs by IWLTBAP (3DL)/01 - Standard/Psychedelia/Adoras - Standard.3dl
# Copyright: (C) Copyright 2010-2018 by IWLTBAP SAS
# Cannot be resold, shared or otherwise redistributed
# Website: https://luts.iwltbap.com
0 128 256 384 512 640 768 896 1023
   0    0    0
   2    4    3
   6   33  256
   0  138  552
   0  289  850
   0  456 1173
   0  633 1540
   0  803 1896
   0  993 2317
 185  195  195
 204  212  212
 171  234  299
   4  351  773
   0  467 1039
   0  590 1257
   0  729 1523
   0  890 1904
   0 1066 2263
 714  726  716
 706  720  712
 730  743  737
 185  689  932
   3  821 1427
   0  947 1831
   0 1044 2034
   0 1169 2283
   0 1292 2497
1274 1298 1281
1262 1288 1273
1254 1282 1270
1288 1312 1303
   0 1289 1811
   0 1406 2339
   0 1554 2788
   0 1639 2928
   0 1732 3070
1913 1928 1917
1906 1920 1912
1896 1910 1906
1891 1905 1905
1927 1951 1951
   0 2004 2838
   0 2060 3154
   0 2181 3513
  59 2260 3615
2547 2546 2544
2543 2542 2541
2535 2534 2535
2532 2532 2536
2532 2534 2541
2564 2582 2594
1044 2664 3569
 413 2646 3686
1205 2747 3920
3032 3032 3021
3026 3028 3017
3016 3020 3010
3013 3019 3011
3017 3023 3019
3029 3032 3032
3080 3079 3092
2298 3226 4025
1801 3150 4062
3420 3436 3421
3419 3436 3422
3417 3433 3421
3413 3429 3419
3417 3435 3427
3425 3445 3438
3439 3460 3455
3483 3499 3506
3175 3600 4075
3748 3743 3739
3749 3744 3740
3750 3746 3743
3754 3749 3749
3758 3753 3755
3769 3764 3770
3784 3780 3790
3801 3803 3815
3826 3843 3864
 142   15    0
 155   12   52
 139   88  292
   0  224  761
   0  365 1014
   0  524 1334
   0  684 1646
   0  850 2044
   0 1035 2404
 264  262  261
 256  256  256
 265  290  372
  21  405  849
   0  519 1165
   0  638 1385
   0  785 1702
   0  935 2050
   0 1112 2401
 758  764  756
 747  756  749
 750  760  756
 477  718  925
   0  847 1472
   0  981 1915
   0 1083 2126
   0 1200 2343
   0 1317 2537
1303 1321 1304
1289 1311 1296
1277 1302 1290
1308 1328 1320
  25 1298 1815
   0 1421 2355
   0 1591 2856
   0 1672 2989
   0 1758 3118
1928 1945 1932
1920 1937 1927
1909 1925 1919
1903 1921 1919
1939 1964 1962
   0 2015 2858
   0 2102 3255
   0 2208 3552
 118 2281 3635
2555 2558 2555
2551 2553 2551
2545 2546 2547
2541 2543 2547
2540 2544 2551
2571 2591 2601
1010 2670 3583
 571 2669 3724
1390 2785 3976
3041 3039 3029
3035 3034 3025
3026 3028 3019
3023 3026 3020
3028 3031 3027
3038 3039 3040
3087 3086 3098
2292 3229 4030
1841 3160 4067
3425 3442 3427
3425 3441 3427
3422 3438 3425
3418 3435 3425
3422 3441 3432
3430 3450 3444
3445 3465 3461
3489 3503 3511
3177 3603 4075
3753 3748 3744
3754 3748 3746
3756 3750 3749
3759 3753 3754
3763 3758 3760
3774 3769 3775
3788 3785 3795
3805 3808 3820
3830 3847 3867
 572   64   16
 601   28  214
 634   87  426
 618  349  798
   0  519 1617
   0  683 1788
   0  811 1982
   0  966 2299
   0 1146 2645
 673  323    3
 658  323  307
 700  354  537
 529  519  959
   0  692 1661
   0  795 1903
   0  913 2154
   0 1060 2449
   1 1221 2711
 857  850  849
 843  837  838
 801  801  801
 688  794 1040
  67  922 1640
   0 1079 2169
   0 1171 2312
   0 1277 2496
   0 1386 2663
1379 1379 1369
1365 1369 1360
1345 1355 1347
1338 1352 1348
 735 1322 1803
   0 1490 2456
   0 1672 3002
   0 1735 3090
   0 1814 3206
1971 1988 1972
1962 1981 1966
1947 1969 1957
1939 1961 1954
1965 1991 1990
   7 2032 2863
  60 2135 3260
  85 2270 3624
 304 2330 3682
2575 2586 2580
2572 2581 2577
2566 2575 2573
2561 2569 2572
2560 2570 2576
2585 2612 2619
 876 2679 3614
 924 2728 3826
1629 2855 4039
3062 3057 3048
3057 3052 3044
3051 3048 3041
3048 3046 3041
3052 3050 3049
3061 3058 3061
3102 3103 3114
2274 3234 4048
1919 3183 4064
3439 3456 3440
3438 3455 3440
3434 3452 3438
3432 3450 3438
3436 3455 3446
3445 3465 3457
3461 3479 3474
3505 3516 3525
3190 3611 4073
3766 3759 3758
3767 3760 3759
3768 3762 3762
3771 3765 3767
3775 3769 3774
3785 3781 3789
3798 3798 3808
3814 3821 3832
3839 3858 3876
1105  178    2
1074  161  308
1118  168  551
1125  318  955
1232  662 1469
 887  828 2496
   4 1097 3100
  15 1197 2945
   7 1347 3005
1169  420    2
1136  404  341
1171  421  691
1164  535 1031
1210  787 1599
 336  969 2560
  14 1171 2897
   8 1283 2902
   2 1426 3089
1215  849   53
1247  849  373
1280  834  785
1225  916 1181
 941 1074 1835
   0 1256 2633
   2 1383 2906
   0 1486 3056
   0 1586 3155
1494 1492 1492
1483 1479 1481
1460 1455 1459
1399 1399 1399
1114 1448 1975
 338 1606 2664
   0 1781 3211
   0 1843 3281
   0 1918 3350
2066 2067 2053
2053 2057 2045
2036 2045 2034
2018 2032 2023
2009 2029 2031
1197 2091 2876
 915 2244 3336
 482 2366 3717
 751 2423 3770
2615 2635 2621
2611 2631 2619
2604 2625 2616
2597 2618 2613
2595 2618 2616
2613 2646 2653
1403 2737 3636
1536 2815 3859
1760 2907 4067
3095 3088 3080
3093 3086 3079
3090 3084 3078
3087 3082 3079
3089 3084 3084
3095 3092 3094
3119 3131 3144
2236 3241 4073
2016 3213 4062
3465 3480 3463
3463 3478 3462
3460 3476 3461
3459 3476 3463
3463 3480 3470
3474 3489 3482
3490 3502 3499
3531 3537 3554
3218 3625 4069
3787 3780 3781
3787 3781 3783
3789 3783 3786
3791 3786 3790
3795 3792 3798
3804 3804 3812
3815 3821 3831
3830 3842 3852
3856 3877 3891
1693  337    2
1646  306  354
1773   24  738
1809   59 1188
1651  671 1572
1907  984 2266
1716 1235 3224
 934 1604 3770
 859 1800 3771
1743  563    2
1694  531  356
1727  437  738
1846  412 1237
1676  834 1635
1961 1109 2374
1574 1370 3262
 850 1734 3777
 635 1827 3703
1854  962    2
1822  930  373
1775  899  820
1926  837 1334
1762 1183 1779
1891 1390 2639
1139 1629 3337
 315 1856 3634
 287 1925 3625
1859 1483  801
1876 1461  670
1911 1431  891
1895 1400 1369
1921 1624 2063
1497 1800 2878
 634 1965 3414
 357 2090 3656
 312 2139 3657
2197 2189 2187
2188 2180 2179
2173 2164 2166
2148 2140 2143
2084 2085 2085
1765 2251 3018
1479 2389 3480
 946 2482 3816
1181 2545 3876
2703 2710 2694
2695 2706 2690
2683 2697 2684
2675 2692 2681
2667 2687 2678
2663 2691 2696
2098 2862 3671
2082 2943 3928
1901 2976 4084
3133 3139 3126
3132 3137 3125
3130 3135 3125
3129 3134 3127
3128 3136 3130
3132 3142 3139
3143 3172 3186
2381 3278 4065
2505 3307 4080
3506 3512 3498
3505 3511 3498
3503 3510 3497
3504 3511 3501
3509 3515 3508
3519 3523 3519
3534 3536 3536
3563 3570 3596
3254 3645 4064
3813 3813 3816
3814 3814 3817
3815 3816 3819
3816 3819 3823
3820 3826 3832
3828 3837 3844
3840 3853 3859
3857 3873 3877
3884 3903 3918
2314  515    2
2251  481  371
2203  321  741
2442   20 1295
2432  328 1901
2300 1040 2334
2592 1498 3109
2582 1938 3749
2337 2378 4054
2334  693    3
2302  661  357
2240  614  788
2438  336 1287
2458  609 1942
2345 1203 2390
2631 1633 3151
2509 2041 3751
2274 2432 4047
2469 1080    3
2437 1047  361
2372  984  825
2419  844 1288
2517 1011 2047
2419 1529 2531
2693 1914 3285
2361 2247 3797
2141 2550 4060
2578 1592   12
2564 1575  383
2563 1528  860
2469 1464 1352
2673 1494 2216
2553 1982 2751
2581 2275 3456
2179 2513 3877
2018 2683 4072
2445 2222 1882
2491 2199 1739
2557 2135 1418
2643 2101 1498
2628 2070 2038
2725 2469 3079
2370 2669 3625
1954 2714 3926
1836 2779 4064
2820 2809 2803
2816 2805 2800
2809 2798 2795
2800 2790 2789
2787 2778 2779
2748 2748 2748
2577 3015 3757
2413 3072 4000
2122 3053 4079
3189 3207 3188
3187 3205 3187
3183 3202 3185
3180 3201 3186
3181 3202 3190
3184 3206 3196
3187 3219 3229
2809 3392 4060
2884 3417 4061
3560 3554 3545
3559 3554 3545
3559 3554 3547
3561 3557 3552
3565 3561 3559
3571 3569 3569
3581 3581 3584
3593 3613 3641
3351 3687 4063
3846 3856 3854
3846 3857 3855
3847 3858 3857
3849 3862 3861
3855 3869 3869
3864 3879 3879
3879 3892 3892
3899 3908 3907
3928 3935 3953
2963  713    3
2917  664  373
2865  548  819
2997    0 1273
3354    0 2174
3032  813 2631
2981 1680 3103
3216 2329 3688
3283 2726 4006
3012  892    2
2964  827  362
2900  749  809
2980  364 1240
3365   54 2218
3047  996 2682
2998 1819 3152
3234 2415 3706
3254 2766 3998
3094 1225    3
3061 1192  348
3012 1097  825
2885  988 1289
3381  755 2251
3054 1362 2755
3038 2111 3232
3289 2606 3792
3157 2853 4018
3236 1688    0
3205 1671  334
3171 1607  857
3074 1512 1336
3169 1435 1926
3085 1876 2916
3114 2478 3384
3330 2841 3875
3039 2977 4053
3204 2230  141
3218 2213  529
3250 2198  956
3266 2135 1467
3155 2088 1992
3145 2345 3000
3247 2828 3611
3217 3090 3980
2902 3131 4079
2913 2928 2906
2908 2924 2903
2956 2833 2667
3102 2775 2223
3211 2733 2162
3179 2685 2653
3374 3213 3831
3089 3307 4061
2735 3219 4073
3296 3287 3278
3294 3286 3277
3291 3284 3276
3288 3283 3277
3288 3284 3280
3287 3283 3282
3274 3274 3275
3185 3495 4073
3144 3493 4077
3607 3611 3602
3607 3611 3602
3607 3612 3604
3608 3614 3608
3610 3619 3614
3615 3627 3623
3623 3638 3635
3632 3661 3675
3551 3763 4061
3894 3902 3894
3895 3902 3895
3896 3904 3897
3901 3907 3901
3908 3913 3908
3919 3922 3918
3935 3933 3930
3955 3948 3947
3975 3974 3994
3585  948   17
3587  862  377
3539  741  822
3514  157 1203
3874    0 2118
3825  488 2899
3545 1565 3295
3515 2579 3685
3606 2924 3910
3618 1063   12
3602 1005  394
3552  926  854
3473  675 1271
3867   34 2063
3837  740 2922
3542 1716 3333
3530 2641 3714
3604 2966 3906
3685 1354    5
3651 1322  379
3619 1242  858
3538 1114 1304
3712  928 1863
3831 1200 2992
3527 2047 3386
3552 2822 3756
3608 3047 3919
3764 1767    7
3762 1751  414
3715 1703  889
3649 1623 1384
3586 1479 1846
3827 1729 3088
3528 2458 3468
3616 3053 3844
3605 3155 3952
3814 2264   68
3815 2250  489
3815 2218  974
3751 2187 1468
3654 2108 1966
3761 2120 2597
3554 2896 3606
3660 3271 3922
3601 3292 3967
3720 2783  755
3721 2781  876
3737 2780 1221
3752 2749 1650
3751 2734 2162
3625 2686 2621
3619 3191 3683
3682 3441 3966
3537 3453 4015
3397 3391 3381
3396 3390 3380
3394 3388 3381
3393 3385 3377
3548 3296 2946
3673 3258 2829
3625 3211 3195
3695 3633 3998
3535 3640 4037
3669 3677 3663
3669 3677 3664
3670 3678 3666
3672 3681 3670
3677 3685 3677
3687 3693 3687
3699 3701 3698
3710 3710 3710
3715 3833 4045
3959 3948 3942
3959 3949 3942
3962 3951 3945
3966 3954 3950
3972 3961 3957
3981 3970 3968
3991 3982 3981
4002 3997 3996
4008 4015 4025
4021 1178  193
4044 1106  476
4062  973  886
4012  799 1307
4061  362 1830
4083  235 2972
4038 1537 3471
3901 2568 3796
3792 3015 3885
4041 1278  202
4055 1210  492
4069 1120  904
4041  977 1333
4059  685 1815
4079  363 3017
4051 1644 3492
3897 2663 3818
3785 3063 3884
4055 1505  219
4057 1448  477
4073 1390  920
4056 1294 1351
4071 1107 1813
4079 1099 3065
4049 1953 3548
3894 2872 3853
3768 3125 3886
4061 1842  212
4078 1819  545
4076 1788  956
4059 1725 1435
4058 1647 1884
4068 1661 2646
4049 2336 3626
3898 3091 3902
3767 3246 3892
4079 2271  365
4063 2270  649
4078 2255 1090
4078 2238 1536
4076 2191 1999
4059 2160 2493
3992 2781 3738
3875 3263 3913
3772 3398 3912
4071 2791  776
4063 2781  954
4077 2781 1316
4078 2749 1698
4061 2765 2175
4059 2701 2606
4086 2815 3310
3844 3501 3936
3773 3541 3949
4019 3323 2070
4030 3314 2021
4064 3283 1900
4060 3291 2064
4075 3291 2462
4075 3292 2846
4011 3226 3162
3869 3671 3937
3811 3712 3974
3775 3758 3756
3776 3758 3757
3777 3760 3760
3780 3764 3766
3786 3771 3776
3911 3745 3524
4014 3727 3411
3982 3680 3664
3923 3905 4031
4009 4003 3995
4009 4004 3996
4010 4006 3999
4012 4009 4003
4015 4015 4009
4018 4022 4017
4022 4030 4026
4026 4039 4037
4030 4046 4046
