nova/tdt-studio/app/Lut_mau/IWLTBAP/2 - LUTs by IWLTBAP (3DL)/01 - Standard/Psychedelia/Choweed - Standard.3dl
# Copyright: (C) Copyright 2010-2018 by IWLTBAP SAS
# Cannot be resold, shared or otherwise redistributed
# Website: https://luts.iwltbap.com
0 128 256 384 512 640 768 896 1023
   9    0    3
   9   25   35
  16  119  167
  45  275  352
  71  382  498
  93  476  620
 103  534  706
 214  719  927
 315  825 1045
  32  125  158
  80  208  249
 177  361  404
 249  494  565
 309  609  712
 405  761  895
 502  903 1093
 610 1043 1294
 732 1171 1397
 208  359  372
 354  478  486
 465  590  626
 565  742  804
 622  852  964
 674  960 1118
 732 1095 1298
 832 1244 1472
 967 1354 1587
 470  602  625
 678  790  819
 794  894  945
 865  974 1052
 938 1090 1206
 990 1217 1386
1002 1308 1505
1054 1413 1649
1200 1530 1778
 760  909  969
1016 1164 1236
1197 1312 1438
1200 1311 1427
1239 1349 1486
1286 1440 1631
1317 1535 1758
1327 1631 1860
1458 1742 1993
1132 1332 1442
1381 1553 1704
1547 1708 1870
1635 1788 1992
1624 1763 1950
1641 1771 1950
1688 1834 2066
1711 1899 2160
1787 1980 2252
1473 1700 1849
1660 1883 2080
1804 2009 2242
1902 2118 2359
2007 2202 2453
2023 2200 2450
2029 2183 2439
2051 2219 2487
2065 2235 2505
1704 1954 2138
1840 2105 2287
1968 2213 2428
2065 2309 2544
2158 2397 2666
2285 2528 2782
2276 2472 2772
2308 2482 2777
2318 2484 2772
2094 2413 2656
2191 2486 2734
2271 2576 2854
2337 2643 2938
2397 2700 3007
2491 2778 3085
2549 2826 3143
2497 2734 3042
2509 2727 3030
 363   96  167
 391  232  325
 350  282  415
 428  329  522
 491  385  632
 572  462  760
 746  543  928
 941  647 1091
 908  684 1131
 161  186  242
 230  273  303
 170  305  346
 132  357  431
 158  459  586
 194  589  770
 245  720  936
 309  813 1055
 392  930 1208
 280  413  424
 352  469  470
 386  516  540
 397  604  685
 413  722  833
 472  868 1047
 538 1012 1260
 594 1142 1411
 719 1240 1507
 498  633  650
 591  729  754
 739  842  881
 821  940 1021
 885 1083 1210
 913 1204 1387
 922 1298 1520
 940 1368 1631
1010 1424 1680
 773  936 1016
 925 1078 1153
1132 1274 1391
1268 1384 1519
1326 1443 1595
1355 1525 1733
1329 1589 1824
1269 1615 1853
1294 1647 1901
1156 1376 1479
1319 1525 1671
1531 1713 1879
1701 1856 2069
1771 1914 2145
1783 1906 2108
1781 1934 2175
1729 1933 2193
1672 1912 2179
1508 1777 1920
1636 1900 2079
1799 2040 2240
1943 2167 2392
2067 2285 2539
2146 2350 2610
2130 2304 2587
2114 2282 2548
2038 2210 2466
1737 2055 2208
1829 2139 2327
1960 2243 2444
2069 2342 2556
2196 2448 2712
2334 2602 2878
2380 2623 2911
2377 2585 2865
2343 2531 2793
2090 2458 2707
2142 2505 2765
2223 2562 2830
2290 2618 2896
2365 2686 2978
2477 2776 3080
2585 2882 3206
2544 2797 3115
2546 2774 3073
 841  252  280
 934  476  506
 948  557  635
1012  599  742
1094  642  852
1207  716  976
1339  796 1124
1538  910 1308
1589  942 1362
 903  437  106
 953  456  357
 855  532  522
 696  553  729
 665  582  838
 588  657  926
 596  754 1023
 808  836 1224
 854  944 1330
 701  509  420
 801  601  463
 773  710  691
 666  744  851
 501  783  939
 465  889 1114
 483 1004 1301
 559 1106 1413
 586 1174 1486
 804  830  786
 819  877  863
 857  935 1007
 869  959 1038
 801 1019 1161
 733 1111 1322
 747 1247 1506
 754 1322 1633
 756 1330 1643
1012 1188 1212
1029 1214 1288
1113 1271 1371
1252 1369 1502
1302 1419 1567
1309 1509 1724
1227 1547 1806
1126 1553 1838
1084 1534 1826
1343 1602 1719
1371 1631 1754
1488 1705 1861
1641 1827 2018
1796 1953 2192
1840 1973 2193
1828 1993 2249
1700 1940 2208
1529 1836 2102
1681 1987 2127
1704 2008 2165
1794 2094 2274
1919 2188 2375
2080 2322 2563
2240 2454 2719
2232 2408 2705
2199 2359 2633
2017 2199 2457
1862 2235 2426
1879 2251 2442
1968 2312 2521
2059 2379 2609
2192 2478 2722
2359 2652 2946
2478 2735 3046
2460 2672 2962
2378 2573 2850
2147 2575 2802
2181 2578 2816
2227 2602 2859
2275 2633 2896
2329 2672 2957
2442 2757 3058
2581 2890 3212
2586 2854 3167
2571 2807 3118
1233  350  353
1251  542  605
1317  754  794
1362  805  905
1457  846 1018
1551  898 1141
1647  959 1294
1808 1059 1442
1869 1105 1493
1393  492  160
1472  540  401
1401  720  606
1255  836  942
1236  841 1033
1285  859 1150
1314  893 1312
1446  977 1455
1558 1083 1562
1420  724  211
1546  863  384
1544  938  683
1469 1031 1028
1246 1065 1326
1183 1094 1463
1058 1140 1502
1076 1189 1562
1133 1227 1631
1458  931  494
1511  976  518
1471 1155  813
1411 1276 1284
1330 1311 1520
1098 1352 1615
1002 1419 1732
 965 1437 1774
 919 1404 1748
1562 1337 1000
1509 1370 1106
1446 1476 1445
1490 1544 1661
1489 1553 1733
1360 1565 1800
1197 1599 1867
1076 1616 1931
 939 1505 1844
1731 1887 1825
1663 1885 1920
1653 1900 2047
1733 1932 2136
1836 2005 2260
1859 1997 2236
1813 1998 2255
1604 1924 2206
1347 1760 2058
1964 2317 2436
1909 2280 2446
1935 2283 2466
2002 2310 2521
2102 2375 2610
2275 2525 2778
2286 2473 2771
2243 2409 2688
1980 2188 2453
2081 2505 2712
2059 2469 2710
2080 2484 2718
2140 2539 2785
2224 2574 2844
2369 2689 2981
2539 2821 3138
2518 2752 3056
2428 2624 2898
2227 2671 2880
2221 2657 2876
2267 2684 2920
2306 2702 2947
2341 2716 2978
2412 2762 3055
2567 2890 3204
2626 2912 3231
2597 2840 3147
1560  422  415
1536  561  654
1540  856  882
1602  934 1028
1673  973 1125
1774 1020 1249
1869 1095 1403
1997 1187 1552
2055 1223 1594
1791  571  271
1855  630  472
1738  835  693
1622  996 1055
1616 1036 1198
1698 1063 1323
1743 1092 1463
1815 1172 1588
1906 1238 1672
1994  943   92
2032  953  449
2042  995  649
1958 1202 1044
1754 1330 1500
1700 1323 1613
1718 1321 1708
1724 1335 1799
1771 1349 1823
2039 1049  354
2090 1084  358
2120 1356  707
2078 1475 1226
2015 1586 1651
1790 1615 1930
1743 1585 2010
1650 1533 2035
1582 1461 1969
2127 1424  684
2127 1403  649
2111 1546  898
2032 1754 1504
1994 1858 1926
1942 1889 2192
1754 1889 2237
1593 1881 2253
1325 1677 2036
2248 1873 1316
2186 1887 1393
2035 2023 1804
2005 2164 2230
2074 2229 2431
2095 2226 2507
2038 2193 2461
1783 2091 2392
1321 1814 2156
2289 2371 2070
2207 2447 2312
2149 2536 2606
2200 2562 2778
2269 2591 2862
2372 2651 2943
2391 2618 2907
2332 2523 2782
1909 2184 2459
2284 2685 2629
2269 2724 2799
2276 2742 2905
2313 2753 2975
2373 2779 3043
2469 2813 3119
2605 2917 3237
2590 2845 3155
2480 2684 2972
2317 2796 3008
2304 2772 2995
2319 2775 3005
2359 2799 3052
2414 2831 3077
2471 2844 3130
2571 2914 3215
2680 2996 3303
2626 2878 3196
1859  494  472
1828  586  701
1760  861  949
1789 1023 1105
1852 1098 1218
1945 1154 1355
2037 1206 1484
2150 1281 1640
2224 1320 1698
2163  669  359
2180  705  559
2067  876  816
1892 1115 1132
1903 1212 1328
1993 1250 1466
2071 1282 1598
2127 1337 1735
2195 1376 1802
2430  958  169
2445  964  474
2455 1061  689
2291 1289 1052
2135 1487 1591
2093 1538 1781
2132 1531 1857
2146 1537 1939
2164 1521 1952
2513 1331  177
2531 1337  441
2571 1472  881
2556 1512 1138
2469 1699 1594
2256 1847 2092
2197 1802 2146
2185 1758 2167
2121 1664 2098
2617 1539  533
2626 1445  460
2718 1595  591
2672 1892 1222
2599 2013 1802
2540 2165 2276
2328 2135 2469
2251 2021 2437
2108 1834 2289
2719 1960 1000
2730 1921  931
2703 1987 1051
2625 2222 1584
2553 2411 2198
2548 2551 2677
2540 2556 2873
2417 2420 2807
2071 2148 2542
2746 2295 1514
2733 2327 1579
2631 2438 1845
2513 2672 2428
2522 2815 2879
2629 2915 3200
2688 2918 3275
2631 2828 3157
2224 2427 2745
2705 2590 2005
2639 2675 2188
2580 2792 2453
2578 2938 2831
2613 3051 3187
2714 3117 3394
2810 3177 3492
2790 3096 3433
2567 2799 3112
2480 2950 2904
2469 2965 3010
2468 2954 3077
2481 2954 3158
2511 2976 3217
2577 3020 3296
2653 3058 3340
2757 3099 3404
2686 2954 3266
2128  548  521
2097  612  730
1996  818  989
1899 1097 1147
1984 1184 1305
2059 1233 1418
2145 1278 1551
2260 1343 1682
2341 1399 1793
2489  739  419
2466  759  598
2355  897  859
2074 1200 1181
2079 1295 1394
2158 1366 1558
2256 1395 1677
2336 1452 1826
2404 1537 1938
2780  993  250
2769  999  527
2767 1102  731
2552 1307 1084
2362 1545 1591
2317 1665 1849
2378 1686 1971
2448 1706 2067
2470 1734 2116
2981 1449  101
2967 1412  491
2980 1441  810
2912 1541 1113
2723 1730 1506
2548 1950 2114
2503 1966 2258
2515 1932 2283
2501 1893 2278
2958 1727  345
2970 1651  465
3048 1773  744
3070 1977 1348
3034 2026 1666
2881 2213 2175
2683 2302 2584
2583 2200 2542
2532 2088 2460
3074 2062  804
3120 1971  705
3162 2002  715
3242 2222 1038
3198 2483 1780
3112 2626 2418
3059 2762 2861
2818 2636 2970
2609 2381 2783
3129 2384 1243
3217 2415 1219
3215 2451 1300
3183 2638 1628
3152 2819 2142
3102 3055 2807
3065 3222 3379
3032 3162 3487
2842 2862 3285
3082 2569 1617
3132 2620 1648
3127 2680 1757
3102 2849 2098
3097 3041 2536
3019 3302 3271
3092 3472 3796
3124 3470 3881
2914 3209 3571
2795 2825 2293
2734 2918 2527
2708 2999 2695
2714 3071 2884
2723 3150 3132
2760 3237 3415
2847 3309 3626
2957 3356 3674
2794 3100 3401
2456  599  547
2410  662  774
2292  850 1060
2093 1121 1234
2086 1249 1377
2178 1307 1502
2266 1350 1636
2347 1404 1755
2466 1515 1912
2810  794  440
2824  812  579
2687  940  842
2377 1222 1234
2223 1398 1484
2287 1489 1671
2375 1535 1814
2466 1570 1924
2574 1742 2113
3071 1033  296
3048 1043  547
3032 1143  741
2793 1299 1061
2519 1571 1552
2448 1738 1902
2510 1811 2071
2576 1826 2159
2656 1929 2291
3309 1430  161
3286 1401  507
3285 1435  780
3171 1547 1094
2880 1712 1431
2700 1967 2072
2630 2076 2319
2670 2066 2370
2734 2113 2457
3370 1870  203
3395 1833  492
3465 1904  879
3448 1945 1264
3308 2012 1580
3038 2183 2021
2862 2370 2591
2791 2327 2637
2799 2302 2653
3313 2148  598
3378 2090  616
3445 2141  740
3536 2319 1122
3566 2501 1831
3500 2589 2219
3330 2745 2683
3089 2760 3028
2897 2604 2956
3377 2413 1049
3512 2459 1021
3577 2522 1033
3669 2675 1205
3731 2843 1665
3728 3073 2390
3618 3227 3021
3574 3370 3351
3266 3083 3334
3406 2631 1384
3540 2701 1387
3601 2767 1444
3666 2912 1654
3733 3062 1996
3727 3299 2611
3607 3622 3409
3600 3758 3866
3446 3622 3879
3244 2739 1761
3218 2786 1873
3208 2856 2011
3228 2989 2241
3259 3096 2463
3238 3284 2882
3188 3498 3431
3274 3653 3903
3221 3576 3986
2953  625  413
2952  699  649
2746  940 1093
2460 1195 1418
2235 1427 1545
2303 1504 1685
2393 1552 1826
2500 1620 1962
2612 1795 2168
3124  840  416
3131  871  540
3031 1002  779
2779 1202 1114
2459 1498 1479
2385 1645 1772
2482 1755 1992
2585 1817 2140
2709 1976 2339
3354 1100  313
3304 1083  526
3267 1169  719
3077 1296  948
2750 1481 1192
2588 1749 1785
2562 1916 2129
2660 2007 2313
2781 2163 2507
3598 1442  203
3531 1395  508
3506 1417  752
3366 1494  987
3091 1607 1167
2818 1811 1659
2704 2089 2261
2751 2206 2487
2848 2322 2666
3837 1930  136
3803 1869  497
3761 1839  840
3667 1845 1138
3466 1876 1360
3082 1949 1572
2920 2250 2336
2861 2419 2703
2922 2513 2849
3679 2254  355
3706 2202  557
3756 2217  819
3866 2327 1241
3864 2387 1684
3635 2387 1912
3296 2481 2274
3201 2753 2933
3078 2796 3135
3518 2428  914
3619 2444  872
3680 2457  881
3809 2577 1049
3889 2763 1513
3997 2974 2305
3880 3040 2684
3729 3229 3045
3574 3276 3402
3584 2657 1236
3667 2720 1294
3773 2822 1383
3839 2963 1585
3912 3076 1883
3999 3291 2427
4037 3624 3138
4045 3749 3614
4005 3833 3807
3670 2823 1487
3701 2857 1538
3755 2910 1591
3802 3016 1725
3837 3082 1857
3889 3178 2089
3926 3364 2522
3957 3764 3354
4095 4092 4095
