nova/tdt-studio/app/Lut_mau/IWLTBAP/2 - LUTs by IWLTBAP (3DL)/01 - Standard/Psychedelia/Choweed - Standard.3dl
# Copyright: (C) Copyright 2010-2018 by IWLTBAP SAS
# Cannot be resold, shared or otherwise redistributed
# Website: https://luts.iwltbap.com
0 64 128 192 256 320 384 448 512 576 640 704 768 832 896 960 1023
   9    0    3
   9    6   12
   9   25   35
   9   61   87
  16  119  167
  25  194  268
  45  275  352
  58  333  429
  71  382  498
  83  431  559
  93  476  620
 103  513  678
 103  534  706
 119  580  774
 214  719  927
 315  828 1049
 315  825 1045
  12   38   61
  16   64   87
  25  100  135
  41  158  194
  64  245  280
  90  319  372
 125  391  456
 164  452  538
 191  510  618
 230  574  705
 266  639  793
 305  718  878
 337  775  959
 370  836 1041
 456  922 1143
 542 1004 1235
 559 1014 1248
  32  125  158
  54  164  194
  80  208  249
 129  286  317
 177  361  404
 214  432  483
 249  494  565
 280  553  634
 309  609  712
 350  692  802
 405  761  895
 455  833 1004
 502  903 1093
 553  973 1190
 610 1043 1294
 699 1134 1375
 732 1171 1397
  90  245  268
 158  295  317
 206  341  356
 254  399  425
 309  475  514
 356  545  605
 409  608  687
 435  668  764
 463  732  826
 490  790  905
 520  853  997
 562  922 1086
 608  994 1194
 677 1080 1302
 732 1162 1384
 800 1229 1465
 847 1267 1497
 208  359  372
 286  420  431
 354  478  486
 413  525  542
 465  590  626
 521  669  717
 565  742  804
 595  798  886
 622  852  964
 661  908 1043
 674  960 1118
 698 1015 1195
 732 1095 1298
 779 1180 1389
 832 1244 1472
 912 1309 1548
 967 1354 1587
 335  480  480
 431  548  573
 516  623  662
 570  691  714
 608  734  773
 677  795  846
 720  857  936
 754  911 1013
 785  965 1082
 812 1023 1170
 831 1093 1246
 836 1153 1324
 851 1204 1396
 889 1265 1477
 947 1326 1558
1012 1389 1633
1073 1439 1676
 470  602  625
 566  700  709
 678  790  819
 758  863  910
 794  894  945
 826  923  976
 865  974 1052
 910 1025 1129
 938 1090 1206
 967 1161 1305
 990 1217 1386
1001 1265 1455
1002 1308 1505
1018 1357 1575
1054 1413 1649
1115 1476 1724
1200 1530 1778
 600  751  768
 720  851  894
 831  952 1033
 942 1037 1129
 991 1099 1186
 996 1102 1179
1016 1120 1201
1056 1175 1278
1077 1218 1342
1101 1268 1414
1127 1322 1496
1148 1374 1571
1162 1419 1639
1160 1460 1682
1185 1505 1746
1243 1567 1820
1313 1641 1879
 760  909  969
 881 1024 1122
1016 1164 1236
1113 1251 1369
1197 1312 1438
1212 1326 1458
1200 1311 1427
1211 1320 1435
1239 1349 1486
1264 1391 1555
1286 1440 1631
1305 1488 1692
1317 1535 1758
1323 1583 1822
1327 1631 1860
1371 1684 1926
1458 1742 1993
 953 1119 1203
1084 1259 1362
1214 1363 1477
1306 1446 1574
1376 1511 1662
1436 1550 1726
1441 1552 1728
1414 1527 1687
1411 1523 1680
1446 1549 1725
1471 1602 1782
1488 1645 1842
1498 1684 1906
1513 1728 1969
1521 1764 2011
1556 1810 2071
1623 1865 2121
1132 1332 1442
1276 1456 1584
1381 1553 1704
1480 1646 1803
1547 1708 1870
1599 1756 1933
1635 1788 1992
1642 1790 1992
1624 1763 1950
1618 1750 1929
1641 1771 1950
1673 1803 2008
1688 1834 2066
1699 1869 2108
1711 1899 2160
1738 1936 2197
1787 1980 2252
1312 1519 1664
1443 1648 1808
1540 1740 1915
1616 1812 2000
1694 1871 2080
1746 1919 2142
1791 1960 2195
1829 1995 2256
1844 2005 2262
1831 1980 2226
1825 1961 2186
1846 1974 2193
1861 2001 2245
1869 2030 2282
1875 2060 2308
1889 2080 2336
1916 2104 2357
1473 1700 1849
1571 1799 1979
1660 1883 2080
1743 1950 2163
1804 2009 2242
1856 2074 2301
1902 2118 2359
1962 2159 2418
2007 2202 2453
2035 2225 2472
2023 2200 2450
2011 2173 2426
2029 2183 2439
2044 2206 2467
2051 2219 2487
2058 2227 2496
2065 2235 2505
1589 1837 2005
1688 1921 2101
1764 1996 2189
1828 2073 2272
1888 2132 2347
1958 2184 2414
2003 2228 2462
2047 2270 2523
2095 2317 2574
2151 2372 2623
2197 2396 2669
2176 2361 2630
2157 2335 2617
2188 2350 2636
2206 2367 2665
2213 2373 2667
2212 2371 2658
1704 1954 2138
1773 2024 2212
1840 2105 2287
1896 2159 2357
1968 2213 2428
2020 2264 2497
2065 2309 2544
2108 2351 2601
2158 2397 2666
2228 2455 2718
2285 2528 2782
2302 2534 2796
2276 2472 2772
2282 2463 2767
2308 2482 2777
2321 2492 2779
2318 2484 2772
1824 2113 2290
1882 2169 2355
1955 2224 2425
2006 2271 2480
2054 2318 2538
2099 2362 2601
2140 2402 2664
2195 2441 2706
2238 2484 2750
2288 2550 2807
2344 2608 2884
2387 2648 2938
2373 2616 2903
2357 2579 2865
2375 2587 2869
2391 2598 2876
2392 2594 2870
2094 2413 2656
2134 2449 2696
2191 2486 2734
2231 2539 2789
2271 2576 2854
2306 2612 2891
2337 2643 2938
2365 2670 2968
2397 2700 3007
2450 2736 3046
2491 2778 3085
2535 2821 3138
2549 2826 3143
2513 2768 3075
2497 2734 3042
2508 2735 3040
2509 2727 3030
 145   21   77
 109   58  154
  96   90  167
  74  125  186
  77  164  235
  93  206  280
 106  261  339
 122  297  391
 151  335  438
 170  377  501
 191  417  548
 222  458  610
 254  498  671
 293  542  723
 345  606  808
 382  658  880
 339  647  868
  38   70   96
  51  100  142
  58  122  164
  54  148  189
  58  180  237
  61  237  288
  74  288  357
  90  339  428
 103  389  501
 138  446  581
 164  505  654
 189  562  738
 216  616  806
 240  667  875
 282  740  958
 339  821 1057
 350  841 1077
  54  151  183
  74  180  208
  87  203  245
  93  247  273
  96  284  325
 106  327  377
 129  380  446
 158  437  525
 183  499  612
 214  569  708
 247  642  808
 282  731  915
 315  798 1014
 345  853 1077
 404  913 1159
 472  993 1282
 527 1034 1318
 106  264  280
 158  295  317
 191  323  343
 214  357  375
 235  405  437
 252  458  510
 271  511  586
 293  567  657
 319  628  750
 357  717  851
 412  792  954
 453  868 1055
 490  938 1150
 529 1002 1239
 574 1078 1333
 656 1162 1412
 718 1204 1460
 214  366  382
 266  405  421
 323  449  452
 356  486  503
 409  535  568
 443  598  649
 473  664  747
 501  735  817
 521  794  901
 549  857  998
 577  923 1082
 610  990 1187
 661 1068 1295
 700 1143 1378
 742 1207 1449
 804 1267 1511
 857 1303 1555
 331  479  479
 404  525  533
 466  582  616
 529  636  679
 566  694  722
 614  757  801
 677  825  892
 708  884  981
 736  943 1066
 759 1005 1153
 773 1076 1233
 785 1131 1324
 808 1198 1402
 837 1251 1478
 871 1301 1548
 940 1353 1605
 987 1386 1639
 459  596  618
 532  653  683
 610  742  771
 711  818  858
 767  869  913
 810  908  962
 854  969 1049
 900 1029 1138
 934 1099 1221
 957 1172 1322
 971 1224 1399
 971 1269 1467
 975 1312 1523
 991 1356 1583
1012 1396 1643
1055 1442 1688
1099 1475 1729
 588  743  756
 680  816  849
 774  902  969
 878  995 1073
 975 1085 1160
1007 1114 1197
1038 1159 1223
1083 1206 1314
1105 1253 1390
1125 1303 1469
1142 1352 1545
1147 1395 1602
1138 1432 1655
1134 1467 1703
1140 1497 1745
1192 1538 1800
1237 1572 1828
 747  902  959
 836  989 1073
 962 1103 1193
1073 1218 1318
1187 1306 1428
1240 1357 1489
1250 1364 1494
1264 1376 1504
1293 1408 1558
1314 1447 1626
1327 1489 1681
1332 1527 1745
1330 1563 1804
1319 1610 1839
1305 1629 1861
1327 1660 1908
1368 1694 1937
 937 1112 1187
1040 1227 1320
1170 1332 1439
1280 1430 1558
1375 1517 1661
1462 1592 1753
1497 1630 1805
1494 1623 1793
1492 1617 1776
1513 1636 1809
1531 1667 1851
1533 1696 1908
1532 1725 1947
1530 1755 1998
1512 1770 2017
1515 1790 2052
1547 1819 2080
1122 1335 1433
1240 1434 1564
1350 1537 1681
1467 1645 1802
1552 1723 1897
1621 1788 1978
1692 1839 2056
1721 1864 2086
1716 1851 2069
1707 1833 2034
1724 1842 2035
1735 1863 2081
1731 1884 2113
1730 1903 2157
1719 1915 2176
1717 1927 2191
1736 1947 2219
1314 1535 1670
1416 1641 1792
1520 1735 1909
1608 1817 2006
1700 1888 2097
1763 1949 2174
1819 2001 2253
1869 2063 2322
1902 2091 2349
1901 2080 2335
1890 2053 2286
1901 2056 2280
1907 2071 2310
1905 2081 2334
1893 2080 2335
1886 2080 2337
1887 2084 2342
1484 1729 1883
1563 1807 1978
1646 1888 2073
1738 1960 2163
1808 2028 2248
1869 2099 2328
1935 2150 2383
1990 2199 2445
2043 2250 2512
2086 2289 2543
2088 2278 2539
2071 2244 2511
2077 2242 2514
2084 2251 2526
2077 2244 2517
2064 2234 2505
2049 2220 2479
1605 1873 2047
1687 1938 2113
1757 2006 2190
1825 2086 2272
1889 2147 2349
1964 2203 2421
2016 2254 2488
2066 2302 2544
2120 2354 2607
2197 2415 2683
2243 2456 2720
2239 2436 2717
2223 2400 2696
2230 2402 2700
2238 2403 2697
2230 2392 2683
2210 2368 2649
1719 1992 2173
1773 2060 2241
1832 2116 2294
1892 2173 2359
1967 2228 2433
2022 2281 2505
2073 2330 2554
2120 2376 2622
2187 2426 2695
2247 2486 2755
2310 2566 2836
2348 2596 2874
2330 2558 2847
2326 2534 2805
2342 2541 2807
2345 2537 2800
2330 2507 2781
1830 2144 2331
1875 2185 2369
1939 2231 2432
1993 2279 2483
2045 2326 2534
2093 2372 2603
2140 2416 2673
2200 2460 2718
2246 2520 2777
2299 2574 2849
2359 2634 2915
2419 2689 2982
2433 2681 2976
2399 2635 2932
2407 2629 2914
2428 2633 2913
2414 2618 2893
2084 2428 2679
2116 2456 2705
2151 2484 2740
2204 2531 2784
2242 2564 2831
2280 2598 2875
2315 2632 2917
2349 2663 2959
2385 2697 2997
2442 2737 3045
2488 2781 3090
2539 2832 3147
2573 2861 3182
2548 2814 3132
2523 2768 3073
2531 2764 3067
2529 2753 3053
 363   96  167
 350  180  273
 391  232  325
 348  261  365
 350  282  415
 389  305  460
 428  329  522
 456  356  583
 491  385  632
 521  423  693
 572  462  760
 647  502  818
 746  543  928
 834  590 1009
 941  647 1091
 983  704 1153
 908  684 1131
 333  181  114
 344  199  250
 275  203  275
 232  242  303
 189  257  327
 174  277  348
 177  309  399
 183  345  443
 191  385  505
 203  431  568
 227  482  631
 257  530  704
 297  579  775
 345  624  836
 417  699  915
 471  773 1017
 429  778 1021
 161  186  242
 208  242  273
 230  273  303
 208  290  327
 170  305  346
 145  323  377
 132  357  431
 145  404  503
 158  459  586
 174  524  679
 194  589  770
 219  651  858
 245  720  936
 273  763  991
 309  813 1055
 366  894 1156
 392  930 1208
 200  305  327
 237  335  350
 266  363  373
 264  380  407
 245  401  435
 222  426  475
 211  459  530
 214  505  605
 235  566  692
 264  641  799
 297  738  918
 325  813 1027
 350  876 1116
 386  928 1192
 423  977 1255
 476 1040 1351
 527 1098 1393
 280  413  424
 315  440  443
 352  469  470
 373  491  507
 386  516  540
 394  557  611
 397  604  685
 401  651  759
 413  722  833
 438  792  942
 472  868 1047
 506  944 1151
 538 1012 1260
 563 1083 1351
 594 1142 1411
 662 1202 1479
 719 1240 1507
 384  520  524
 425  547  563
 466  583  615
 518  623  663
 544  655  698
 570  718  767
 605  778  850
 623  836  940
 647  894 1026
 662  953 1113
 679 1014 1200
 703 1092 1306
 729 1171 1395
 752 1222 1470
 775 1265 1527
 820 1310 1576
 867 1339 1603
 498  633  650
 540  676  691
 591  729  754
 678  790  819
 739  842  881
 781  880  935
 821  940 1021
 858 1007 1119
 885 1083 1210
 910 1155 1311
 913 1204 1387
 911 1250 1454
 922 1298 1520
 932 1339 1581
 940 1368 1631
 973 1403 1666
1010 1424 1680
 618  779  791
 678  822  853
 744  881  942
 832  956 1037
 941 1037 1128
 993 1102 1185
1032 1152 1217
1084 1209 1317
1111 1265 1405
1128 1317 1487
1131 1363 1559
1119 1398 1618
1106 1432 1661
1097 1460 1707
1086 1474 1733
1105 1499 1759
1138 1520 1785
 773  936 1016
 828  990 1065
 925 1078 1153
1027 1181 1269
1132 1274 1391
1232 1350 1485
1268 1384 1519
1290 1406 1549
1326 1443 1595
1349 1487 1666
1355 1525 1733
1348 1555 1780
1329 1589 1824
1303 1615 1847
1269 1615 1853
1269 1628 1875
1294 1647 1901
 964 1167 1218
1027 1227 1313
1118 1310 1413
1240 1402 1520
1345 1495 1637
1452 1583 1742
1516 1653 1829
1536 1671 1844
1542 1673 1843
1566 1693 1859
1582 1721 1916
1576 1743 1960
1563 1762 1997
1540 1778 2021
1495 1771 2020
1469 1767 2019
1475 1775 2029
1156 1376 1479
1230 1440 1562
1319 1525 1671
1436 1629 1777
1531 1713 1879
1613 1788 1978
1701 1856 2069
1753 1905 2139
1771 1914 2145
1769 1901 2112
1783 1906 2108
1789 1922 2152
1781 1934 2175
1765 1942 2193
1729 1933 2193
1693 1919 2185
1672 1912 2179
1339 1586 1725
1406 1657 1803
1501 1735 1896
1588 1814 1994
1684 1886 2090
1758 1953 2175
1825 2016 2263
1888 2091 2345
1956 2140 2401
1976 2150 2409
1967 2127 2370
1974 2121 2359
1979 2130 2372
1969 2130 2377
1935 2112 2363
1888 2087 2345
1858 2065 2329
1508 1777 1920
1564 1832 1993
1636 1900 2079
1728 1968 2158
1799 2040 2240
1865 2107 2321
1943 2167 2392
2004 2224 2461
2067 2285 2539
2127 2342 2598
2146 2350 2610
2130 2315 2589
2130 2304 2587
2134 2303 2585
2114 2282 2548
2080 2250 2519
2038 2210 2466
1628 1923 2083
1693 1970 2144
1754 2031 2217
1819 2102 2281
1883 2159 2348
1959 2214 2422
2017 2268 2495
2075 2323 2555
2136 2383 2637
2222 2452 2716
2282 2525 2778
2292 2520 2785
2274 2464 2767
2279 2454 2754
2278 2445 2730
2256 2419 2703
2212 2372 2653
1737 2055 2208
1777 2092 2262
1829 2139 2327
1886 2191 2376
1960 2243 2444
2015 2292 2505
2069 2342 2556
2123 2393 2633
2196 2448 2712
2264 2531 2788
2334 2602 2878
2386 2650 2940
2380 2623 2911
2367 2587 2872
2377 2585 2865
2373 2571 2849
2343 2531 2793
1841 2184 2357
1872 2210 2404
1921 2249 2450
1981 2292 2505
2032 2335 2545
2082 2379 2607
2130 2423 2670
2195 2469 2718
2246 2534 2792
2306 2592 2870
2371 2657 2951
2451 2722 3035
2477 2736 3048
2455 2689 2982
2455 2671 2962
2461 2667 2958
2445 2640 2923
2090 2458 2707
2113 2475 2725
2142 2505 2765
2190 2537 2791
2223 2562 2830
2256 2589 2865
2290 2618 2896
2325 2649 2943
2365 2686 2978
2412 2728 3035
2477 2776 3080
2534 2833 3144
2585 2882 3206
2576 2854 3170
2544 2797 3115
2548 2788 3094
2546 2774 3073
 604  188  232
 606  313  363
 696  372  421
 677  409  491
 673  428  534
 705  447  589
 746  466  626
 784  487  683
 826  513  741
 876  543  801
 947  579  875
1012  619  949
1093  678 1027
1202  738 1107
1304  802 1197
1373  846 1285
1336  827 1233
 657  244   94
 617  268  274
 599  317  321
 574  354  392
 515  372  478
 484  380  525
 483  394  580
 490  412  626
 489  440  684
 478  484  717
 478  530  773
 505  577  828
 569  618  934
 692  658 1041
 821  723 1156
 927  792 1289
