nova/tdt-studio/app/Lut_mau/IWLTBAP/2 - LUTs by IWLTBAP (3DL)/01 - Standard/Psychedelia/Choweed - Standard.3dl
# Copyright: (C) Copyright 2010-2018 by IWLTBAP SAS
# Cannot be resold, shared or otherwise redistributed
# Website: https://luts.iwltbap.com
0 256 512 768 1023
   9    0    3
  16  119  167
  71  382  498
 103  534  706
 315  825 1045
 208  359  372
 465  590  626
 622  852  964
 732 1095 1298
 967 1354 1587
 760  909  969
1197 1312 1438
1239 1349 1486
1317 1535 1758
1458 1742 1993
1473 1700 1849
1804 2009 2242
2007 2202 2453
2029 2183 2439
2065 2235 2505
2094 2413 2656
2271 2576 2854
2397 2700 3007
2549 2826 3143
2509 2727 3030
 841  252  280
 948  557  635
1094  642  852
1339  796 1124
1589  942 1362
 701  509  420
 773  710  691
 501  783  939
 483 1004 1301
 586 1174 1486
1012 1188 1212
1113 1271 1371
1302 1419 1567
1227 1547 1806
1084 1534 1826
1681 1987 2127
1794 2094 2274
2080 2322 2563
2232 2408 2705
2017 2199 2457
2147 2575 2802
2227 2602 2859
2329 2672 2957
2581 2890 3212
2571 2807 3118
1560  422  415
1540  856  882
1673  973 1125
1869 1095 1403
2055 1223 1594
1994  943   92
2042  995  649
1754 1330 1500
1718 1321 1708
1771 1349 1823
2127 1424  684
2111 1546  898
1994 1858 1926
1754 1889 2237
1325 1677 2036
2289 2371 2070
2149 2536 2606
2269 2591 2862
2391 2618 2907
1909 2184 2459
2317 2796 3008
2319 2775 3005
2414 2831 3077
2571 2914 3215
2626 2878 3196
2128  548  521
1996  818  989
1984 1184 1305
2145 1278 1551
2341 1399 1793
2780  993  250
2767 1102  731
2362 1545 1591
2378 1686 1971
2470 1734 2116
2958 1727  345
3048 1773  744
3034 2026 1666
2683 2302 2584
2532 2088 2460
3129 2384 1243
3215 2451 1300
3152 2819 2142
3065 3222 3379
2842 2862 3285
2795 2825 2293
2708 2999 2695
2723 3150 3132
2847 3309 3626
2794 3100 3401
2953  625  413
2746  940 1093
2235 1427 1545
2393 1552 1826
2612 1795 2168
3354 1100  313
3267 1169  719
2750 1481 1192
2562 1916 2129
2781 2163 2507
3837 1930  136
3761 1839  840
3466 1876 1360
2920 2250 2336
2922 2513 2849
3518 2428  914
3680 2457  881
3889 2763 1513
3880 3040 2684
3574 3276 3402
3670 2823 1487
3755 2910 1591
3837 3082 1857
3926 3364 2522
4095 4092 4095
