nova/tdt-studio/app/Lut_mau/IWLTBAP/2 - LUTs by IWLTBAP (3DL)/01 - Standard/Psychedelia/Esromen - Standard.3dl
# Copyright: (C) Copyright 2010-2018 by IWLTBAP SAS
# Cannot be resold, shared or otherwise redistributed
# Website: https://luts.iwltbap.com
0 64 128 192 256 320 384 448 512 576 640 704 768 832 896 960 1023
   0    0    0
   9   16   67
  16   38  135
  16   70  217
  16  112  309
  16  158  405
  16  211  505
  19  268  598
  19  329  686
  19  396  774
  19  466  864
  22  543  966
  22  626 1080
  25  714 1205
  25  799 1335
  29  884 1468
  29  966 1597
   3  148  242
   9  170  303
  12  197  368
  12  224  431
  16  259  502
  16  299  574
  16  343  647
  16  392  719
  19  444  793
  19  505  873
  22  572  964
  22  643 1063
  22  720 1174
  25  799 1294
  28  878 1417
  29  953 1538
  32 1026 1659
   6  309  490
   9  333  549
  12  357  606
  12  384  661
  12  415  712
  12  447  761
  16  484  812
  16  524  864
  19  570  923
  19  624  994
  22  685 1077
  22  753 1173
  25  822 1279
  28  892 1389
  29  961 1503
  32 1027 1615
  32 1090 1723
   6  482  745
   9  506  804
  12  530  860
  12  557  910
  12  583  950
  16  610  983
  16  639 1014
  16  674 1047
  19  713 1089
  19  761 1146
  22  813 1216
  25  872 1301
  28  934 1396
  29  995 1496
  32 1053 1596
  32 1109 1695
  32 1163 1792
   9  667 1007
  12  692 1070
  16  717 1128
  16  740 1176
  16  763 1213
  16  785 1237
  16  809 1254
  19  836 1271
  19  869 1295
  22  910 1333
  25  955 1385
  28 1005 1452
  32 1056 1530
  32 1107 1613
  35 1156 1698
  35 1202 1783
  35 1248 1867
  12  858 1273
  16  881 1337
  16  904 1396
  19  924 1447
  19  945 1485
  19  963 1509
  19  983 1521
  19 1006 1528
  22 1033 1536
  25 1066 1553
  28 1103 1583
  32 1144 1627
  35 1186 1682
  38 1227 1744
  38 1267 1812
  38 1306 1881
  38 1344 1951
  19 1047 1536
  22 1066 1596
  22 1084 1655
  22 1102 1709
  22 1119 1752
  22 1135 1781
  22 1152 1796
  22 1171 1799
  25 1194 1798
  28 1221 1798
  35 1252 1806
  41 1284 1824
  45 1318 1854
  48 1353 1894
  48 1385 1941
  48 1417 1993
  45 1449 2047
  28 1224 1786
  32 1239 1841
  32 1253 1897
  32 1268 1951
  28 1282 2000
  28 1295 2037
  25 1309 2061
  28 1325 2069
  32 1345 2065
  35 1369 2056
  45 1396 2047
  51 1424 2044
  58 1452 2050
  61 1480 2067
  61 1508 2093
  61 1536 2126
  61 1563 2162
  48 1390 2021
  48 1401 2070
  48 1412 2121
  45 1422 2175
  41 1432 2226
  38 1442 2272
  35 1454 2306
  35 1468 2324
  38 1486 2327
  45 1507 2317
  58 1532 2301
  67 1558 2283
  77 1584 2271
  80 1610 2266
  83 1635 2272
  83 1660 2285
  83 1684 2304
  74 1545 2245
  74 1552 2287
  70 1560 2333
  64 1568 2383
  58 1574 2436
  54 1582 2487
  48 1590 2530
  48 1601 2561
  54 1617 2575
  64 1637 2572
  77 1661 2557
  93 1686 2534
 103 1713 2510
 112 1739 2491
 116 1764 2479
 116 1788 2474
 112 1811 2474
 106 1691 2461
 103 1697 2497
  96 1702 2537
  90 1707 2582
  80 1712 2633
  74 1716 2686
  67 1722 2736
  70 1730 2777
  80 1743 2804
  96 1761 2813
 116 1784 2805
 135 1810 2785
 151 1837 2758
 158 1865 2730
 161 1892 2706
 158 1918 2687
 151 1942 2671
 132 1831 2670
 129 1836 2701
 122 1840 2735
 113 1843 2775
 103 1846 2822
  96 1849 2873
  96 1852 2926
 106 1859 2973
 125 1869 3010
 154 1884 3031
 186 1905 3035
 214 1930 3022
 235 1959 2999
 242 1989 2971
 240 2019 2941
 227 2048 2913
 214 2075 2886
 151 1965 2872
 145 1969 2898
 138 1972 2927
 135 1976 2962
 129 1979 3004
 129 1982 3052
 138 1985 3103
 161 1989 3152
 197 1997 3194
 249 2009 3223
 303 2027 3236
 350 2051 3234
 380 2079 3219
 391 2111 3195
 382 2144 3167
 359 2177 3138
 331 2209 3108
 151 2093 3063
 151 2097 3085
 151 2102 3111
 151 2107 3142
 155 2112 3180
 170 2116 3223
 197 2119 3270
 245 2124 3316
 313 2130 3358
 397 2140 3390
 486 2155 3409
 562 2176 3413
 614 2204 3406
 635 2237 3390
 625 2272 3369
 595 2308 3344
 553 2344 3318
 135 2214 3241
 142 2221 3262
 151 2229 3286
 167 2237 3314
 189 2246 3349
 224 2253 3387
 282 2259 3429
 365 2263 3469
 476 2269 3505
 607 2278 3533
 743 2292 3552
 862 2312 3560
 947 2339 3559
 990 2371 3551
 992 2407 3538
 964 2445 3522
 920 2483 3504
 106 2333 3410
 125 2344 3429
 151 2356 3452
 183 2369 3480
 230 2383 3513
 295 2393 3547
 389 2401 3581
 518 2407 3613
 683 2413 3640
 873 2423 3660
1065 2438 3674
1235 2458 3681
1364 2485 3682
1442 2516 3680
1472 2551 3675
1463 2588 3668
1433 2626 3661
  71 2449 3572
 103 2465 3592
 145 2483 3614
 200 2502 3642
 275 2521 3673
 375 2536 3704
 511 2546 3732
 694 2553 3753
 920 2561 3769
1172 2573 3779
1425 2590 3784
1651 2612 3787
1830 2639 3788
1952 2669 3790
2020 2702 3793
2043 2737 3796
2039 2774 3798
 245   13   10
 225   56  101
 222   77  170
 214  106  257
 197  142  350
 180  186  453
 161  235  559
 142  290  658
 122  352  753
 106  417  847
  93  489  946
  83  568 1054
  74  649 1169
  67  734 1292
  61  818 1419
  54  899 1543
  51  977 1666
 208  208  186
 199  212  302
 197  232  372
 191  257  444
 183  286  524
 170  323  607
 151  365  687
 135  412  771
 119  466  856
 106  525  942
  93  592 1038
  83  664 1141
  74  738 1253
  67  817 1371
  64  892 1489
  58  963 1606
  54 1034 1720
 168  359  453
 175  377  521
 174  394  589
 174  418  656
 167  443  718
 158  470  779
 145  505  840
 129  544  906
 116  590  975
 103  643 1053
  93  704 1142
  83  768 1241
  77  836 1346
  70  904 1455
  67  971 1565
  64 1034 1671
  58 1095 1775
 135  530  701
 145  549  767
 151  569  831
 151  589  889
 151  611  942
 145  634  988
 135  660 1030
 122  692 1077
 112  729 1129
 100  775 1193
  90  828 1270
  83  884 1356
  77  945 1452
  74 1003 1550
  67 1060 1648
  64 1114 1742
  61 1167 1836
 106  716  965
 116  735 1031
 125  754 1092
 129  772 1148
 132  790 1194
 129  808 1230
 122  829 1259
 116  853 1288
 106  885 1324
  96  923 1368
  90  967 1427
  83 1014 1496
  77 1063 1574
  74 1112 1656
  70 1160 1739
  67 1206 1822
  64 1250 1903
  80  907 1245
  90  924 1307
 100  940 1366
 109  956 1420
 112  971 1464
 116  986 1496
 112 1002 1518
 106 1023 1536
 100 1047 1553
  93 1078 1577
  87 1114 1613
  83 1151 1659
  80 1191 1715
  77 1231 1777
  74 1270 1844
  70 1307 1911
  67 1344 1980
  61 1094 1522
  74 1109 1579
  83 1122 1635
  90 1135 1688
  96 1147 1733
 100 1160 1768
 100 1172 1789
 100 1189 1801
  96 1209 1807
  93 1234 1814
  90 1262 1826
  87 1293 1848
  83 1325 1879
  83 1357 1919
  80 1388 1965
  77 1420 2017
  74 1450 2070
  58 1271 1786
  67 1282 1837
  74 1293 1889
  80 1303 1941
  87 1312 1988
  90 1322 2028
  93 1332 2055
  93 1346 2069
  93 1363 2072
  93 1384 2067
  93 1408 2062
  93 1433 2061
  93 1460 2068
  93 1486 2086
  90 1513 2111
  87 1539 2144
  83 1565 2181
  67 1435 2033
  74 1443 2078
  77 1451 2125
  83 1458 2174
  87 1465 2225
  90 1472 2270
  90 1481 2306
  90 1492 2328
  93 1506 2334
  96 1524 2328
 100 1546 2313
 103 1569 2297
 106 1594 2285
 109 1618 2282
 106 1641 2287
 106 1665 2300
 103 1688 2318
  87 1587 2264
  90 1594 2303
  93 1600 2346
  93 1605 2392
  93 1609 2442
  93 1614 2492
  93 1620 2536
  96 1628 2568
 100 1640 2584
 109 1657 2584
 116 1677 2570
 125 1700 2548
 132 1724 2523
 135 1748 2504
 132 1772 2492
 129 1794 2487
 125 1817 2486
 116 1732 2484
 116 1736 2518
 112 1741 2556
 109 1744 2598
 106 1747 2647
 103 1750 2698
 103 1753 2747
 109 1759 2788
 119 1768 2816
 135 1783 2827
 151 1803 2820
 167 1826 2799
 177 1851 2772
 180 1876 2743
 177 1902 2718
 170 1926 2698
 161 1949 2681
 142 1869 2696
 138 1873 2725
 135 1876 2758
 129 1879 2796
 122 1880 2840
 122 1882 2890
 122 1884 2941
 135 1888 2988
 158 1895 3025
 186 1907 3046
 219 1925 3050
 245 1948 3037
 261 1974 3014
 266 2002 2984
 257 2029 2952
 242 2057 2924
 222 2083 2895
 158 2000 2897
 155 2004 2922
 151 2007 2951
 145 2010 2984
 145 2012 3025
 148 2014 3071
 161 2016 3120
 186 2019 3168
 227 2025 3210
 280 2034 3239
 335 2049 3252
 382 2070 3249
 410 2096 3233
 417 2125 3208
 404 2156 3178
 377 2188 3147
 341 2218 3116
 158 2126 3087
 158 2130 3109
 161 2135 3134
 164 2139 3164
 170 2144 3201
 186 2147 3242
 219 2150 3287
 268 2153 3333
 341 2157 3373
 429 2165 3404
 519 2178 3423
 597 2197 3426
 648 2222 3419
 666 2253 3401
 652 2286 3378
 616 2320 3353
 568 2355 3325
 145 2247 3265
 154 2254 3285
 164 2261 3308
 180 2270 3336
 206 2277 3368
 245 2283 3405
 303 2288 3445
 392 2292 3484
 507 2296 3519
 641 2304 3546
 779 2316 3564
 898 2334 3571
 982 2359 3569
1023 2389 3560
1022 2423 3546
 989 2458 3529
 939 2495 3510
 119 2366 3432
 142 2376 3451
 167 2389 3474
 203 2401 3500
 249 2413 3531
 319 2423 3564
 418 2429 3596
 553 2435 3626
 721 2441 3651
 912 2450 3671
1103 2463 3683
1271 2482 3689
1398 2507 3689
1474 2536 3686
1501 2569 3681
1489 2603 3673
1456 2640 3665
  90 2483 3592
 125 2499 3612
 167 2516 3635
 224 2535 3662
 301 2552 3691
 405 2565 3719
 549 2574 3744
 737 2580 3763
 965 2588 3777
1216 2600 3786
1466 2617 3790
1686 2638 3792
1861 2662 3792
1981 2690 3794
2047 2721 3796
2069 2754 3798
2063 2788 3800
 487   26   17
 486   31  212
 428  109  209
 414  137  291
 389  167  382
 359  206  489
 325  254  599
 290  309  709
 254  368  813
 224  437  917
 194  510 1025
 170  588 1139
 151  669 1256
 132  751 1380
 116  831 1502
 100  909 1622
  87  985 1740
 474  250   72
 474  254  269
 397  270  377
 385  290  456
 370  315  540
 345  346  630
 315  385  721
 284  431  815
 252  484  909
 222  544 1007
 194  610 1110
 170  680 1219
 151  754 1333
 135  829 1450
 119  902 1565
 106  971 1676
  93 1039 1785
 379  427  327
 385  438  440
 360  436  564
 355  451  642
 345  472  717
 327  497  790
 303  528  865
 275  565  943
 245  609 1023
 217  661 1110
 191  719 1207
 170  782 1309
 151  848 1417
 135  913 1524
 122  977 1631
 109 1039 1734
 100 1098 1833
 292  585  627
 306  598  707
 316  612  784
 317  624  859
 313  639  924
 303  659  985
 286  682 1043
 261  712 1103
 237  748 1168
 211  791 1241
 186  841 1324
 167  897 1416
 151  953 1511
 135 1009 1608
 122 1063 1702
 112 1117 1796
 103 1168 1886
 230  768  897
 248  782  969
 262  795 1040
 273  807 1107
 275  818 1168
 273  832 1216
 264  850 1260
 245  873 1303
 224  902 1350
 203  937 1405
 183  978 1469
 164 1023 1542
 148 1069 1621
 135 1116 1703
 122 1162 1785
 116 1207 1866
 106 1250 1946
 172  957 1191
 190  969 1256
 210  981 1320
 226  991 1379
 235 1000 1433
 240 1012 1475
 237 1025 1510
 227 1042 1539
 211 1064 1568
 191 1092 1602
 174 1124 1643
 158 1160 1694
 145 1197 1752
 135 1235 1815
 125 1272 1881
 116 1309 1948
 109 1344 2015
 125 1142 1490
 145 1153 1547
 164 1161 1602
 183 1170 1656
 197 1178 1705
 206 1186 1745
 211 1196 1776
 206 1209 1797
 197 1227 1813
 183 1248 1828
 170 1273 1846
 158 1302 1872
 145 1331 1906
 135 1361 1947
 125 1392 1995
 119 1421 2046
 112 1451 2100
 100 1318 1772
 116 1326 1820
 132 1333 1870
 151 1340 1920
 167 1345 1968
 180 1351 2010
 186 1359 2042
 189 1369 2063
 183 1382 2073
 177 1400 2075
 167 1421 2075
 158 1444 2079
 148 1468 2089
 138 1493 2107
 132 1518 2135
 125 1543 2168
 119 1568 2206
  93 1481 2033
 106 1487 2075
 119 1492 2119
 132 1497 2166
 148 1501 2215
 158 1505 2259
 167 1510 2298
 174 1518 2323
 174 1529 2334
 174 1544 2333
 167 1562 2323
 164 1583 2311
 158 1605 2301
 151 1627 2298
 145 1649 2305
 138 1671 2320
 129 1693 2339
 106 1632 2276
 112 1637 2312
 122 1641 2352
 129 1644 2396
 138 1647 2443
 148 1649 2491
 154 1652 2535
 164 1657 2569
 170 1666 2588
 177 1680 2591
 180 1696 2580
 183 1716 2560
 180 1738 2538
 174 1760 2519
 167 1782 2507
 158 1803 2503
 148 1824 2502
 125 1774 2504
 129 1778 2535
 132 1781 2570
 135 1784 2611
 142 1785 2656
 145 1786 2706
 154 1787 2753
 164 1791 2795
 180 1797 2823
 194 1809 2836
 208 1825 2831
 219 1844 2812
 222 1867 2786
 219 1890 2757
 208 1913 2732
 194 1936 2711
 180 1958 2695
 148 1909 2719
 148 1913 2747
 148 1915 2777
 148 1917 2814
 148 1919 2856
 154 1919 2904
 164 1920 2953
 183 1922 3000
 208 1926 3036
 240 1936 3059
 271 1950 3063
 295 1969 3051
 307 1992 3028
 303 2017 2997
 288 2043 2966
 266 2068 2936
 237 2094 2908
 164 2039 2923
 161 2042 2946
 161 2045 2974
 161 2047 3006
 164 2049 3044
 174 2051 3089
 191 2051 3136
 224 2053 3183
 271 2056 3224
 327 2063 3253
 386 2075 3266
 432 2093 3263
 458 2116 3246
 459 2143 3220
 438 2172 3190
 402 2201 3159
 359 2230 3126
 164 2163 3113
 167 2168 3134
 170 2172 3158
 177 2176 3187
 189 2180 3221
 211 2183 3261
 247 2185 3305
 305 2187 3349
 382 2189 3388
 475 2195 3418
 568 2206 3436
 646 2222 3440
 696 2245 3431
 710 2272 3413
 690 2303 3390
 646 2336 3363
 590 2368 3335
 155 2284 3289
 167 2291 3309
 180 2299 3332
 197 2306 3358
 227 2313 3390
 268 2319 3425
 335 2322 3462
 429 2325 3499
 549 2329 3532
 687 2334 3558
 827 2345 3576
 946 2361 3582
1029 2383 3580
1067 2411 3570
1061 2442 3555
1022 2476 3537
 966 2510 3518
 138 2404 3456
 161 2415 3475
 189 2427 3497
 224 2439 3522
 277 2449 3551
 352 2458 3581
 456 2463 3611
 596 2468 3639
 768 2473 3663
 960 2481 3680
1150 2493 3692
1317 2511 3697
1441 2533 3697
1514 2559 3693
1538 2590 3687
1522 2622 3679
1485 2655 3671
 116 2525 3616
 151 2540 3636
 197 2556 3657
 257 2573 3682
 337 2588 3709
 447 2599 3734
 597 2607 3757
 790 2613 3774
1020 2621 3785
1269 2632 3792
1513 2648 3796
1727 2667 3797
1897 2690 3797
2013 2716 3797
2078 2744 3799
2099 2774 3801
2092 2805 3803
 727   41   21
 726   43  218
 678   98  315
 624  160  316
 599  186  409
 565  223  513
 524  268  624
 480  321  743
 435  382  859
 391  450  976
 348  525 1095
 309  602 1217
 275  682 1341
 242  761 1465
 214  838 1587
 186  912 1704
 158  983 1817
 713  265   64
 714  268  263
 657  290  413
 601  320  459
 582  341  551
 554  369  645
 518  404  742
 476  449  847
 434  501  955
 389  561 1065
 348  626 1178
 309  695 1293
 275  766 1412
 242  836 1529
 214  906 1642
 189  972 1751
