nova/tdt-studio/app/Lut_mau/IWLTBAP/2 - LUTs by IWLTBAP (3DL)/01 - Standard/Psychedelia/Esromen - Standard.3dl
# Copyright: (C) Copyright 2010-2018 by IWLTBAP SAS
# Cannot be resold, shared or otherwise redistributed
# Website: https://luts.iwltbap.com
0 256 512 768 1023
   0    0    0
  16  112  309
  19  329  686
  22  626 1080
  29  966 1597
   9  667 1007
  16  763 1213
  19  869 1295
  32 1056 1530
  35 1248 1867
  48 1390 2021
  41 1432 2226
  38 1486 2327
  77 1584 2271
  83 1684 2304
 151 1965 2872
 129 1979 3004
 197 1997 3194
 380 2079 3219
 331 2209 3108
  71 2449 3572
 275 2521 3673
 920 2561 3769
1830 2639 3788
2039 2774 3798
 964   56   22
 821  197  423
 665  384  887
 463  690 1418
 282  976 1897
 704  896  559
 720  892 1077
 641  949 1390
 438 1084 1733
 282 1242 2065
 226 1581 1932
 376 1591 2128
 499 1595 2303
 407 1640 2336
 271 1710 2409
 174 2130 2959
 235 2146 3071
 468 2147 3235
 678 2183 3270
 475 2272 3160
 194 2639 3674
 440 2685 3748
1178 2714 3801
1995 2771 3806
2184 2857 3811
1941  110   19
1948   49  840
1795  210  888
1676  597 1561
1379 1013 2162
1989 1028   79
2008 1022  967
1950 1036 1358
1741 1149 1886
1378 1311 2375
1395 1834 1010
1575 1862 1567
1787 1865 2114
1720 1867 2418
1323 1849 2692
 428 2367 2727
 677 2427 2904
1379 2490 3090
1805 2520 3244
1495 2506 3265
 281 2856 3662
 587 2918 3731
1499 3001 3786
2312 3068 3825
2652 3100 3849
2906  157   21
2909   44  883
2784   47 1295
2713  223 1348
2652  810 2132
3005 1070   42
3016 1042  937
2990 1037 1553
2968 1078 1723
2837 1372 2422
3026 2027  155
3050 2033 1070
3088 2070 1957
3137 2122 2369
2984 2168 2906
2077 2738 1443
2258 2809 2025
2675 2902 2612
3022 2981 3123
3056 2956 3393
 372 3017 3433
 687 3132 3569
1713 3297 3694
2734 3453 3818
3423 3558 3931
3799  196   22
3808   61  892
3819   39 1782
3426  411 1325
3573  903 1989
3913 1104   50
3936 1064  924
3946 1060 1869
3718 1239 1708
3802 1485 2267
4039 2060   72
4056 2056  987
4058 2084 1993
3997 2235 2310
4018 2340 2760
4054 3016  154
4063 3041 1130
4072 3083 2137
4041 3207 2988
4087 3283 3395
2809 3683 2064
3013 3759 2611
3386 3841 3136
3598 3884 3756
4094 4082 4088
