nova/tdt-studio/app/Lut_mau/IWLTBAP/2 - LUTs by IWLTBAP (3DL)/01 - Standard/Psychedelia/Esromen - Standard.3dl
# Copyright: (C) Copyright 2010-2018 by IWLTBAP SAS
# Cannot be resold, shared or otherwise redistributed
# Website: https://luts.iwltbap.com
0 128 256 384 512 640 768 896 1023
   0    0    0
  16   38  135
  16  112  309
  16  211  505
  19  329  686
  19  466  864
  22  626 1080
  25  799 1335
  29  966 1597
   6  309  490
  12  357  606
  12  415  712
  16  484  812
  19  570  923
  22  685 1077
  25  822 1279
  29  961 1503
  32 1090 1723
   9  667 1007
  16  717 1128
  16  763 1213
  16  809 1254
  19  869 1295
  25  955 1385
  32 1056 1530
  35 1156 1698
  35 1248 1867
  19 1047 1536
  22 1084 1655
  22 1119 1752
  22 1152 1796
  25 1194 1798
  35 1252 1806
  45 1318 1854
  48 1385 1941
  45 1449 2047
  48 1390 2021
  48 1412 2121
  41 1432 2226
  35 1454 2306
  38 1486 2327
  58 1532 2301
  77 1584 2271
  83 1635 2272
  83 1684 2304
 106 1691 2461
  96 1702 2537
  80 1712 2633
  67 1722 2736
  80 1743 2804
 116 1784 2805
 151 1837 2758
 161 1892 2706
 151 1942 2671
 151 1965 2872
 138 1972 2927
 129 1979 3004
 138 1985 3103
 197 1997 3194
 303 2027 3236
 380 2079 3219
 382 2144 3167
 331 2209 3108
 135 2214 3241
 151 2229 3286
 189 2246 3349
 282 2259 3429
 476 2269 3505
 743 2292 3552
 947 2339 3559
 992 2407 3538
 920 2483 3504
  71 2449 3572
 145 2483 3614
 275 2521 3673
 511 2546 3732
 920 2561 3769
1425 2590 3784
1830 2639 3788
2020 2702 3793
2039 2774 3798
 487   26   17
 428  109  209
 389  167  382
 325  254  599
 254  368  813
 194  510 1025
 151  669 1256
 116  831 1502
  87  985 1740
 379  427  327
 360  436  564
 345  472  717
 303  528  865
 245  609 1023
 191  719 1207
 151  848 1417
 122  977 1631
 100 1098 1833
 230  768  897
 262  795 1040
 275  818 1168
 264  850 1260
 224  902 1350
 183  978 1469
 148 1069 1621
 122 1162 1785
 106 1250 1946
 125 1142 1490
 164 1161 1602
 197 1178 1705
 211 1196 1776
 197 1227 1813
 170 1273 1846
 145 1331 1906
 125 1392 1995
 112 1451 2100
  93 1481 2033
 119 1492 2119
 148 1501 2215
 167 1510 2298
 174 1529 2334
 167 1562 2323
 158 1605 2301
 145 1649 2305
 129 1693 2339
 125 1774 2504
 132 1781 2570
 142 1785 2656
 154 1787 2753
 180 1797 2823
 208 1825 2831
 222 1867 2786
 208 1913 2732
 180 1958 2695
 164 2039 2923
 161 2045 2974
 164 2049 3044
 191 2051 3136
 271 2056 3224
 386 2075 3266
 458 2116 3246
 438 2172 3190
 359 2230 3126
 155 2284 3289
 180 2299 3332
 227 2313 3390
 335 2322 3462
 549 2329 3532
 827 2345 3576
1029 2383 3580
1061 2442 3555
 966 2510 3518
 116 2525 3616
 197 2556 3657
 337 2588 3709
 597 2607 3757
1020 2621 3785
1513 2648 3796
1897 2690 3797
2078 2744 3799
2092 2805 3803
 964   56   22
 964   57  419
 821  197  423
 757  266  638
 665  384  887
 563  533 1153
 463  690 1418
 370  840 1668
 282  976 1897
 944  508   95
 951  512  504
 807  531  693
 760  571  887
 671  645 1095
 562  747 1326
 458  864 1558
 365  979 1776
 284 1088 1972
 704  896  559
 748  907  817
 720  892 1077
 709  911 1238
 641  949 1390
 540 1009 1557
 438 1084 1733
 354 1163 1903
 282 1242 2065
 407 1245 1288
 479 1253 1436
 553 1260 1580
 595 1264 1709
 576 1280 1803
 503 1310 1886
 413 1352 1975
 337 1401 2080
 277 1453 2196
 226 1581 1932
 291 1588 2026
 376 1591 2128
 461 1591 2229
 499 1595 2303
 475 1613 2328
 407 1640 2336
 333 1673 2360
 271 1710 2409
 168 1870 2493
 203 1877 2557
 264 1880 2635
 353 1879 2727
 438 1879 2807
 482 1893 2833
 458 1920 2807
 382 1954 2769
 293 1989 2743
 174 2130 2959
 191 2139 3008
 235 2146 3071
 325 2147 3152
 468 2147 3235
 615 2156 3281
 678 2183 3270
 615 2226 3220
 475 2272 3160
 189 2382 3340
 222 2396 3380
 295 2410 3431
 450 2419 3493
 709 2423 3555
1007 2433 3595
1208 2460 3601
1220 2505 3577
1091 2559 3540
 194 2639 3674
 280 2664 3708
 440 2685 3748
 740 2700 3782
1178 2714 3801
1641 2738 3806
1995 2771 3806
2168 2810 3808
2184 2857 3811
1445   83   20
1448   69  422
1362  129  616
1276  221  641
1228  329  906
1141  501 1220
1017  684 1529
 877  841 1806
 732  970 2048
1461  539   55
1469  534  478
1412  555  768
1347  592  879
1286  653 1123
1171  756 1401
1023  876 1673
 869  986 1915
 720 1084 2131
1431 1002  146
1447 1002  574
1385  984  979
1334  979 1187
1283 1005 1397
1163 1053 1621
1005 1116 1839
 849 1181 2041
 703 1246 2224
1050 1372  784
1117 1378 1053
1196 1385 1327
1200 1360 1595
1209 1370 1761
1120 1385 1913
 971 1407 2056
 817 1436 2200
 676 1472 2345
 585 1683 1652
 678 1694 1795
 814 1702 1944
 975 1709 2092
1081 1713 2220
1069 1717 2311
 951 1722 2376
 794 1733 2446
 641 1749 2529
 324 1980 2341
 400 1995 2429
 533 2006 2522
 737 2013 2622
 938 2018 2726
1034 2023 2796
 984 2028 2816
 832 2038 2817
 643 2051 2822
 227 2244 2905
 277 2262 2964
 387 2278 3030
 595 2289 3105
 865 2298 3187
1086 2302 3255
1154 2312 3272
1045 2333 3246
 830 2357 3207
 230 2499 3342
 281 2519 3385
 403 2540 3434
 651 2557 3488
1000 2569 3543
1342 2582 3588
1552 2595 3609
1558 2623 3596
1411 2656 3567
 266 2765 3708
 358 2785 3736
 550 2805 3767
 906 2824 3792
1367 2847 3806
1806 2872 3812
2136 2894 3818
2318 2920 3823
2360 2949 3826
1941  110   19
1941   74  429
1948   49  840
1783  139  670
1795  210  888
1765  374 1204
1676  597 1561
1539  820 1883
1379 1013 2162
1982  566   33
1986  549  462
1993  537  894
1909  576  874
1902  608 1096
1841  702 1384
1721  846 1707
1559  998 2000
1382 1137 2258
1989 1028   79
1997 1024  519
2008 1022  967
1959 1021 1129
1950 1036 1358
1878 1079 1612
1741 1149 1886
1566 1231 2142
1378 1311 2375
1922 1497  203
1940 1498  636
1964 1502 1079
1879 1453 1468
1915 1468 1693
1868 1483 1902
1734 1502 2114
1553 1526 2320
1357 1553 2516
1395 1834 1010
1467 1846 1280
1575 1862 1567
1647 1849 1916
1787 1865 2114
1819 1871 2275
1720 1867 2418
1535 1857 2555
1323 1849 2692
 764 2102 2014
 860 2126 2157
1029 2150 2306
1294 2177 2457
1574 2202 2606
1741 2215 2730
1727 2212 2816
1562 2195 2880
1324 2175 2938
 428 2367 2727
 506 2396 2815
 677 2427 2904
 990 2458 2994
1379 2490 3090
1686 2512 3185
1805 2520 3244
1716 2516 3265
1495 2506 3265
 300 2611 3259
 371 2641 3314
 545 2677 3372
 890 2714 3428
1344 2750 3485
1754 2781 3542
2005 2799 3587
2058 2809 3601
1962 2817 3593
 281 2856 3662
 374 2884 3695
 587 2918 3731
 990 2959 3763
1499 3001 3786
1962 3040 3804
2312 3068 3825
2541 3085 3842
2652 3100 3849
2434  134   20
2432   79  439
2436   41  864
2412   37 1184
2271  105  893
2289  205 1127
2259  406 1478
2175  690 1852
2054 1003 2199
2481  589   26
2484  559  456
2489  538  899
2480  530 1252
2408  545 1077
2404  594 1300
2349  730 1625
2240  935 1975
2097 1168 2307
2516 1051   48
2521 1039  488
2527 1032  946
2527 1031 1343
2508 1037 1323
2496 1058 1540
2428 1132 1829
2302 1251 2147
2143 1391 2456
2508 1524  116
2517 1521  558
2529 1524 1022
2538 1529 1462
2548 1537 1632
2546 1553 1850
2480 1581 2098
2347 1627 2371
2175 1682 2646
2412 1996  267
2431 1999  701
2459 2007 1152
2476 2011 1625
2480 1998 2004
2532 2015 2216
2494 2020 2419
2363 2020 2633
2179 2017 2852
1750 2296 1239
1818 2317 1515
1935 2346 1809
2113 2381 2104
2255 2386 2453
2425 2412 2638
2469 2417 2793
2373 2401 2936
2188 2372 3074
 955 2510 2351
1042 2547 2497
1224 2590 2647
1545 2638 2796
1935 2690 2941
2259 2732 3080
2436 2752 3191
2436 2747 3274
2306 2724 3338
 516 2727 3054
 599 2767 3137
 798 2818 3222
1185 2875 3304
1685 2933 3385
2135 2989 3467
2445 3024 3543
2593 3040 3595
2611 3041 3624
 263 2918 3573
 351 2957 3618
 565 3013 3667
 996 3079 3714
1564 3146 3752
2094 3211 3788
2512 3261 3827
2822 3292 3862
3034 3313 3884
2906  157   21
2905   90  444
2909   44  883
2918   27 1304
2784   47 1295
2695  102 1084
2713  223 1348
2697  472 1729
2652  810 2132
2954  608   28
2958  570  453
2964  544  904
2973  528 1341
2891  521 1399
2837  519 1244
2838  597 1497
2802  787 1861
2736 1052 2250
3005 1070   42
3010 1052  474
3016 1042  937
3023 1036 1395
2990 1037 1553
2975 1032 1489
2968 1078 1723
2919 1200 2057
2837 1372 2422
3044 1546   75
3051 1539  513
3057 1539  986
3063 1545 1464
3069 1566 1745
3088 1586 1807
3081 1613 2027
3026 1674 2323
2932 1760 2655
3026 2027  155
3037 2026  597
3050 2033 1070
3065 2046 1551
3088 2070 1957
3133 2104 2153
3137 2122 2369
3084 2143 2623
2984 2168 2906
2872 2485  372
2893 2492  799
2926 2506 1247
2973 2524 1701
2982 2530 2211
3050 2555 2529
3108 2576 2733
3088 2580 2936
2999 2574 3146
2077 2738 1443
2140 2769 1726
2258 2809 2025
2450 2855 2325
2675 2902 2612
2830 2918 2946
3022 2981 3123
3077 2965 3262
3056 2956 3393
1073 2873 2641
1161 2918 2787
1353 2978 2938
1703 3045 3085
2143 3114 3227
2547 3181 3363
2867 3237 3487
3087 3271 3584
3212 3286 3661
 372 3017 3433
 466 3063 3500
 687 3132 3569
1128 3214 3635
1713 3297 3694
2270 3379 3753
2734 3453 3818
3117 3512 3879
3423 3558 3931
3358  177   21
3361  104  444
3364   53  891
3370   32 1334
3379   28 1726
3099   94 1334
3080  214 1285
3121  413 1610
3144  670 2036
3408  626   31
3415  584  452
3422  553  904
3430  537 1360
3437  526 1767
3236  538 1462
3219  602 1436
3243  754 1749
3251  962 2158
3466 1087   45
3475 1066  469
3483 1053  930
3489 1047 1404
3495 1041 1831
3380 1057 1664
3376 1095 1670
3387 1198 1955
3382 1344 2333
3526 1564   63
3536 1554  494
3543 1551  967
3547 1557 1458
3550 1562 1911
3517 1610 1923
3527 1646 1981
3529 1708 2235
3513 1796 2574
3562 2047   96
3571 2043  536
3579 2047 1017
3583 2060 1519
3586 2074 1991
3603 2141 2189
3622 2181 2321
3619 2216 2554
3593 2261 2850
3522 2523  181
3533 2526  631
3546 2537 1111
3561 2554 1605
3574 2572 2081
3593 2630 2462
3628 2672 2671
3639 2697 2888
3621 2718 3128
3291 2950  486
3313 2965  915
3350 2987 1362
3405 3013 1814
3464 3040 2256
3454 3057 2780
3539 3100 3044
3612 3129 3232
3646 3145 3407
2376 3154 1629
2435 3192 1925
2551 3242 2232
2749 3297 2537
2986 3352 2833
3177 3392 3148
3347 3430 3427
3571 3513 3579
3703 3511 3698
1045 3235 3118
1149 3285 3241
1366 3350 3359
1750 3426 3472
2233 3503 3578
2683 3580 3684
3071 3656 3794
3433 3733 3899
3768 3811 3996
3799  196   22
3804  118  442
3808   61  892
3812   38 1354
3819   39 1782
3684  109 1890
3426  411 1325
3511  675 1558
3573  903 1989
3851  644   35
3861  597  451
3869  563  902
3875  548 1374
3881  545 1816
3773  590 1966
3561  797 1483
3624  986 1702
3676 1160 2107
3913 1104   50
3925 1080  467
3936 1064  924
3942 1060 1410
3946 1060 1869
3870 1096 2075
3718 1239 1708
3763 1360 1905
3802 1485 2267
3980 1580   62
3993 1567  485
4003 1562  954
4008 1567 1456
4010 1575 1933
3966 1614 2212
3879 1728 1997
3907 1803 2173
3930 1888 2488
4039 2060   72
4049 2054  506
4056 2056  987
4059 2069 1500
4058 2084 1993
4037 2127 2348
3997 2235 2310
4009 2284 2487
4018 2340 2760
4073 2539   87
4078 2540  541
4082 2549 1035
4083 2567 1551
4082 2588 2052
4072 2633 2481
4052 2737 2638
4057 2775 2834
4062 2816 3068
4054 3016  154
4058 3025  629
4063 3041 1130
4068 3062 1639
4072 3083 2137
4062 3121 2639
4041 3207 2988
4059 3245 3199
4087 3283 3395
3811 3434  577
3830 3456 1022
3859 3483 1482
3898 3513 1942
3938 3542 2393
3959 3565 2848
3901 3595 3364
3988 3647 3567
4095 3708 3736
2809 3683 2064
2887 3719 2340
3013 3759 2611
3192 3800 2877
3386 3841 3136
3548 3880 3388
3598 3884 3756
3819 3963 3929
4094 4082 4088
