nova/tdt-studio/app/Lut_mau/IWLTBAP/2 - LUTs by IWLTBAP (3DL)/01 - Standard/Psychedelia/Gyrenam - Standard.3dl
# Copyright: (C) Copyright 2010-2018 by IWLTBAP SAS
# Cannot be resold, shared or otherwise redistributed
# Website: https://luts.iwltbap.com
0 256 512 768 1023
   0    0    0
   0  109  222
   0  461  569
  12  705  823
  45  975 1101
1323  426   32
 325  613  619
  16  804  922
  38  981 1095
  61 1207 1329
2305  848   80
2364  839   74
1248 1375 1241
 106 1660 1649
 183 1829 1841
3423 1423  180
3472 1419  174
3441 1512  196
2249 2262 2017
 514 2581 2466
3987 2914 2388
3990 2924 2405
4003 2969 2499
4018 3034 2529
3342 3201 2740
 834   22   80
 670   35 1040
  25  636  813
  35  806  964
  51 1051 1195
1112  581   90
 785  929  984
 161  991 1098
 100 1098 1227
 112 1310 1431
2327  892   90
2126 1232  780
1468 1541 1389
 415 1744 1748
 390 1890 1902
3455 1467  187
3242 1726  868
3300 1758  870
2330 2336 2080
 933 2629 2506
3997 2952 2451
4004 2976 2493
4014 3013 2558
4029 3084 2606
3404 3242 2782
1840  109  174
2039   67  696
1970  216 1966
 233 1362 1700
 129 1364 1570
1914  695  100
1862  953  792
1991 1041 1962
 319 1491 1735
 261 1564 1731
2278 1324  227
2162 1463  839
2059 1985 1898
1407 2015 2084
1090 2085 2113
3565 1624  211
3336 1871  940
2997 2227 1789
2595 2521 2298
1802 2745 2672
4025 3066 2604
4030 3091 2639
4047 3193 2781
4058 3268 2867
3563 3384 2950
2674  180  268
2853  126  523
2929  261 1792
2900  394 2733
1438 2530 3228
2848  501  202
2672 1064  867
2932 1014 1693
2908 1144 2726
1468 2438 2912
2630 1556  296
2593 1585  730
2695 1909 1674
2950 2135 2732
1738 2486 2683
3380 2250  357
3278 2326 1014
3121 2494 1847
2993 2853 2710
2582 2976 2982
4064 3315 2907
4066 3338 2955
4069 3438 3072
4074 3578 3284
3852 3694 3292
3477  227  338
3572  158  538
3752  171 1530
3816  479 2677
3977  647 3651
3651  481  311
3499 1095  929
3773  914 1405
3843 1203 2613
3999 1407 3685
3665 1458  300
3757 1554  745
3620 2073 1800
3930 2106 2492
4029 2287 3738
3889 2490  355
3860 2555  861
3773 2677 1640
3904 2935 2664
4050 3071 3809
4078 3757 3375
4077 3774 3405
4076 3841 3542
4080 3948 3763
4091 4095 4095
