nova/tdt-studio/app/Lut_mau/IWLTBAP/2 - LUTs by IWLTBAP (3DL)/01 - Standard/Psychedelia/Gyrenam - Standard.3dl
# Copyright: (C) Copyright 2010-2018 by IWLTBAP SAS
# Cannot be resold, shared or otherwise redistributed
# Website: https://luts.iwltbap.com
0 64 128 192 256 320 384 448 512 576 640 704 768 832 896 960 1023
   0    0    0
   0    6   16
   0   16   51
   0   35  106
   0  109  222
   0  224  328
   0  311  433
   0  384  510
   0  461  569
   0  518  632
   3  575  707
   6  631  764
  12  705  823
  22  765  890
  29  827  965
  35  896 1035
  45  975 1101
 164   32    3
   0   74  145
   0  167  253
   0  219  317
   0  275  385
   0  338  460
   0  398  512
   0  457  563
   0  507  617
   3  559  688
   6  610  741
   9  670  796
  16  735  854
  25  792  929
  32  856  993
  38  921 1060
  48  995 1121
 700  187    6
 712  196    9
  64  300  336
   0  379  482
   0  426  522
   0  460  559
   0  495  599
   0  535  659
   3  576  705
   6  621  750
   9  676  797
  16  733  849
  22  785  920
  28  842  978
  35  903 1040
  45  976 1100
  48 1039 1176
1057  311   12
1083  309   12
1010  330   19
 177  467  490
   0  551  630
   0  575  686
   3  605  721
   3  637  756
   6  685  794
  12  725  836
  19  768  882
  25  811  945
  28  865  998
  38  918 1054
  45  984 1106
  48 1043 1178
  48 1110 1240
1323  426   32
1344  424   32
1363  426   32
1245  458   32
 325  613  619
   0  719  774
   6  743  827
   9  771  866
  16  804  922
  22  842  963
  25  883 1006
  32  926 1053
  38  981 1095
  45 1026 1144
  45 1083 1210
  51 1143 1268
  61 1207 1329
1583  521   48
1596  518   48
1633  516   51
1592  533   51
1465  577   54
 526  791  777
   9  899  943
  16  926 1009
  22  964 1047
  28  992 1084
  35 1022 1120
  38 1062 1178
  41 1110 1225
  48 1159 1273
  54 1220 1327
  64 1286 1382
  70 1342 1449
1830  619   64
1837  618   64
1851  615   64
1880  614   64
1819  648   64
1685  720   80
 726  971  925
  22 1098 1086
  28 1123 1182
  32 1147 1226
  35 1182 1271
  45 1243 1318
  54 1287 1364
  61 1331 1420
  67 1379 1468
  74 1430 1514
  77 1481 1560
2070  737   71
2075  736   71
2086  735   67
2108  731   64
2099  745   67
2050  789   80
1912  850  103
 972 1161 1076
  38 1337 1273
  45 1364 1362
  51 1391 1430
  54 1423 1472
  61 1463 1514
  74 1519 1555
  87 1559 1597
 103 1599 1638
 116 1644 1698
2305  848   80
2309  847   80
2318  844   77
2335  841   77
2364  839   74
2318  869   87
2268  912   96
2127 1014  151
1248 1375 1241
  80 1594 1472
  80 1614 1555
  93 1634 1609
 106 1660 1649
 116 1693 1706
 136 1732 1750
 167 1789 1796
 183 1829 1841
2540  975  100
2544  974  100
2551  972   96
2563  970   96
2584  966   93
2587  975   96
2539 1017  113
2461 1078  148
2353 1175  183
1499 1605 1437
 149 1831 1640
 136 1845 1740
 174 1870 1811
 190 1892 1853
 208 1918 1893
 224 1949 1952
 243 1984 1992
2773 1099  126
2780 1098  120
2793 1096  120
2804 1094  120
2823 1090  113
2851 1086  109
2818 1117  126
2750 1163  151
2672 1268  180
2576 1380  219
1742 1833 1619
 208 2057 1830
 213 2066 1927
 248 2089 2006
 275 2111 2049
 300 2140 2089
 323 2174 2131
3046 1251  151
3051 1250  151
3066 1249  151
3086 1248  151
3106 1245  148
3137 1243  148
3154 1250  148
3093 1293  164
3019 1356  183
2908 1464  216
2815 1598  248
1990 2057 1813
 266 2272 2023
 311 2285 2109
 357 2325 2198
 384 2352 2252
 410 2381 2297
3423 1423  180
3428 1423  177
3437 1421  177
3451 1420  177
3472 1419  174
3504 1418  171
3550 1414  167
3517 1443  177
3441 1512  196
3374 1577  213
3201 1724  248
3085 1840  278
2249 2262 2017
 313 2515 2230
 395 2529 2321
 479 2550 2396
 514 2581 2466
3807 1630  202
3807 1629  202
3807 1626  202
3807 1623  199
3807 1658  353
3808 1670  416
3808 1679  460
3806 1694  500
3805 1727  446
3804 1735  222
3802 1845  238
3579 2002  280
3432 2103  307
2511 2494 2223
 405 2757 2437
 531 2770 2527
 599 2792 2602
3823 2138 1189
3823 2138 1190
3823 2138 1192
3823 2138 1194
3825 2146 1215
3830 2174 1280
3831 2182 1303
3833 2190 1330
3832 2212 1348
3829 2217 1284
3828 2248 1265
3823 2270 1122
3834 2290  704
3837 2366  328
2749 2715 2393
 936 3005 2630
 660 3022 2747
3901 2523 1828
3903 2528 1839
3904 2529 1842
3904 2530 1845
3907 2538 1861
3912 2551 1888
3916 2560 1908
3918 2570 1945
3923 2614 1998
3921 2616 1966
3922 2635 1962
3918 2651 1936
3909 2672 1859
3904 2673 1678
3923 2685 1442
3033 2945 2561
1488 3293 2849
3987 2914 2388
3987 2915 2389
3988 2916 2390
3988 2918 2394
3990 2924 2405
3991 2928 2413
3995 2943 2453
3998 2954 2472
4003 2969 2499
4007 2983 2515
4010 2999 2521
4013 3013 2520
4018 3034 2529
4024 3051 2502
4032 3064 2441
4041 3067 2296
3342 3201 2740
   9    0   16
   0   48  258
   0   70  202
   0  109  233
   0  193  300
   0  268  382
   0  343  469
   0  421  530
   0  476  586
   0  531  662
   6  586  720
   6  642  776
  16  714  834
  22  774  912
  32  836  975
  38  904 1044
  45  981 1108
 100   74   16
  28  208  289
   0  243  339
   0  275  385
   0  321  442
   0  370  491
   0  429  537
   0  473  581
   0  523  646
   3  573  704
   6  623  756
  12  690  808
  19  745  865
  25  802  940
  32  866 1004
  41  929 1071
  48 1003 1130
 718  210    9
 393  298  268
  93  357  424
   0  431  525
   0  455  554
   3  479  582
   3  514  621
   0  552  678
   6  592  722
   6  633  764
   9  695  811
  16  744  862
  25  796  932
  28  853  990
  38  912 1051
  45  984 1109
  48 1048 1185
1059  323   16
 878  418  235
 892  426  233
 205  501  533
   3  577  679
   6  596  708
   6  623  740
   6  652  773
   9  700  808
  16  738  850
  19  780  907
  25  823  957
  32  878 1011
  38  928 1064
  45  992 1115
  48 1053 1187
  51 1120 1249
1329  436   32
1210  505  219
1232  507  224
1195  526  222
 368  642  664
   9  744  803
  12  762  847
  16  789  885
  22  818  935
  25  855  976
  28  896 1019
  35  938 1064
  41  989 1105
  45 1036 1162
  48 1093 1220
  51 1153 1277
  61 1225 1338
1587  527   51
1520  599  213
1545  594  205
1542  605  213
1449  630  210
 559  812  798
  16  918  964
  22  950 1024
  25  977 1062
  35 1005 1098
  38 1034 1133
  41 1074 1190
  41 1120 1235
  48 1169 1284
  58 1237 1336
  64 1294 1390
  70 1349 1457
1834  627   64
1794  702  205
1815  695  190
1827  703  216
1799  717  199
1677  760  208
 768  989  941
  28 1114 1104
  38 1139 1199
  35 1161 1240
  41 1195 1284
  51 1255 1330
  58 1298 1375
  61 1340 1433
  67 1388 1476
  74 1438 1521
  80 1495 1567
2074  744   71
2047  795  202
2064  785  183
2080  785  187
2078  801  210
2033  829  202
1898  869  210
 997 1174 1086
  45 1352 1287
  61 1378 1375
  58 1402 1440
  58 1433 1482
  70 1472 1523
  96 1528 1564
  93 1566 1604
 103 1606 1645
 116 1651 1705
2308  853   80
2285  896  205
2300  888  183
2317  882  174
2328  897  222
2308  907  187
2249  971  238
2116 1036  230
1268 1389 1254
  90 1606 1485
 103 1623 1565
 106 1642 1617
 106 1669 1661
 119 1701 1714
 155 1740 1757
 187 1796 1803
 187 1835 1847
2543  980  100
2526 1016  213
2539 1006  190
2557  996  167
2572 1003  196
2571 1026  246
2537 1041  187
2450 1112  261
2345 1188  253
1514 1615 1448
 155 1840 1650
 155 1854 1751
 199 1878 1818
 193 1898 1860
 210 1924 1900
 227 1954 1958
 253 1990 1997
2778 1103  126
2758 1132  224
2779 1122  196
2804 1111  167
2822 1109  167
2829 1132  248
2817 1142  210
2752 1180  202
2669 1286  263
2571 1389  289
1753 1840 1627
 208 2064 1839
 216 2073 1943
 293 2097 2013
 280 2117 2055
 302 2146 2095
 325 2180 2136
3050 1255  151
3045 1279  227
3065 1266  196
3094 1256  161
3117 1252  151
3136 1261  193
3144 1299  296
3106 1299  177
3017 1371  238
2910 1475  263
2810 1612  323
1999 2063 1820
 268 2278 2031
 315 2292 2115
 381 2331 2205
 388 2357 2258
 413 2386 2303
3427 1428  180
3423 1441  227
3440 1433  199
3461 1426  177
3483 1425  174
3515 1423  171
3535 1443  256
3519 1460  238
3459 1515  196
3355 1599  307
3210 1727  268
3078 1845  363
2257 2267 2023
 319 2521 2237
 398 2534 2327
 484 2555 2401
 519 2590 2471
3807 1634  202
3808 1640  230
3807 1632  202
3807 1628  202
3807 1622  199
3808 1673  418
3806 1701  497
3809 1759  641
3805 1727  446
3804 1735  222
3798 1859  366
3593 2007  280
3426 2105  416
2517 2498 2228
 417 2761 2443
 535 2774 2531
 603 2796 2606
3823 2141 1190
3823 2142 1192
3824 2150 1211
3824 2149 1214
3825 2149 1217
3830 2177 1283
3831 2185 1306
3834 2201 1350
3833 2220 1368
3829 2219 1288
3828 2250 1269
3824 2277 1154
3831 2296  740
3839 2374  461
2754 2719 2397
 946 3009 2636
 664 3026 2751
3904 2530 1841
3904 2531 1843
3904 2532 1845
3907 2539 1860
3908 2541 1864
3915 2559 1902
3917 2568 1931
3919 2589 1959
3924 2622 2010
3922 2624 1981
3924 2643 1978
3921 2659 1955
3911 2679 1876
3905 2675 1686
3923 2687 1446
3038 2948 2564
1496 3296 2854
3988 2917 2390
3988 2918 2392
3988 2920 2394
3990 2925 2404
3991 2928 2408
3993 2936 2437
3997 2951 2465
4000 2961 2483
4004 2972 2502
4009 2989 2526
4011 3002 2525
4014 3015 2524
4020 3040 2541
4025 3054 2506
4033 3071 2456
4043 3074 2316
3351 3205 2744
 193    0   35
  93   12  258
  64  113  514
   6  363  581
   0  309  458
   0  351  491
   0  415  534
   0  460  575
   0  505  622
   3  556  689
   6  607  743
   9  664  797
  16  732  854
  25  789  930
  32  853  993
  41  918 1060
  48  993 1121
 313  148   22
 268  213  256
 106  289  527
   3  419  566
   0  415  542
   0  438  555
   0  466  581
   3  504  619
   3  548  681
   6  594  729
   9  643  778
  12  708  829
  22  762  887
  28  817  958
  35  882 1022
  45  955 1085
  48 1018 1150
 472  282   45
 375  351  275
 183  463  538
  19  498  604
   6  505  613
   6  521  634
   6  551  679
   9  580  710
  12  620  750
  12  659  789
  16  716  833
  22  766  887
  28  813  951
  35  873 1009
  41  929 1069
  48  999 1124
  51 1065 1201
1064  345   19
 899  439  241
 664  511  453
 291  573  614
  25  637  746
  16  641  756
  16  661  779
  16  698  804
  19  726  835
  22  763  875
  25  799  931
  32  845  977
  35  896 1030
  45  959 1083
  51 1009 1132
  51 1069 1203
  54 1136 1266
1335  452   32
1230  518  213
1078  592  421
1090  599  418
 461  714  726
  41  801  869
  28  802  894
  28  823  933
  28  845  962
  32  878  998
  35  915 1040
  45  970 1083
  48 1007 1124
  51 1055 1185
  51 1111 1238
  58 1169 1294
  64 1247 1354
1592  539   51
1532  608  210
1417  702  400
1440  710  414
1401  718  392
 620  858  849
  51  979 1012
  38  985 1053
  41 1003 1087
  51 1030 1124
  51 1057 1171
  54 1095 1211
  51 1140 1256
  58 1186 1302
  64 1255 1354
  70 1309 1413
  77 1364 1471
1836  637   64
1797  714  213
1715  791  382
1737  792  382
1731  801  378
1653  820  359
 822 1026  979
  64 1161 1168
  67 1171 1235
  54 1186 1270
  61 1236 1310
  70 1276 1352
  74 1316 1394
  80 1357 1449
  87 1404 1491
  87 1451 1535
  87 1515 1579
2077  754   74
2045  812  224
1986  883  378
2012  878  368
2022  894  416
1985  902  368
1866  928  363
1061 1201 1111
 100 1384 1324
 116 1405 1418
  96 1423 1461
 103 1453 1501
 116 1502 1540
 142 1543 1578
 136 1580 1617
 129 1619 1661
 136 1663 1717
2313  862   83
2280  913  238
2238  993  396
2257  986  371
2273  991  396
2266 1003  396
2220 1036  406
2103 1080  378
1308 1414 1279
 183 1624 1505
 199 1640 1583
 190 1659 1633
 177 1684 1688
 187 1715 1728
 213 1756 1770
 227 1807 1814
 224 1846 1858
2549  989  103
2522 1035  246
2463 1095  407
2490 1087  382
2514 1086  385
2519 1106  442
2489 1116  389
2423 1169  434
2319 1242  409
1538 1634 1469
 243 1855 1675
 243 1868 1765
 273 1893 1831
 253 1912 1873
 266 1937 1917
 287 1968 1970
 319 2004 2008
2788 1112  133
2754 1150  258
2714 1211  421
2730 1199  402
2749 1195  389
2764 1205  426
2756 1236  429
2719 1265  409
2639 1332  441
2545 1421  442
1775 1854 1642
 291 2085 1853
 321 2088 1955
 398 2112 2026
 345 2129 2064
 341 2155 2104
 364 2189 2144
3063 1264  154
3047 1300  263
3001 1356  436
3023 1346  414
3048 1340  402
3085 1344  418
3091 1370  485
3055 1380  421
2988 1431  434
2884 1530  449
2768 1631  475
2017 2074 1831
 379 2290 2044
 405 2305 2126
 504 2337 2214
 478 2362 2267
 460 2394 2311
3434 1436  180
3424 1460  266
3387 1532  457
3410 1523  434
3437 1515  414
3465 1515  414
3486 1531  463
3480 1553  479
3433 1579  423
3328 1651  482
3185 1749  460
3040 1864  515
2271 2277 2034
 488 2528 2241
 518 2543 2336
 610 2564 2406
 624 2604 2474
3807 1641  205
3808 1655  268
3805 1715  463
3807 1702  438
3807 1686  414
3805 1716  497
3806 1725  534
3808 1800  700
3803 1774  527
3801 1799  426
3766 1901  534
3568 2016  478
3410 2122  550
2528 2506 2236
 612 2769 2445
 638 2780 2538
 726 2802 2614
3824 2154 1210
3824 2155 1212
3826 2165 1234
3826 2165 1236
3828 2172 1256
3831 2191 1302
3832 2198 1326
3834 2214 1369
3834 2230 1390
3831 2253 1371
3829 2261 1292
3826 2285 1190
3833 2317  778
3831 2387  590
2764 2725 2404
 964 3017 2646
 762 3035 2755
3907 2541 1856
3907 2542 1858
3908 2545 1862
3910 2551 1876
3911 2553 1881
3917 2572 1925
3919 2591 1953
3921 2606 1974
3923 2619 1999
3927 2644 2017
3927 2654 1996
3924 2669 1975
3914 2688 1898
3910 2695 1744
3925 2694 1476
3047 2954 2571
1511 3303 2863
3990 2925 2401
3990 2927 2403
3991 2929 2406
3993 2936 2427
3994 2938 2436
3996 2946 2452
4000 2960 2479
4003 2970 2495
4006 2981 2515
4011 2998 2540
4014 3010 2539
4017 3024 2538
4022 3049 2555
4027 3063 2522
4035 3080 2474
4046 3090 2357
3368 3212 2752
 535    6   38
 469    0  224
 410    0  534
 293   35  777
 177  741 1175
   6  488  668
   3  494  652
   3  523  676
   6  559  708
   9  600  748
  12  646  790
  16  709  836
  22  761  893
  28  815  958
  35  879 1021
  45  949 1085
  51 1016 1150
 830  148   12
 547  196  266
 415  167  511
 313  224  772
 100  663  967
   9  531  707
   6  539  701
   6  565  717
  12  597  745
   9  636  780
  16  692  819
  19  739  864
  25  789  931
  32  845  987
  38  906 1049
  48  977 1107
