nova/tdt-studio/app/Lut_mau/IWLTBAP/2 - LUTs by IWLTBAP (3DL)/01 - Standard/Psychedelia/Gyrenam - Standard.3dl
# Copyright: (C) Copyright 2010-2018 by IWLTBAP SAS
# Cannot be resold, shared or otherwise redistributed
# Website: https://luts.iwltbap.com
0 128 256 384 512 640 768 896 1023
   0    0    0
   0   16   51
   0  109  222
   0  311  433
   0  461  569
   3  575  707
  12  705  823
  29  827  965
  45  975 1101
 700  187    6
  64  300  336
   0  426  522
   0  495  599
   3  576  705
   9  676  797
  22  785  920
  35  903 1040
  48 1039 1176
1323  426   32
1363  426   32
 325  613  619
   6  743  827
  16  804  922
  25  883 1006
  38  981 1095
  45 1083 1210
  61 1207 1329
1830  619   64
1851  615   64
1819  648   64
 726  971  925
  28 1123 1182
  35 1182 1271
  54 1287 1364
  67 1379 1468
  77 1481 1560
2305  848   80
2318  844   77
2364  839   74
2268  912   96
1248 1375 1241
  80 1614 1555
 106 1660 1649
 136 1732 1750
 183 1829 1841
2773 1099  126
2793 1096  120
2823 1090  113
2818 1117  126
2672 1268  180
1742 1833 1619
 213 2066 1927
 275 2111 2049
 323 2174 2131
3423 1423  180
3437 1421  177
3472 1419  174
3550 1414  167
3441 1512  196
3201 1724  248
2249 2262 2017
 395 2529 2321
 514 2581 2466
3823 2138 1189
3823 2138 1192
3825 2146 1215
3831 2182 1303
3832 2212 1348
3828 2248 1265
3834 2290  704
2749 2715 2393
 660 3022 2747
3987 2914 2388
3988 2916 2390
3990 2924 2405
3995 2943 2453
4003 2969 2499
4010 2999 2521
4018 3034 2529
4032 3064 2441
3342 3201 2740
 193    0   35
  64  113  514
   0  309  458
   0  415  534
   0  505  622
   6  607  743
  16  732  854
  32  853  993
  48  993 1121
 472  282   45
 183  463  538
   6  505  613
   6  551  679
  12  620  750
  16  716  833
  28  813  951
  41  929 1069
  51 1065 1201
1335  452   32
1078  592  421
 461  714  726
  28  802  894
  28  845  962
  35  915 1040
  48 1007 1124
  51 1111 1238
  64 1247 1354
1836  637   64
1715  791  382
1731  801  378
 822 1026  979
  67 1171 1235
  61 1236 1310
  74 1316 1394
  87 1404 1491
  87 1515 1579
2313  862   83
2238  993  396
2273  991  396
2220 1036  406
1308 1414 1279
 199 1640 1583
 177 1684 1688
 213 1756 1770
 224 1846 1858
2788 1112  133
2714 1211  421
2749 1195  389
2756 1236  429
2639 1332  441
1775 1854 1642
 321 2088 1955
 345 2129 2064
 364 2189 2144
3434 1436  180
3387 1532  457
3437 1515  414
3486 1531  463
3433 1579  423
3185 1749  460
2271 2277 2034
 518 2543 2336
 624 2604 2474
3824 2154 1210
3826 2165 1234
3828 2172 1256
3832 2198 1326
3834 2230 1390
3829 2261 1292
3833 2317  778
2764 2725 2404
 762 3035 2755
3990 2925 2401
3991 2929 2406
3994 2938 2436
4000 2960 2479
4006 2981 2515
4014 3010 2539
4022 3049 2555
4035 3080 2474
3368 3212 2752
 834   22   80
 774    0  461
 670   35 1040
  70  692  949
  25  636  813
  25  718  865
  35  806  964
  45  915 1068
  51 1051 1195
 990  363   41
 819  428  449
 657  487 1012
  61  736  942
  38  740  907
  38  798  954
  45  885 1034
  54  996 1129
  58 1123 1260
1112  581   90
1078  705  434
 785  929  984
 282  984 1086
 161  991 1098
  96 1035 1145
 100 1098 1227
 106 1184 1313
 112 1310 1431
1856  697   67
1740  833  407
1563 1035  786
1067 1172 1121
 336 1309 1355
 253 1340 1412
 222 1396 1483
 213 1469 1553
 224 1569 1630
2327  892   90
2263 1016  378
2126 1232  780
2138 1248  780
1468 1541 1389
 507 1715 1689
 415 1744 1748
 410 1823 1822
 390 1890 1902
2800 1139  145
2731 1250  423
2611 1442  817
2648 1454  844
2593 1518  829
1867 1921 1729
 648 2144 2009
 627 2178 2103
 626 2228 2191
3455 1467  187
3401 1574  488
3242 1726  868
3302 1720  862
3300 1758  870
3133 1874  852
2330 2336 2080
 899 2572 2366
 933 2629 2506
3828 2195 1269
3830 2206 1291
3831 2235 1355
3835 2258 1439
3852 2305 1539
3837 2329 1416
3837 2372 1004
2818 2754 2451
1212 3061 2786
3997 2952 2451
3999 2960 2465
4004 2976 2493
4008 2988 2513
4014 3013 2558
4021 3047 2596
4029 3084 2606
4041 3110 2531
3404 3242 2782
1367   77  139
1414   38  273
1464   35  950
1387  113 1538
 372 1354 1888
  93  923 1169
  80  983 1185
  74 1068 1247
  80 1176 1340
1652  238   54
1356  442  409
1429  442  887
1383  512 1523
 390 1287 1676
 100 1022 1247
  80 1058 1251
  80 1136 1307
  90 1253 1396
1347  692  103
1408  744  330
1387  888  806
1244 1050 1487
 469 1269 1479
 235 1197 1375
 190 1246 1391
 180 1312 1457
 183 1402 1529
1727  921  164
1693 1004  444
1628 1153  813
1484 1507 1477
 933 1540 1622
 707 1510 1592
 547 1540 1606
 484 1592 1664
 464 1659 1737
2357  967  106
2295 1068  404
2162 1285  800
2059 1515 1227
1705 1706 1588
1014 1850 1861
 840 1874 1876
 688 1901 1912
 647 1958 1988
2830 1192  158
2758 1302  441
2647 1489  823
2520 1703 1263
2533 1721 1265
2037 2031 1842
1171 2227 2141
 975 2258 2203
 943 2303 2264
3496 1537  196
3469 1600  418
3292 1782  866
3108 1977 1342
3165 1998 1383
3086 2060 1343
2439 2423 2190
1359 2645 2465
1298 2678 2563
3830 2236 1306
3830 2253 1347
3833 2279 1399
3859 2376 1575
3875 2404 1657
3875 2440 1648
3857 2478 1396
2891 2812 2514
1628 3109 2840
4009 2995 2508
4010 2999 2513
4016 3021 2551
4023 3057 2607
4028 3083 2650
4035 3118 2715
4042 3169 2725
4051 3200 2655
3466 3296 2840
1840  109  174
1920   83  246
2039   67  696
2069  161 1473
1970  216 1966
 945  700 2530
 233 1362 1700
 155 1301 1538
 129 1364 1570
2004  235  158
1844  485  412
2002  418  671
2064  521 1397
1977  566 1964
 963 1566 2596
 248 1396 1710
 164 1360 1588
 136 1418 1616
1914  695  100
1937  746  328
1862  953  792
2052  997 1324
1991 1041 1962
1081 1831 2266
 319 1491 1735
 270 1508 1706
 261 1564 1731
1946  987  161
1900 1047  363
1875 1161  680
1938 1398 1237
1825 1624 1957
1165 1789 1963
 770 1703 1852
 620 1722 1847
 560 1788 1878
2278 1324  227
2235 1362  498
2162 1463  839
2102 1656 1282
2059 1985 1898
1583 2057 2116
1407 2015 2084
1225 2035 2086
1090 2085 2113
2870 1290  174
2817 1378  455
2690 1571  853
2569 1771 1292
2475 1998 1724
2272 2201 2039
1769 2341 2359
1595 2359 2355
1441 2399 2383
3565 1624  211
3516 1699  481
3336 1871  940
3176 2054 1361
2997 2227 1789
3015 2250 1794
2595 2521 2298
1974 2706 2631
1802 2745 2672
3839 2342 1445
3843 2353 1467
3858 2401 1564
3878 2457 1678
3887 2572 1943
3922 2608 1989
3847 2659 1932
2997 2903 2591
2020 3189 2920
4025 3066 2604
4026 3071 2610
4030 3091 2639
4036 3134 2702
4047 3193 2781
4053 3228 2835
4058 3268 2867
4064 3304 2844
3563 3384 2950
2304  158  222
2350  106  273
2489  103  541
2544  154 1257
2521  251 1949
2462  313 2348
2307  457 2745
 644 1868 2306
 238 1627 1891
2372  233  205
2293  519  428
2435  433  582
2538  482 1197
2517  594 1895
2462  647 2354
2297  747 2731
 695 1879 2283
 248 1676 1951
2435  550   74
2414  730  361
2301 1026  835
2497  976 1165
2534 1046 1838
2464 1085 2348
2135 1247 2719
 813 1917 2249
 341 1808 2044
2233 1077  219
2231 1100  378
2270 1172  687
2310 1449 1244
2526 1578 1775
2424 1612 2323
1772 2272 2759
 943 1987 2224
 714 1971 2146
2461 1301  205
2415 1350  423
2352 1478  733
2306 1656 1103
2368 1885 1697
2414 2123 2350
1820 2254 2391
1505 2197 2320
1315 2213 2310
2772 1774  296
2720 1799  570
2667 1862  929
2605 1973 1335
2545 2137 1763
2570 2434 2291
2151 2518 2565
2062 2500 2557
1965 2510 2562
3612 1815  235
3558 1854  555
3444 1971  963
3258 2146 1414
3090 2307 1831
2951 2496 2219
2764 2670 2461
2349 2814 2801
2233 2840 2813
3869 2463 1603
3873 2474 1623
3882 2505 1699
3902 2565 1826
3926 2654 1980
3727 2808 2363
3760 2841 2373
3144 3014 2734
2418 3274 3057
4045 3183 2744
4047 3190 2755
4049 3203 2774
4054 3234 2818
4061 3292 2896
4066 3357 3002
4068 3420 3070
4071 3455 3071
3702 3521 3085
2674  180  268
2719  139  300
2853  126  523
2912  154 1104
2929  261 1792
2914  347 2352
2900  394 2733
2809  705 3100
1438 2530 3228
2727  248  256
2687  530  453
2815  429  561
2904  460 1047
2931  581 1744
2908  678 2332
2896  729 2729
2806  914 3099
1443 2485 3097
2848  501  202
2794  751  452
2672 1064  867
2847  992 1075
2932 1014 1693
2916 1105 2304
2908 1144 2726
2813 1299 3100
1468 2438 2912
2649 1027  196
2661 1066  366
2734 1174  735
2665 1514 1280
2897 1532 1633
2948 1599 2243
2933 1630 2728
2832 1723 3119
1538 2436 2782
2630 1556  296
2608 1563  478
2593 1585  730
2624 1655 1106
2695 1909 1674
2966 2093 2195
2950 2135 2732
2354 2452 3084
1738 2486 2683
3010 1675  251
2963 1712  478
2882 1820  803
2809 1977 1196
2744 2165 1591
2811 2349 2126
2957 2571 2720
2390 2718 2838
2176 2689 2782
3380 2250  357
3335 2271  658
3278 2326 1014
3211 2401 1443
3121 2494 1847
3022 2647 2268
2993 2853 2710
2676 2969 2988
2582 2976 2982
3895 2636 1693
3895 2636 1702
3904 2665 1820
3931 2713 2011
3957 2776 2121
3858 2921 2434
3594 3065 2771
3311 3177 2901
2774 3378 3197
4064 3315 2907
4065 3323 2919
4066 3338 2955
4067 3371 3002
4069 3438 3072
4072 3497 3155
4074 3578 3284
4075 3631 3340
3852 3694 3292
3048  227  296
3105  190  330
3189  151  529
3283  151  982
3310  222 1651
3346  364 2285
3327  431 2744
3376  494 3113
3335  980 3613
3104  275  296
3081  533  475
3168  415  570
3281  436  957
3325  527 1598
3364  695 2246
3329  758 2734
3394  823 3113
3339 1171 3619
3212  493  270
3178  741  490
3046 1084  905
3211  968 1040
3323  954 1542
3377 1086 2184
3340 1177 2719
3405 1248 3122
3348 1520 3618
3234  880  133
3254  987  338
3200 1271  833
3048 1564 1326
3272 1543 1568
3395 1562 2091
3382 1660 2683
3425 1705 3131
3383 1930 3647
2980 1529  341
2989 1539  482
3021 1578  750
3144 1655 1147
3104 1980 1730
3384 2065 2083
3435 2132 2615
3464 2176 3148
3404 2338 3688
3140 2032  321
3113 2058  529
3085 2096  819
3085 2126 1179
3126 2187 1597
3195 2391 2141
3477 2560 2590
3498 2619 3146
2991 2797 3649
3817 2154  428
3816 2183  538
3747 2280  904
3575 2392 1312
3428 2521 1723
3297 2682 2097
3326 2842 2625
3532 3017 3137
2963 3252 3394
3983 2797 1314
3987 2806 1351
3993 2827 1444
4002 2870 1582
3969 2960 1984
3833 3057 2391
3697 3200 2796
3538 3370 3178
3180 3516 3389
4074 3510 3110
4074 3513 3115
4075 3529 3144
4075 3560 3214
4076 3608 3294
4076 3678 3381
4076 3763 3507
4077 3853 3648
4020 3889 3626
3477  227  338
3504  193  378
3572  158  538
3690  151  930
3752  171 1530
3791  323 2141
3816  479 2677
3826  521 3124
3977  647 3651
3526  289  332
3506  476  470
3578  330  555
3694  309  911
3766  470 1480
3810  608 2093
3826  805 2656
3830  848 3124
3991  997 3665
3651  481  311
3628  697  488
3499 1095  929
3629  922 1012
3773  914 1405
3820 1031 2031
3843 1203 2613
3852 1276 3114
3999 1407 3685
3844  794  174
3837 1024  485
3712 1336  937
3528 1617 1365
3734 1511 1520
3839 1510 1955
3880 1663 2561
3872 1744 3095
4008 1869 3711
3665 1458  300
3696 1496  466
3757 1554  745
3800 1753 1244
3620 2073 1800
3857 2065 2033
3930 2106 2492
3920 2213 3063
4029 2287 3738
3556 2127  466
3553 2131  591
3567 2152  828
3631 2162 1200
3820 2218 1629
3753 2486 2216
3970 2552 2553
3980 2633 3037
4043 2685 3763
3889 2490  355
3902 2512  552
3860 2555  861
3764 2624 1235
3773 2677 1640
3856 2760 2143
3904 2935 2664
4042 3035 3075
4050 3071 3809
4007 2983 2376
4009 2992 2389
4014 3009 2403
4025 3048 2463
4038 3094 2500
4054 3179 2560
4034 3278 2654
4048 3475 3250
4067 3544 3894
4078 3757 3375
4078 3760 3379
4077 3774 3405
4076 3803 3476
4076 3841 3542
4077 3892 3633
4080 3948 3763
4084 4028 3902
4091 4095 4095
