nova/tdt-studio/app/Lut_mau/IWLTBAP/2 - LUTs by IWLTBAP (3DL)/01 - Standard/Psychedelia/Suppol - Standard.3dl
# Copyright: (C) Copyright 2010-2018 by IWLTBAP SAS
# Cannot be resold, shared or otherwise redistributed
# Website: https://luts.iwltbap.com
0 128 256 384 512 640 768 896 1023
  13    7   10
   0   88  101
   0  211  239
   0  328  386
   0  444  536
   0  576  706
   0  734  872
   0  889 1070
   0 1067 1275
 422  140  624
 405  196  519
   0  420  511
   0  508  592
   0  602  712
   0  717  849
   0  850 1001
   0  994 1189
   0 1163 1378
1141  322 1408
1210  320 1318
1186  369 1163
  29  774  993
   0  890 1012
   0  984 1142
   0 1093 1285
   0 1217 1437
   0 1368 1600
2191  604 2369
2238  611 2303
2343  585 2186
2312  643 1974
 728 1208 1640
   0 1393 1553
   0 1475 1670
   0 1573 1801
   0 1682 1944
3241 1353 3314
3269 1347 3273
3312 1325 3208
3385 1293 3064
3333 1302 2863
1727 1710 2366
   0 1933 2148
   0 2003 2239
   0 2071 2367
3627 2251 3729
3657 2257 3728
3715 2267 3726
3808 2272 3713
3912 2257 3658
3947 2233 3560
2664 2314 3082
 254 2450 2749
   0 2509 2792
3624 2741 3763
3637 2752 3763
3683 2769 3765
3731 2787 3766
3819 2809 3767
3918 2828 3763
3998 2842 3746
3335 2841 3575
 954 2892 3283
3631 3130 3815
3639 3134 3815
3668 3142 3817
3702 3155 3819
3750 3186 3823
3821 3215 3826
3903 3241 3829
3982 3270 3831
3805 3296 3828
3725 3525 3884
3730 3527 3885
3739 3533 3886
3769 3542 3889
3795 3557 3893
3828 3576 3898
3889 3604 3910
3946 3647 3926
4001 3678 3939
 283    0    3
 178  101  221
   0  304  370
   0  392  480
   0  502  605
   0  626  752
   0  763  929
   0  930 1105
   0 1091 1310
 273  244  798
 313  341  447
   0  467  552
   0  550  661
   0  642  764
   0  753  906
   0  881 1060
   0 1034 1227
   0 1189 1420
1039  389 1663
 879  572 1101
 885  620  984
  96  847  994
   0  943 1077
   0 1025 1195
   0 1141 1326
   0 1261 1472
   0 1393 1648
2185  654 2523
1857  856 2045
1935  878 1898
1972  905 1791
 626 1295 1602
   0 1428 1591
   0 1507 1707
   0 1599 1833
   0 1705 1971
3248 1421 3397
2977 1424 3078
2975 1427 2936
3094 1423 2854
3106 1444 2698
1570 1778 2317
   0 1958 2172
   0 2027 2271
   0 2089 2390
3594 2263 3730
3601 2265 3710
3637 2273 3686
3721 2283 3650
3819 2279 3599
3850 2269 3488
2565 2341 3036
 275 2466 2755
   0 2521 2809
3605 2750 3763
3622 2762 3764
3664 2775 3765
3721 2794 3767
3812 2817 3768
3914 2837 3764
3993 2860 3745
3289 2853 3559
 929 2906 3282
3621 3134 3815
3631 3138 3816
3656 3146 3818
3696 3160 3820
3741 3196 3823
3817 3220 3827
3901 3247 3830
3981 3277 3832
3786 3304 3827
3724 3530 3885
3728 3533 3886
3738 3538 3888
3768 3548 3890
3794 3562 3894
3829 3581 3900
3889 3616 3913
3948 3653 3929
4001 3684 3940
 693    0    0
 646   40  217
 417  227  534
   0  505  675
   0  598  746
   0  712  872
   0  847 1026
   0  990 1202
   0 1158 1397
 695  273  184
 686  328  333
 512  443  626
   0  646  823
   0  736  908
   0  840 1010
   0  961 1164
   0 1095 1321
   0 1255 1491
 530  552 1910
 702  701 1143
 772  772  881
 340  935 1050
  23 1010 1182
   0 1104 1305
   0 1207 1428
   0 1324 1568
   0 1457 1720
2095  797 2972
1641  973 2189
1527 1121 1667
1557 1177 1572
 611 1410 1593
   0 1507 1684
   0 1583 1798
   0 1658 1918
   0 1758 2051
3219 1581 3591
2872 1530 3171
2526 1562 2639
2624 1598 2510
2701 1632 2440
1332 1910 2269
   0 2024 2227
   0 2070 2325
   0 2142 2439
3485 2280 3728
3501 2286 3713
3407 2256 3522
3431 2262 3419
3543 2277 3370
3600 2293 3282
2344 2383 2954
 402 2498 2769
   0 2561 2858
3539 2764 3762
3569 2771 3763
3619 2787 3765
3694 2810 3766
3789 2835 3767
3897 2870 3761
3976 2886 3739
3144 2881 3514
 909 2937 3282
3596 3144 3816
3607 3148 3817
3632 3157 3819
3683 3181 3822
3729 3208 3825
3809 3233 3829
3897 3261 3833
3978 3304 3835
3722 3315 3825
3719 3543 3889
3724 3546 3890
3736 3552 3892
3767 3561 3894
3794 3575 3898
3828 3594 3907
3889 3635 3921
3951 3665 3936
4002 3696 3944
1239    0    0
1186    0  170
1158   99  507
 812  372  934
   0  738 1008
   0  850 1080
   0  970 1208
   0 1102 1355
   0 1260 1537
1287  219   62
1261  297  257
1225  387  588
 892  567 1003
   0  864 1158
   0  967 1213
   0 1078 1330
   0 1201 1468
   0 1337 1637
1206  682  554
1276  733  562
1306  783  744
1069  915 1157
 265 1135 1362
   0 1215 1469
   0 1313 1579
   0 1421 1704
   0 1541 1844
1185 1096 3113
1111 1116 2370
1351 1273 1696
1453 1373 1461
 944 1525 1665
 568 1603 1796
 285 1674 1916
  10 1751 2039
   0 1848 2168
2801 1675 3654
2646 1647 3446
2267 1665 2754
2225 1798 2294
2264 1856 2220
1306 2036 2239
 651 2089 2302
 360 2145 2412
  87 2198 2526
3261 2287 3718
3297 2302 3718
3234 2291 3570
3033 2277 3154
3138 2328 3051
3220 2367 3023
2036 2493 2871
 732 2559 2799
 399 2594 2898
3429 2775 3759
3448 2782 3760
3512 2800 3763
3589 2824 3745
3680 2861 3722
3798 2895 3710
3881 2916 3681
2912 2914 3458
 989 2996 3292
3537 3160 3818
3547 3166 3819
3589 3185 3821
3635 3207 3825
3706 3229 3829
3791 3255 3833
3888 3293 3838
3972 3330 3839
3598 3332 3819
3713 3567 3896
3719 3569 3897
3731 3575 3898
3763 3585 3902
3794 3600 3909
3828 3634 3921
3890 3658 3934
3954 3688 3943
4005 3728 3952
1882    0   42
1863    0  179
1856    3  454
1859  172  942
1361  536 1401
   0  995 1434
   0 1129 1456
   0 1258 1581
   0 1391 1725
1967  135   56
1952  211  225
1933  302  512
1905  440  993
1407  734 1456
   0 1107 1547
   0 1220 1570
   0 1341 1686
   0 1478 1821
2047  639  141
2045  688  333
2031  764  640
1983  866 1105
1539 1067 1588
 163 1347 1728
   0 1440 1801
   0 1542 1903
   0 1651 2025
1759 1289 1210
1872 1309 1122
2033 1368 1096
2085 1428 1342
1779 1537 1791
 873 1713 1995
 490 1774 2085
 199 1851 2194
   0 1942 2310
1589 1691 3471
1654 1703 3391
1767 1750 2880
2059 1932 2317
2165 2062 2087
1676 2157 2302
1261 2188 2419
 923 2238 2524
 650 2284 2629
2825 2272 3697
2850 2282 3699
2899 2306 3642
2778 2343 3239
2800 2444 2875
2842 2499 2819
1991 2599 2820
1291 2620 2872
 956 2658 2973
3251 2786 3753
3280 2793 3754
3321 2809 3758
3402 2837 3745
3414 2879 3593
3527 2916 3522
3612 2950 3509
2608 3003 3380
1295 3042 3335
3470 3202 3821
3486 3206 3822
3508 3215 3824
3556 3232 3828
3641 3257 3833
3740 3297 3838
3868 3334 3843
3940 3365 3843
3374 3366 3801
3711 3608 3913
3716 3613 3914
3726 3624 3918
3751 3636 3923
3793 3650 3932
3829 3669 3939
3892 3693 3945
3964 3736 3954
4010 3769 3965
2614    0  104
2619    0  192
2631    0  426
2617   64  850
2593  309 1468
1971  774 1923
   0 1282 1902
   0 1414 1879
   0 1541 1973
2705   73   95
2704  125  208
2696  207  472
2646  347  922
2607  577 1524
2002  961 1965
   0 1378 1971
   0 1502 1956
   0 1620 2063
2793  581   95
2790  655  249
2761  737  574
2721  847 1044
2648 1008 1616
2068 1277 2075
 120 1580 2134
   0 1689 2153
   0 1792 2249
2820 1318  284
2830 1369  472
2828 1408  791
2800 1478 1243
2718 1573 1779
2225 1715 2249
 762 1894 2349
 279 1960 2407
   0 2047 2506
2225 1950 2121
2304 1962 2024
2503 2011 1838
2714 2066 1788
2760 2137 2039
2450 2196 2434
1557 2285 2610
1110 2328 2680
 780 2370 2775
2045 2263 3622
2059 2270 3615
2122 2289 3583
2313 2371 3327
2641 2543 2896
2797 2687 2723
2321 2710 2884
1870 2711 2977
1481 2724 3062
2973 2800 3744
2991 2805 3745
3020 2817 3748
3094 2841 3749
3159 2902 3625
3231 2987 3377
3289 3032 3342
2529 3089 3336
1845 3108 3385
3393 3242 3828
3400 3245 3829
3418 3253 3830
3451 3267 3834
3527 3304 3839
3636 3339 3831
3783 3381 3826
3868 3427 3828
3059 3455 3772
3719 3670 3940
3722 3673 3941
3731 3677 3943
3753 3686 3945
3790 3699 3949
3831 3726 3955
3895 3757 3962
3973 3787 3972
4018 3826 3983
3330    0  165
3344    0  223
3374    0  406
3339    0  816
3260  262 1375
3227  657 2062
2574 1164 2485
   0 1578 2381
   0 1714 2300
3398   64  153
3401  115  229
3402  192  453
3368  314  868
3277  569 1435
3222  913 2103
2583 1316 2517
   0 1641 2432
   0 1777 2380
3446  587  141
3445  670  249
3435  759  515
3396  863  978
3301 1050 1545
3232 1293 2177
2616 1592 2592
 206 1811 2546
   0 1930 2522
3458 1370  219
3460 1413  371
3447 1470  689
3413 1522 1168
3328 1621 1708
3240 1771 2292
2665 1951 2695
 675 2065 2711
   0 2158 2740
3376 2074  728
3389 2099  850
3400 2130 1086
3391 2153 1473
3332 2193 1951
3242 2273 2442
2778 2363 2848
1342 2401 2911
 795 2459 2974
2547 2516 2942
2615 2540 2893
2748 2574 2760
2967 2613 2554
3202 2688 2488
3251 2745 2688
2960 2781 3010
2125 2794 3135
1641 2804 3220
2611 2843 3737
2617 2850 3736
2632 2868 3734
2675 2890 3722
2812 2934 3642
3099 3057 3397
3226 3151 3272
2807 3180 3381
2372 3182 3478
3309 3316 3840
3314 3319 3841
3326 3326 3842
3358 3337 3845
3403 3355 3849
3487 3396 3846
3605 3449 3770
3665 3496 3756
2986 3551 3771
3746 3755 3964
3752 3757 3964
3767 3761 3966
3783 3770 3969
3804 3783 3973
3836 3800 3979
3902 3838 3986
3983 3865 3997
4027 3892 4007
3930    0  275
3946    0  308
3967    0  440
3941    0  764
3870  254 1326
3750  762 2011
3711 1240 2637
3103 1688 3002
   0 1878 2873
3964  104  279
3970  183  326
3976  269  471
3950  395  831
3872  633 1396
3734 1045 2047
3698 1435 2666
3098 1807 3025
   0 1936 2907
3979  670  288
3980  768  351
3979  872  525
3949  970  931
3872 1137 1486
3733 1412 2128
3686 1729 2730
3096 2008 3085
  81 2062 2990
3966 1454  368
3969 1514  458
3964 1579  681
3924 1622 1094
3857 1706 1658
3733 1870 2242
3671 2094 2803
3099 2272 3148
 434 2271 3111
3895 2159  642
3901 2182  757
3901 2210  990
3883 2238 1396
3824 2267 1893
3731 2355 2404
3645 2489 2909
3127 2589 3250
 988 2555 3258
3710 2714 1585
3727 2725 1623
3760 2744 1698
3783 2763 1904
3776 2777 2242
3717 2809 2639
3632 2880 3043
3213 2918 3367
1762 2889 3436
2962 3040 3514
3001 3046 3494
3083 3072 3427
3216 3105 3318
3402 3140 3150
3584 3202 3101
3621 3241 3250
3376 3255 3503
2576 3255 3626
3271 3421 3863
3276 3424 3864
3284 3430 3865
3298 3441 3867
3324 3457 3866
3393 3484 3853
3530 3549 3777
3617 3596 3731
3237 3645 3834
3812 3858 3998
3815 3860 3998
3821 3865 4000
3831 3873 4003
3858 3885 4008
3887 3902 4015
3922 3926 4030
3996 3961 4047
4043 3985 4056
4095    0  423
4095    0  445
4095    0  495
4095   46  733
4095  335 1259
4095  894 1942
4095 1495 2621
4055 1917 3148
4028 2282 3636
4095  192  448
4095  297  470
4095  431  538
4095  566  806
4095  778 1335
4095 1198 2011
4095 1691 2656
4029 2052 3171
4018 2378 3647
4095  836  503
4095  941  526
4095 1058  616
4095 1157  896
4095 1282 1440
4095 1562 2084
4078 1933 2711
4010 2244 3223
4002 2509 3672
4095 1601  638
4095 1648  680
4095 1712  764
4095 1749 1069
4095 1816 1589
4095 1972 2202
4058 2244 2786
3993 2488 3276
3979 2702 3711
4095 2261  916
4095 2284  951
4095 2316 1065
4095 2333 1351
4095 2347 1825
4095 2417 2375
4036 2584 2888
3980 2774 3355
3948 2925 3744
4095 2793 1363
4095 2807 1424
4095 2821 1546
4095 2827 1800
4095 2829 2172
4095 2861 2604
4032 2937 3025
3977 3063 3435
3924 3163 3795
3975 3233 2522
3990 3238 2506
4018 3244 2472
4065 3252 2504
4083 3258 2651
4079 3268 2911
4027 3312 3228
3988 3365 3552
3921 3433 3855
3454 3563 3869
3475 3567 3866
3508 3575 3856
3580 3588 3827
3693 3614 3742
3837 3642 3624
3980 3665 3589
4010 3692 3718
3970 3737 3952
3909 3971 4052
3911 3973 4053
3916 3977 4054
3925 3985 4058
3947 3997 4063
3977 4013 4070
4006 4039 4079
4049 4075 4087
4093 4095 4095
