nova/tdt-studio/app/Lut_mau/IWLTBAP/2 - LUTs by IWLTBAP (3DL)/01 - Standard/Psychedelia/Suppol - Standard.3dl
# Copyright: (C) Copyright 2010-2018 by IWLTBAP SAS
# Cannot be resold, shared or otherwise redistributed
# Website: https://luts.iwltbap.com
0 64 128 192 256 320 384 448 512 576 640 704 768 832 896 960 1023
  13    7   10
   0   40   42
   0   88  101
   0  140  158
   0  211  239
   0  276  318
   0  328  386
   0  390  470
   0  444  536
   0  518  618
   0  576  706
   0  653  790
   0  734  872
   0  816  969
   0  889 1070
   0  978 1174
   0 1067 1275
 206   88  328
 192  101  264
  87  188  268
   0  266  311
   0  319  362
   0  349  420
   0  403  480
   0  448  538
   0  513  610
   0  564  689
   0  636  757
   0  701  844
   0  773  933
   0  855 1012
   0  939 1110
   0 1011 1212
   0 1098 1315
 422  140  624
 459  149  574
 405  196  519
 206  304  496
   0  420  511
   0  457  534
   0  508  592
   0  546  643
   0  602  712
   0  653  773
   0  717  849
   0  774  931
   0  850 1001
   0  926 1093
   0  994 1189
   0 1078 1288
   0 1163 1378
 732  223  982
 769  227  938
 802  227  877
 745  276  817
 448  415  743
   0  589  740
   0  644  740
   0  678  793
   0  731  847
   0  773  916
   0  836  974
   0  886 1053
   0  957 1121
   0 1018 1207
   0 1092 1297
   0 1171 1386
   0 1252 1471
1141  322 1408
1163  327 1357
1210  320 1318
1269  314 1243
1186  369 1163
 772  546 1049
  29  774  993
   0  856  977
   0  890 1012
   0  943 1077
   0  984 1142
   0 1045 1208
   0 1093 1285
   0 1161 1351
   0 1217 1437
   0 1291 1524
   0 1368 1600
1636  432 1874
1651  439 1830
1686  435 1798
1755  426 1732
1821  420 1663
1731  480 1552
1219  684 1404
 340  983 1299
   0 1090 1241
   0 1141 1277
   0 1176 1331
   0 1215 1402
   0 1273 1460
   0 1319 1537
   0 1385 1602
   0 1437 1683
   0 1507 1769
2191  604 2369
2209  613 2330
2238  611 2303
2277  602 2262
2343  585 2186
2402  575 2103
2312  643 1974
1741  879 1794
 728 1208 1640
   0 1348 1549
   0 1393 1553
   0 1424 1599
   0 1475 1670
   0 1515 1727
   0 1573 1801
   0 1619 1879
   0 1682 1944
2755  891 2863
2761  894 2844
2794  892 2807
2820  888 2775
2854  881 2721
2911  871 2644
2946  863 2552
2855  919 2427
2296 1140 2212
1211 1428 1974
  26 1614 1870
   0 1653 1837
   0 1698 1894
   0 1730 1946
   0 1766 2019
   0 1821 2075
   0 1864 2151
3241 1353 3314
3246 1354 3289
3269 1347 3273
3290 1335 3247
3312 1325 3208
3340 1311 3139
3385 1293 3064
3411 1278 2983
3333 1302 2863
2817 1478 2642
1727 1710 2366
 464 1884 2190
   0 1933 2148
   0 1960 2179
   0 2003 2239
   0 2037 2297
   0 2071 2367
3548 1860 3628
3563 1859 3622
3584 1859 3615
3602 1856 3602
3624 1853 3583
3658 1842 3541
3697 1825 3492
3725 1804 3424
3753 1766 3357
3702 1769 3248
3279 1861 3039
2228 2016 2744
 891 2146 2526
   0 2191 2447
   0 2235 2463
   0 2260 2521
   0 2287 2574
3627 2251 3729
3639 2253 3728
3657 2257 3728
3688 2261 3728
3715 2267 3726
3758 2272 3722
3808 2272 3713
3869 2268 3697
3912 2257 3658
3966 2241 3623
3947 2233 3560
3610 2259 3377
2664 2314 3082
1352 2393 2851
 254 2450 2749
   0 2484 2752
   0 2509 2792
3625 2513 3747
3633 2515 3748
3644 2520 3748
3674 2530 3749
3698 2546 3750
3726 2559 3751
3778 2569 3751
3822 2577 3749
3885 2583 3746
3933 2585 3739
3996 2583 3727
4007 2583 3699
3786 2591 3582
3037 2591 3352
1818 2633 3142
 666 2677 3026
   0 2727 3015
3624 2741 3763
3630 2745 3763
3637 2752 3763
3654 2762 3764
3683 2769 3765
3704 2777 3766
3731 2787 3766
3780 2798 3767
3819 2809 3767
3876 2819 3765
3918 2828 3763
3977 2835 3759
3998 2842 3746
3878 2855 3698
3335 2841 3575
2248 2860 3416
 954 2892 3283
3624 2938 3783
3628 2939 3784
3635 2942 3785
3644 2946 3786
3669 2952 3788
3689 2963 3790
3710 2981 3792
3736 2994 3794
3783 3006 3797
3818 3018 3798
3870 3030 3799
3907 3042 3798
3958 3056 3796
3988 3080 3789
3922 3090 3765
3551 3082 3724
2723 3047 3650
3631 3130 3815
3635 3132 3815
3639 3134 3815
3648 3137 3816
3668 3142 3817
3686 3148 3818
3702 3155 3819
3721 3165 3821
3750 3186 3823
3790 3202 3824
3821 3215 3826
3868 3227 3827
3903 3241 3829
3944 3256 3831
3982 3270 3831
3957 3289 3830
3805 3296 3828
3671 3324 3844
3676 3325 3844
3680 3326 3845
3686 3329 3845
3693 3333 3846
3703 3338 3847
3715 3344 3849
3730 3351 3850
3755 3360 3852
3786 3371 3854
3811 3393 3857
3838 3411 3860
3882 3425 3863
3914 3441 3866
3959 3457 3870
3985 3472 3873
3990 3487 3875
3725 3525 3884
3727 3526 3884
3730 3527 3885
3734 3530 3885
3739 3533 3886
3752 3537 3887
3769 3542 3889
3782 3549 3891
3795 3557 3893
3810 3565 3896
3828 3576 3898
3862 3587 3902
3889 3604 3910
3914 3631 3918
3946 3647 3926
3981 3663 3934
4001 3678 3939
 117    4   10
  81   33   89
   3  125  170
   0  198  233
   0  244  284
   0  307  356
   0  347  434
   0  409  494
   0  461  571
   0  532  637
   0  602  724
   0  666  813
   0  745  892
   0  829  984
   0  898 1083
   0  987 1187
   0 1077 1292
 183  125  380
 173  159  255
  74  231  281
   0  300  341
   0  335  389
   0  384  455
   0  422  503
   0  465  571
   0  528  629
   0  581  708
   0  649  778
   0  723  859
   0  785  950
   0  866 1043
   0  950 1126
   0 1030 1225
   0 1108 1328
 347  194  757
 353  250  532
 315  290  463
 125  386  489
   0  442  518
   0  487  573
   0  525  615
   0  562  679
   0  620  732
   0  667  806
   0  732  865
   0  787  947
   0  862 1025
   0  940 1108
   0 1005 1204
   0 1088 1301
   0 1173 1400
 684  256 1099
 641  347  868
 654  375  769
 609  403  737
 383  503  728
   0  620  739
   0  660  759
   0  696  817
   0  745  867
   0  787  936
   0  848  992
   0  898 1069
   0  969 1148
   0 1041 1222
   0 1102 1312
   0 1180 1404
   0 1262 1483
1101  347 1482
1019  448 1285
1033  472 1181
1087  467 1121
1048  509 1073
 692  629 1001
  39  815  992
   0  872  994
   0  910 1046
   0  957 1096
   0  997 1166
   0 1057 1224
   0 1105 1300
   0 1172 1365
   0 1233 1449
   0 1300 1537
   0 1376 1617
1624  455 1934
1503  561 1735
1491  596 1650
1559  587 1590
1639  575 1543
1572  625 1460
1120  776 1349
 307 1014 1294
   0 1105 1254
   0 1155 1298
   0 1188 1346
   0 1232 1417
   0 1284 1474
   0 1329 1550
   0 1393 1621
   0 1445 1695
   0 1515 1779
2184  629 2416
2058  725 2249
2038  749 2156
2077  750 2113
2154  743 2055
2232  737 1990
2160  773 1902
1642  965 1742
 678 1255 1621
   0 1372 1558
   0 1406 1569
   0 1437 1623
   0 1487 1683
   0 1525 1744
   0 1582 1813
   0 1627 1890
   0 1690 1953
2756  931 2901
2635  980 2758
2609  993 2675
2636  994 2643
2689  992 2601
2747  985 2533
2813  980 2454
2738 1020 2364
2202 1202 2172
1166 1481 1969
  19 1628 1877
   0 1675 1854
   0 1708 1906
   0 1740 1958
   0 1783 2029
   0 1828 2085
   0 1875 2160
3241 1384 3347
3144 1395 3234
3121 1394 3165
3142 1391 3142
3182 1388 3106
3216 1379 3043
3268 1369 2986
3307 1354 2904
3240 1381 2797
2737 1522 2609
1663 1733 2343
 443 1901 2191
   0 1942 2157
   0 1969 2189
   0 2013 2254
   0 2044 2307
   0 2077 2376
3540 1887 3638
3507 1883 3594
3500 1874 3566
3520 1872 3543
3541 1870 3517
3583 1860 3485
3615 1849 3435
3646 1833 3375
3688 1817 3305
3633 1821 3212
3212 1906 3011
2170 2033 2728
 869 2155 2523
   0 2199 2452
   0 2240 2478
   0 2266 2529
   0 2293 2588
3616 2256 3729
3621 2259 3725
3632 2262 3721
3662 2267 3721
3696 2274 3718
3729 2279 3711
3786 2282 3701
3829 2279 3672
3887 2272 3641
3924 2260 3605
3913 2253 3529
3582 2273 3362
2632 2329 3059
1326 2399 2847
 249 2456 2751
   0 2489 2758
   0 2513 2798
3616 2515 3747
3625 2519 3748
3636 2525 3748
3661 2537 3749
3692 2553 3750
3721 2563 3751
3772 2573 3751
3816 2582 3749
3880 2588 3745
3928 2591 3738
3991 2590 3726
4001 2590 3696
3772 2596 3576
3013 2595 3344
1778 2643 3137
 660 2682 3026
   0 2734 3020
3617 2745 3763
3623 2749 3763
3632 2757 3763
3645 2764 3764
3678 2771 3765
3700 2780 3766
3727 2790 3767
3777 2801 3767
3817 2812 3767
3874 2823 3766
3916 2831 3763
3976 2839 3759
3996 2849 3745
3871 2860 3695
3317 2845 3570
2226 2867 3411
 943 2897 3283
3619 2939 3783
3624 2941 3784
3630 2944 3785
3640 2948 3786
3662 2954 3788
3687 2968 3790
3708 2985 3792
3734 2996 3795
3781 3008 3797
3816 3020 3798
3867 3032 3799
3906 3044 3799
3957 3062 3797
3988 3084 3789
3918 3093 3765
3538 3084 3722
2704 3051 3649
3628 3132 3815
3631 3133 3815
3637 3136 3816
3644 3139 3816
3664 3143 3817
3684 3150 3818
3700 3157 3820
3719 3169 3821
3746 3190 3823
3788 3204 3825
3820 3216 3826
3866 3230 3828
3902 3243 3830
3943 3259 3831
3981 3273 3832
3954 3293 3830
3798 3299 3828
3668 3325 3845
3673 3326 3845
3678 3328 3845
3684 3331 3846
3692 3335 3846
3702 3340 3848
3714 3346 3849
3729 3354 3851
3752 3362 3853
3785 3374 3855
3810 3397 3857
3837 3413 3860
3881 3427 3863
3913 3443 3867
3959 3459 3870
3985 3474 3873
3990 3492 3876
3725 3527 3885
3727 3528 3885
3729 3529 3885
3733 3532 3886
3739 3535 3887
3751 3539 3888
3769 3545 3889
3782 3551 3891
3794 3559 3894
3810 3567 3896
3829 3578 3899
3862 3589 3903
3889 3609 3911
3914 3633 3919
3948 3649 3927
3982 3665 3935
4001 3680 3939
 283    0    3
 245   29  109
 178  101  221
   6  223  318
   0  304  370
   0  338  426
   0  392  480
   0  436  532
   0  502  605
   0  554  685
   0  626  752
   0  685  837
   0  763  929
   0  846 1007
   0  930 1105
   0 1002 1207
   0 1091 1310
 271  135  257
 273  168  225
 218  215  284
  26  319  387
   0  372  457
   0  413  501
   0  450  557
   0  507  608
   0  552  680
   0  617  740
   0  670  818
   0  743  887
   0  819  972
   0  884 1066
   0  967 1163
   0 1052 1246
   0 1137 1347
 273  244  798
 320  310  518
 313  341  447
 163  422  491
   0  467  552
   0  516  605
   0  550  661
   0  596  713
   0  642  764
   0  688  836
   0  753  906
   0  824  975
   0  881 1060
   0  959 1143
   0 1034 1227
   0 1105 1322
   0 1189 1420
 549  310 1291
 533  422  922
 543  454  729
 511  482  679
 293  575  715
  13  644  745
   0  684  806
   0  731  850
   0  768  915
   0  825  965
   0  870 1030
   0  936 1098
   0  989 1179
   0 1061 1247
   0 1134 1335
   0 1199 1426
   0 1280 1520
1039  389 1663
 915  521 1322
 879  572 1101
 908  589 1009
 885  620  984
 606  716  976
  96  847  994
   0  895 1030
   0  943 1077
   0  978 1127
   0 1025 1195
   0 1077 1249
   0 1141 1326
   0 1191 1405
   0 1261 1472
   0 1319 1560
   0 1393 1648
1590  487 2065
1425  630 1774
1335  701 1550
1354  729 1446
1436  727 1409
1388  751 1356
1003  869 1305
 300 1065 1289
   0 1145 1292
   0 1178 1326
   0 1211 1384
   0 1263 1443
   0 1303 1503
   0 1362 1573
   0 1411 1651
   0 1478 1717
   0 1531 1799
2185  654 2523
1991  774 2265
1857  856 2045
1855  878 1938
1935  878 1898
2025  873 1845
1972  905 1791
1509 1059 1686
 626 1295 1602
   0 1396 1575
   0 1428 1591
   0 1470 1655
   0 1507 1707
   0 1545 1777
   0 1599 1833
   0 1642 1909
   0 1705 1971
2767  965 2988
2576 1035 2769
2432 1078 2563
2411 1095 2462
2455 1099 2420
2538 1097 2383
2621 1095 2321
2564 1141 2254
2064 1288 2110
1060 1534 1958
  52 1649 1885
   0 1700 1885
   0 1727 1927
   0 1757 1981
   0 1807 2049
   0 1843 2119
   0 1898 2177
3248 1421 3397
3108 1428 3242
2977 1424 3078
2938 1425 2987
2975 1427 2936
3025 1426 2899
3094 1423 2854
3143 1420 2786
3106 1444 2698
2622 1586 2538
1570 1778 2317
 425 1920 2193
   0 1958 2172
   0 1992 2205
   0 2027 2271
   0 2057 2322
   0 2089 2390
3526 1912 3655
3470 1906 3594
3402 1878 3494
3385 1861 3429
3405 1862 3400
3432 1860 3369
3485 1857 3331
3523 1849 3268
3567 1842 3216
3528 1851 3127
3113 1935 2951
2092 2053 2687
 841 2170 2520
   0 2225 2468
   0 2252 2496
   0 2276 2541
   0 2308 2606
3594 2263 3730
3599 2266 3724
3601 2265 3710
3612 2267 3696
3637 2273 3686
3683 2279 3667
3721 2283 3650
3778 2283 3628
3819 2279 3599
3871 2271 3559
3850 2269 3488
3513 2288 3329
2565 2341 3036
1284 2412 2838
 275 2466 2755
   0 2498 2768
   0 2521 2809
3599 2519 3747
3609 2524 3748
3622 2533 3748
3641 2546 3748
3681 2558 3749
3710 2568 3750
3751 2578 3749
3806 2588 3747
3869 2595 3741
3917 2599 3733
3979 2599 3719
3989 2598 3683
3734 2603 3565
2963 2602 3331
1745 2654 3129
 664 2691 3027
   0 2749 3028
3605 2750 3763
3612 2755 3763
3622 2762 3764
3636 2768 3764
3664 2775 3765
3693 2784 3766
3721 2794 3767
3770 2806 3768
3812 2817 3768
3870 2828 3766
3914 2837 3764
3974 2846 3760
3993 2860 3745
3848 2869 3688
3289 2853 3559
2178 2876 3404
 929 2906 3282
3610 2941 3784
3615 2944 3784
3623 2947 3785
3634 2951 3786
3651 2959 3789
3682 2974 3791
3703 2989 3793
3729 3000 3795
3777 3011 3798
3813 3024 3800
3863 3036 3801
3905 3048 3800
3955 3070 3799
3986 3088 3790
3912 3097 3764
3518 3088 3719
2642 3066 3644
3621 3134 3815
3625 3136 3816
3631 3138 3816
3640 3142 3817
3656 3146 3818
3680 3153 3819
3696 3160 3820
3716 3175 3822
3741 3196 3823
3786 3207 3825
3817 3220 3827
3862 3233 3829
3901 3247 3830
3942 3262 3832
3981 3277 3832
3947 3300 3830
3786 3304 3827
3660 3328 3845
3665 3329 3845
3674 3331 3846
3682 3334 3846
3689 3338 3847
3700 3343 3848
3712 3349 3850
3727 3357 3851
3749 3365 3853
3783 3380 3856
3809 3403 3858
3836 3416 3861
3881 3431 3864
3913 3446 3868
3959 3462 3871
3985 3478 3874
3990 3499 3876
3724 3530 3885
3726 3531 3886
3728 3533 3886
3732 3535 3887
3738 3538 3888
3750 3542 3889
3768 3548 3890
3782 3554 3892
3794 3562 3894
3810 3571 3897
3829 3581 3900
3861 3593 3905
3889 3616 3913
3914 3637 3921
3948 3653 3929
3982 3668 3936
4001 3684 3940
 474    0    0
 452   16  106
 405   76  235
 285  168  363
   0  322  481
   0  396  515
   0  435  559
   0  490  606
   0  540  675
   0  600  732
   0  658  811
   0  731  877
   0  797  966
   0  872 1059
   0  956 1156
   0 1040 1239
   0 1117 1340
 478  125   92
 466  149  161
 428  196  277
 316  258  417
  13  405  536
   0  456  591
   0  507  622
   0  544  682
   0  596  731
   0  649  798
   0  710  860
   0  771  941
   0  847 1010
   0  919 1101
   0  991 1195
   0 1074 1292
