nova/tdt-studio/app/Lut_mau/IWLTBAP/2 - LUTs by IWLTBAP (3DL)/01 - Standard/Psychedelia/Suppol - Standard.3dl
# Copyright: (C) Copyright 2010-2018 by IWLTBAP SAS
# Cannot be resold, shared or otherwise redistributed
# Website: https://luts.iwltbap.com
0 256 512 768 1023
  13    7   10
   0  211  239
   0  444  536
   0  734  872
   0 1067 1275
1141  322 1408
1186  369 1163
   0  890 1012
   0 1093 1285
   0 1368 1600
3241 1353 3314
3312 1325 3208
3333 1302 2863
   0 1933 2148
   0 2071 2367
3624 2741 3763
3683 2769 3765
3819 2809 3767
3998 2842 3746
 954 2892 3283
3725 3525 3884
3739 3533 3886
3795 3557 3893
3889 3604 3910
4001 3678 3939
 693    0    0
 417  227  534
   0  598  746
   0  847 1026
   0 1158 1397
 530  552 1910
 772  772  881
  23 1010 1182
   0 1207 1428
   0 1457 1720
3219 1581 3591
2526 1562 2639
2701 1632 2440
   0 2024 2227
   0 2142 2439
3539 2764 3762
3619 2787 3765
3789 2835 3767
3976 2886 3739
 909 2937 3282
3719 3543 3889
3736 3552 3892
3794 3575 3898
3889 3635 3921
4002 3696 3944
1882    0   42
1856    3  454
1361  536 1401
   0 1129 1456
   0 1391 1725
2047  639  141
2031  764  640
1539 1067 1588
   0 1440 1801
   0 1651 2025
1589 1691 3471
1767 1750 2880
2165 2062 2087
1261 2188 2419
 650 2284 2629
3251 2786 3753
3321 2809 3758
3414 2879 3593
3612 2950 3509
1295 3042 3335
3711 3608 3913
3726 3624 3918
3793 3650 3932
3892 3693 3945
4010 3769 3965
3330    0  165
3374    0  406
3260  262 1375
2574 1164 2485
   0 1714 2300
3446  587  141
3435  759  515
3301 1050 1545
2616 1592 2592
   0 1930 2522
3376 2074  728
3400 2130 1086
3332 2193 1951
2778 2363 2848
 795 2459 2974
2611 2843 3737
2632 2868 3734
2812 2934 3642
3226 3151 3272
2372 3182 3478
3746 3755 3964
3767 3761 3966
3804 3783 3973
3902 3838 3986
4027 3892 4007
4095    0  423
4095    0  495
4095  335 1259
4095 1495 2621
4028 2282 3636
4095  836  503
4095 1058  616
4095 1282 1440
4078 1933 2711
4002 2509 3672
4095 2261  916
4095 2316 1065
4095 2347 1825
4036 2584 2888
3948 2925 3744
3975 3233 2522
4018 3244 2472
4083 3258 2651
4027 3312 3228
3921 3433 3855
3909 3971 4052
3916 3977 4054
3947 3997 4063
4006 4039 4079
4093 4095 4095
