nova/tdt-studio/app/Lut_mau/IWLTBAP/1 - LUTs by IWLTBAP (CUBE)/07 - Utility/Panasonic V-Log to Rec.709/U-PANASONIC-V-LOG-V2-BIS-LTR (Corrected by Michael Tivikoff).cube
# Copyright: (C) Copyright 2010-2019 by IWLTBAP SAS
# Cannot be resold, shared or otherwise redistributed
# Website: https://luts.iwltbap.com
TITLE "Panasonic V-Log Version 2 Bis (Utility LOG to Rec.709) by Michael Tivikoff"
LUT_3D_SIZE 8
0.003922 0.003922 0.003922
0.215686 0.011765 0.015686
0.396078 0.015686 0.023529
0.541176 0.015686 0.023529
0.674510 0.015686 0.019608
0.800000 0.023529 0.027451
0.921569 0.035294 0.043137
0.988235 0.043137 0.050980
0.011765 0.196078 0.011765
0.196078 0.188235 0.011765
0.364706 0.192157 0.015686
0.509804 0.192157 0.019608
0.643137 0.196078 0.019608
0.768627 0.203922 0.023529
0.890196 0.207843 0.031373
0.984314 0.211765 0.039216
0.023529 0.356863 0.023529
0.200000 0.352941 0.015686
0.360784 0.349020 0.019608
0.501961 0.349020 0.027451
0.631373 0.352941 0.027451
0.756863 0.356863 0.027451
0.878431 0.356863 0.035294
0.980392 0.360784 0.039216
0.035294 0.494118 0.035294
0.207843 0.490196 0.031373
0.360784 0.486275 0.027451
0.501961 0.486275 0.031373
0.627451 0.486275 0.035294
0.752941 0.490196 0.039216
0.870588 0.490196 0.043137
0.976471 0.494118 0.047059
0.043137 0.623529 0.043137
0.211765 0.619608 0.043137
0.364706 0.615686 0.039216
0.501961 0.615686 0.039216
0.627451 0.615686 0.043137
0.749020 0.615686 0.047059
0.870588 0.615686 0.050980
0.976471 0.619608 0.054902
0.058824 0.741176 0.054902
0.219608 0.737255 0.050980
0.368627 0.737255 0.050980
0.501961 0.733333 0.050980
0.627451 0.733333 0.054902
0.749020 0.733333 0.054902
0.866667 0.737255 0.062745
0.972549 0.737255 0.066667
0.070588 0.858824 0.070588
0.223529 0.854902 0.066667
0.376471 0.854902 0.062745
0.505882 0.850980 0.066667
0.631373 0.850980 0.066667
0.749020 0.850980 0.070588
0.866667 0.850980 0.070588
0.972549 0.850980 0.074510
0.082353 0.964706 0.082353
0.231373 0.960784 0.078431
0.376471 0.960784 0.078431
0.509804 0.960784 0.078431
0.631373 0.960784 0.078431
0.749020 0.960784 0.082353
0.866667 0.960784 0.082353
0.972549 0.960784 0.086275
0.003922 0.003922 0.207843
0.215686 0.011765 0.211765
0.388235 0.011765 0.211765
0.533333 0.011765 0.215686
0.666667 0.011765 0.219608
0.796078 0.023529 0.223529
0.917647 0.035294 0.227451
0.988235 0.039216 0.235294
0.007843 0.192157 0.196078
0.192157 0.188235 0.192157
0.360784 0.188235 0.192157
0.505882 0.192157 0.196078
0.639216 0.196078 0.203922
0.764706 0.200000 0.207843
0.890196 0.207843 0.211765
0.984314 0.211765 0.219608
0.019608 0.352941 0.200000
0.196078 0.349020 0.196078
0.356863 0.349020 0.196078
0.498039 0.349020 0.200000
0.631373 0.352941 0.203922
0.752941 0.352941 0.207843
0.874510 0.356863 0.211765
0.980392 0.360784 0.215686
0.035294 0.494118 0.207843
0.200000 0.486275 0.203922
0.360784 0.486275 0.203922
0.498039 0.486275 0.203922
0.627451 0.486275 0.207843
0.749020 0.490196 0.211765
0.870588 0.490196 0.215686
0.976471 0.494118 0.219608
0.043137 0.619608 0.215686
0.207843 0.615686 0.211765
0.360784 0.615686 0.211765
0.498039 0.611765 0.211765
0.627451 0.615686 0.215686
0.749020 0.615686 0.215686
0.866667 0.615686 0.219608
0.976471 0.615686 0.223529
0.054902 0.741176 0.227451
0.211765 0.737255 0.223529
0.364706 0.733333 0.223529
0.501961 0.733333 0.223529
0.627451 0.733333 0.223529
0.745098 0.733333 0.223529
0.866667 0.733333 0.227451
0.972549 0.737255 0.231373
0.066667 0.858824 0.235294
0.219608 0.854902 0.231373
0.368627 0.854902 0.231373
0.501961 0.850980 0.231373
0.627451 0.850980 0.231373
0.745098 0.850980 0.235294
0.862745 0.850980 0.235294
0.972549 0.850980 0.239216
0.078431 0.960784 0.247059
0.227451 0.964706 0.243137
0.372549 0.960784 0.239216
0.505882 0.960784 0.239216
0.627451 0.960784 0.239216
0.745098 0.960784 0.243137
0.862745 0.960784 0.243137
0.972549 0.960784 0.247059
0.011765 0.007843 0.392157
0.215686 0.011765 0.388235
0.388235 0.011765 0.384314
0.533333 0.007843 0.384314
0.666667 0.015686 0.388235
0.792157 0.027451 0.388235
0.913725 0.035294 0.392157
0.988235 0.039216 0.396078
0.007843 0.192157 0.368627
0.192157 0.188235 0.360784
0.360784 0.188235 0.360784
0.505882 0.192157 0.364706
0.639216 0.196078 0.368627
0.764706 0.200000 0.368627
0.886275 0.203922 0.376471
0.980392 0.211765 0.380392
0.019608 0.352941 0.364706
0.192157 0.349020 0.360784
0.356863 0.349020 0.360784
0.498039 0.349020 0.360784
0.627451 0.349020 0.364706
0.752941 0.352941 0.368627
0.874510 0.356863 0.372549
0.976471 0.360784 0.376471
0.031373 0.490196 0.368627
0.196078 0.486275 0.364706
0.356863 0.486275 0.364706
0.494118 0.486275 0.364706
0.623529 0.486275 0.364706
0.745098 0.486275 0.368627
0.866667 0.490196 0.372549
0.976471 0.494118 0.376471
0.043137 0.619608 0.372549
0.203922 0.615686 0.368627
0.356863 0.611765 0.368627
0.494118 0.611765 0.368627
0.623529 0.611765 0.368627
0.745098 0.615686 0.372549
0.862745 0.615686 0.376471
0.972549 0.615686 0.376471
0.050980 0.737255 0.380392
0.211765 0.737255 0.376471
0.360784 0.733333 0.376471
0.498039 0.733333 0.376471
0.623529 0.733333 0.376471
0.745098 0.733333 0.376471
0.862745 0.733333 0.380392
0.972549 0.737255 0.380392
0.066667 0.858824 0.388235
0.215686 0.854902 0.384314
0.360784 0.850980 0.380392
0.498039 0.850980 0.380392
0.623529 0.850980 0.384314
0.745098 0.850980 0.384314
0.862745 0.850980 0.384314
0.972549 0.850980 0.388235
0.078431 0.960784 0.392157
0.223529 0.960784 0.392157
0.360784 0.960784 0.388235
0.501961 0.960784 0.388235
0.627451 0.960784 0.388235
0.745098 0.960784 0.388235
0.862745 0.960784 0.392157
0.968627 0.960784 0.392157
0.015686 0.011765 0.549020
0.215686 0.011765 0.537255
0.384314 0.007843 0.533333
0.529412 0.007843 0.533333
0.662745 0.019608 0.533333
0.788235 0.027451 0.537255
0.909804 0.035294 0.537255
0.984314 0.039216 0.541176
0.011765 0.192157 0.513725
0.192157 0.188235 0.509804
0.356863 0.188235 0.505882
0.501961 0.192157 0.509804
0.635294 0.196078 0.509804
0.760784 0.200000 0.513725
0.882353 0.203922 0.517647
0.980392 0.211765 0.521569
0.015686 0.352941 0.509804
0.192157 0.349020 0.505882
0.352941 0.349020 0.501961
0.494118 0.349020 0.501961
0.627451 0.349020 0.505882
0.749020 0.352941 0.509804
0.870588 0.356863 0.509804
0.976471 0.360784 0.513725
0.031373 0.490196 0.509804
0.196078 0.486275 0.505882
0.349020 0.486275 0.501961
0.494118 0.486275 0.505882
0.623529 0.486275 0.505882
0.745098 0.486275 0.505882
0.866667 0.490196 0.509804
0.972549 0.494118 0.513725
0.043137 0.619608 0.513725
0.203922 0.615686 0.509804
0.352941 0.611765 0.505882
0.494118 0.611765 0.505882
0.619608 0.611765 0.505882
0.741176 0.611765 0.509804
0.862745 0.615686 0.509804
0.972549 0.615686 0.513725
0.050980 0.737255 0.517647
0.207843 0.733333 0.513725
0.352941 0.733333 0.509804
0.494118 0.733333 0.509804
0.619608 0.733333 0.509804
0.741176 0.733333 0.513725
0.858824 0.733333 0.513725
0.968627 0.733333 0.517647
0.062745 0.854902 0.521569
0.215686 0.850980 0.517647
0.356863 0.850980 0.517647
0.494118 0.850980 0.517647
0.623529 0.850980 0.517647
0.741176 0.850980 0.517647
0.858824 0.850980 0.517647
0.968627 0.850980 0.521569
0.074510 0.960784 0.525490
0.223529 0.960784 0.525490
0.356863 0.956863 0.521569
0.494118 0.960784 0.521569
0.623529 0.960784 0.521569
0.741176 0.960784 0.521569
0.858824 0.960784 0.525490
0.968627 0.960784 0.525490
0.019608 0.015686 0.690196
0.215686 0.011765 0.678431
0.384314 0.007843 0.670588
0.525490 0.011765 0.670588
0.662745 0.019608 0.670588
0.784314 0.027451 0.670588
0.905882 0.035294 0.670588
0.984314 0.039216 0.670588
0.011765 0.192157 0.650980
0.192157 0.188235 0.647059
0.352941 0.188235 0.643137
0.501961 0.192157 0.643137
0.635294 0.196078 0.647059
0.760784 0.200000 0.647059
0.882353 0.207843 0.650980
0.980392 0.211765 0.654902
0.015686 0.352941 0.643137
0.192157 0.349020 0.639216
0.349020 0.349020 0.639216
0.494118 0.349020 0.639216
0.623529 0.349020 0.639216
0.749020 0.352941 0.639216
0.870588 0.356863 0.643137
0.976471 0.360784 0.647059
0.031373 0.490196 0.643137
0.196078 0.486275 0.639216
0.345098 0.486275 0.635294
0.490196 0.486275 0.635294
0.619608 0.486275 0.635294
0.741176 0.486275 0.639216
0.862745 0.490196 0.639216
0.972549 0.490196 0.643137
0.043137 0.615686 0.643137
0.200000 0.611765 0.639216
0.349020 0.611765 0.639216
0.490196 0.611765 0.635294
0.619608 0.611765 0.639216
0.741176 0.611765 0.639216
0.858824 0.615686 0.639216
0.968627 0.615686 0.643137
0.050980 0.737255 0.647059
0.207843 0.733333 0.643137
0.349020 0.733333 0.639216
0.490196 0.733333 0.639216
0.619608 0.733333 0.639216
0.737255 0.733333 0.639216
0.858824 0.733333 0.643137
0.968627 0.733333 0.643137
0.062745 0.854902 0.647059
0.215686 0.850980 0.647059
0.352941 0.850980 0.643137
0.490196 0.850980 0.643137
0.619608 0.850980 0.643137
0.737255 0.850980 0.643137
0.854902 0.850980 0.647059
0.968627 0.850980 0.647059
0.074510 0.960784 0.650980
0.219608 0.960784 0.650980
0.356863 0.956863 0.647059
0.490196 0.960784 0.647059
0.619608 0.960784 0.647059
0.737255 0.956863 0.647059
0.854902 0.960784 0.647059
0.964706 0.960784 0.650980
0.023529 0.019608 0.823529
0.215686 0.011765 0.807843
0.380392 0.007843 0.800000
0.525490 0.015686 0.800000
0.658824 0.023529 0.800000
0.784314 0.031373 0.800000
0.905882 0.031373 0.796078
0.984314 0.039216 0.800000
0.015686 0.196078 0.780392
0.192157 0.188235 0.776471
0.352941 0.192157 0.772549
0.498039 0.192157 0.772549
0.631373 0.196078 0.772549
0.756863 0.203922 0.776471
0.878431 0.207843 0.776471
0.980392 0.211765 0.780392
0.019608 0.352941 0.772549
0.192157 0.349020 0.764706
0.345098 0.349020 0.764706
0.490196 0.349020 0.764706
0.623529 0.352941 0.764706
0.745098 0.352941 0.764706
0.866667 0.356863 0.768627
0.972549 0.360784 0.768627
0.027451 0.490196 0.768627
0.196078 0.486275 0.764706
0.345098 0.486275 0.760784
0.486275 0.486275 0.760784
0.619608 0.486275 0.760784
0.741176 0.486275 0.760784
0.862745 0.490196 0.764706
0.968627 0.490196 0.764706
0.043137 0.615686 0.768627
0.200000 0.611765 0.764706
0.345098 0.611765 0.760784
0.486275 0.611765 0.760784
0.615686 0.611765 0.760784
0.737255 0.611765 0.760784
0.858824 0.615686 0.764706
0.968627 0.615686 0.764706
0.050980 0.737255 0.768627
0.207843 0.733333 0.764706
0.345098 0.733333 0.764706
0.486275 0.729412 0.760784
0.615686 0.733333 0.760784
0.737255 0.733333 0.760784
0.854902 0.733333 0.764706
0.964706 0.733333 0.764706
0.062745 0.854902 0.768627
0.211765 0.850980 0.768627
0.349020 0.850980 0.764706
0.486275 0.850980 0.764706
0.615686 0.850980 0.764706
0.737255 0.850980 0.764706
0.854902 0.850980 0.764706
0.964706 0.850980 0.768627
0.074510 0.960784 0.772549
0.219608 0.956863 0.772549
0.356863 0.956863 0.768627
0.486275 0.960784 0.768627
0.615686 0.956863 0.768627
0.737255 0.956863 0.768627
0.854902 0.960784 0.768627
0.964706 0.960784 0.768627
0.027451 0.019608 0.949020
0.215686 0.011765 0.933333
0.380392 0.007843 0.929412
0.525490 0.019608 0.925490
0.658824 0.027451 0.921569
0.780392 0.031373 0.921569
0.901961 0.031373 0.921569
0.984314 0.039216 0.921569
0.019608 0.196078 0.909804
0.192157 0.192157 0.901961
0.349020 0.192157 0.898039
0.498039 0.196078 0.898039
0.631373 0.200000 0.898039
0.756863 0.203922 0.898039
0.878431 0.207843 0.901961
0.980392 0.211765 0.901961
0.019608 0.352941 0.898039
0.192157 0.349020 0.890196
0.341176 0.349020 0.890196
0.486275 0.349020 0.890196
0.619608 0.352941 0.890196
0.745098 0.356863 0.890196
0.866667 0.356863 0.890196
0.972549 0.360784 0.894118
0.027451 0.490196 0.894118
0.196078 0.486275 0.886275
0.341176 0.486275 0.886275
0.482353 0.486275 0.886275
0.615686 0.486275 0.886275
0.737255 0.490196 0.886275
0.858824 0.490196 0.886275
0.968627 0.494118 0.890196
0.043137 0.615686 0.890196
0.200000 0.611765 0.886275
0.345098 0.611765 0.886275
0.482353 0.611765 0.882353
0.615686 0.611765 0.882353
0.737255 0.611765 0.882353
0.854902 0.615686 0.886275
0.964706 0.615686 0.886275
0.050980 0.737255 0.890196
0.203922 0.733333 0.886275
0.345098 0.733333 0.886275
0.478431 0.729412 0.882353
0.611765 0.729412 0.882353
0.733333 0.733333 0.882353
0.854902 0.733333 0.886275
0.964706 0.733333 0.886275
0.062745 0.850980 0.890196
0.211765 0.850980 0.890196
0.349020 0.850980 0.886275
0.478431 0.850980 0.886275
0.611765 0.847059 0.886275
0.733333 0.850980 0.886275
0.850980 0.850980 0.886275
0.960784 0.850980 0.886275
0.074510 0.960784 0.894118
0.219608 0.956863 0.890196
0.352941 0.956863 0.890196
0.478431 0.956863 0.886275
0.611765 0.956863 0.886275
0.733333 0.956863 0.886275
0.850980 0.960784 0.886275
0.960784 0.960784 0.890196
0.031373 0.023529 0.992157
0.215686 0.011765 0.988235
0.376471 0.011765 0.988235
0.521569 0.023529 0.988235
0.654902 0.027451 0.984314
0.776471 0.031373 0.984314
0.898039 0.035294 0.984314
0.980392 0.043137 0.984314
0.023529 0.196078 0.984314
0.192157 0.192157 0.984314
0.349020 0.196078 0.984314
0.494118 0.200000 0.984314
0.627451 0.200000 0.984314
0.752941 0.203922 0.984314
0.878431 0.211765 0.988235
0.980392 0.215686 0.988235
0.023529 0.352941 0.984314
0.192157 0.349020 0.984314
0.341176 0.349020 0.984314
0.482353 0.352941 0.984314
0.619608 0.352941 0.984314
0.745098 0.356863 0.984314
0.866667 0.360784 0.984314
0.972549 0.360784 0.988235
0.027451 0.490196 0.980392
0.196078 0.486275 0.984314
0.341176 0.486275 0.984314
0.478431 0.486275 0.984314
0.615686 0.486275 0.984314
0.737255 0.490196 0.984314
0.858824 0.490196 0.984314
0.968627 0.494118 0.988235
0.039216 0.615686 0.980392
0.200000 0.611765 0.984314
0.341176 0.611765 0.984314
0.474510 0.611765 0.984314
0.611765 0.611765 0.984314
0.733333 0.615686 0.984314
0.854902 0.615686 0.984314
0.964706 0.615686 0.984314
0.050980 0.733333 0.980392
0.203922 0.733333 0.984314
0.345098 0.733333 0.984314
0.474510 0.733333 0.984314
0.607843 0.733333 0.984314
0.733333 0.733333 0.984314
0.850980 0.733333 0.988235
0.960784 0.733333 0.988235
0.062745 0.850980 0.984314
0.211765 0.850980 0.984314
0.349020 0.850980 0.988235
0.474510 0.847059 0.984314
0.607843 0.847059 0.988235
0.729412 0.850980 0.988235
0.850980 0.850980 0.988235
0.960784 0.850980 0.988235
0.074510 0.956863 0.984314
0.219608 0.956863 0.984314
0.352941 0.956863 0.988235
0.478431 0.956863 0.988235
0.607843 0.956863 0.988235
0.729412 0.956863 0.988235
0.850980 0.960784 0.988235
0.960784 0.960784 0.988235
