nova/tdt-studio/app/Lut_mau/IWLTBAP/1 - LUTs by IWLTBAP (CUBE)/07 - Utility/Panasonic V-Log to Rec.709/U-PANASONIC-V-LOG-V2-BIS-LTR (Corrected by Michael Tivikoff).cube
# Copyright: (C) Copyright 2010-2019 by IWLTBAP SAS
# Cannot be resold, shared or otherwise redistributed
# Website: https://luts.iwltbap.com
TITLE "Panasonic V-Log Version 2 Bis (Utility LOG to Rec.709) by Michael Tivikoff"
LUT_3D_SIZE 64
0.003922 0.003922 0.003922
0.019608 0.003922 0.003922
0.047059 0.003922 0.003922
0.066667 0.003922 0.003922
0.098039 0.003922 0.007843
0.117647 0.007843 0.007843
0.149020 0.007843 0.011765
0.172549 0.007843 0.011765
0.192157 0.007843 0.011765
0.215686 0.011765 0.015686
0.235294 0.011765 0.015686
0.258824 0.011765 0.015686
0.278431 0.011765 0.019608
0.298039 0.011765 0.019608
0.317647 0.011765 0.019608
0.337255 0.015686 0.019608
0.360784 0.015686 0.023529
0.376471 0.015686 0.023529
0.396078 0.015686 0.023529
0.411765 0.015686 0.023529
0.427451 0.015686 0.023529
0.443137 0.015686 0.023529
0.458824 0.015686 0.023529
0.478431 0.015686 0.027451
0.490196 0.015686 0.027451
0.509804 0.015686 0.027451
0.521569 0.015686 0.027451
0.541176 0.015686 0.023529
0.552941 0.015686 0.023529
0.568627 0.015686 0.023529
0.584314 0.015686 0.023529
0.600000 0.015686 0.023529
0.619608 0.015686 0.023529
0.631373 0.015686 0.019608
0.647059 0.015686 0.019608
0.662745 0.015686 0.019608
0.674510 0.015686 0.019608
0.690196 0.015686 0.019608
0.701961 0.015686 0.019608
0.717647 0.015686 0.019608
0.729412 0.019608 0.019608
0.749020 0.019608 0.023529
0.760784 0.019608 0.023529
0.772549 0.023529 0.027451
0.788235 0.023529 0.027451
0.800000 0.023529 0.027451
0.815686 0.027451 0.031373
0.827451 0.027451 0.031373
0.843137 0.027451 0.035294
0.858824 0.027451 0.035294
0.870588 0.031373 0.035294
0.886275 0.031373 0.039216
0.898039 0.031373 0.039216
0.909804 0.035294 0.039216
0.921569 0.035294 0.043137
0.937255 0.035294 0.043137
0.949020 0.035294 0.043137
0.956863 0.039216 0.043137
0.968627 0.039216 0.047059
0.976471 0.039216 0.047059
0.980392 0.039216 0.047059
0.984314 0.043137 0.047059
0.988235 0.043137 0.050980
0.988235 0.043137 0.050980
0.007843 0.019608 0.007843
0.023529 0.019608 0.007843
0.047059 0.019608 0.007843
0.066667 0.019608 0.007843
0.094118 0.019608 0.007843
0.117647 0.019608 0.011765
0.145098 0.019608 0.011765
0.168627 0.019608 0.011765
0.188235 0.023529 0.011765
0.211765 0.023529 0.015686
0.231373 0.023529 0.015686
0.254902 0.023529 0.015686
0.270588 0.023529 0.019608
0.294118 0.023529 0.019608
0.309804 0.027451 0.019608
0.333333 0.027451 0.019608
0.352941 0.027451 0.019608
0.368627 0.027451 0.019608
0.388235 0.027451 0.019608
0.403922 0.027451 0.019608
0.423529 0.027451 0.019608
0.439216 0.027451 0.023529
0.450980 0.031373 0.019608
0.470588 0.031373 0.019608
0.486275 0.031373 0.019608
0.501961 0.031373 0.019608
0.517647 0.031373 0.019608
0.533333 0.031373 0.019608
0.549020 0.031373 0.019608
0.560784 0.031373 0.019608
0.580392 0.031373 0.019608
0.592157 0.031373 0.019608
0.615686 0.031373 0.019608
0.627451 0.031373 0.019608
0.643137 0.031373 0.019608
0.654902 0.031373 0.015686
0.666667 0.031373 0.015686
0.686275 0.031373 0.019608
0.698039 0.035294 0.019608
0.713725 0.035294 0.019608
0.725490 0.035294 0.019608
0.741176 0.035294 0.023529
0.752941 0.039216 0.023529
0.764706 0.039216 0.027451
0.784314 0.039216 0.027451
0.796078 0.043137 0.027451
0.811765 0.043137 0.031373
0.823529 0.043137 0.031373
0.839216 0.047059 0.035294
0.854902 0.047059 0.035294
0.866667 0.047059 0.035294
0.878431 0.047059 0.039216
0.890196 0.050980 0.039216
0.905882 0.050980 0.039216
0.917647 0.050980 0.039216
0.933333 0.050980 0.043137
0.945098 0.054902 0.043137
0.952941 0.054902 0.043137
0.964706 0.054902 0.043137
0.972549 0.054902 0.043137
0.980392 0.058824 0.043137
0.984314 0.058824 0.047059
0.988235 0.058824 0.047059
0.988235 0.058824 0.047059
0.011765 0.043137 0.011765
0.023529 0.043137 0.011765
0.047059 0.039216 0.011765
0.062745 0.039216 0.011765
0.094118 0.039216 0.011765
0.113725 0.039216 0.011765
0.141176 0.039216 0.011765
0.160784 0.039216 0.015686
0.180392 0.039216 0.015686
0.207843 0.039216 0.015686
0.223529 0.039216 0.015686
0.247059 0.043137 0.015686
0.262745 0.043137 0.015686
0.286275 0.043137 0.015686
0.301961 0.043137 0.015686
0.325490 0.043137 0.015686
0.345098 0.047059 0.015686
0.360784 0.047059 0.015686
0.380392 0.047059 0.015686
0.396078 0.047059 0.015686
0.415686 0.047059 0.015686
0.431373 0.050980 0.015686
0.443137 0.050980 0.015686
0.462745 0.050980 0.015686
0.478431 0.050980 0.015686
0.494118 0.050980 0.015686
0.509804 0.050980 0.015686
0.529412 0.054902 0.015686
0.541176 0.054902 0.015686
0.552941 0.054902 0.015686
0.572549 0.054902 0.015686
0.584314 0.054902 0.015686
0.607843 0.054902 0.015686
0.619608 0.058824 0.015686
0.635294 0.058824 0.019608
0.650980 0.058824 0.019608
0.662745 0.058824 0.019608
0.678431 0.058824 0.019608
0.690196 0.062745 0.023529
0.705882 0.062745 0.023529
0.721569 0.062745 0.023529
0.737255 0.062745 0.027451
0.749020 0.066667 0.027451
0.760784 0.066667 0.027451
0.776471 0.066667 0.031373
0.788235 0.066667 0.031373
0.803922 0.066667 0.031373
0.815686 0.070588 0.031373
0.831373 0.070588 0.035294
0.847059 0.070588 0.035294
0.858824 0.070588 0.035294
0.874510 0.074510 0.035294
0.886275 0.074510 0.039216
0.901961 0.074510 0.039216
0.913725 0.074510 0.039216
0.925490 0.078431 0.039216
0.937255 0.078431 0.039216
0.949020 0.078431 0.039216
0.960784 0.078431 0.039216
0.968627 0.078431 0.043137
0.976471 0.082353 0.043137
0.984314 0.082353 0.043137
0.988235 0.082353 0.043137
0.988235 0.082353 0.043137
0.011765 0.062745 0.011765
0.027451 0.062745 0.011765
0.047059 0.058824 0.011765
0.062745 0.058824 0.011765
0.090196 0.058824 0.011765
0.113725 0.054902 0.015686
0.137255 0.054902 0.015686
0.160784 0.054902 0.015686
0.176471 0.058824 0.015686
0.203922 0.058824 0.015686
0.219608 0.058824 0.015686
0.243137 0.058824 0.015686
0.258824 0.058824 0.015686
0.282353 0.058824 0.015686
0.298039 0.058824 0.015686
0.321569 0.062745 0.015686
0.341176 0.062745 0.011765
0.356863 0.062745 0.011765
0.376471 0.062745 0.011765
0.392157 0.062745 0.011765
0.411765 0.066667 0.011765
0.423529 0.066667 0.011765
0.439216 0.066667 0.011765
0.458824 0.066667 0.011765
0.474510 0.066667 0.011765
0.490196 0.070588 0.011765
0.505882 0.070588 0.011765
0.521569 0.070588 0.011765
0.537255 0.070588 0.011765
0.549020 0.070588 0.011765
0.568627 0.074510 0.011765
0.580392 0.074510 0.015686
0.603922 0.074510 0.015686
0.615686 0.074510 0.015686
0.631373 0.078431 0.019608
0.647059 0.078431 0.019608
0.658824 0.078431 0.019608
0.674510 0.078431 0.023529
0.686275 0.078431 0.023529
0.701961 0.082353 0.023529
0.717647 0.082353 0.027451
0.733333 0.082353 0.027451
0.745098 0.082353 0.027451
0.756863 0.086275 0.027451
0.772549 0.086275 0.031373
0.784314 0.086275 0.031373
0.800000 0.086275 0.031373
0.811765 0.086275 0.031373
0.827451 0.090196 0.035294
0.843137 0.090196 0.035294
0.854902 0.090196 0.035294
0.870588 0.090196 0.035294
0.882353 0.090196 0.035294
0.898039 0.094118 0.035294
0.909804 0.094118 0.035294
0.921569 0.094118 0.039216
0.933333 0.094118 0.039216
0.945098 0.094118 0.039216
0.956863 0.098039 0.039216
0.968627 0.098039 0.039216
0.976471 0.098039 0.039216
0.980392 0.098039 0.039216
0.984314 0.098039 0.039216
0.988235 0.098039 0.039216
0.015686 0.090196 0.015686
0.027451 0.090196 0.015686
0.043137 0.086275 0.015686
0.062745 0.086275 0.011765
0.090196 0.086275 0.011765
0.113725 0.086275 0.011765
0.137255 0.086275 0.011765
0.156863 0.086275 0.011765
0.176471 0.086275 0.011765
0.200000 0.086275 0.011765
0.219608 0.086275 0.011765
0.243137 0.086275 0.011765
0.258824 0.086275 0.011765
0.278431 0.086275 0.011765
0.294118 0.086275 0.011765
0.317647 0.090196 0.011765
0.337255 0.090196 0.011765
0.352941 0.090196 0.011765
0.372549 0.090196 0.011765
0.388235 0.090196 0.007843
0.407843 0.090196 0.007843
0.423529 0.090196 0.007843
0.435294 0.094118 0.011765
0.454902 0.094118 0.011765
0.470588 0.094118 0.011765
0.486275 0.094118 0.011765
0.501961 0.094118 0.011765
0.517647 0.098039 0.015686
0.533333 0.098039 0.015686
0.545098 0.098039 0.015686
0.564706 0.098039 0.015686
0.576471 0.098039 0.019608
0.600000 0.098039 0.019608
0.611765 0.101961 0.019608
0.627451 0.101961 0.023529
0.643137 0.101961 0.023529
0.654902 0.101961 0.023529
0.670588 0.105882 0.023529
0.682353 0.105882 0.027451
0.698039 0.105882 0.027451
0.713725 0.105882 0.027451
0.729412 0.105882 0.027451
0.741176 0.105882 0.027451
0.752941 0.109804 0.031373
0.768627 0.109804 0.031373
0.780392 0.109804 0.031373
0.796078 0.109804 0.031373
0.807843 0.109804 0.031373
0.823529 0.113725 0.031373
0.839216 0.113725 0.031373
0.850980 0.113725 0.031373
0.866667 0.113725 0.031373
0.878431 0.113725 0.031373
0.894118 0.113725 0.031373
0.905882 0.117647 0.031373
0.917647 0.117647 0.035294
0.929412 0.117647 0.035294
0.941176 0.117647 0.035294
0.956863 0.117647 0.035294
0.964706 0.117647 0.035294
0.972549 0.121569 0.035294
0.980392 0.121569 0.035294
0.984314 0.121569 0.039216
0.988235 0.121569 0.039216
0.015686 0.109804 0.015686
0.027451 0.109804 0.015686
0.043137 0.105882 0.015686
0.058824 0.105882 0.015686
0.090196 0.105882 0.011765
0.109804 0.105882 0.011765
0.137255 0.105882 0.011765
0.156863 0.105882 0.011765
0.176471 0.105882 0.011765
0.200000 0.105882 0.007843
0.215686 0.105882 0.007843
0.239216 0.105882 0.007843
0.254902 0.105882 0.007843
0.278431 0.105882 0.007843
0.294118 0.109804 0.007843
0.313725 0.109804 0.007843
0.337255 0.109804 0.007843
0.349020 0.109804 0.007843
0.368627 0.109804 0.007843
0.384314 0.109804 0.007843
0.403922 0.109804 0.007843
0.419608 0.109804 0.007843
0.435294 0.113725 0.007843
0.450980 0.113725 0.007843
0.466667 0.113725 0.011765
0.486275 0.113725 0.011765
0.498039 0.113725 0.015686
0.517647 0.113725 0.015686
0.529412 0.113725 0.015686
0.545098 0.117647 0.019608
0.560784 0.117647 0.019608
0.576471 0.117647 0.019608
0.596078 0.117647 0.023529
0.607843 0.117647 0.023529
0.627451 0.121569 0.023529
0.639216 0.121569 0.023529
0.650980 0.121569 0.027451
0.666667 0.121569 0.027451
0.682353 0.121569 0.027451
0.698039 0.121569 0.027451
0.709804 0.125490 0.027451
0.725490 0.125490 0.027451
0.737255 0.125490 0.027451
0.749020 0.125490 0.031373
0.764706 0.125490 0.031373
0.776471 0.129412 0.031373
0.792157 0.129412 0.031373
0.803922 0.129412 0.031373
0.819608 0.129412 0.031373
0.835294 0.129412 0.031373
0.847059 0.129412 0.031373
0.862745 0.133333 0.031373
0.874510 0.133333 0.031373
0.890196 0.133333 0.031373
0.901961 0.133333 0.031373
0.917647 0.133333 0.031373
0.929412 0.133333 0.031373
0.937255 0.133333 0.031373
0.952941 0.137255 0.031373
0.960784 0.137255 0.031373
0.972549 0.137255 0.035294
0.980392 0.137255 0.035294
0.984314 0.137255 0.035294
0.988235 0.137255 0.035294
0.015686 0.137255 0.015686
0.027451 0.133333 0.015686
0.043137 0.133333 0.011765
0.062745 0.129412 0.011765
0.090196 0.129412 0.011765
0.113725 0.129412 0.011765
0.137255 0.129412 0.007843
0.156863 0.129412 0.007843
0.176471 0.129412 0.007843
0.200000 0.129412 0.007843
0.215686 0.129412 0.007843
0.239216 0.129412 0.007843
0.254902 0.129412 0.007843
0.274510 0.133333 0.007843
0.294118 0.133333 0.007843
0.313725 0.133333 0.007843
0.333333 0.133333 0.007843
0.349020 0.133333 0.007843
0.368627 0.133333 0.011765
0.384314 0.133333 0.011765
0.403922 0.133333 0.011765
0.415686 0.133333 0.011765
0.431373 0.133333 0.011765
0.450980 0.137255 0.015686
0.462745 0.137255 0.015686
0.482353 0.137255 0.015686
0.498039 0.137255 0.015686
0.513725 0.137255 0.019608
0.529412 0.137255 0.019608
0.541176 0.137255 0.019608
0.560784 0.141176 0.019608
0.572549 0.141176 0.023529
0.592157 0.141176 0.023529
0.607843 0.141176 0.023529
0.623529 0.141176 0.023529
0.635294 0.141176 0.023529
0.647059 0.145098 0.023529
0.666667 0.145098 0.023529
0.678431 0.145098 0.027451
0.694118 0.145098 0.027451
0.705882 0.145098 0.027451
0.721569 0.145098 0.027451
0.733333 0.149020 0.027451
0.749020 0.149020 0.027451
0.764706 0.149020 0.027451
0.776471 0.149020 0.027451
0.792157 0.149020 0.027451
0.803922 0.149020 0.027451
0.819608 0.152941 0.027451
0.835294 0.152941 0.027451
0.847059 0.152941 0.027451
0.858824 0.152941 0.027451
0.870588 0.152941 0.027451
0.886275 0.152941 0.027451
0.898039 0.152941 0.027451
0.913725 0.156863 0.031373
0.925490 0.156863 0.031373
0.937255 0.156863 0.031373
0.949020 0.156863 0.031373
0.960784 0.156863 0.031373
0.968627 0.156863 0.035294
0.976471 0.156863 0.035294
0.984314 0.160784 0.035294
0.984314 0.160784 0.039216
0.015686 0.152941 0.015686
0.027451 0.152941 0.011765
0.043137 0.152941 0.011765
0.062745 0.149020 0.011765
0.090196 0.149020 0.007843
0.113725 0.149020 0.007843
0.137255 0.149020 0.007843
0.156863 0.149020 0.007843
0.176471 0.149020 0.007843
0.196078 0.149020 0.007843
0.215686 0.149020 0.007843
0.239216 0.149020 0.007843
0.254902 0.149020 0.007843
0.274510 0.149020 0.007843
0.290196 0.149020 0.007843
0.313725 0.149020 0.007843
0.333333 0.149020 0.007843
0.349020 0.149020 0.011765
0.368627 0.152941 0.011765
0.380392 0.152941 0.011765
0.400000 0.152941 0.015686
0.415686 0.152941 0.015686
0.431373 0.152941 0.015686
0.447059 0.152941 0.015686
0.462745 0.152941 0.019608
0.482353 0.152941 0.019608
0.494118 0.156863 0.019608
0.513725 0.156863 0.019608
0.525490 0.156863 0.019608
0.541176 0.156863 0.023529
0.556863 0.156863 0.023529
0.568627 0.156863 0.023529
0.592157 0.156863 0.023529
0.603922 0.156863 0.023529
0.619608 0.160784 0.023529
0.635294 0.160784 0.023529
0.647059 0.160784 0.023529
0.662745 0.160784 0.023529
0.674510 0.160784 0.023529
0.694118 0.160784 0.023529
0.705882 0.164706 0.023529
0.721569 0.164706 0.023529
0.733333 0.164706 0.023529
0.745098 0.164706 0.023529
0.760784 0.164706 0.023529
0.772549 0.164706 0.023529
0.788235 0.168627 0.023529
0.800000 0.168627 0.023529
0.815686 0.168627 0.023529
0.831373 0.168627 0.023529
0.843137 0.168627 0.023529
0.858824 0.168627 0.023529
0.870588 0.168627 0.027451
0.886275 0.172549 0.027451
0.898039 0.172549 0.027451
0.909804 0.172549 0.027451
0.921569 0.172549 0.031373
0.933333 0.172549 0.031373
0.949020 0.172549 0.031373
0.956863 0.172549 0.035294
0.968627 0.172549 0.035294
0.976471 0.176471 0.035294
0.984314 0.176471 0.035294
0.984314 0.176471 0.039216
0.011765 0.172549 0.011765
0.027451 0.172549 0.011765
0.047059 0.168627 0.011765
0.062745 0.168627 0.007843
0.090196 0.168627 0.007843
0.113725 0.168627 0.007843
0.137255 0.168627 0.007843
0.156863 0.164706 0.007843
0.176471 0.164706 0.007843
0.196078 0.164706 0.007843
0.215686 0.164706 0.007843
0.235294 0.164706 0.007843
0.254902 0.168627 0.007843
0.274510 0.168627 0.007843
0.290196 0.168627 0.007843
0.309804 0.168627 0.011765
0.333333 0.168627 0.011765
0.345098 0.168627 0.011765
0.364706 0.168627 0.015686
0.380392 0.168627 0.015686
0.400000 0.168627 0.015686
0.415686 0.168627 0.015686
0.427451 0.168627 0.019608
0.447059 0.168627 0.019608
0.462745 0.172549 0.019608
0.478431 0.172549 0.019608
0.494118 0.172549 0.019608
0.509804 0.172549 0.019608
0.525490 0.172549 0.023529
0.537255 0.172549 0.023529
0.556863 0.172549 0.023529
0.568627 0.172549 0.023529
0.588235 0.176471 0.023529
0.603922 0.176471 0.023529
0.619608 0.176471 0.023529
0.631373 0.176471 0.023529
0.647059 0.176471 0.023529
0.662745 0.176471 0.023529
0.674510 0.176471 0.023529
0.690196 0.180392 0.023529
0.701961 0.180392 0.023529
0.717647 0.180392 0.023529
0.729412 0.180392 0.023529
0.745098 0.180392 0.023529
0.760784 0.180392 0.023529
0.772549 0.180392 0.023529
0.788235 0.184314 0.023529
0.800000 0.184314 0.023529
0.815686 0.184314 0.023529
0.831373 0.184314 0.023529
0.839216 0.184314 0.023529
0.854902 0.184314 0.023529
0.866667 0.184314 0.027451
0.882353 0.188235 0.027451
0.894118 0.188235 0.027451
0.909804 0.188235 0.031373
0.921569 0.188235 0.031373
0.933333 0.188235 0.031373
0.945098 0.188235 0.035294
0.956863 0.188235 0.035294
0.964706 0.188235 0.035294
0.972549 0.188235 0.035294
0.980392 0.192157 0.039216
0.984314 0.192157 0.039216
0.011765 0.196078 0.011765
0.023529 0.192157 0.011765
0.047059 0.192157 0.007843
0.066667 0.192157 0.007843
0.094118 0.192157 0.007843
0.113725 0.188235 0.007843
0.137255 0.188235 0.007843
0.156863 0.188235 0.007843
0.176471 0.188235 0.007843
0.196078 0.188235 0.011765
0.215686 0.188235 0.011765
0.235294 0.188235 0.011765
0.254902 0.188235 0.011765
0.274510 0.188235 0.011765
0.290196 0.188235 0.011765
0.309804 0.188235 0.015686
0.329412 0.188235 0.015686
0.345098 0.192157 0.015686
0.364706 0.192157 0.015686
0.380392 0.192157 0.019608
0.400000 0.192157 0.019608
0.411765 0.192157 0.019608
0.427451 0.192157 0.019608
0.447059 0.192157 0.019608
0.458824 0.192157 0.019608
0.478431 0.192157 0.019608
0.490196 0.192157 0.019608
0.509804 0.192157 0.019608
0.521569 0.196078 0.019608
0.537255 0.196078 0.019608
0.552941 0.196078 0.019608
0.568627 0.196078 0.019608
0.588235 0.196078 0.019608
0.600000 0.196078 0.019608
0.619608 0.196078 0.019608
0.631373 0.196078 0.019608
0.643137 0.196078 0.019608
0.658824 0.200000 0.019608
0.670588 0.200000 0.019608
0.690196 0.200000 0.019608
0.701961 0.200000 0.019608
0.717647 0.200000 0.019608
0.729412 0.200000 0.019608
0.741176 0.200000 0.019608
0.756863 0.200000 0.023529
0.768627 0.203922 0.023529
0.784314 0.203922 0.023529
0.796078 0.203922 0.023529
0.811765 0.203922 0.023529
0.827451 0.203922 0.027451
0.839216 0.203922 0.027451
0.854902 0.207843 0.027451
0.866667 0.207843 0.027451
0.882353 0.207843 0.031373
0.890196 0.207843 0.031373
0.905882 0.207843 0.031373
0.917647 0.207843 0.035294
0.929412 0.207843 0.035294
0.945098 0.207843 0.035294
0.952941 0.211765 0.035294
0.964706 0.211765 0.039216
0.972549 0.211765 0.039216
0.980392 0.211765 0.039216
0.984314 0.211765 0.039216
0.007843 0.211765 0.007843
0.023529 0.211765 0.007843
0.047059 0.207843 0.007843
0.066667 0.207843 0.007843
0.094118 0.207843 0.007843
0.113725 0.207843 0.007843
0.137255 0.207843 0.007843
0.156863 0.207843 0.007843
0.176471 0.203922 0.011765
0.196078 0.203922 0.011765
0.215686 0.203922 0.011765
0.235294 0.203922 0.015686
0.250980 0.203922 0.015686
0.274510 0.203922 0.015686
0.290196 0.207843 0.015686
0.309804 0.207843 0.015686
0.329412 0.207843 0.019608
0.345098 0.207843 0.019608
0.364706 0.207843 0.019608
0.380392 0.207843 0.019608
0.396078 0.207843 0.019608
0.411765 0.207843 0.019608
0.427451 0.207843 0.019608
0.443137 0.207843 0.019608
0.458824 0.207843 0.019608
0.478431 0.207843 0.019608
0.490196 0.207843 0.019608
0.509804 0.207843 0.019608
0.521569 0.211765 0.019608
0.533333 0.211765 0.019608
0.552941 0.211765 0.019608
0.564706 0.211765 0.019608
0.588235 0.211765 0.019608
0.600000 0.211765 0.019608
0.615686 0.211765 0.019608
0.627451 0.211765 0.019608
0.643137 0.211765 0.019608
0.658824 0.215686 0.019608
0.670588 0.215686 0.019608
0.686275 0.215686 0.019608
0.698039 0.215686 0.019608
0.713725 0.215686 0.019608
0.725490 0.215686 0.019608
0.741176 0.215686 0.019608
0.756863 0.215686 0.023529
0.768627 0.219608 0.023529
0.784314 0.219608 0.023529
0.796078 0.219608 0.023529
0.811765 0.219608 0.027451
0.827451 0.219608 0.027451
0.835294 0.219608 0.027451
0.850980 0.219608 0.031373
0.862745 0.223529 0.031373
0.878431 0.223529 0.031373
0.890196 0.223529 0.031373
0.905882 0.223529 0.035294
0.917647 0.223529 0.035294
0.929412 0.223529 0.035294
0.941176 0.223529 0.035294
0.952941 0.223529 0.039216
0.964706 0.227451 0.039216
0.972549 0.227451 0.039216
0.980392 0.227451 0.039216
0.984314 0.227451 0.039216
0.011765 0.231373 0.011765
0.027451 0.231373 0.011765
0.050980 0.231373 0.011765
0.070588 0.231373 0.011765
0.094118 0.227451 0.011765
0.113725 0.227451 0.011765
0.137255 0.227451 0.011765
0.156863 0.227451 0.011765
0.176471 0.227451 0.015686
0.200000 0.227451 0.015686
0.215686 0.227451 0.015686
0.235294 0.227451 0.015686
0.250980 0.227451 0.015686
0.274510 0.227451 0.015686
0.290196 0.227451 0.019608
0.309804 0.227451 0.019608
0.329412 0.227451 0.019608
0.345098 0.227451 0.019608
0.364706 0.227451 0.019608
0.376471 0.227451 0.019608
0.396078 0.227451 0.019608
0.411765 0.227451 0.019608
0.423529 0.227451 0.019608
0.443137 0.227451 0.019608
0.458824 0.231373 0.019608
0.474510 0.231373 0.019608
0.490196 0.231373 0.019608
0.505882 0.231373 0.015686
0.521569 0.231373 0.015686
0.533333 0.231373 0.015686
0.549020 0.231373 0.015686
0.564706 0.231373 0.015686
0.584314 0.231373 0.015686
0.600000 0.231373 0.015686
0.615686 0.231373 0.015686
0.627451 0.231373 0.015686
0.639216 0.235294 0.019608
0.654902 0.235294 0.019608
0.670588 0.235294 0.019608
0.686275 0.235294 0.019608
0.698039 0.235294 0.019608
0.713725 0.235294 0.023529
0.725490 0.235294 0.023529
0.737255 0.235294 0.023529
0.752941 0.235294 0.023529
0.764706 0.239216 0.027451
0.780392 0.239216 0.027451
0.792157 0.239216 0.027451
0.807843 0.239216 0.027451
0.823529 0.239216 0.031373
0.835294 0.239216 0.031373
0.850980 0.239216 0.031373
0.862745 0.243137 0.031373
0.878431 0.243137 0.035294
0.890196 0.243137 0.035294
0.901961 0.243137 0.035294
0.913725 0.243137 0.035294
0.925490 0.243137 0.035294
0.941176 0.243137 0.039216
0.952941 0.243137 0.039216
0.960784 0.247059 0.039216
0.968627 0.247059 0.039216
0.980392 0.247059 0.039216
0.984314 0.247059 0.039216
0.011765 0.247059 0.011765
0.027451 0.247059 0.011765
0.050980 0.247059 0.011765
0.070588 0.247059 0.011765
0.098039 0.243137 0.015686
0.113725 0.243137 0.015686
0.141176 0.243137 0.015686
0.156863 0.243137 0.015686
0.176471 0.243137 0.015686
0.200000 0.243137 0.019608
0.215686 0.243137 0.019608
0.235294 0.243137 0.019608
0.250980 0.243137 0.019608
0.274510 0.243137 0.019608
0.290196 0.243137 0.019608
0.309804 0.243137 0.019608
0.329412 0.243137 0.019608
0.345098 0.243137 0.019608
0.364706 0.243137 0.019608
0.376471 0.243137 0.019608
0.396078 0.243137 0.019608
0.411765 0.243137 0.019608
0.423529 0.243137 0.015686
0.443137 0.243137 0.015686
0.454902 0.243137 0.015686
0.474510 0.247059 0.015686
0.490196 0.247059 0.015686
0.505882 0.247059 0.015686
0.517647 0.247059 0.015686
0.533333 0.247059 0.015686
0.549020 0.247059 0.015686
0.560784 0.247059 0.015686
0.584314 0.247059 0.015686
0.596078 0.247059 0.015686
0.611765 0.247059 0.015686
0.627451 0.247059 0.015686
0.639216 0.247059 0.015686
0.654902 0.250980 0.019608
0.666667 0.250980 0.019608
0.682353 0.250980 0.019608
0.698039 0.250980 0.023529
0.713725 0.250980 0.023529
0.725490 0.250980 0.023529
0.737255 0.250980 0.027451
0.752941 0.250980 0.027451
0.764706 0.250980 0.027451
0.780392 0.254902 0.027451
0.792157 0.254902 0.031373
0.807843 0.254902 0.031373
0.823529 0.254902 0.031373
0.835294 0.254902 0.031373
0.850980 0.254902 0.035294
0.858824 0.254902 0.035294
0.874510 0.254902 0.035294
0.886275 0.258824 0.035294
0.901961 0.258824 0.035294
0.913725 0.258824 0.035294
0.925490 0.258824 0.039216
0.937255 0.258824 0.039216
0.949020 0.258824 0.039216
0.960784 0.258824 0.039216
0.968627 0.258824 0.039216
0.976471 0.258824 0.039216
0.984314 0.262745 0.039216
0.015686 0.270588 0.015686
0.031373 0.266667 0.015686
0.054902 0.266667 0.015686
0.070588 0.266667 0.015686
0.098039 0.266667 0.015686
0.117647 0.266667 0.019608
0.141176 0.262745 0.019608
0.156863 0.262745 0.019608
0.176471 0.262745 0.019608
0.200000 0.262745 0.019608
0.215686 0.262745 0.019608
0.235294 0.262745 0.019608
0.250980 0.262745 0.019608
0.274510 0.262745 0.019608
0.290196 0.262745 0.019608
0.309804 0.262745 0.019608
0.329412 0.262745 0.015686
0.345098 0.262745 0.015686
0.360784 0.262745 0.015686
0.376471 0.262745 0.015686
0.396078 0.262745 0.015686
0.407843 0.262745 0.015686
0.423529 0.262745 0.015686
0.443137 0.262745 0.015686
0.454902 0.262745 0.015686
0.474510 0.266667 0.015686
0.486275 0.266667 0.015686
0.505882 0.266667 0.015686
0.517647 0.266667 0.015686
0.529412 0.266667 0.015686
0.549020 0.266667 0.015686
0.560784 0.266667 0.015686
0.584314 0.266667 0.015686
0.596078 0.266667 0.015686
0.611765 0.266667 0.019608
0.623529 0.266667 0.019608
0.639216 0.266667 0.019608
0.654902 0.266667 0.023529
0.666667 0.270588 0.023529
0.682353 0.270588 0.023529
0.694118 0.270588 0.023529
0.709804 0.270588 0.027451
0.721569 0.270588 0.027451
0.733333 0.270588 0.027451
0.749020 0.270588 0.027451
0.760784 0.270588 0.031373
0.776471 0.270588 0.031373
0.788235 0.274510 0.031373
