nova/tdt-studio/app/Lut_mau/IWLTBAP/1 - LUTs by IWLTBAP (CUBE)/07 - Utility/Panasonic V-Log to Rec.709/U-PANASONIC-V-LOG-V2-BIS-LTR (Corrected by Michael Tivikoff).cube
# Copyright: (C) Copyright 2010-2019 by IWLTBAP SAS
# Cannot be resold, shared or otherwise redistributed
# Website: https://luts.iwltbap.com
TITLE "Panasonic V-Log Version 2 Bis (Utility LOG to Rec.709) by Michael Tivikoff"
LUT_3D_SIZE 4
0.003922 0.003922 0.003922
0.443137 0.015686 0.023529
0.760784 0.019608 0.023529
0.988235 0.043137 0.050980
0.023529 0.403922 0.019608
0.407843 0.396078 0.027451
0.713725 0.400000 0.027451
0.980392 0.403922 0.043137
0.054902 0.705882 0.050980
0.411765 0.698039 0.047059
0.709804 0.698039 0.050980
0.976471 0.698039 0.062745
0.082353 0.964706 0.082353
0.419608 0.960784 0.078431
0.713725 0.960784 0.078431
0.972549 0.960784 0.086275
0.011765 0.011765 0.443137
0.435294 0.011765 0.435294
0.749020 0.023529 0.439216
0.988235 0.039216 0.443137
0.019608 0.400000 0.411765
0.400000 0.392157 0.407843
0.709804 0.396078 0.411765
0.976471 0.403922 0.419608
0.047059 0.701961 0.423529
0.403922 0.694118 0.419608
0.705882 0.694118 0.419608
0.968627 0.698039 0.423529
0.078431 0.960784 0.435294
0.407843 0.960784 0.431373
0.705882 0.960784 0.431373
0.968627 0.960784 0.435294
0.023529 0.015686 0.780392
0.431373 0.007843 0.760784
0.745098 0.027451 0.756863
0.984314 0.039216 0.756863
0.023529 0.400000 0.729412
0.392157 0.392157 0.721569
0.705882 0.396078 0.725490
0.972549 0.403922 0.729412
0.047059 0.698039 0.729412
0.388235 0.694118 0.721569
0.698039 0.694118 0.721569
0.968627 0.698039 0.725490
0.074510 0.960784 0.733333
0.396078 0.960784 0.729412
0.698039 0.956863 0.729412
0.964706 0.960784 0.733333
0.031373 0.023529 0.992157
0.423529 0.015686 0.988235
0.737255 0.031373 0.984314
0.980392 0.043137 0.984314
0.027451 0.400000 0.984314
0.384314 0.396078 0.984314
0.701961 0.400000 0.984314
0.972549 0.403922 0.988235
0.047059 0.698039 0.984314
0.384314 0.694118 0.984314
0.694118 0.694118 0.984314
0.964706 0.698039 0.988235
0.074510 0.956863 0.984314
0.392157 0.956863 0.988235
0.694118 0.956863 0.988235
0.960784 0.960784 0.988235
