nova/tdt-studio/app/Lut_mau/IWLTBAP/2 - LUTs by IWLTBAP (3DL)/01 - Standard/GoPro & Drones/IWLTBAP Aptira.3dl
# Copyright: (C) Copyright 2010-2018 by IWLTBAP
# LUT created by IWLTBAP for GoPro Pack
0 64 128 192 256 320 384 448 512 576 640 704 768 832 896 960 1023
0 1 2
10 17 115
21 36 233
31 64 357
43 97 479
57 128 602
71 154 724
82 176 846
84 193 975
86 203 1106
91 223 1243
108 257 1386
125 294 1533
144 331 1682
163 368 1832
181 404 1975
204 441 2116
14 134 56
17 147 176
28 176 307
40 201 430
51 228 550
63 253 674
74 275 801
80 291 935
80 306 1069
83 321 1206
97 351 1347
117 386 1490
133 419 1632
152 453 1776
170 487 1917
188 521 2063
212 565 2212
33 289 132
29 299 253
38 322 393
51 348 537
63 371 670
70 386 789
71 399 911
73 412 1039
77 428 1175
90 455 1317
107 488 1460
125 521 1600
143 553 1738
161 587 1876
179 621 2013
198 655 2147
218 692 2285
54 456 223
47 464 348
48 479 491
62 502 637
70 522 793
70 536 932
66 544 1058
68 558 1181
81 584 1314
101 616 1454
121 647 1588
140 679 1726
157 713 1863
175 747 1995
192 783 2125
211 817 2253
229 851 2385
73 637 309
65 646 442
63 657 588
71 685 751
71 698 900
68 706 1048
70 721 1188
83 745 1325
97 769 1458
113 792 1583
130 818 1714
152 851 1847
170 884 1974
188 917 2100
206 951 2229
224 986 2359
242 1018 2486
87 836 399
83 848 540
81 862 697
78 882 866
76 897 1013
71 901 1147
80 908 1286
96 931 1428
114 957 1569
130 982 1703
144 1005 1828
160 1028 1948
179 1061 2078
201 1099 2211
220 1133 2338
240 1170 2471
258 1201 2596
94 1051 486
86 1064 644
83 1081 811
80 1105 985
76 1113 1133
81 1122 1270
96 1130 1401
114 1145 1540
130 1166 1675
146 1192 1807
162 1215 1936
178 1238 2062
193 1259 2185
210 1283 2313
233 1322 2455
252 1351 2572
270 1379 2688
96 1273 586
83 1285 756
81 1309 937
84 1335 1108
86 1348 1261
96 1359 1401
112 1367 1530
127 1375 1656
144 1389 1788
162 1408 1919
179 1426 2050
196 1445 2177
211 1463 2299
226 1478 2415
240 1492 2526
256 1512 2645
274 1532 2762
118 1487 695
105 1503 861
101 1521 1039
102 1542 1204
104 1556 1358
106 1563 1498
120 1570 1631
137 1577 1760
154 1588 1885
171 1603 2017
188 1617 2145
204 1629 2266
220 1643 2382
235 1658 2497
249 1670 2611
264 1679 2722
278 1685 2829
159 1701 794
145 1711 950
134 1722 1120
132 1743 1290
134 1761 1449
134 1767 1589
138 1772 1724
152 1780 1855
169 1786 1978
184 1793 2098
200 1803 2220
215 1811 2338
231 1822 2456
247 1836 2574
263 1846 2690
278 1851 2804
294 1855 2917
209 1915 888
192 1918 1033
178 1924 1193
169 1937 1363
169 1954 1522
169 1964 1670
170 1972 1807
174 1976 1933
187 1982 2059
202 1987 2177
217 1992 2292
231 1996 2409
246 2001 2527
261 2008 2643
279 2016 2763
295 2020 2877
310 2019 2986
287 2129 977
259 2127 1111
239 2133 1262
220 2140 1427
210 2151 1591
209 2165 1745
209 2172 1885
209 2172 2010
211 2171 2130
223 2175 2251
237 2180 2368
251 2184 2483
264 2183 2596
279 2185 2713
293 2184 2824
308 2182 2932
322 2175 3035
390 2320 1047
322 2311 1161
292 2311 1304
267 2318 1458
249 2330 1626
242 2347 1796
242 2358 1944
243 2362 2077
243 2362 2201
245 2358 2319
257 2361 2438
270 2362 2552
283 2363 2663
297 2362 2774
309 2355 2880
321 2345 2981
334 2333 3081
528 2515 1113
399 2492 1215
351 2482 1339
317 2483 1485
290 2488 1640
275 2500 1808
270 2512 1967
270 2520 2110
271 2523 2241
272 2525 2366
274 2522 2485
285 2524 2601
298 2524 2714
310 2523 2826
323 2519 2933
335 2509 3033
347 2496 3130
743 2707 1165
559 2674 1270
424 2660 1380
379 2652 1516
342 2652 1657
317 2655 1809
303 2665 1977
299 2677 2129
298 2679 2264
298 2680 2391
298 2678 2513
299 2674 2629
309 2675 2745
322 2676 2860
334 2673 2971
347 2664 3078
359 2648 3175
884 2907 1240
784 2857 1316
610 2828 1419
449 2820 1540
406 2814 1676
367 2810 1812
341 2813 1964
330 2824 2128
326 2829 2273
326 2834 2408
324 2833 2535
324 2829 2655
324 2822 2771
331 2821 2887
344 2818 3002
358 2812 3114
369 2798 3216
966 3101 1320
886 3049 1388
783 3002 1470
594 2982 1574
472 2975 1702
425 2969 1837
388 2964 1972
364 2966 2123
353 2971 2277
350 2976 2416
349 2977 2550
349 2979 2679
349 2975 2800
349 2966 2915
356 2964 3032
369 2957 3149
380 2945 3255
112 20 8
108 29 129
109 50 250
120 77 372
133 106 490
143 138 613
154 165 737
162 188 861
159 205 989
158 215 1116
162 229 1247
174 261 1386
190 297 1530
207 332 1677
223 369 1824
241 404 1965
261 439 2102
112 145 53
110 158 177
113 180 300
127 208 424
141 236 548
153 264 675
157 291 810
155 315 952
157 330 1091
162 350 1231
175 380 1374
190 414 1517
205 446 1658
220 478 1798
236 510 1937
255 544 2077
276 580 2214
135 297 132
128 309 253
131 330 385
141 353 522
149 375 652
151 398 783
150 419 919
153 440 1062
156 457 1199
168 487 1343
182 519 1487
197 551 1626
212 582 1763
228 615 1900
244 648 2036
263 683 2170
284 724 2311
173 467 223
157 477 348
147 489 484
153 510 632
151 535 788
146 555 934
146 572 1068
148 588 1196
159 614 1333
177 648 1472
192 677 1609
209 710 1750
225 742 1887
241 778 2020
257 813 2149
274 847 2277
292 881 2408
208 658 316
174 666 445
155 673 589
148 694 746
148 712 898
146 733 1061
149 753 1209
160 775 1347
172 799 1478
186 822 1607
203 851 1741
220 882 1869
236 917 1996
252 950 2124
269 985 2255
286 1018 2386
304 1051 2516
209 863 406
161 873 545
154 879 698
152 897 864
150 917 1020
150 932 1168
159 945 1316
173 967 1459
188 993 1599
200 1016 1730
213 1038 1852
227 1064 1977
245 1097 2105
265 1134 2238
284 1170 2369
301 1204 2499
317 1232 2621
211 1087 495
169 1095 650
156 1103 813
155 1123 986
153 1141 1149
159 1157 1296
173 1168 1430
187 1186 1572
201 1208 1707
215 1233 1841
229 1256 1971
243 1276 2096
257 1294 2217
274 1320 2347
294 1355 2477
312 1384 2593
328 1411 2710
201 1316 602
168 1322 761
159 1334 939
162 1356 1112
163 1377 1276
171 1394 1425
184 1403 1555
198 1413 1685
214 1428 1819
229 1446 1952
244 1463 2081
259 1479 2206
273 1495 2326
286 1510 2440
299 1524 2551
315 1542 2669
332 1563 2786
206 1525 708
190 1538 870
179 1550 1043
179 1568 1212
180 1587 1373
181 1598 1521
191 1608 1658
206 1614 1787
221 1624 1911
236 1637 2042
252 1651 2169
267 1663 2290
280 1677 2407
294 1690 2521
308 1700 2634
322 1706 2743
336 1711 2852
259 1742 810
229 1749 960
215 1758 1125
207 1772 1299
208 1793 1462
208 1804 1611
210 1816 1753
222 1822 1882
236 1825 2004
250 1831 2123
264 1839 2245
278 1847 2364
292 1857 2481
307 1869 2598
322 1876 2712
336 1879 2824
351 1880 2934
317 1958 908
280 1953 1041
260 1960 1197
244 1968 1365
238 1983 1530
238 2000 1687
240 2014 1832
243 2017 1960
253 2023 2086
267 2028 2204
280 2030 2318
294 2034 2435
307 2037 2552
321 2043 2666
337 2048 2783
351 2048 2894
365 2044 2999
495 2173 1009
368 2163 1124
329 2163 1265
300 2169 1426
282 2178 1592
275 2190 1750
274 2201 1894
274 2208 2027
276 2210 2152
286 2212 2274
299 2215 2390
312 2219 2505
324 2217 2617
338 2219 2733
351 2216 2841
365 2211 2947
377 2201 3047
736 2372 1083
541 2353 1189
410 2347 1316
359 2351 1463
331 2358 1624
314 2368 1791
311 2381 1944
311 2393 2087
310 2396 2217
311 2391 2336
320 2393 2456
332 2393 2570
344 2394 2681
356 2392 2793
368 2385 2899
379 2374 2998
391 2359 3096
914 2571 1143
742 2539 1254
500 2526 1364
422 2521 1499
384 2525 1649
358 2528 1806
346 2539 1968
342 2549 2113
341 2556 2252
341 2561 2382
342 2558 2502
350 2558 2620
362 2557 2733
372 2553 2843
383 2547 2950
394 2537 3052
406 2521 3148
1058 2773 1220
951 2728 1309
764 2704 1418
538 2693 1538
446 2692 1680
411 2695 1825
387 2697 1981
377 2705 2134
373 2714 2277
372 2721 2411
370 2718 2533
368 2711 2649
376 2710 2765
388 2710 2881
399 2704 2991
409 2694 3096
419 2674 3193
1173 2982 1313
1100 2926 1376
992 2884 1472
779 2866 1580
569 2859 1707
472 2857 1844
440 2859 1986
416 2861 2142
406 2867 2290
403 2875 2430
400 2876 2557
399 2872 2678
398 2865 2795
403 2861 2912
413 2857 3027
424 2847 3135
434 2830 3238
1275 3177 1379
1200 3136 1463
1135 3079 1532
1011 3039 1633
734 3025 1742
545 3019 1874
498 3017 2006
464 3013 2144
443 3017 2297
435 3023 2441
430 3027 2576
427 3027 2705
426 3023 2828
427 3015 2946
429 3010 3062
439 3000 3175
449 2985 3279
291 72 32
275 74 158
260 79 277
260 100 395
260 122 511
254 148 632
253 172 750
257 192 872
251 209 1001
243 225 1133
240 241 1266
250 272 1403
264 307 1546
277 343 1694
291 378 1835
309 415 1974
331 448 2110
297 190 59
287 197 193
269 201 314
260 224 437
261 250 559
255 273 683
255 296 811
253 317 944
249 336 1084
242 359 1228
248 390 1372
261 424 1517
274 459 1661
288 490 1798
304 520 1932
322 552 2069
342 587 2205
281 318 118
279 328 249
272 343 377
263 359 503
262 381 637
262 405 772
259 430 914
250 454 1060
238 483 1212
242 519 1366
255 551 1512
266 583 1652
280 614 1787
295 645 1924
313 679 2060
333 713 2190
353 750 2325
312 487 216
296 495 345
270 501 474
263 522 619
258 541 767
247 562 911
236 583 1049
228 609 1193
235 646 1343
247 676 1487
262 708 1629
275 744 1775
291 780 1915
306 814 2046
322 846 2173
341 881 2303
360 916 2436
350 677 312
328 691 446
285 697 589
254 708 739
236 724 886
218 744 1047
219 768 1202
229 795 1349
241 825 1489
255 852 1623
271 887 1760
287 921 1892
301 957 2021
316 989 2151
333 1022 2284
351 1057 2417
369 1091 2548
398 891 406
340 901 546
269 909 702
235 913 857
220 931 1013
220 946 1164
230 968 1325
242 998 1479
255 1025 1618
266 1051 1751
278 1076 1878
294 1108 2007
311 1142 2136
330 1178 2268
347 1212 2400
363 1242 2527
378 1269 2646
430 1126 510
324 1127 651
246 1135 818
224 1145 985
222 1160 1147
230 1175 1297
241 1194 1441
254 1218 1590
266 1241 1729
280 1270 1868
294 1295 2003
307 1314 2128
321 1333 2252
338 1360 2377
356 1393 2498
372 1423 2616
387 1445 2733
408 1362 624
295 1365 769
239 1369 942
232 1381 1112
232 1395 1274
239 1414 1429
251 1430 1570
264 1443 1702
278 1464 1844
293 1485 1983
307 1501 2112
320 1516 2234
333 1531 2352
345 1545 2465
359 1558 2578
374 1577 2694
391 1598 2807
404 1576 729
288 1575 879
259 1586 1044
250 1595 1216
250 1612 1376
251 1626 1532
259 1638 1674
272 1646 1806
285 1660 1936
298 1675 2067
313 1686 2193
327 1699 2315
340 1713 2433
353 1723 2547
366 1732 2657
379 1736 2766
394 1741 2879
524 1793 837
367 1790 975
300 1796 1130
282 1804 1299
277 1822 1468
277 1834 1619
279 1847 1768
288 1857 1903
300 1867 2030
313 1870 2147
327 1878 2270
339 1886 2391
353 1895 2508
366 1905 2622
380 1908 2734
394 1908 2843
407 1906 2951
699 2015 948
485 2001 1063
364 2000 1205
331 2003 1365
314 2014 1532
310 2028 1690
311 2045 1841
312 2057 1982
320 2064 2110
333 2068 2231
345 2073 2348
357 2075 2462
369 2077 2578
383 2080 2692
396 2082 2804
410 2080 2911
422 2070 3012
929 2233 1041
751 2209 1155
540 2203 1279
418 2203 1426
369 2207 1589
352 2217 1751
348 2229 1898
348 2240 2038
348 2247 2170
357 2253 2298
368 2256 2418
379 2259 2531
390 2258 2643
402 2256 2757
413 2250 2862
425 2242 2964
437 2228 3063
1086 2435 1109
956 2403 1225
772 2392 1341
556 2387 1474
433 2392 1628
403 2396 1790
391 2405 1943
387 2412 2083
385 2421 2221
385 2427 2353
392 2430 2476
401 2429 2592
411 2429 2703
422 2426 2814
432 2417 2921
443 2406 3021
453 2388 3115
1214 2638 1198
1114 2597 1287
969 2574 1405
735 2565 1522
542 2564 1662
458 2567 1810
435 2571 1971
425 2578 2117
421 2585 2256
419 2593 2392
418 2595 2518
423 2596 2640
433 2594 2754
441 2588 2863
450 2578 2970
459 2567 3071
470 2548 3167
1323 2849 1295
1248 2796 1364
1141 2757 1464
957 2741 1576
719 2736 1707
550 2738 1848
488 2739 1993
468 2743 2147
458 2747 2286
454 2754 2419
451 2759 2552
448 2755 2672
450 2749 2788
461 2748 2903
470 2739 3013
477 2726 3117
486 2705 3213
1419 3049 1369
1361 3007 1454
1282 2953 1530
1158 2922 1635
946 2907 1745
702 2906 1878
566 2911 2015
521 2909 2159
501 2910 2308
491 2914 2446
485 2919 2578
482 2920 2705
481 2915 2823
482 2907 2940
491 2901 3056
498 2888 3162
506 2868 3262
1503 3234 1423
1458 3217 1532
1395 3171 1611
1316 3114 1690
1169 3084 1795
905 3075 1912
663 3072 2040
597 3070 2173
550 3070 2316
531 3070 2465
520 3073 2602
516 3078 2734
513 3080 2864
513 3069 2980
511 3059 3094
519 3048 3205
526 3028 3303
502 143 75
499 153 207
472 147 329
435 142 438
419 156 552
408 173 667
395 187 782
383 203 900
369 212 1020
357 224 1145
352 247 1280
356 282 1424
366 320 1571
376 355 1713
386 395 1858
400 429 1993
421 465 2129
546 266 108
525 273 238
485 263 360
443 253 470
427 268 586
407 285 705
389 305 827
379 321 953
368 336 1084
357 354 1219
352 387 1365
355 427 1519
365 462 1662
373 502 1807
384 537 1949
399 570 2083
