nova/tdt-studio/app/Lut_mau/IWLTBAP/2 - LUTs by IWLTBAP (3DL)/01 - Standard/GoPro & Drones/IWLTBAP Aptira.3dl
# Copyright: (C) Copyright 2010-2018 by IWLTBAP
# LUT created by IWLTBAP for GoPro Pack
0 128 256 384 512 640 768 896 1023
0 1 2
21 36 233
43 97 479
71 154 724
84 193 975
91 223 1243
125 294 1533
163 368 1832
204 441 2116
33 289 132
38 322 393
63 371 670
71 399 911
77 428 1175
107 488 1460
143 553 1738
179 621 2013
218 692 2285
73 637 309
63 657 588
71 698 900
70 721 1188
97 769 1458
130 818 1714
170 884 1974
206 951 2229
242 1018 2486
94 1051 486
83 1081 811
76 1113 1133
96 1130 1401
130 1166 1675
162 1215 1936
193 1259 2185
233 1322 2455
270 1379 2688
118 1487 695
101 1521 1039
104 1556 1358
120 1570 1631
154 1588 1885
188 1617 2145
220 1643 2382
249 1670 2611
278 1685 2829
209 1915 888
178 1924 1193
169 1954 1522
170 1972 1807
187 1982 2059
217 1992 2292
246 2001 2527
279 2016 2763
310 2019 2986
390 2320 1047
292 2311 1304
249 2330 1626
242 2358 1944
243 2362 2201
257 2361 2438
283 2363 2663
309 2355 2880
334 2333 3081
743 2707 1165
424 2660 1380
342 2652 1657
303 2665 1977
298 2679 2264
298 2678 2513
309 2675 2745
334 2673 2971
359 2648 3175
966 3101 1320
783 3002 1470
472 2975 1702
388 2964 1972
353 2971 2277
349 2977 2550
349 2975 2800
356 2964 3032
380 2945 3255
291 72 32
260 79 277
260 122 511
253 172 750
251 209 1001
240 241 1266
264 307 1546
291 378 1835
331 448 2110
281 318 118
272 343 377
262 381 637
259 430 914
238 483 1212
255 551 1512
280 614 1787
313 679 2060
353 750 2325
350 677 312
285 697 589
236 724 886
219 768 1202
241 825 1489
271 887 1760
301 957 2021
333 1022 2284
369 1091 2548
430 1126 510
246 1135 818
222 1160 1147
241 1194 1441
266 1241 1729
294 1295 2003
321 1333 2252
356 1393 2498
387 1445 2733
404 1576 729
259 1586 1044
250 1612 1376
259 1638 1674
285 1660 1936
313 1686 2193
340 1713 2433
366 1732 2657
394 1741 2879
699 2015 948
364 2000 1205
314 2014 1532
311 2045 1841
320 2064 2110
345 2073 2348
369 2077 2578
396 2082 2804
422 2070 3012
1086 2435 1109
772 2392 1341
433 2392 1628
391 2405 1943
385 2421 2221
392 2430 2476
411 2429 2703
432 2417 2921
453 2388 3115
1323 2849 1295
1141 2757 1464
719 2736 1707
488 2739 1993
458 2747 2286
451 2759 2552
450 2749 2788
470 2739 3013
486 2705 3213
1503 3234 1423
1395 3171 1611
1169 3084 1795
663 3072 2040
550 3070 2316
520 3073 2602
513 3080 2864
511 3059 3094
526 3028 3303
750 205 122
751 224 376
630 202 607
576 216 830
538 234 1063
512 263 1314
521 324 1585
534 391 1862
556 467 2139
885 473 174
802 480 449
662 446 690
579 465 929
517 497 1203
497 556 1484
505 626 1767
508 711 2063
531 797 2349
863 794 272
778 792 586
676 803 888
543 832 1181
491 888 1492
472 961 1780
469 1034 2061
490 1117 2348
533 1199 2618
961 1261 486
775 1234 839
516 1227 1158
437 1254 1451
424 1298 1746
435 1351 2019
465 1422 2289
495 1492 2545
529 1545 2794
1115 1717 746
823 1680 1068
481 1680 1381
420 1695 1686
423 1712 1952
443 1742 2219
466 1784 2476
491 1802 2699
530 1827 2922
1360 2142 960
1113 2105 1265
722 2089 1536
523 2102 1844
488 2119 2122
496 2126 2366
513 2145 2612
531 2154 2843
552 2128 3041
1573 2556 1182
1452 2511 1425
1138 2478 1669
797 2474 1957
646 2481 2231
564 2481 2483
569 2483 2723
579 2479 2957
594 2445 3152
1758 2952 1362
1689 2925 1605
1488 2853 1806
1130 2838 2044
893 2835 2318
743 2841 2586
641 2837 2828
640 2825 3064
647 2789 3265
2033 3326 1480
1948 3349 1798
1857 3306 1991
1637 3235 2164
1254 3211 2387
906 3200 2661
735 3193 2923
707 3163 3154
711 3135 3362
1388 314 160
1406 335 419
1329 329 700
1148 310 964
1034 302 1188
999 333 1442
984 386 1699
955 437 1949
930 493 2199
1637 617 250
1590 643 536
1462 633 816
1211 593 1083
1079 580 1315
1004 630 1577
964 685 1840
940 747 2106
911 804 2364
1827 1027 358
1813 1054 666
1608 1047 1026
1292 989 1279
1065 992 1543
975 1046 1820
953 1114 2091
938 1186 2358
898 1247 2611
1875 1479 551
1791 1505 901
1557 1474 1279
1333 1486 1588
1149 1507 1855
1040 1543 2112
1006 1596 2370
948 1643 2618
862 1679 2858
1949 1936 828
1805 1936 1200
1533 1882 1502
1105 1821 1746
957 1836 2002
871 1849 2249
830 1890 2501
783 1947 2754
794 1978 2991
2000 2321 1076
1864 2306 1377
1636 2256 1651
1267 2206 1884
1045 2190 2140
926 2199 2388
785 2198 2624
704 2199 2853
728 2194 3068
2037 2663 1231
1936 2652 1513
1799 2616 1774
1498 2575 2006
1290 2568 2270
1159 2569 2518
962 2566 2758
776 2550 2984
771 2504 3182
2276 3058 1407
2154 3055 1705
2094 3053 1963
1908 3000 2173
1599 2961 2387
1381 2944 2636
1191 2931 2876
938 2916 3111
847 2867 3312
2521 3411 1489
2444 3427 1821
2381 3464 2156
2320 3457 2388
2168 3412 2580
1892 3374 2771
1562 3345 3015
1112 3292 3225
930 3233 3421
2014 471 319
1988 475 535
1938 471 783
1852 465 1050
1712 451 1311
1577 437 1546
1475 447 1790
1425 501 2050
1367 548 2288
2212 776 397
2215 808 660
2123 796 927
2011 782 1208
1820 770 1466
1653 749 1699
1530 782 1959
1458 831 2203
1382 873 2439
2439 1160 481
2417 1209 785
2324 1253 1162
2181 1231 1438
1880 1186 1686
1671 1171 1914
1553 1219 2168
1477 1272 2426
1365 1309 2666
2597 1615 634
2567 1668 957
2493 1719 1350
2295 1724 1709
1973 1672 1929
1731 1670 2184
1630 1709 2450
1543 1740 2672
1387 1755 2892
2583 2045 895
2494 2068 1238
2386 2105 1615
2257 2115 1917
2063 2113 2172
1873 2112 2419
1786 2134 2658
1662 2153 2880
1339 2137 3091
2628 2448 1126
2530 2439 1444
2420 2471 1801
2313 2477 2073
2136 2462 2308
1886 2424 2524
1770 2441 2764
1559 2435 2988
1193 2408 3196
2734 2832 1319
2636 2812 1613
2515 2828 1938
2429 2843 2215
2285 2819 2437
1934 2747 2626
1681 2717 2845
1412 2685 3064
1012 2613 3248
2842 3183 1444
2766 3176 1752
2637 3183 2064
2574 3216 2357
2466 3194 2576
2217 3144 2772
1873 3075 2968
1532 3024 3182
1116 2961 3369
2936 3482 1524
2906 3508 1847
2829 3527 2165
2770 3562 2487
2713 3573 2736
2566 3536 2941
2309 3497 3128
1960 3437 3333
1610 3373 3507
2470 598 441
2442 598 647
2392 595 880
2328 590 1139
2235 578 1394
2118 569 1643
1991 550 1873
1892 553 2111
1827 600 2367
2675 899 531
2663 932 767
2586 945 1033
2511 921 1301
2405 905 1564
2241 893 1808
2086 882 2036
1955 899 2282
1849 946 2532
2893 1263 606
2871 1323 893
2780 1373 1242
2681 1380 1546
2558 1351 1792
2340 1349 2036
2165 1332 2255
2016 1365 2516
1876 1382 2728
3023 1707 744
3031 1756 1025
2913 1820 1457
2815 1869 1814
2665 1861 2067
2444 1821 2267
2215 1788 2480
2029 1805 2723
1810 1803 2962
3071 2129 938
3065 2170 1247
3008 2232 1627
2896 2264 1991
2768 2282 2277
2551 2247 2473
2271 2200 2676
2057 2214 2933
1768 2182 3141
3059 2503 1162
3010 2535 1477
2954 2563 1805
2847 2597 2153
2773 2618 2418
2639 2630 2659
2442 2607 2867
2166 2596 3114
1794 2536 3303
3104 2872 1331
3065 2894 1643
3002 2907 1957
2916 2936 2277
2842 2964 2552
2745 2973 2790
2541 2936 2994
2262 2915 3225
1879 2846 3412
3203 3218 1439
3181 3249 1771
3117 3263 2081
3051 3286 2383
3001 3333 2695
2939 3342 2940
2753 3308 3138
2379 3233 3322
2061 3174 3510
3279 3518 1549
3269 3564 1876
3229 3599 2217
3180 3626 2523
3138 3665 2813
3086 3683 3077
2946 3651 3267
2673 3598 3447
2460 3557 3634
2870 702 549
2822 699 737
2782 697 962
2730 697 1218
2657 688 1462
2553 673 1707
2440 661 1954
2320 639 2171
2233 635 2402
3073 1004 643
3048 1030 862
2975 1049 1120
2906 1040 1374
2832 1023 1634
2726 1003 1883
2589 1001 2127
2451 991 2348
2322 993 2583
3233 1383 730
3230 1424 1000
3163 1464 1306
3073 1485 1616
2989 1456 1860
2882 1442 2102
2732 1461 2348
2563 1445 2561
2394 1443 2806
3353 1795 837
3375 1841 1101
3298 1901 1499
3194 1943 1860
3108 1948 2129
3001 1932 2346
2826 1925 2569
2625 1876 2763
2346 1853 3000
3420 2196 1004
3437 2246 1287
3396 2306 1667
3338 2357 2018
3233 2379 2343
3107 2371 2572
2921 2338 2761
2639 2272 2951
2206 2219 3166
3442 2553 1194
3455 2607 1491
3414 2680 1856
3356 2714 2202
3300 2740 2494
3204 2761 2764
3010 2722 2949
2683 2646 3127
2168 2589 3341
3443 2891 1333
3423 2946 1659
3377 2998 2006
3343 3028 2320
3295 3068 2627
3245 3098 2893
3121 3101 3127
2877 3053 3313
2531 2991 3502
3494 3225 1450
3480 3276 1775
3449 3324 2123
3429 3360 2432
3392 3396 2733
3345 3429 3011
3265 3435 3253
3051 3395 3436
2912 3385 3632
3555 3545 1598
3557 3597 1915
3533 3644 2258
3504 3675 2561
3483 3716 2853
3457 3757 3136
3412 3774 3378
3271 3743 3564
3189 3725 3751
3216 789 641
3158 778 812
3111 770 1019
3065 770 1268
2994 754 1496
2909 744 1731
2803 729 1983
2698 710 2211
2588 683 2423
3387 1102 741
3352 1098 934
3288 1100 1168
3233 1096 1408
3171 1085 1659
3081 1066 1897
2984 1060 2149
2867 1052 2389
2733 1024 2605
3510 1462 828
3520 1492 1078
3467 1503 1339
3384 1510 1613
3323 1491 1864
3245 1473 2105
3151 1473 2353
3031 1474 2591
2856 1456 2807
3622 1851 907
3652 1887 1172
3607 1935 1517
3513 1951 1832
3438 1954 2116
3374 1934 2340
3286 1935 2579
3136 1947 2817
2911 1894 3021
3702 2237 1065
3725 2282 1329
3715 2345 1664
3618 2384 2056
3561 2410 2356
3489 2402 2594
3397 2392 2811
3202 2369 3027
2861 2270 3205
3748 2591 1218
3766 2643 1480
3749 2716 1848
3699 2773 2226
3655 2810 2539
3589 2830 2817
3498 2816 3040
3279 2761 3214
2860 2648 3371
3758 2930 1393
3761 2992 1679
3741 3068 2036
3726 3125 2364
3709 3163 2676
3670 3198 2966
3594 3218 3234
3380 3150 3391
3119 3078 3549
3757 3240 1497
3762 3311 1812
3745 3378 2172
3733 3427 2502
3728 3472 2799
3701 3512 3087
3662 3544 3347
3562 3536 3565
3520 3548 3751
3799 3559 1646
3808 3624 1962
3802 3687 2320
3798 3733 2628
3796 3779 2916
3777 3811 3182
3754 3840 3438
3707 3849 3667
3671 3861 3857
3478 844 704
3412 817 853
3373 809 1052
3335 808 1283
3285 803 1526
3208 795 1757
3121 786 1991
3024 772 2237
2907 743 2467
3626 1149 798
3589 1134 978
3526 1113 1183
3480 1102 1408
3437 1094 1656
3370 1086 1898
3281 1078 2139
3195 1076 2389
3083 1063 2632
3735 1498 888
3743 1509 1115
3697 1498 1345
3631 1488 1590
3583 1470 1831
3513 1453 2079
3445 1456 2326
3362 1462 2582
3243 1461 2825
3848 1876 953
3865 1893 1229
3845 1926 1514
3773 1910 1780
3699 1898 2048
3645 1884 2290
3580 1879 2535
3501 1899 2802
3341 1925 3062
3939 2250 1099
3955 2285 1364
3943 2342 1678
3889 2373 2007
3826 2372 2300
3769 2363 2549
3709 2353 2783
3603 2363 3040
3378 2339 3268
3990 2598 1247
3998 2662 1533
3983 2726 1855
3953 2788 2219
3915 2824 2538
3874 2832 2807
3811 2819 3041
3704 2811 3273
3436 2752 3450
4011 2946 1420
4008 3011 1714
3993 3088 2037
3982 3157 2392
3976 3211 2722
3951 3253 3007
3907 3271 3275
3814 3249 3482
3663 3229 3646
4001 3276 1581
3990 3341 1866
3981 3412 2200
3982 3474 2548
3985 3531 2851
3984 3581 3142
3973 3624 3421
3935 3638 3659
3894 3650 3828
3991 3581 1713
3988 3648 2020
3986 3715 2366
3988 3772 2683
3991 3819 2968
3989 3860 3236
3984 3896 3494
3978 3921 3731
3977 3938 3924
