nova/tdt-studio/app/Lut_mau/IWLTBAP/2 - LUTs by IWLTBAP (3DL)/01 - Standard/GoPro & Drones/IWLTBAP Batiog.3dl
# Copyright: (C) Copyright 2016 by IWLTBAP
0 64 128 192 256 320 384 448 512 576 640 704 768 832 896 960 1023
168 233 262
165 251 328
160 274 408
164 301 500
174 330 597
186 364 709
202 407 836
218 453 967
236 503 1106
254 553 1240
272 606 1368
292 660 1494
314 720 1620
338 794 1760
369 886 1922
403 993 2091
440 1112 2261
175 294 262
165 300 335
162 316 410
166 343 501
177 374 601
189 410 715
205 453 844
222 502 979
241 554 1120
259 609 1259
281 666 1392
303 729 1525
326 795 1657
354 876 1805
387 980 1973
423 1094 2146
461 1217 2315
187 369 269
173 378 343
163 379 437
170 394 515
179 420 606
192 456 720
209 502 852
227 553 992
247 610 1140
269 669 1283
293 738 1427
317 805 1564
343 881 1704
373 976 1863
409 1087 2037
447 1207 2212
487 1329 2375
214 459 269
205 463 328
175 481 462
179 476 559
188 491 644
201 522 754
216 563 877
233 613 1012
256 674 1163
281 743 1315
307 815 1462
333 893 1606
360 976 1752
394 1079 1917
431 1195 2094
472 1317 2266
514 1438 2427
244 564 279
237 559 326
213 590 446
194 598 606
203 599 714
214 615 818
229 655 939
250 708 1077
273 767 1219
298 831 1362
325 908 1508
351 989 1654
382 1082 1806
417 1190 1975
457 1306 2149
498 1424 2313
541 1540 2465
274 677 293
268 670 335
259 701 439
232 769 635
232 764 814
242 764 929
255 781 1034
277 831 1169
301 896 1313
328 971 1460
357 1056 1611
385 1142 1756
415 1230 1900
449 1327 2056
485 1427 2210
526 1533 2360
569 1644 2506
316 817 315
310 812 357
302 823 431
295 922 640
290 1020 932
296 998 1096
304 993 1201
318 1010 1305
340 1067 1437
368 1145 1585
398 1232 1733
427 1317 1875
459 1407 2022
496 1501 2174
535 1598 2319
574 1691 2450
614 1784 2574
375 991 340
369 992 388
354 970 445
353 1085 662
357 1259 1013
379 1330 1290
381 1298 1425
385 1282 1512
396 1294 1606
419 1350 1730
445 1419 1861
474 1495 1995
509 1582 2139
549 1676 2283
591 1772 2421
633 1865 2547
673 1958 2666
465 1194 379
455 1200 434
416 1153 491
416 1251 688
415 1443 1057
475 1647 1471
485 1649 1637
479 1604 1742
479 1582 1818
487 1586 1899
507 1626 2003
534 1688 2122
570 1769 2256
611 1858 2391
650 1943 2516
691 2030 2632
732 2113 2743
596 1416 414
588 1433 484
508 1362 557
491 1422 726
476 1619 1129
538 1828 1536
604 1983 1830
598 1943 1946
584 1893 2033
583 1872 2097
589 1870 2164
609 1904 2260
640 1965 2374
677 2038 2494
717 2111 2605
757 2182 2709
803 2258 2812
777 1671 450
784 1705 524
631 1581 629
566 1592 787
547 1776 1187
593 1968 1577
709 2195 1937
752 2260 2102
720 2199 2202
700 2151 2272
699 2136 2338
706 2136 2407
728 2166 2495
761 2219 2595
800 2278 2690
842 2338 2785
889 2403 2877
966 1929 528
980 1966 595
796 1830 717
643 1769 890
612 1923 1258
662 2110 1636
784 2312 1963
905 2481 2216
912 2486 2340
869 2429 2433
843 2386 2489
844 2381 2554
855 2388 2623
875 2408 2695
907 2446 2775
944 2490 2857
985 2540 2939
1121 2122 591
1142 2166 672
1032 2127 810
736 1963 1015
673 2054 1335
738 2238 1700
847 2402 1978
984 2585 2245
1072 2699 2464
1057 2679 2574
1013 2621 2629
995 2591 2677
999 2589 2737
1009 2594 2798
1021 2605 2856
1048 2634 2927
1078 2667 2997
1269 2286 673
1288 2330 762
1203 2323 896
891 2189 1137
728 2173 1420
810 2342 1755
910 2487 1999
1030 2647 2239
1149 2804 2491
1197 2866 2690
1174 2835 2752
1139 2786 2791
1128 2766 2835
1128 2759 2884
1133 2760 2936
1144 2768 2992
1163 2789 3051
1489 2530 718
1513 2580 783
1476 2609 907
1166 2451 1163
1054 2460 1422
1043 2593 1735
1083 2710 1985
1148 2811 2200
1232 2923 2488
1292 3008 2723
1294 3006 2850
1269 2967 2892
1241 2926 2922
1233 2911 2964
1233 2905 3011
1233 2899 3054
1241 2906 3104
1682 2766 797
1702 2803 859
1711 2829 919
1665 2841 1021
1526 2797 1237
1425 2866 1612
1350 2953 1923
1292 3010 2129
1321 3071 2374
1367 3135 2702
1388 3159 2914
1375 3131 2989
1352 3090 3011
1330 3056 3040
1323 3042 3081
1317 3028 3116
1312 3016 3154
1938 3047 900
1957 3072 956
1973 3093 1014
1976 3104 1073
1970 3107 1129
1807 3107 1418
1642 3138 1780
1539 3182 2064
1408 3212 2257
1427 3256 2581
1454 3292 2899
1458 3274 3065
1442 3238 3102
1417 3195 3115
1401 3167 3144
1394 3153 3179
1384 3134 3208
232 251 274
230 266 348
201 281 416
194 306 511
203 334 609
214 365 719
229 404 840
244 447 968
261 496 1105
279 545 1238
296 599 1368
317 658 1498
339 722 1628
365 800 1776
396 893 1937
430 1000 2107
468 1122 2278
218 304 272
202 308 342
196 328 426
196 356 523
206 383 620
218 416 731
233 455 854
250 503 988
267 553 1128
285 608 1266
306 667 1401
330 734 1538
354 804 1675
383 890 1831
417 997 2000
454 1113 2174
492 1231 2339
229 388 269
209 386 346
194 390 449
200 407 533
209 433 627
222 469 745
238 512 874
256 562 1013
275 619 1160
296 677 1302
321 747 1446
345 817 1585
372 898 1732
405 997 1897
441 1110 2070
480 1228 2241
522 1350 2403
258 487 263
239 485 333
205 486 446
209 489 573
218 508 668
231 541 783
246 580 906
263 628 1040
285 688 1188
310 756 1338
335 827 1484
362 909 1632
392 1000 1786
428 1109 1959
466 1223 2133
508 1344 2300
549 1463 2457
288 595 271
274 591 337
249 586 423
224 618 598
233 618 736
245 639 850
262 681 978
284 737 1120
307 795 1260
331 861 1402
357 935 1545
383 1015 1688
416 1115 1846
453 1224 2019
493 1338 2188
535 1455 2349
579 1570 2498
325 712 285
310 709 343
293 695 410
267 758 590
265 795 825
277 796 965
292 818 1082
314 871 1220
338 939 1366
365 1018 1516
395 1105 1668
425 1195 1815
458 1290 1967
494 1386 2122
531 1480 2268
570 1578 2405
611 1681 2540
369 853 306
354 848 361
337 825 414
327 898 590
322 1033 905
333 1046 1126
343 1042 1252
358 1065 1365
381 1125 1500
410 1206 1649
441 1294 1798
473 1384 1946
510 1478 2097
550 1575 2247
589 1667 2383
628 1758 2508
667 1847 2627
435 1026 328
416 1024 387
394 999 450
385 1053 599
383 1229 935
418 1380 1305
423 1355 1464
429 1346 1569
443 1366 1676
466 1418 1798
494 1489 1930
528 1572 2071
567 1661 2215
609 1757 2357
650 1847 2486
689 1935 2604
727 2021 2717
547 1243 359
531 1252 424
475 1208 503
449 1218 622
449 1414 984
498 1633 1418
538 1717 1673
528 1666 1787
531 1651 1879
543 1665 1970
564 1705 2074
595 1771 2198
633 1853 2331
672 1937 2461
712 2019 2579
752 2099 2688
794 2175 2792
727 1504 399
725 1529 455
617 1456 562
530 1401 668
520 1586 1040
557 1794 1463
648 2008 1832
657 2010 1978
639 1953 2073
641 1941 2152
653 1954 2236
673 1986 2331
706 2046 2444
745 2115 2558
786 2185 2663
830 2254 2764
875 2321 2857
928 1761 470
931 1798 522
845 1758 615
632 1606 750
592 1737 1087
616 1939 1514
731 2170 1889
822 2309 2125
795 2265 2234
768 2212 2314
768 2202 2389
785 2220 2476
807 2248 2559
840 2294 2650
880 2348 2743
924 2405 2834
971 2464 2920
1101 2001 540
1105 2028 593
1066 2038 690
754 1824 860
660 1882 1160
689 2088 1582
803 2283 1912
946 2480 2201
992 2539 2369
951 2487 2467
919 2439 2526
923 2437 2594
945 2459 2678
962 2476 2746
991 2508 2821
1029 2550 2901
1067 2593 2978
1254 2172 593
1260 2197 649
1237 2232 770
935 2072 961
726 2027 1255
765 2216 1644
874 2383 1939
1012 2567 2212
1123 2712 2457
1132 2724 2602
1090 2669 2660
1067 2634 2707
1072 2632 2768
1089 2648 2838
1101 2657 2896
1125 2683 2964
1153 2713 3030
1411 2331 670
1419 2362 736
1379 2386 851
1129 2286 1029
809 2176 1354
839 2323 1702
948 2481 1976
1059 2629 2204
1178 2788 2450
1252 2887 2698
1241 2873 2774
1205 2823 2815
1191 2799 2858
1191 2792 2907
1203 2802 2968
1213 2809 3023
1229 2827 3079
1628 2585 731
1641 2622 790
1627 2660 858
1403 2566 1068
1139 2462 1341
1109 2574 1667
1133 2710 1951
1192 2810 2163
1268 2917 2442
1335 3013 2693
1352 3034 2866
1333 3003 2916
1302 2957 2942
1290 2936 2982
1291 2932 3029
1296 2933 3080
1301 2936 3127
1820 2810 813
1825 2836 872
1814 2866 932
1783 2873 997
1668 2857 1185
1510 2848 1489
1435 2941 1855
1349 3013 2095
1363 3071 2315
1407 3136 2652
1436 3177 2889
1431 3157 3008
1410 3119 3033
1387 3082 3058
1378 3066 3096
1374 3055 3134
1371 3046 3174
2027 3072 910
2040 3089 964
2062 3113 1023
2068 3126 1082
2064 3131 1138
1971 3135 1327
1728 3130 1684
1618 3176 2007
1476 3216 2219
1466 3256 2497
1495 3297 2853
1507 3300 3059
1494 3262 3120
1471 3221 3134
1452 3189 3159
1445 3172 3192
1440 3161 3228
378 280 289
407 289 363
400 310 452
320 328 546
256 345 641
245 374 749
258 408 864
272 447 982
287 491 1109
303 536 1235
319 585 1362
339 646 1493
363 714 1626
391 798 1781
424 897 1950
459 1009 2124
495 1124 2288
377 328 283
356 341 363
346 354 454
278 371 541
241 393 644
247 424 757
261 459 873
277 502 999
293 549 1130
309 597 1260
328 654 1393
352 722 1531
378 797 1673
409 892 1838
445 1002 2013
483 1122 2189
521 1241 2353
354 404 280
328 407 357
291 408 457
247 428 559
242 457 671
254 490 785
268 526 905
285 573 1038
303 625 1177
322 681 1315
346 748 1456
371 821 1598
400 909 1750
436 1015 1924
474 1133 2102
513 1253 2274
556 1375 2431
374 505 276
335 508 345
276 502 451
242 508 595
249 526 698
262 556 811
276 594 933
294 646 1076
316 706 1223
340 770 1368
364 841 1513
392 925 1660
423 1020 1818
462 1136 1999
502 1255 2177
545 1376 2339
588 1496 2494
402 625 278
365 629 336
309 624 427
256 631 586
263 637 762
276 658 879
293 701 1011
315 755 1151
337 813 1291
361 878 1430
387 951 1572
415 1037 1720
449 1141 1882
488 1255 2060
531 1374 2232
574 1490 2388
619 1604 2534
450 770 286
415 774 335
353 762 416
304 752 559
297 823 827
311 826 1001
326 850 1126
349 905 1267
374 978 1415
401 1056 1563
430 1140 1710
460 1228 1854
495 1323 2007
531 1420 2162
571 1517 2308
610 1614 2442
654 1720 2577
516 936 309
484 949 345
414 925 423
362 885 546
350 1018 846
372 1098 1157
382 1090 1301
398 1120 1425
423 1181 1562
453 1263 1710
483 1348 1855
517 1436 2001
554 1528 2149
596 1626 2298
636 1718 2430
675 1806 2551
714 1893 2666
623 1147 336
592 1159 372
511 1136 442
423 1049 562
414 1197 863
452 1398 1287
470 1421 1510
475 1407 1626
491 1432 1741
513 1482 1861
543 1553 1993
578 1635 2132
619 1726 2275
662 1819 2413
702 1907 2537
741 1993 2651
781 2071 2756
815 1408 381
794 1430 419
719 1434 475
515 1268 611
486 1374 895
516 1598 1341
585 1768 1695
580 1732 1835
582 1715 1935
597 1737 2035
618 1774 2137
650 1840 2259
688 1918 2389
728 2001 2515
770 2080 2628
814 2157 2734
861 2229 2832
1033 1666 442
1023 1695 489
965 1726 542
700 1551 666
563 1543 929
576 1756 1387
672 1993 1794
718 2074 2013
694 2013 2114
695 2000 2199
713 2024 2297
732 2052 2388
767 2109 2498
810 2177 2607
856 2245 2709
906 2313 2807
953 2377 2898
1251 1912 515
1237 1943 565
1178 1967 613
954 1863 720
650 1707 976
641 1907 1442
740 2127 1825
868 2323 2124
870 2322 2263
836 2267 2352
834 2255 2430
859 2283 2526
882 2308 2606
917 2352 2693
959 2404 2785
1006 2461 2874
1051 2515 2957
1426 2132 584
1404 2151 632
1341 2152 673
1154 2097 798
755 1889 1059
713 2050 1499
812 2243 1854
963 2451 2162
1058 2571 2385
1030 2536 2498
992 2485 2558
994 2479 2626
1023 2510 2717
1040 2526 2783
1069 2557 2857
1106 2597 2936
1140 2637 3009
1568 2290 637
1557 2309 686
1511 2323 748
1322 2278 882
905 2102 1160
786 2175 1563
894 2356 1899
1026 2531 2166
1154 2698 2424
1196 2756 2624
1160 2709 2686
1133 2669 2732
1134 2663 2791
1157 2687 2866
1169 2696 2925
1191 2719 2991
1219 2749 3057
1727 2442 696
1729 2468 759
1688 2492 842
1475 2438 963
1092 2310 1243
869 2294 1627
976 2461 1941
1081 2603 2165
1199 2760 2409
1292 2888 2675
1301 2901 2793
1268 2855 2836
1249 2826 2877
1248 2818 2925
1264 2834 2991
1272 2839 3044
1288 2855 3099
1937 2708 783
1937 2729 838
1895 2751 891
1781 2755 958
1377 2573 1234
1188 2551 1564
1186 2699 1895
1234 2808 2129
1300 2905 2379
1368 3003 2653
1404 3055 2871
1391 3032 2935
1360 2986 2961
1345 2960 2998
1343 2952 3044
1352 2959 3098
1356 2960 3144
2060 2890 852
2062 2907 907
2043 2928 961
1957 2936 1014
1837 2919 1140
1648 2870 1369
1522 2928 1752
1418 3009 2054
1405 3070 2266
1443 3133 2579
1478 3183 2857
1484 3182 3022
1464 3146 3053
1441 3106 3074
1429 3085 3109
1424 3073 3145
1426 3070 3191
2156 3110 928
2156 3121 980
2155 3136 1037
2169 3156 1098
2168 3163 1155
2133 3162 1247
1879 3150 1595
1698 3170 1933
1554 3214 2181
1505 3256 2420
1534 3298 2791
1552 3317 3028
1544 3285 3136
1523 3245 3152
1502 3208 3172
1492 3188 3203
1487 3176 3238
552 312 300
601 303 359
637 335 463
651 370 582
522 384 687
409 400 818
315 425 928
305 459 1033
319 497 1146
333 539 1262
348 584 1380
365 641 1504
386 703 1630
414 787 1780
445 883 1945
483 1004 2125
521 1126 2297
547 360 296
542 372 371
590 386 467
597 418 587
465 427 696
355 445 816
300 476 928
309 514 1044
324 557 1165
339 603 1286
355 653 1409
376 714 1536
401 786 1670
430 874 1827
467 990 2008
507 1117 2191
