nova/tdt-studio/app/Lut_mau/IWLTBAP/2 - LUTs by IWLTBAP (3DL)/01 - Standard/GoPro & Drones/IWLTBAP Batiog.3dl
# Copyright: (C) Copyright 2016 by IWLTBAP
0 256 512 768 1023
168 233 262
174 330 597
236 503 1106
314 720 1620
440 1112 2261
244 564 279
203 599 714
273 767 1219
382 1082 1806
541 1540 2465
465 1194 379
415 1443 1057
479 1582 1818
570 1769 2256
732 2113 2743
1121 2122 591
673 2054 1335
1072 2699 2464
999 2589 2737
1078 2667 2997
1938 3047 900
1970 3107 1129
1408 3212 2257
1442 3238 3102
1384 3134 3208
808 342 292
1019 436 721
388 516 1230
415 709 1661
547 1122 2300
1019 670 243
551 747 854
411 887 1410
516 1195 1960
707 1680 2607
1804 1749 568
1211 1756 806
693 1844 2049
793 2015 2472
971 2288 2876
2261 2470 789
2032 2509 1030
1180 2626 2326
1259 2724 2836
1326 2787 3084
2629 3210 1021
2546 3245 1245
1762 3212 2064
1642 3334 3153
1579 3203 3254
2101 420 310
2365 442 586
2569 712 1156
2388 1208 2107
1516 1390 2659
2454 761 351
2461 847 651
2603 1300 1550
2210 1740 2413
872 1755 2763
2980 1855 621
2982 2042 942
2311 2375 2358
1165 2297 2807
1229 2405 3011
3239 2777 1022
3207 2847 1413
2604 2887 2161
1554 2889 2992
1541 2850 3145
3395 3345 1243
3324 3373 1445
3101 3487 1997
1795 3352 2948
1758 3247 3274
2944 547 562
2997 548 733
3114 820 1252
3206 1260 2016
3184 1895 2895
3284 1022 583
3193 984 818
3234 1466 1631
3294 1928 2343
3182 2186 3066
3589 1931 752
3589 2051 963
3425 2474 2179
3388 2584 2892
2933 2629 3301
3736 2938 1227
3738 2980 1465
3676 3103 2156
3428 3305 3204
2964 3238 3477
3779 3369 1369
3776 3414 1590
3716 3527 2263
3533 3663 2880
2616 3516 3509
3462 766 712
3438 796 919
3443 1178 1524
3519 1674 2318
3584 2119 3118
3691 1491 699
3616 1473 980
3600 1889 1900
3593 2129 2503
3639 2385 3223
3799 2244 898
3810 2331 1127
3756 2520 2147
3704 2713 2875
3718 2792 3383
3848 2836 1171
3848 2874 1404
3837 3048 2176
3846 3322 3163
3830 3320 3546
3887 3386 1378
3886 3430 1687
3883 3519 2258
3886 3650 2910
3898 3812 3617
