nova/tdt-studio/app/Lut_mau/IWLTBAP/2 - LUTs by IWLTBAP (3DL)/01 - Standard/GoPro & Drones/IWLTBAP Aructa.3dl
# Copyright: (C) Copyright 2016 by IWLTBAP
# LUT created by IWLTBAP for GoPro Pack
0 64 128 192 256 320 384 448 512 576 640 704 768 832 896 960 1023
5 14 21
30 73 199
81 172 384
177 304 581
253 444 778
319 593 996
366 756 1239
427 935 1464
500 1095 1657
553 1218 1823
604 1347 1978
652 1468 2131
710 1572 2278
778 1687 2404
831 1790 2514
848 1859 2602
847 1884 2665
62 119 94
67 165 247
142 294 455
225 442 653
284 588 847
344 739 1087
409 922 1340
490 1099 1551
553 1235 1731
607 1362 1900
668 1489 2061
716 1590 2214
770 1692 2349
821 1797 2456
864 1885 2555
881 1958 2650
883 1986 2711
254 389 244
187 392 369
168 411 510
244 567 719
296 705 912
370 876 1168
453 1073 1424
538 1235 1620
595 1359 1802
648 1483 1968
704 1597 2138
758 1698 2280
801 1791 2391
849 1882 2494
893 1972 2599
915 2050 2699
919 2077 2758
445 698 418
379 684 472
257 664 621
232 694 790
302 845 994
389 1024 1256
494 1215 1493
573 1354 1684
623 1467 1865
676 1586 2040
732 1697 2204
788 1798 2325
833 1881 2428
876 1966 2534
918 2058 2646
948 2134 2742
953 2154 2799
727 1002 559
680 992 594
541 969 727
330 987 920
233 994 1081
388 1151 1331
516 1334 1551
594 1460 1746
648 1576 1935
705 1686 2105
765 1790 2245
822 1886 2361
856 1969 2470
901 2048 2573
946 2139 2683
974 2201 2773
975 2209 2821
1023 1286 683
976 1287 745
926 1281 772
752 1264 1004
503 1297 1198
368 1299 1390
501 1436 1601
604 1565 1805
670 1689 2007
719 1784 2152
784 1885 2284
839 1970 2398
874 2050 2506
922 2128 2606
969 2211 2712
995 2254 2795
989 2251 2832
1285 1563 842
1239 1569 904
1198 1556 900
1098 1571 1028
918 1560 1279
636 1570 1489
521 1585 1652
581 1678 1858
656 1789 2052
715 1879 2192
783 1964 2315
837 2049 2431
882 2130 2537
936 2200 2634
982 2272 2739
1006 2301 2814
1001 2296 2847
1506 1803 976
1456 1806 1035
1417 1798 1050
1363 1783 1058
1186 1785 1329
986 1815 1562
706 1806 1727
639 1821 1893
683 1898 2085
734 1984 2232
775 2056 2348
811 2122 2458
871 2187 2555
929 2255 2658
982 2325 2764
1012 2351 2834
1007 2350 2873
1679 1987 1103
1631 2000 1167
1590 2001 1186
1590 1989 1112
1411 1979 1341
1213 2001 1610
1003 2014 1804
799 2019 1962
762 2035 2116
798 2098 2262
823 2158 2383
853 2204 2481
878 2246 2572
906 2310 2685
970 2373 2787
1005 2402 2865
1005 2412 2903
1805 2114 1190
1755 2122 1252
1718 2122 1273
1724 2109 1193
1609 2117 1311
1404 2154 1652
1217 2185 1863
1006 2178 2004
903 2193 2201
881 2222 2315
899 2262 2440
919 2297 2523
927 2325 2599
940 2377 2707
963 2421 2805
989 2455 2890
995 2468 2928
1933 2268 1305
1879 2256 1351
1836 2244 1361
1828 2224 1287
1766 2215 1289
1568 2266 1688
1378 2298 1873
1173 2304 2068
1023 2314 2246
993 2340 2386
987 2372 2502
990 2386 2565
985 2401 2626
995 2443 2718
1002 2480 2817
1004 2504 2906
1002 2509 2950
2062 2401 1406
2017 2407 1463
1980 2405 1480
1973 2385 1411
1991 2368 1295
1716 2368 1701
1527 2385 1913
1335 2410 2081
1178 2430 2262
1093 2435 2395
1075 2466 2511
1067 2472 2595
1060 2476 2654
1058 2509 2731
1060 2549 2832
1055 2567 2929
1040 2566 2972
2170 2507 1487
2133 2511 1538
2100 2508 1555
2096 2495 1498
2118 2462 1331
1865 2470 1692
1675 2491 1951
1488 2494 2111
1330 2533 2268
1208 2541 2395
1157 2557 2522
1152 2569 2616
1147 2561 2678
1133 2578 2747
1126 2619 2855
1110 2635 2953
1085 2630 2990
2267 2612 1561
2239 2619 1608
2208 2614 1622
2198 2600 1572
2230 2559 1363
2055 2580 1642
1824 2609 1972
1627 2595 2147
1476 2627 2297
1333 2638 2416
1243 2648 2530
1227 2665 2642
1222 2665 2714
1212 2660 2769
1191 2699 2885
1166 2705 2974
1132 2699 3006
2355 2713 1625
2327 2724 1673
2300 2723 1685
2291 2710 1642
2329 2668 1432
2213 2689 1608
1970 2681 1967
1755 2697 2144
1597 2704 2292
1473 2725 2431
1330 2733 2538
1291 2746 2656
1286 2764 2744
1278 2759 2811
1259 2778 2914
1217 2767 2991
1180 2766 3021
2422 2787 1680
2398 2797 1714
2372 2799 1730
2363 2789 1691
2409 2751 1499
2333 2766 1592
2074 2752 1964
1877 2781 2137
1694 2768 2270
1582 2797 2421
1440 2806 2526
1340 2813 2660
1330 2836 2749
1327 2846 2844
1313 2848 2923
1257 2824 3001
1210 2827 3032
2477 2847 1702
2454 2855 1733
2430 2854 1734
2428 2844 1690
2479 2801 1472
2368 2824 1639
2105 2813 1985
1909 2825 2141
1723 2814 2272
1602 2838 2419
1457 2847 2528
1369 2859 2662
1348 2873 2750
1342 2887 2850
1327 2884 2924
1279 2867 3003
1236 2868 3042
120 18 17
86 75 194
144 185 383
210 280 571
288 403 771
357 552 983
420 716 1219
488 886 1429
554 1047 1629
609 1175 1796
657 1306 1960
715 1435 2116
768 1548 2261
834 1664 2387
889 1772 2499
916 1849 2590
919 1878 2652
115 111 73
164 225 282
242 347 485
316 483 684
375 611 887
448 770 1115
532 953 1352
604 1134 1572
668 1272 1757
710 1382 1933
766 1511 2090
821 1620 2237
873 1722 2361
919 1823 2460
970 1918 2568
996 1988 2655
1000 2020 2713
329 401 207
297 462 413
259 490 559
319 622 762
377 750 961
481 923 1206
592 1129 1448
672 1290 1650
723 1407 1832
762 1527 2007
820 1646 2162
876 1746 2304
921 1842 2410
959 1931 2511
1008 2013 2618
1028 2083 2707
1032 2112 2764
563 708 367
549 745 477
351 733 686
295 762 840
391 895 1042
513 1076 1286
627 1268 1522
706 1409 1717
753 1523 1896
802 1649 2068
857 1761 2221
911 1865 2353
952 1943 2453
993 2026 2563
1038 2096 2661
1063 2155 2742
1065 2178 2796
834 998 506
842 1022 551
729 1030 749
479 1036 950
333 1061 1133
514 1213 1358
639 1383 1584
715 1515 1779
774 1636 1966
828 1751 2125
887 1860 2264
934 1964 2394
973 2037 2501
1023 2110 2607
1066 2163 2687
1097 2220 2770
1097 2241 2822
1109 1279 650
1128 1323 738
1092 1327 783
907 1322 1033
643 1341 1225
488 1359 1434
604 1484 1632
707 1614 1832
787 1737 2022
848 1843 2167
903 1952 2310
955 2036 2428
990 2121 2542
1048 2176 2628
1095 2232 2710
1126 2287 2796
1125 2300 2848
1358 1563 805
1370 1602 908
1348 1598 915
1231 1592 1051
1055 1614 1307
759 1613 1520
635 1627 1672
675 1715 1875
758 1827 2065
844 1931 2208
909 2022 2341
957 2110 2463
1005 2189 2569
1065 2243 2651
1117 2301 2736
1146 2345 2823
1142 2355 2869
1575 1794 942
1574 1825 1029
1549 1825 1041
1497 1817 1056
1299 1823 1365
1092 1852 1582
799 1835 1754
745 1857 1912
771 1931 2097
821 2016 2252
884 2095 2374
955 2177 2487
1016 2248 2586
1076 2296 2665
1132 2360 2762
1157 2400 2844
1150 2409 2886
1745 1962 1069
1739 2006 1172
1713 2015 1197
1696 1982 1103
1507 2012 1379
1322 2025 1630
1109 2045 1828
896 2042 1968
856 2058 2144
882 2121 2285
906 2183 2405
944 2241 2502
1004 2296 2596
1067 2353 2688
1125 2409 2781
1155 2454 2868
1142 2458 2909
1883 2128 1183
1857 2149 1273
1833 2149 1291
1831 2119 1181
1700 2134 1345
1507 2175 1682
1310 2200 1874
1090 2198 2040
986 2209 2206
968 2240 2341
982 2290 2461
999 2326 2540
1007 2356 2616
1040 2400 2708
1106 2459 2806
1143 2499 2890
1129 2505 2937
2010 2279 1296
1991 2296 1378
1963 2295 1399
1949 2267 1302
1864 2243 1331
1662 2291 1724
1466 2310 1908
1269 2329 2071
1101 2341 2262
1076 2350 2380
1066 2394 2505
1071 2412 2573
1061 2428 2644
1058 2460 2727
1095 2513 2819
1119 2540 2912
1104 2546 2963
2124 2391 1386
2108 2416 1467
2084 2422 1491
2075 2396 1401
2056 2378 1319
1801 2386 1728
1615 2400 1949
1428 2430 2095
1252 2447 2263
1171 2443 2390
1154 2482 2506
1141 2498 2600
1125 2502 2675
1119 2522 2742
1125 2568 2835
1117 2590 2937
1100 2592 2981
2225 2498 1474
2209 2517 1546
2187 2522 1569
2178 2506 1497
2172 2467 1342
1954 2493 1719
1764 2516 1982
1577 2508 2134
1410 2543 2267
1282 2548 2403
1237 2563 2518
1221 2584 2620
1214 2591 2706
1192 2590 2757
1184 2630 2851
1164 2653 2961
1135 2653 2998
2314 2607 1554
2302 2628 1622
2285 2634 1646
2274 2616 1589
2295 2554 1332
2129 2604 1682
1907 2622 1998
1715 2615 2157
1559 2634 2300
1409 2646 2435
1321 2659 2533
1291 2672 2642
1291 2692 2743
1274 2672 2778
1249 2701 2877
1222 2720 2978
1185 2718 3014
2398 2699 1612
2388 2727 1682
2373 2740 1706
2361 2722 1659
2396 2664 1414
2285 2706 1638
2052 2691 1991
1852 2721 2155
1681 2713 2294
1556 2733 2437
1405 2745 2538
1352 2749 2657
1349 2776 2750
1336 2772 2816
1318 2782 2910
1272 2782 2991
1232 2780 3023
2466 2779 1680
2455 2802 1735
2442 2811 1751
2433 2796 1704
2473 2745 1475
2408 2766 1593
2158 2770 1977
1964 2793 2153
1774 2783 2278
1652 2807 2419
1519 2821 2532
1400 2819 2669
1389 2842 2747
1381 2855 2846
1366 2857 2930
1315 2843 3004
1260 2839 3033
2520 2840 1709
2508 2859 1755
2496 2866 1768
2490 2850 1714
2539 2795 1453
2459 2836 1647
2190 2830 1994
1993 2834 2157
1802 2827 2278
1672 2848 2419
1533 2862 2536
1426 2865 2673
1404 2882 2753
1393 2893 2851
1374 2892 2932
1335 2883 3009
1285 2883 3045
377 31 10
180 72 184
196 150 356
237 238 539
307 347 739
395 501 966
466 654 1183
523 812 1393
588 971 1591
637 1109 1763
699 1243 1925
753 1374 2095
811 1497 2239
871 1612 2358
930 1725 2471
966 1808 2563
968 1841 2625
391 165 39
464 257 245
336 337 476
421 477 684
477 607 891
539 756 1108
610 916 1340
669 1089 1544
731 1234 1739
780 1353 1918
824 1463 2078
884 1579 2213
939 1695 2346
1002 1808 2453
1046 1901 2558
1068 1983 2649
1066 2015 2703
350 360 178
437 468 381
445 564 608
460 662 793
554 800 998
674 975 1235
762 1166 1453
811 1310 1657
872 1443 1852
912 1571 2056
959 1668 2166
1020 1756 2278
1077 1873 2412
1127 1971 2534
1162 2057 2651
1175 2127 2723
1166 2152 2763
628 690 297
642 744 428
539 790 733
510 842 902
598 957 1083
725 1126 1304
808 1306 1535
868 1441 1726
914 1573 1932
959 1699 2115
1017 1781 2214
1077 1873 2324
1126 1979 2459
1174 2073 2578
1204 2145 2690
1222 2204 2755
1214 2224 2797
935 982 458
966 1015 526
911 1080 772
685 1082 987
586 1117 1154
717 1272 1377
827 1424 1600
882 1549 1785
937 1684 1994
992 1808 2154
1058 1884 2253
1112 1974 2375
1160 2071 2503
1206 2156 2620
1242 2214 2706
1261 2271 2776
1252 2286 2827
1201 1280 617
1224 1324 717
1224 1356 775
1080 1393 1051
822 1388 1252
676 1424 1457
808 1535 1666
898 1666 1858
953 1791 2040
1015 1898 2188
1081 1979 2302
1137 2073 2427
1185 2150 2538
1235 2215 2637
1276 2277 2720
1296 2332 2801
1287 2346 2854
1429 1556 766
1446 1599 882
1450 1617 903
1378 1629 1060
1185 1651 1348
893 1659 1546
812 1681 1729
884 1775 1911
958 1882 2077
1025 1984 2227
1090 2073 2356
1149 2152 2472
1203 2227 2581
1254 2273 2659
1298 2331 2741
1321 2389 2832
1312 2404 2882
1646 1785 925
1652 1813 1012
1650 1829 1043
1617 1821 1018
1420 1870 1389
1206 1881 1608
909 1874 1790
875 1899 1945
927 1972 2115
1024 2065 2266
1092 2150 2393
1150 2220 2510
1201 2283 2616
1262 2327 2682
1315 2391 2770
1342 2445 2858
1328 2456 2906
1818 1964 1061
1809 2000 1167
1802 2022 1213
1788 1983 1110
1635 2046 1395
1443 2057 1651
1187 2065 1849
1001 2069 1996
969 2092 2170
1010 2146 2302
1084 2215 2415
1139 2284 2549
1202 2341 2642
1267 2387 2710
1323 2453 2803
1349 2499 2881
1334 2509 2925
1953 2138 1187
1938 2165 1284
1928 2176 1319
1916 2150 1226
1831 2161 1352
1629 2203 1714
1401 2213 1897
1165 2212 2054
1080 2242 2231
1082 2253 2330
1096 2309 2466
1134 2362 2572
1197 2403 2657
1260 2446 2739
1311 2504 2824
1336 2544 2896
1321 2554 2938
2071 2269 1292
2053 2295 1382
2043 2308 1422
2037 2287 1339
1994 2281 1332
1782 2318 1745
1565 2325 1947
1346 2351 2082
1177 2360 2271
1162 2367 2372
1164 2406 2484
1162 2443 2581
1185 2460 2666
1231 2498 2753
1292 2550 2834
1315 2588 2909
1300 2596 2959
2185 2383 1384
2164 2406 1467
2153 2421 1507
2148 2399 1426
2138 2373 1315
1912 2407 1734
1727 2430 1982
1521 2441 2116
1313 2458 2261
1250 2460 2391
1237 2490 2496
1224 2528 2601
1211 2530 2698
1212 2548 2764
1257 2593 2842
1292 2631 2923
1280 2639 2978
2277 2497 1484
2261 2516 1562
2252 2530 1599
2241 2514 1541
2249 2465 1342
2065 2529 1732
1863 2531 2001
1671 2528 2147
1474 2555 2271
1352 2558 2418
1316 2567 2514
1302 2603 2623
1291 2619 2732
1263 2616 2780
1265 2646 2857
1262 2673 2942
1248 2681 2999
2360 2602 1560
2348 2629 1637
2339 2642 1672
2327 2626 1623
2355 2559 1360
2230 2627 1684
1996 2631 2013
1806 2637 2159
1638 2641 2300
1469 2656 2446
1401 2666 2536
1369 2683 2638
1358 2702 2742
1343 2704 2814
1306 2713 2878
1274 2732 2970
1245 2734 3015
2441 2697 1629
2431 2728 1700
2422 2743 1739
2412 2726 1689
2452 2665 1431
2373 2695 1591
2141 2716 1998
1946 2741 2173
1762 2727 2295
1610 2743 2432
1478 2757 2542
1430 2764 2655
1414 2782 2746
1402 2791 2828
1377 2796 2916
1332 2804 2993
1289 2799 3031
2504 2775 1691
2494 2802 1759
2485 2810 1785
2478 2804 1748
2506 2742 1534
2462 2757 1590
2245 2800 1973
2049 2803 2176
1861 2803 2287
1713 2815 2413
1568 2831 2543
1472 2834 2667
1451 2847 2758
1439 2863 2845
1421 2869 2936
1378 2865 3013
1314 2855 3041
2557 2839 1716
2545 2858 1775
2536 2866 1799
2531 2854 1753
2564 2802 1535
2510 2825 1638
2277 2854 1992
2082 2840 2174
1882 2844 2286
1723 2854 2417
1572 2871 2546
1491 2878 2673
1462 2888 2762
1449 2901 2851
1428 2902 2937
1391 2899 3013
1338 2899 3054
770 49 0
491 33 104
362 50 277
316 94 427
297 177 627
326 285 846
433 493 1091
504 684 1317
590 851 1518
654 1025 1714
725 1176 1884
786 1309 2054
842 1434 2217
891 1543 2334
954 1657 2448
1002 1742 2536
1002 1774 2592
897 192 1
851 253 150
557 229 383
468 282 561
475 432 784
575 637 1045
647 831 1304
726 1015 1508
768 1169 1712
808 1286 1866
855 1394 2024
921 1506 2162
977 1623 2294
1036 1750 2426
1113 1868 2539
1139 1947 2631
