nova/tdt-studio/app/Lut_mau/IWLTBAP/2 - LUTs by IWLTBAP (3DL)/01 - Standard/GoPro & Drones/IWLTBAP Batiog.3dl
# Copyright: (C) Copyright 2016 by IWLTBAP
0 128 256 384 512 640 768 896 1023
168 233 262
160 274 408
174 330 597
202 407 836
236 503 1106
272 606 1368
314 720 1620
369 886 1922
440 1112 2261
187 369 269
163 379 437
179 420 606
209 502 852
247 610 1140
293 738 1427
343 881 1704
409 1087 2037
487 1329 2375
244 564 279
213 590 446
203 599 714
229 655 939
273 767 1219
325 908 1508
382 1082 1806
457 1306 2149
541 1540 2465
316 817 315
302 823 431
290 1020 932
304 993 1201
340 1067 1437
398 1232 1733
459 1407 2022
535 1598 2319
614 1784 2574
465 1194 379
416 1153 491
415 1443 1057
485 1649 1637
479 1582 1818
507 1626 2003
570 1769 2256
650 1943 2516
732 2113 2743
777 1671 450
631 1581 629
547 1776 1187
709 2195 1937
720 2199 2202
699 2136 2338
728 2166 2495
800 2278 2690
889 2403 2877
1121 2122 591
1032 2127 810
673 2054 1335
847 2402 1978
1072 2699 2464
1013 2621 2629
999 2589 2737
1021 2605 2856
1078 2667 2997
1489 2530 718
1476 2609 907
1054 2460 1422
1083 2710 1985
1232 2923 2488
1294 3006 2850
1241 2926 2922
1233 2905 3011
1241 2906 3104
1938 3047 900
1973 3093 1014
1970 3107 1129
1642 3138 1780
1408 3212 2257
1454 3292 2899
1442 3238 3102
1401 3167 3144
1384 3134 3208
378 280 289
400 310 452
256 345 641
258 408 864
287 491 1109
319 585 1362
363 714 1626
424 897 1950
495 1124 2288
354 404 280
291 408 457
242 457 671
268 526 905
303 625 1177
346 748 1456
400 909 1750
474 1133 2102
556 1375 2431
402 625 278
309 624 427
263 637 762
293 701 1011
337 813 1291
387 951 1572
449 1141 1882
531 1374 2232
619 1604 2534
516 936 309
414 925 423
350 1018 846
382 1090 1301
423 1181 1562
483 1348 1855
554 1528 2149
636 1718 2430
714 1893 2666
815 1408 381
719 1434 475
486 1374 895
585 1768 1695
582 1715 1935
618 1774 2137
688 1918 2389
770 2080 2628
861 2229 2832
1251 1912 515
1178 1967 613
650 1707 976
740 2127 1825
870 2322 2263
834 2255 2430
882 2308 2606
959 2404 2785
1051 2515 2957
1568 2290 637
1511 2323 748
905 2102 1160
894 2356 1899
1154 2698 2424
1160 2709 2686
1134 2663 2791
1169 2696 2925
1219 2749 3057
1937 2708 783
1895 2751 891
1377 2573 1234
1186 2699 1895
1300 2905 2379
1404 3055 2871
1360 2986 2961
1343 2952 3044
1356 2960 3144
2156 3110 928
2155 3136 1037
2168 3163 1155
1879 3150 1595
1554 3214 2181
1534 3298 2791
1544 3285 3136
1502 3208 3172
1487 3176 3238
808 342 292
957 347 450
1019 436 721
665 469 984
388 516 1230
380 594 1427
415 709 1661
471 882 1968
547 1122 2300
880 439 233
811 484 462
904 559 762
478 568 1031
368 653 1265
403 759 1503
449 896 1761
519 1111 2097
610 1373 2434
1019 670 243
1026 706 392
551 747 854
369 772 1140
411 887 1410
456 1017 1670
516 1195 1960
602 1426 2297
707 1680 2607
1371 1169 398
1296 1231 529
623 1169 776
468 1207 1425
507 1287 1681
562 1426 1943
626 1571 2199
704 1740 2456
791 1929 2697
1804 1749 568
1734 1788 674
1211 1756 806
646 1775 1643
693 1844 2049
728 1897 2248
793 2015 2472
872 2149 2683
971 2288 2876
2078 2135 678
2014 2161 776
1740 2187 901
813 2092 1695
1019 2415 2322
980 2355 2513
1017 2391 2673
1086 2471 2835
1174 2570 2996
2261 2470 789
2206 2482 887
2032 2509 1030
1060 2358 1728
1180 2626 2326
1298 2785 2740
1259 2724 2836
1284 2744 2959
1326 2787 3084
2475 2841 863
2461 2884 977
2361 2952 1112
1499 2742 1619
1372 2891 2266
1487 3062 2807
1476 3041 3000
1449 2991 3070
1457 2992 3166
2629 3210 1021
2617 3223 1127
2546 3245 1245
2282 3231 1457
1762 3212 2064
1604 3296 2611
1642 3334 3153
1601 3248 3197
1579 3203 3254
1513 362 257
1622 345 382
1803 417 588
1874 580 977
1614 740 1422
1292 777 1650
825 784 1859
594 927 2099
613 1162 2376
1574 493 261
1647 509 364
1766 544 616
1840 737 1061
1545 922 1530
1042 911 1747
616 967 1934
593 1170 2205
678 1405 2489
1766 679 273
1829 698 346
1719 846 765
1756 1130 1387
1082 1109 1681
616 1130 1866
605 1293 2114
679 1478 2374
777 1703 2642
2093 1135 327
2173 1209 412
2175 1408 690
1295 1642 1707
710 1509 1941
689 1604 2172
742 1707 2363
803 1829 2553
892 2007 2774
2462 1866 557
2495 1927 671
2384 2030 968
1506 2064 1585
850 2027 2215
865 2043 2401
912 2108 2567
966 2182 2716
1048 2285 2880
2691 2321 776
2670 2353 917
2500 2383 1162
1999 2398 1509
1140 2437 2289
1149 2464 2608
1155 2462 2734
1207 2519 2873
1276 2596 3020
2848 2649 912
2794 2657 1065
2628 2657 1265
2322 2681 1521
1337 2635 2258
1421 2840 2781
1391 2788 2886
1393 2779 2986
1428 2815 3104
2976 2986 964
2948 2981 1059
2874 3012 1231
2666 3079 1487
1689 2972 2040
1560 3052 2710
1597 3105 3046
1558 3033 3099
1556 3016 3182
3056 3280 1142
3019 3292 1246
2974 3303 1354
2898 3396 1509
2230 3309 1916
1675 3288 2466
1720 3346 3070
1703 3294 3231
1671 3229 3268
2101 420 310
2136 399 419
2365 442 586
2497 552 814
2569 712 1156
2462 949 1656
2388 1208 2107
2182 1399 2389
1516 1390 2659
2199 557 319
2258 559 394
2394 579 608
2508 678 838
2584 884 1230
2480 1232 1845
2363 1491 2247
2112 1598 2504
1074 1547 2719
2454 761 351
2459 791 419
2461 847 651
2535 978 1015
2603 1300 1550
2469 1666 2153
2210 1740 2413
1373 1665 2626
872 1755 2763
2734 1085 378
2801 1152 465
2792 1331 642
2535 1805 1614
2566 1954 2090
2210 1982 2405
1441 1916 2619
937 1944 2736
1007 2081 2886
2980 1855 621
3005 1926 736
2982 2042 942
2889 2222 1392
2311 2375 2358
1627 2287 2640
1165 2297 2807
1165 2335 2896
1229 2405 3011
3121 2450 891
3133 2488 999
3123 2543 1184
3001 2649 1597
2339 2679 2235
1551 2658 2780
1367 2616 2906
1375 2615 2991
1401 2641 3083
3239 2777 1022
3250 2811 1139
3207 2847 1413
3050 2882 1742
2604 2887 2161
1750 2894 2750
1554 2889 2992
1531 2842 3063
1541 2850 3145
3359 3108 1172
3349 3124 1280
3295 3135 1464
3152 3155 1714
2896 3188 1975
1897 3126 2514
1711 3159 3081
1673 3081 3136
1652 3035 3198
3395 3345 1243
3373 3362 1351
3324 3373 1445
3252 3435 1647
3101 3487 1997
2334 3423 2262
1795 3352 2948
1791 3322 3247
1758 3247 3274
2609 489 444
2600 457 536
2745 494 665
2850 621 914
2894 767 1219
2946 932 1505
2925 1127 1870
2900 1546 2475
2784 1738 2807
2725 638 456
2708 631 545
2811 635 701
2883 744 940
2925 920 1267
2981 1133 1587
2960 1385 2005
2908 1813 2610
2748 1925 2892
2945 865 459
2924 884 515
2907 914 746
2952 1023 1059
2982 1239 1441
3034 1525 1821
2978 1848 2347
2881 2016 2750
2445 2060 3016
3196 1265 529
3204 1325 614
3189 1499 774
3091 1801 1365
3045 1933 1892
3044 2068 2245
2958 2199 2676
2621 2204 2927
1587 2165 3080
3338 1825 663
3362 1885 768
3355 1969 927
3286 2181 1399
3035 2454 2306
3050 2511 2647
2776 2480 2906
2060 2461 3081
1353 2433 3144
3449 2449 943
3458 2501 1064
3447 2559 1194
3398 2691 1668
3306 2797 2072
3018 2920 2831
2609 2862 3059
1973 2778 3180
1561 2734 3239
3517 2910 1165
3520 2931 1279
3517 2953 1393
3488 3019 1817
3369 3067 2130
3037 3115 2686
2438 3090 3129
1959 2975 3218
1677 2923 3268
3578 3152 1260
3581 3172 1377
3571 3200 1561
3506 3240 1907
3376 3284 2190
3181 3336 2492
2303 3275 3029
1850 3174 3244
1771 3099 3296
3630 3366 1339
3625 3385 1448
3593 3396 1535
3538 3461 1871
3447 3529 2115
3311 3560 2357
2553 3501 2717
1916 3385 3287
1860 3298 3331
2944 547 562
2933 522 644
2997 548 733
3094 673 962
3114 820 1252
3150 998 1552
3206 1260 2016
3220 1634 2516
3184 1895 2895
3072 714 580
3033 703 666
3063 700 767
3135 811 1006
3156 1014 1346
3198 1276 1701
3254 1581 2153
3244 1907 2636
3201 2060 2962
3284 1022 583
3253 1033 651
3193 984 818
3226 1208 1212
3234 1466 1631
3252 1696 1969
3294 1928 2343
3264 2112 2776
3182 2186 3066
3483 1472 630
3474 1518 707
3453 1652 890
3349 1895 1500
3326 2026 1962
3308 2110 2237
3337 2228 2620
3276 2318 2952
3052 2356 3175
3589 1931 752
3604 1979 845
3589 2051 963
3547 2272 1518
3425 2474 2179
3351 2544 2588
3388 2584 2892
3239 2582 3132
2933 2629 3301
3682 2400 950
3690 2438 1064
3686 2474 1182
3653 2575 1651
3588 2772 2120
3427 2974 2831
3425 2984 3103
3230 2947 3267
2927 2960 3414
3736 2938 1227
3736 2956 1343
3738 2980 1465
3724 3026 1746
3676 3103 2156
3617 3183 2497
3428 3305 3204
3246 3268 3353
2964 3238 3477
3754 3207 1326
3753 3219 1437
3755 3241 1551
3742 3291 1938
3704 3334 2254
3611 3400 2576
3448 3493 3074
3124 3460 3412
2881 3386 3498
3779 3369 1369
3778 3391 1480
3776 3414 1590
3757 3473 1984
3716 3527 2263
3647 3596 2523
3533 3663 2880
2873 3617 3319
2616 3516 3509
3222 613 630
3204 615 725
3226 626 808
3289 715 991
3305 936 1336
3322 1163 1688
3381 1458 2155
3448 1806 2653
3436 1994 2999
3343 809 652
3299 810 744
3293 842 871
3356 970 1114
3379 1256 1513
3385 1491 1869
3428 1735 2260
3484 1996 2729
3465 2131 3057
3561 1277 650
3508 1240 739
3437 1208 887
3470 1482 1389
3466 1700 1774
3445 1831 2073
3466 2001 2396
3519 2172 2846
3482 2261 3136
3681 1757 735
3672 1777 806
3647 1836 959
3573 1967 1553
3535 2106 2024
3505 2178 2300
3513 2270 2591
3556 2375 2992
3482 2417 3228
3728 2115 841
3726 2145 934
3730 2198 1051
3726 2365 1622
3647 2477 2144
3584 2575 2517
3579 2637 2850
3603 2663 3150
3484 2667 3337
3773 2463 996
3776 2492 1106
3780 2527 1224
3776 2635 1675
3773 2807 2141
3693 2952 2690
3618 3005 3062
3657 2990 3283
3531 2988 3436
3801 2850 1182
3802 2876 1301
3801 2883 1413
3796 2925 1672
3787 3011 2148
3785 3156 2563
3704 3336 3215
3685 3325 3407
3584 3313 3523
3827 3216 1333
3827 3229 1443
3825 3236 1552
3823 3248 1670
3817 3306 2101
3812 3359 2418
3814 3462 2875
3710 3592 3446
3661 3598 3565
3842 3409 1380
3842 3420 1487
3841 3432 1607
3837 3482 2010
3835 3527 2274
3833 3572 2513
3816 3663 2950
3745 3760 3363
3594 3740 3608
3462 766 712
3437 783 828
3438 796 919
3429 866 1085
3443 1178 1524
3462 1449 1962
3519 1674 2318
3569 1958 2775
3584 2119 3118
3547 1001 726
3522 1030 843
3514 1082 1031
3519 1240 1290
3520 1512 1693
3521 1725 2077
3555 1909 2390
3602 2114 2824
3612 2248 3163
3691 1491 699
3656 1476 803
3616 1473 980
3601 1629 1447
3600 1889 1900
3583 2025 2237
3593 2129 2503
3636 2271 2897
3639 2385 3223
3755 1916 788
3753 1949 867
3747 1987 1014
3694 2053 1562
3664 2202 2079
3641 2302 2385
3644 2381 2667
3681 2480 2996
3672 2564 3298
3799 2244 898
3802 2274 1003
3810 2331 1127
3802 2450 1670
3756 2520 2147
3725 2663 2551
3704 2713 2875
3734 2757 3123
3718 2792 3383
3832 2533 1030
3832 2568 1142
3835 2620 1267
3833 2724 1731
3829 2852 2161
3811 2956 2639
3747 3027 3036
3772 3052 3251
3773 3042 3463
3848 2836 1171
3848 2852 1282
3848 2874 1404
3844 2955 1753
3837 3048 2176
3838 3192 2594
3846 3322 3163
3814 3350 3393
3830 3320 3546
3868 3153 1318
3867 3165 1428
3867 3178 1539
3863 3223 1917
3856 3266 2237
3852 3321 2484
3868 3475 3015
3884 3610 3458
3862 3605 3604
3887 3386 1378
3887 3403 1485
3886 3430 1687
3884 3474 2010
3883 3519 2258
3880 3565 2516
3886 3650 2910
3902 3740 3307
3898 3812 3617
