nova/tdt-studio/app/Lut_mau/IWLTBAP/2 - LUTs by IWLTBAP (3DL)/01 - Standard/GoPro & Drones/IWLTBAP Aptira.3dl
# Copyright: (C) Copyright 2010-2018 by IWLTBAP
# LUT created by IWLTBAP for GoPro Pack
0 256 512 768 1023
0 1 2
43 97 479
84 193 975
125 294 1533
204 441 2116
73 637 309
71 698 900
97 769 1458
170 884 1974
242 1018 2486
118 1487 695
104 1556 1358
154 1588 1885
220 1643 2382
278 1685 2829
390 2320 1047
249 2330 1626
243 2362 2201
283 2363 2663
334 2333 3081
966 3101 1320
472 2975 1702
353 2971 2277
349 2975 2800
380 2945 3255
750 205 122
630 202 607
538 234 1063
521 324 1585
556 467 2139
863 794 272
676 803 888
491 888 1492
469 1034 2061
533 1199 2618
1115 1717 746
481 1680 1381
423 1712 1952
466 1784 2476
530 1827 2922
1573 2556 1182
1138 2478 1669
646 2481 2231
569 2483 2723
594 2445 3152
2033 3326 1480
1857 3306 1991
1254 3211 2387
735 3193 2923
711 3135 3362
2014 471 319
1938 471 783
1712 451 1311
1475 447 1790
1367 548 2288
2439 1160 481
2324 1253 1162
1880 1186 1686
1553 1219 2168
1365 1309 2666
2583 2045 895
2386 2105 1615
2063 2113 2172
1786 2134 2658
1339 2137 3091
2734 2832 1319
2515 2828 1938
2285 2819 2437
1681 2717 2845
1012 2613 3248
2936 3482 1524
2829 3527 2165
2713 3573 2736
2309 3497 3128
1610 3373 3507
2870 702 549
2782 697 962
2657 688 1462
2440 661 1954
2233 635 2402
3233 1383 730
3163 1464 1306
2989 1456 1860
2732 1461 2348
2394 1443 2806
3420 2196 1004
3396 2306 1667
3233 2379 2343
2921 2338 2761
2206 2219 3166
3443 2891 1333
3377 2998 2006
3295 3068 2627
3121 3101 3127
2531 2991 3502
3555 3545 1598
3533 3644 2258
3483 3716 2853
3412 3774 3378
3189 3725 3751
3478 844 704
3373 809 1052
3285 803 1526
3121 786 1991
2907 743 2467
3735 1498 888
3697 1498 1345
3583 1470 1831
3445 1456 2326
3243 1461 2825
3939 2250 1099
3943 2342 1678
3826 2372 2300
3709 2353 2783
3378 2339 3268
4011 2946 1420
3993 3088 2037
3976 3211 2722
3907 3271 3275
3663 3229 3646
3991 3581 1713
3986 3715 2366
3991 3819 2968
3984 3896 3494
3977 3938 3924
