nova/tdt-studio/app/Lut_mau/IWLTBAP/2 - LUTs by IWLTBAP (3DL)/01 - Standard/GoPro & Drones/IWLTBAP Aructa.3dl
# Copyright: (C) Copyright 2016 by IWLTBAP
# LUT created by IWLTBAP for GoPro Pack
0 128 256 384 512 640 768 896 1023
5 14 21
81 172 384
253 444 778
366 756 1239
500 1095 1657
604 1347 1978
710 1572 2278
831 1790 2514
847 1884 2665
254 389 244
168 411 510
296 705 912
453 1073 1424
595 1359 1802
704 1597 2138
801 1791 2391
893 1972 2599
919 2077 2758
727 1002 559
541 969 727
233 994 1081
516 1334 1551
648 1576 1935
765 1790 2245
856 1969 2470
946 2139 2683
975 2209 2821
1285 1563 842
1198 1556 900
918 1560 1279
521 1585 1652
656 1789 2052
783 1964 2315
882 2130 2537
982 2272 2739
1001 2296 2847
1679 1987 1103
1590 2001 1186
1411 1979 1341
1003 2014 1804
762 2035 2116
823 2158 2383
878 2246 2572
970 2373 2787
1005 2412 2903
1933 2268 1305
1836 2244 1361
1766 2215 1289
1378 2298 1873
1023 2314 2246
987 2372 2502
985 2401 2626
1002 2480 2817
1002 2509 2950
2170 2507 1487
2100 2508 1555
2118 2462 1331
1675 2491 1951
1330 2533 2268
1157 2557 2522
1147 2561 2678
1126 2619 2855
1085 2630 2990
2355 2713 1625
2300 2723 1685
2329 2668 1432
1970 2681 1967
1597 2704 2292
1330 2733 2538
1286 2764 2744
1259 2778 2914
1180 2766 3021
2477 2847 1702
2430 2854 1734
2479 2801 1472
2105 2813 1985
1723 2814 2272
1457 2847 2528
1348 2873 2750
1327 2884 2924
1236 2868 3042
377 31 10
196 150 356
307 347 739
466 654 1183
588 971 1591
699 1243 1925
811 1497 2239
930 1725 2471
968 1841 2625
350 360 178
445 564 608
554 800 998
762 1166 1453
872 1443 1852
959 1668 2166
1077 1873 2412
1162 2057 2651
1166 2152 2763
935 982 458
911 1080 772
586 1117 1154
827 1424 1600
937 1684 1994
1058 1884 2253
1160 2071 2503
1242 2214 2706
1252 2286 2827
1429 1556 766
1450 1617 903
1185 1651 1348
812 1681 1729
958 1882 2077
1090 2073 2356
1203 2227 2581
1298 2331 2741
1312 2404 2882
1818 1964 1061
1802 2022 1213
1635 2046 1395
1187 2065 1849
969 2092 2170
1084 2215 2415
1202 2341 2642
1323 2453 2803
1334 2509 2925
2071 2269 1292
2043 2308 1422
1994 2281 1332
1565 2325 1947
1177 2360 2271
1164 2406 2484
1185 2460 2666
1292 2550 2834
1300 2596 2959
2277 2497 1484
2252 2530 1599
2249 2465 1342
1863 2531 2001
1474 2555 2271
1316 2567 2514
1291 2619 2732
1265 2646 2857
1248 2681 2999
2441 2697 1629
2422 2743 1739
2452 2665 1431
2141 2716 1998
1762 2727 2295
1478 2757 2542
1414 2782 2746
1377 2796 2916
1289 2799 3031
2557 2839 1716
2536 2866 1799
2564 2802 1535
2277 2854 1992
1882 2844 2286
1572 2871 2546
1462 2888 2762
1428 2902 2937
1338 2899 3054
1075 75 0
673 48 223
512 84 485
501 230 895
485 505 1319
631 946 1759
827 1317 2149
947 1570 2423
995 1685 2557
1248 394 4
1238 568 419
914 642 894
876 933 1343
989 1304 1777
1044 1545 2110
1193 1777 2329
1291 1996 2587
1289 2098 2747
1192 831 261
1246 1020 656
1272 1228 1198
1314 1501 1584
1395 1769 1969
1460 1955 2256
1539 2125 2474
1620 2282 2697
1620 2350 2800
1584 1527 639
1543 1620 924
1540 1732 1484
1485 1813 1809
1469 1994 2105
1565 2136 2333
1637 2276 2543
1693 2428 2753
1688 2486 2866
1839 1962 1053
1849 2042 1280
1796 2082 1351
1554 2132 1915
1527 2186 2190
1602 2284 2399
1693 2424 2584
1734 2545 2794
1724 2592 2922
2117 2262 1290
2090 2315 1477
2081 2287 1304
1633 2352 1973
1686 2404 2240
1663 2459 2460
1689 2530 2635
1737 2627 2837
1720 2680 2966
2321 2496 1492
2289 2541 1657
2300 2493 1436
1897 2543 1999
1663 2575 2301
1759 2624 2502
1732 2647 2683
1727 2735 2874
1689 2779 3013
2487 2703 1634
2455 2752 1796
2455 2694 1610
2241 2748 1957
1737 2728 2300
1720 2793 2534
1796 2833 2719
1761 2866 2902
1674 2882 3035
2594 2841 1728
2558 2875 1857
2563 2836 1701
2359 2876 1958
1832 2835 2287
1739 2889 2544
1828 2948 2740
1797 2986 2923
1689 2971 3055
1553 93 0
1294 46 41
1064 80 413
949 142 716
945 264 1016
941 395 1292
816 520 1600
606 814 2066
637 1036 2310
1797 362 0
1829 584 320
1570 573 706
1348 662 1103
1277 798 1417
1160 956 1721
1030 1242 2100
1191 1701 2471
1280 1864 2653
1945 820 57
1984 989 449
1952 1208 1005
1624 1361 1508
1529 1473 1844
1512 1739 2141
1622 2004 2420
1688 2187 2640
1721 2276 2784
1956 1249 360
1992 1473 770
1949 1704 1344
1943 1885 1826
1907 2020 2071
1962 2189 2315
2007 2335 2517
2019 2442 2732
2009 2508 2869
2393 1827 544
2329 1945 865
2202 2045 1250
2143 2215 2060
2094 2244 2210
2052 2353 2411
2080 2452 2577
2080 2565 2792
2067 2631 2928
2440 2186 919
2310 2271 1299
2264 2286 1328
2204 2408 1965
2152 2447 2283
2097 2481 2456
2102 2549 2634
2126 2688 2841
2081 2745 2971
2385 2459 1376
2283 2527 1629
2284 2534 1617
2258 2593 1951
2209 2639 2330
2192 2687 2519
2166 2733 2710
2133 2805 2898
2058 2844 3019
2374 2705 1621
2256 2737 1794
2256 2736 1776
2311 2764 1862
2223 2818 2332
2202 2862 2558
2198 2887 2735
2149 2916 2939
2061 2946 3057
2487 2852 1714
2348 2851 1843
2314 2834 1817
2417 2877 1864
2262 2902 2311
2234 2968 2568
2194 2988 2750
2151 3020 2957
2077 3030 3071
1930 114 0
1724 57 15
1547 99 337
1357 158 710
1217 209 928
1249 343 1203
1238 457 1452
1184 559 1707
1152 642 1913
2151 361 0
2230 600 274
2070 545 545
1797 620 1005
1603 703 1296
1526 814 1567
1465 871 1788
1327 975 2076
1258 1110 2296
2377 735 3
2386 926 333
2379 1255 962
2176 1259 1344
1944 1323 1694
1875 1448 1933
1774 1546 2170
1572 1788 2470
1570 1919 2629
2517 1239 232
2490 1474 634
2421 1613 1097
2349 1846 1678
2138 1989 2035
2086 2007 2222
2022 2143 2423
2116 2380 2692
2118 2461 2817
2537 1637 491
2492 1801 905
2434 2013 1426
2382 2190 1953
2353 2266 2220
2300 2357 2385
2365 2492 2592
2367 2606 2788
2354 2666 2898
2783 2113 769
2707 2188 1140
2628 2318 1549
2513 2408 1949
2462 2493 2361
2428 2516 2483
2416 2619 2660
2407 2727 2856
2391 2793 2984
2996 2316 707
2907 2384 966
2797 2451 1223
2631 2597 1878
2548 2696 2302
2490 2732 2545
2453 2757 2731
2428 2843 2895
2390 2892 3028
2927 2633 1274
2841 2713 1553
2772 2738 1652
2765 2744 1672
2642 2891 2298
2518 2911 2574
2494 2938 2757
2450 2959 2941
2374 2988 3049
2979 2809 1457
2883 2851 1689
2826 2856 1755
2843 2851 1725
2714 2987 2293
2557 3008 2573
2484 3041 2771
2449 3064 2972
2387 3097 3092
2184 140 1
2101 131 38
1872 129 311
1694 197 689
1535 252 949
1422 288 1107
1411 387 1375
1396 504 1646
1371 571 1815
2390 373 7
2505 613 269
2352 531 510
2102 601 941
1898 678 1274
1736 731 1455
1667 813 1702
1586 830 1903
1526 890 2060
2595 740 38
2632 922 303
2640 1273 961
2483 1258 1276
2270 1331 1671
2102 1379 1880
2027 1475 2066
1918 1527 2296
1890 1660 2484
2789 1234 189
2763 1383 515
2693 1607 1073
2633 1866 1664
2503 1905 1981
2329 1928 2155
2256 1988 2315
2141 2095 2556
2091 2176 2686
2853 1622 450
2821 1841 872
2745 2042 1383
2654 2123 1794
2616 2259 2132
2486 2310 2349
2417 2351 2519
2402 2497 2721
2410 2580 2850
2873 1939 689
2798 2076 1120
2725 2257 1604
2689 2370 2001
2654 2472 2287
2643 2550 2498
2655 2668 2686
2637 2752 2858
2626 2807 2969
3048 2341 1011
2993 2442 1376
2905 2545 1755
2859 2626 2065
2774 2705 2329
2742 2763 2554
2695 2798 2746
2663 2857 2915
2650 2912 3020
3278 2579 968
3207 2626 1168
3084 2703 1535
2975 2794 1899
2885 2887 2270
2824 2938 2538
2732 2969 2795
2685 2986 2952
2667 3024 3065
3392 2711 947
3315 2758 1168
3215 2792 1387
3055 2888 1883
2957 3004 2270
2883 3065 2552
2754 3074 2805
2718 3116 3002
2681 3130 3109
2393 203 13
2354 218 102
2096 131 292
1979 220 646
1806 301 973
1683 329 1150
1549 339 1295
1534 439 1558
1529 513 1757
2593 452 37
2686 626 260
2577 552 486
2340 548 846
2122 633 1205
1982 707 1443
1825 721 1583
1735 753 1810
1722 834 2003
2777 784 109
2840 914 309
2848 1306 1012
2741 1281 1263
2551 1332 1629
2379 1404 1885
2207 1410 2013
2113 1466 2198
2069 1534 2380
2953 1191 218
2988 1328 439
2930 1613 1081
2879 1926 1691
2783 1916 1907
2630 1929 2133
2459 1951 2296
2370 2002 2470
2347 2063 2589
3087 1630 366
3080 1801 707
3004 2006 1280
2912 2137 1758
2872 2275 2143
2780 2289 2301
2638 2284 2450
2557 2349 2632
2512 2389 2751
3128 1959 721
3062 2112 1092
2999 2279 1575
2939 2386 1926
2899 2465 2199
2880 2561 2456
2781 2575 2608
2694 2629 2777
2664 2675 2897
3128 2207 948
3047 2319 1334
2985 2449 1756
2965 2589 2087
2954 2664 2327
2943 2759 2549
2922 2827 2751
2897 2892 2916
2891 2940 3030
3302 2608 1299
3246 2688 1588
3209 2753 1879
3167 2849 2162
3117 2901 2355
3055 2957 2542
2992 3001 2769
2930 3013 2984
2919 3064 3099
3419 2784 1433
3373 2858 1675
3311 2919 1911
3262 2976 2137
3205 3030 2333
3127 3080 2550
3057 3126 2799
2971 3143 3027
2943 3174 3147
2575 257 45
2549 272 172
2274 116 233
2209 241 641
2069 310 921
1901 379 1209
1799 405 1346
1653 363 1475
1640 427 1648
2762 524 101
2849 646 306
2772 569 472
2500 490 785
2324 565 1114
2182 675 1429
2019 694 1592
1858 661 1695
1838 724 1872
2956 839 198
3015 965 392
3058 1334 1046
2935 1284 1244
2768 1311 1564
2630 1376 1847
2451 1426 2025
2281 1403 2131
2238 1425 2248
3127 1240 340
3151 1361 526
3175 1624 1088
3098 1937 1688
2988 1910 1876
2875 1921 2078
2703 1943 2279
2510 1921 2410
2489 1985 2535
3266 1671 477
3280 1732 666
3246 1976 1245
3151 2142 1753
3122 2308 2133
3028 2288 2255
2882 2288 2444
2703 2303 2599
2663 2335 2713
3354 1965 584
3333 2076 887
3273 2268 1444
3208 2392 1865
3164 2474 2166
3137 2586 2447
3046 2560 2586
2862 2544 2727
2833 2599 2849
3349 2224 964
3302 2344 1333
3268 2490 1717
3234 2618 2034
3197 2700 2280
3183 2752 2502
3153 2834 2746
3016 2805 2875
2973 2849 2985
3347 2466 1234
3322 2564 1552
3238 2652 1861
3249 2765 2142
3230 2862 2392
3211 2908 2586
3185 2985 2792
3160 3031 2987
3145 3066 3095
3425 2661 1366
3401 2746 1662
3365 2852 1944
3367 2933 2166
3338 3003 2407
3298 3062 2628
3271 3130 2824
3197 3168 3015
3170 3183 3142
2690 294 82
2642 267 200
2380 116 246
2306 232 657
2203 280 928
2075 380 1215
1948 423 1397
1807 386 1503
1691 344 1573
2876 560 172
2959 666 362
2883 588 513
2592 478 779
2480 567 1133
2355 691 1444
2228 757 1644
2031 712 1744
1904 652 1793
3057 854 250
3125 963 437
3158 1358 1097
3028 1263 1264
2890 1278 1547
2778 1344 1808
2619 1437 2025
2443 1445 2161
2332 1388 2230
3230 1248 397
3273 1363 586
3297 1638 1132
3205 1946 1728
3114 1889 1866
2991 1910 2045
2857 1949 2282
2688 1973 2419
2563 1922 2484
3376 1673 545
3388 1757 729
3373 1973 1266
3298 2152 1764
3252 2324 2159
3166 2282 2248
3025 2290 2446
2854 2297 2601
2762 2298 2673
3478 1998 669
3487 2091 925
3410 2277 1478
3362 2400 1883
3328 2505 2200
3276 2588 2439
3185 2560 2557
3015 2568 2730
2899 2537 2794
3498 2231 996
3460 2384 1351
3422 2526 1706
3394 2619 2010
3356 2706 2261
3339 2762 2509
3314 2834 2734
3187 2833 2879
3071 2810 2955
3486 2459 1276
3446 2573 1601
3409 2666 1888
3399 2769 2140
3382 2855 2383
3359 2933 2597
3344 2991 2783
3317 3063 2995
3233 3032 3079
3524 2619 1358
3479 2712 1647
3448 2799 1932
3448 2887 2157
3425 2966 2386
3394 3053 2622
3373 3105 2821
3341 3178 3033
3329 3202 3166
