nova/tdt-studio/app/Lut_mau/IWLTBAP/2 - LUTs by IWLTBAP (3DL)/01 - Standard/GoPro & Drones/IWLTBAP Aructa.3dl
# Copyright: (C) Copyright 2016 by IWLTBAP
# LUT created by IWLTBAP for GoPro Pack
0 256 512 768 1023
5 14 21
253 444 778
500 1095 1657
710 1572 2278
847 1884 2665
727 1002 559
233 994 1081
648 1576 1935
856 1969 2470
975 2209 2821
1679 1987 1103
1411 1979 1341
762 2035 2116
878 2246 2572
1005 2412 2903
2170 2507 1487
2118 2462 1331
1330 2533 2268
1147 2561 2678
1085 2630 2990
2477 2847 1702
2479 2801 1472
1723 2814 2272
1348 2873 2750
1236 2868 3042
1075 75 0
512 84 485
485 505 1319
827 1317 2149
995 1685 2557
1192 831 261
1272 1228 1198
1395 1769 1969
1539 2125 2474
1620 2350 2800
1839 1962 1053
1796 2082 1351
1527 2186 2190
1693 2424 2584
1724 2592 2922
2321 2496 1492
2300 2493 1436
1663 2575 2301
1732 2647 2683
1689 2779 3013
2594 2841 1728
2563 2836 1701
1832 2835 2287
1828 2948 2740
1689 2971 3055
1930 114 0
1547 99 337
1217 209 928
1238 457 1452
1152 642 1913
2377 735 3
2379 1255 962
1944 1323 1694
1774 1546 2170
1570 1919 2629
2537 1637 491
2434 2013 1426
2353 2266 2220
2365 2492 2592
2354 2666 2898
2996 2316 707
2797 2451 1223
2548 2696 2302
2453 2757 2731
2390 2892 3028
2979 2809 1457
2826 2856 1755
2714 2987 2293
2484 3041 2771
2387 3097 3092
2393 203 13
2096 131 292
1806 301 973
1549 339 1295
1529 513 1757
2777 784 109
2848 1306 1012
2551 1332 1629
2207 1410 2013
2069 1534 2380
3087 1630 366
3004 2006 1280
2872 2275 2143
2638 2284 2450
2512 2389 2751
3128 2207 948
2985 2449 1756
2954 2664 2327
2922 2827 2751
2891 2940 3030
3419 2784 1433
3311 2919 1911
3205 3030 2333
3057 3126 2799
2943 3174 3147
2690 294 82
2380 116 246
2203 280 928
1948 423 1397
1691 344 1573
3057 854 250
3158 1358 1097
2890 1278 1547
2619 1437 2025
2332 1388 2230
3376 1673 545
3373 1973 1266
3252 2324 2159
3025 2290 2446
2762 2298 2673
3498 2231 996
3422 2526 1706
3356 2706 2261
3314 2834 2734
3071 2810 2955
3524 2619 1358
3448 2799 1932
3425 2966 2386
3373 3105 2821
3329 3202 3166
