nova/tdt-studio/app/Lut_mau/IWLTBAP/1 - LUTs by IWLTBAP (CUBE)/01 - Standard/Cinematic/C-6720-STD.cube
# Copyright: (C) Copyright 2010-2019 by IWLTBAP SAS
# Cannot be resold, shared or otherwise redistributed
# Website: https://luts.iwltbap.com
TITLE "IWLTBAP 6720 (Rec.709, sRGB, DCI-P3)"
LUT_3D_SIZE 5
0.000702 0.001923 0.000641
0.112488 0.010986 0.005463
0.293121 0.023804 0.003510
0.495880 0.045624 0.000031
0.711792 0.073730 0.000031
0.023407 0.196075 0.039551
0.202637 0.195679 0.022858
0.435913 0.234344 0.017914
0.631653 0.234070 0.017822
0.840637 0.240906 0.017120
0.083649 0.430786 0.071869
0.252777 0.415680 0.046631
0.478577 0.473206 0.034637
0.721375 0.506653 0.031311
0.952179 0.512482 0.033539
0.222168 0.646179 0.077087
0.307190 0.666351 0.069916
0.505859 0.686157 0.055695
0.721954 0.747467 0.043518
0.968414 0.757843 0.044098
0.235840 0.917084 0.063660
0.347656 0.934387 0.057098
0.521881 0.958160 0.053223
0.746277 0.993347 0.077209
0.968201 1.000000 0.115723
0.053131 0.159088 0.209625
0.148865 0.098053 0.163452
0.284424 0.032410 0.106384
0.475098 0.045898 0.109192
0.704071 0.068146 0.120819
0.105469 0.298096 0.304657
0.214447 0.277435 0.255066
0.422058 0.241089 0.191315
0.622284 0.243683 0.177002
0.835052 0.249115 0.172455
0.209747 0.491943 0.362274
0.283081 0.487610 0.328766
0.491364 0.495453 0.260132
0.723785 0.509857 0.257324
0.951355 0.515930 0.251221
0.261322 0.674377 0.338348
0.314087 0.694855 0.318817
0.505768 0.713470 0.286743
0.725250 0.754059 0.268494
0.971710 0.760895 0.268829
0.218964 0.934723 0.272034
0.339935 0.946442 0.299683
0.523590 0.967712 0.287689
0.744873 0.992798 0.321472
0.968109 1.000000 0.352692
0.041565 0.309204 0.456238
0.147461 0.282715 0.408356
0.367432 0.208618 0.350922
0.540710 0.157196 0.354675
0.748016 0.123657 0.378632
0.126862 0.412231 0.513947
0.226074 0.415741 0.496521
0.439056 0.369049 0.432251
0.637848 0.350098 0.437775
0.853271 0.341553 0.457977
0.252380 0.571655 0.571014
0.339355 0.588684 0.577087
0.509888 0.587555 0.549530
0.710144 0.544617 0.500183
0.930756 0.543488 0.497833
0.298096 0.743591 0.604034
0.375427 0.746857 0.594147
0.512085 0.753296 0.559387
0.726990 0.766968 0.518738
0.972992 0.762207 0.508331
0.191650 0.955811 0.554718
0.334625 0.958801 0.551208
0.518494 0.974274 0.525543
0.743286 0.995972 0.544281
0.969421 1.000000 0.591064
0.087921 0.432434 0.646332
0.163269 0.420868 0.626221
0.361603 0.376831 0.588470
0.583740 0.382843 0.589020
0.780334 0.374634 0.652588
0.175171 0.514374 0.685486
0.255890 0.521423 0.682343
0.403870 0.501434 0.637421
0.634338 0.515839 0.649353
0.822266 0.517731 0.696472
0.259125 0.628021 0.705841
0.360870 0.643860 0.710815
0.477936 0.664307 0.716003
0.678894 0.685364 0.726624
0.874512 0.661591 0.737549
0.236877 0.780060 0.758728
0.369843 0.789032 0.763550
0.503845 0.807861 0.773346
0.705841 0.828247 0.768860
0.944794 0.798187 0.751862
0.048676 0.939728 0.753113
0.179779 0.996307 0.794159
0.484009 0.992371 0.768341
0.741394 1.000000 0.769501
0.973236 1.000000 0.825623
0.218323 0.530182 0.782684
0.241882 0.528961 0.779266
0.344269 0.509644 0.740631
0.586945 0.500336 0.780823
0.753632 0.570221 0.804352
0.233063 0.595947 0.813843
0.281921 0.597260 0.808716
0.376068 0.587494 0.786255
0.597504 0.596771 0.810455
0.774475 0.657654 0.829620
0.152985 0.689423 0.843567
0.313660 0.682800 0.827576
0.421509 0.691132 0.844238
0.609436 0.711945 0.866669
0.809265 0.761383 0.869965
0.045837 0.765289 0.829956
0.183594 0.813263 0.882446
0.421722 0.815063 0.893066
0.657623 0.833374 0.917267
0.886719 0.856598 0.935150
0.046173 0.932831 0.878937
0.078461 0.987274 0.934204
0.409882 1.000000 0.950989
0.732178 1.000000 0.960022
0.999939 1.000000 0.999969
