nova/tdt-studio/app/Lut_mau/IWLTBAP/1 - LUTs by IWLTBAP (CUBE)/01 - Standard/Cinematic/C-6720-STD.cube
# Copyright: (C) Copyright 2010-2019 by IWLTBAP SAS
# Cannot be resold, shared or otherwise redistributed
# Website: https://luts.iwltbap.com
TITLE "IWLTBAP 6720 (Rec.709, sRGB, DCI-P3)"
LUT_3D_SIZE 33
0.000702 0.001923 0.000641
0.008698 0.002869 0.000946
0.018555 0.003906 0.001770
0.029602 0.004822 0.002838
0.041595 0.006287 0.004028
0.058167 0.007629 0.004913
0.074982 0.008240 0.004913
0.093445 0.009521 0.005402
0.112488 0.010986 0.005463
0.134216 0.011810 0.005371
0.155823 0.012970 0.005829
0.177277 0.014862 0.005402
0.199310 0.016602 0.004883
0.221924 0.017944 0.004608
0.246002 0.020020 0.004211
0.269318 0.021637 0.003876
0.293121 0.023804 0.003510
0.317505 0.025330 0.003204
0.342194 0.027710 0.002869
0.367096 0.030487 0.002380
0.392914 0.032898 0.002136
0.418671 0.035889 0.001495
0.444641 0.038849 0.000610
0.470947 0.042053 0.000031
0.495880 0.045624 0.000031
0.521637 0.049225 0.000031
0.547638 0.053040 0.000031
0.574371 0.056335 0.000031
0.602203 0.059723 0.000031
0.628510 0.063416 0.000031
0.656006 0.066986 0.000031
0.684387 0.070343 0.000031
0.711792 0.073730 0.000031
0.005524 0.021118 0.007751
0.015289 0.021576 0.006683
0.027130 0.022583 0.006073
0.039856 0.023132 0.006287
0.054749 0.023682 0.006836
0.070221 0.024536 0.006744
0.088684 0.024445 0.007202
0.107269 0.024963 0.007660
0.126434 0.026031 0.007172
0.147217 0.026367 0.007416
0.168091 0.027222 0.007477
0.189117 0.028778 0.006256
0.211426 0.029572 0.006500
0.233887 0.030884 0.006042
0.256866 0.032959 0.005585
0.279907 0.034698 0.004822
0.303680 0.036591 0.004547
0.327820 0.039032 0.004272
0.351807 0.041687 0.003723
0.376617 0.044647 0.003418
0.402069 0.047638 0.003174
0.427551 0.051025 0.002594
0.453766 0.053833 0.002197
0.480377 0.057159 0.001648
0.507782 0.060150 0.001343
0.535431 0.063171 0.000763
0.563507 0.066132 0.000153
0.590942 0.069702 0.000031
0.619446 0.072693 0.000031
0.646912 0.076416 0.000031
0.675201 0.079865 0.000031
0.703888 0.083252 0.000031
0.731781 0.086792 0.000031
0.009277 0.043243 0.014923
0.020294 0.041840 0.012665
0.034241 0.041656 0.011292
0.049713 0.042908 0.010803
0.067596 0.043549 0.010437
0.085449 0.044189 0.009918
0.104431 0.044037 0.010162
0.122620 0.044891 0.009552
0.142029 0.045044 0.009766
0.161926 0.045197 0.009277
0.182373 0.045654 0.009216
0.203827 0.046021 0.009247
0.224823 0.046967 0.007385
0.247345 0.047485 0.007721
0.269409 0.049377 0.006683
0.292908 0.050598 0.006256
0.315338 0.052856 0.005493
0.339600 0.054749 0.005676
0.363739 0.057465 0.005402
0.388306 0.060303 0.005188
0.413055 0.063568 0.004822
0.438782 0.066498 0.004700
0.464935 0.069397 0.004547
0.491364 0.073120 0.004120
0.518158 0.076416 0.003601
0.545807 0.079651 0.003357
0.574432 0.082489 0.003326
0.602692 0.085785 0.002777
0.631470 0.088959 0.002167
0.660858 0.091949 0.001740
0.690369 0.095276 0.001068
0.720673 0.098083 0.000641
0.750061 0.101410 0.000031
0.013184 0.065216 0.020203
0.024994 0.063629 0.017670
0.039001 0.062531 0.015564
0.055145 0.062958 0.013855
0.074310 0.065094 0.012390
0.097534 0.067078 0.011658
0.119324 0.068573 0.011536
0.140015 0.068726 0.011688
0.159637 0.068756 0.011871
0.179260 0.068420 0.011078
0.199768 0.068604 0.010620
0.220734 0.068359 0.011017
0.241638 0.068695 0.009857
0.263489 0.068787 0.009613
0.285736 0.069763 0.008942
0.308136 0.070801 0.007660
0.330963 0.072052 0.007507
0.354492 0.073883 0.007416
0.378052 0.076385 0.007111
0.402435 0.078674 0.007172
0.426971 0.081451 0.006927
0.452179 0.084351 0.006866
0.477997 0.087311 0.006714
0.504272 0.090637 0.006561
0.531006 0.093658 0.006287
0.558502 0.096893 0.006226
0.586212 0.100250 0.005890
0.614258 0.103607 0.005371
0.643188 0.106750 0.005219
0.672241 0.110046 0.004822
0.701691 0.113403 0.004456
0.731445 0.116669 0.003815
0.761444 0.119659 0.003479
0.015045 0.088837 0.025177
0.028534 0.086761 0.022034
0.042297 0.085754 0.019135
0.060364 0.084167 0.016724
0.079498 0.084869 0.015289
0.103790 0.088928 0.014374
0.130402 0.093567 0.013184
0.154968 0.096252 0.013000
0.177704 0.097076 0.013214
0.198242 0.096832 0.013367
0.218994 0.096497 0.012695
0.239929 0.096008 0.012665
0.261230 0.095459 0.011841
0.282684 0.095093 0.011932
0.304291 0.095490 0.011017
0.327026 0.095612 0.010162
0.349426 0.096375 0.009521
0.372467 0.097229 0.009277
0.395874 0.098572 0.009247
0.419464 0.100891 0.009064
0.443756 0.103271 0.008972
0.468475 0.105652 0.008911
0.493866 0.108032 0.008881
0.519745 0.110901 0.008820
0.545929 0.113831 0.008575
0.572723 0.116943 0.008362
0.600128 0.119995 0.008209
0.627930 0.122955 0.008026
0.656250 0.126404 0.007751
0.684906 0.129730 0.007446
0.714111 0.132812 0.007263
0.743652 0.136139 0.006897
0.773132 0.139160 0.006531
0.017609 0.113892 0.030182
0.031738 0.111206 0.026001
0.046570 0.109558 0.022430
0.064728 0.107361 0.019897
0.084961 0.107025 0.017700
0.106903 0.109222 0.016602
0.133911 0.115143 0.015869
0.163269 0.122437 0.014740
0.191528 0.127106 0.014771
0.216675 0.128510 0.014862
0.239380 0.128632 0.014465
0.260864 0.128326 0.013947
0.282593 0.127533 0.013947
0.304230 0.126892 0.013641
0.326172 0.126343 0.013367
0.348267 0.126160 0.012695
0.370544 0.126221 0.012146
0.393646 0.126556 0.011658
0.416473 0.127350 0.011139
0.440033 0.128357 0.011139
0.463776 0.129883 0.010956
0.488403 0.131531 0.011047
0.513031 0.133575 0.010834
0.538361 0.135590 0.010864
0.564178 0.137909 0.010834
0.590302 0.140381 0.010651
0.617035 0.143036 0.010468
0.644348 0.145691 0.010406
0.671997 0.148468 0.010284
0.700134 0.151459 0.010101
0.728638 0.154419 0.009857
0.757477 0.157471 0.009552
0.786285 0.160461 0.009216
0.020630 0.140106 0.032990
0.033630 0.137909 0.029633
0.050049 0.134949 0.026093
0.069092 0.132019 0.023071
0.090485 0.130493 0.020569
0.112061 0.132172 0.019135
0.137543 0.136230 0.018646
0.165741 0.143860 0.017578
0.197083 0.152374 0.016510
0.227814 0.158966 0.016022
0.255768 0.162445 0.015900
0.280457 0.163361 0.016083
0.303589 0.162872 0.015778
0.325928 0.162292 0.015686
0.348450 0.161713 0.014801
0.370911 0.161041 0.015076
0.393555 0.160614 0.014404
0.416473 0.160431 0.014374
0.439850 0.160461 0.013550
0.463104 0.160828 0.013306
0.486908 0.161560 0.013336
0.511230 0.162445 0.013397
0.535461 0.163727 0.013214
0.560455 0.165009 0.013245
0.585754 0.166412 0.013214
0.611267 0.168274 0.012970
0.637482 0.170288 0.012939
0.663879 0.172333 0.012726
0.690918 0.174530 0.012665
0.718262 0.176636 0.012543
0.745911 0.179291 0.012329
0.774109 0.181702 0.012177
0.802032 0.184265 0.011871
0.021454 0.167877 0.036469
0.036011 0.165131 0.032379
0.053650 0.161621 0.028534
0.073792 0.157898 0.025543
0.095337 0.155731 0.023041
0.117920 0.156006 0.022461
0.143036 0.158844 0.021545
0.168976 0.165222 0.020874
0.198975 0.173920 0.019806
0.231598 0.184174 0.018402
0.264435 0.192261 0.017273
0.294373 0.196869 0.017609
0.321014 0.198608 0.016846
0.345367 0.198700 0.017029
0.369019 0.198303 0.016724
0.392761 0.197540 0.016937
0.416016 0.197021 0.016907
0.439484 0.196625 0.015961
0.462799 0.196411 0.015717
0.486420 0.196350 0.015594
0.510376 0.196472 0.015625
0.534637 0.196716 0.015625
0.558990 0.197418 0.015625
0.583679 0.198029 0.015594
0.608795 0.198914 0.015564
0.634125 0.199890 0.015472
0.659729 0.201263 0.015350
0.685883 0.202667 0.015320
0.712189 0.204193 0.015167
0.738861 0.205566 0.015045
0.765594 0.207275 0.014801
0.793060 0.209137 0.014740
0.820343 0.210999 0.014465
0.023407 0.196075 0.039551
0.038025 0.193451 0.035645
0.055206 0.190125 0.032013
0.077057 0.185425 0.028778
0.099762 0.182312 0.026276
0.123810 0.181213 0.025177
0.148804 0.183014 0.024384
0.174896 0.188110 0.023499
0.202637 0.195679 0.022858
0.233002 0.205627 0.021729
0.266785 0.217194 0.020325
0.300659 0.226288 0.018799
0.331726 0.231903 0.018341
0.360107 0.234161 0.018402
0.386169 0.234680 0.018250
0.411133 0.234680 0.018066
0.435913 0.234344 0.017914
0.460266 0.233856 0.017914
0.484253 0.233582 0.017853
0.508331 0.233398 0.017731
0.532654 0.233185 0.017761
0.557190 0.233093 0.017792
0.581787 0.233307 0.017822
0.606628 0.233582 0.017883
0.631653 0.234070 0.017822
0.656982 0.234650 0.017792
0.682556 0.235291 0.017761
0.708405 0.236084 0.017731
0.734497 0.236908 0.017639
0.760681 0.237823 0.017487
0.787079 0.238708 0.017365
0.813721 0.239807 0.017181
0.840637 0.240906 0.017120
0.026154 0.224884 0.043762
0.040741 0.222321 0.039886
0.058380 0.219055 0.035675
0.080170 0.214417 0.032349
0.103882 0.210144 0.029297
0.129120 0.207672 0.027893
0.154602 0.208221 0.027039
0.180664 0.212189 0.026398
0.208252 0.219025 0.025299
0.236908 0.228302 0.025116
0.267914 0.238922 0.023438
0.302002 0.250519 0.022400
0.335907 0.260345 0.020233
0.368347 0.266541 0.019348
0.398102 0.269592 0.018829
0.425476 0.270813 0.018890
0.451843 0.271118 0.019135
0.477448 0.271027 0.019379
0.502716 0.270752 0.019531
0.527557 0.270691 0.019653
0.552582 0.270416 0.019775
0.577545 0.270294 0.019897
0.602692 0.270172 0.020020
0.627899 0.270325 0.020111
0.653198 0.270508 0.020142
0.678802 0.270782 0.020142
0.704498 0.271210 0.020172
0.730316 0.271606 0.020081
0.756409 0.271973 0.020081
0.782562 0.272400 0.020020
0.808838 0.272858 0.019867
0.835327 0.273315 0.019775
0.861847 0.273804 0.019684
0.029541 0.253845 0.047638
0.042023 0.252625 0.044556
0.061493 0.248810 0.040039
0.083801 0.243988 0.036346
0.107849 0.239441 0.033844
0.134033 0.236053 0.031464
0.160278 0.234924 0.030151
0.187195 0.237030 0.029083
0.214142 0.242920 0.028442
0.242554 0.251495 0.027557
0.272156 0.262024 0.027008
0.303436 0.273193 0.025421
0.336853 0.284546 0.023987
0.370941 0.294281 0.021790
0.403503 0.300934 0.020294
0.434113 0.304352 0.020447
0.462616 0.306000 0.020721
0.490112 0.306580 0.021027
0.516541 0.306915 0.021210
0.542816 0.306976 0.021454
0.568787 0.306854 0.021637
0.594391 0.306854 0.021820
0.619995 0.306946 0.021973
0.645752 0.306915 0.022064
0.671661 0.307098 0.022217
0.697540 0.307312 0.022278
0.723633 0.307495 0.022369
0.749664 0.307800 0.022308
0.776093 0.308044 0.022400
0.802521 0.308228 0.022400
0.828918 0.308533 0.022339
0.855530 0.308746 0.022247
0.882111 0.309113 0.022156
0.031036 0.284180 0.052795
0.046265 0.282471 0.048828
0.065979 0.278809 0.044312
0.087646 0.274567 0.040710
0.112396 0.269806 0.037109
0.138855 0.265625 0.034943
0.166321 0.263092 0.033752
0.193359 0.263641 0.032043
0.220612 0.267761 0.031097
0.248474 0.275177 0.030426
0.277405 0.285370 0.029877
0.307434 0.296722 0.028351
0.338867 0.308014 0.027252
0.371887 0.319092 0.025360
0.405334 0.328644 0.022736
0.437775 0.334961 0.021851
0.468719 0.338562 0.022156
0.498169 0.340363 0.022461
0.526428 0.341309 0.022766
0.554047 0.341919 0.023010
0.581085 0.342316 0.023285
0.607666 0.342407 0.023499
0.634033 0.342529 0.023712
0.660339 0.342682 0.023895
0.686829 0.342865 0.024078
0.713196 0.343140 0.024200
0.739655 0.343292 0.024323
0.766144 0.343567 0.024414
0.792786 0.343842 0.024475
0.819550 0.344025 0.024506
0.846344 0.344208 0.024536
0.873322 0.344360 0.024567
0.900024 0.344666 0.024475
0.035706 0.314178 0.057770
0.051056 0.312775 0.053864
0.070374 0.309662 0.049164
0.092834 0.305389 0.044861
0.117615 0.300568 0.041321
0.144043 0.296112 0.038177
0.171539 0.293121 0.036346
0.199493 0.292053 0.034973
0.227173 0.294159 0.033630
0.254761 0.299988 0.032990
0.283295 0.309082 0.032654
0.312653 0.320190 0.031342
0.342743 0.332001 0.030060
0.373901 0.343079 0.028381
0.406433 0.353821 0.026428
0.439240 0.362671 0.023956
0.471436 0.368652 0.023651
0.502472 0.372253 0.023895
0.532227 0.374268 0.024139
0.561401 0.375427 0.024475
0.589752 0.376221 0.024780
0.617523 0.376740 0.025055
0.644806 0.377045 0.025299
0.671844 0.377319 0.025574
0.698822 0.377655 0.025696
0.725861 0.377899 0.025940
0.752716 0.378265 0.026062
0.779663 0.378540 0.026245
0.806732 0.378815 0.026398
0.833740 0.379059 0.026459
0.861023 0.379303 0.026611
0.888184 0.379608 0.026642
0.915283 0.379883 0.026642
0.040222 0.345215 0.063141
0.056824 0.343567 0.058594
0.077820 0.340118 0.053955
0.099792 0.336212 0.049225
0.123779 0.331940 0.044952
0.149902 0.327393 0.041840
0.177673 0.323792 0.039856
0.205719 0.321930 0.038574
0.233612 0.322449 0.037170
0.261749 0.326080 0.035828
0.289825 0.333557 0.035156
0.318329 0.343811 0.034393
0.347687 0.355591 0.033173
0.377777 0.367676 0.031555
0.408508 0.378479 0.029480
0.440308 0.388336 0.027557
0.472443 0.396698 0.025085
0.504120 0.402222 0.025330
0.535431 0.405518 0.025635
0.565552 0.407532 0.025848
0.595184 0.408813 0.026154
0.624207 0.409729 0.026489
0.652527 0.410370 0.026733
0.680389 0.410919 0.027039
0.708160 0.411316 0.027313
0.735657 0.411743 0.027496
0.763153 0.412140 0.027740
0.790558 0.412537 0.027924
0.817963 0.412842 0.028107
0.845337 0.413300 0.028259
0.872803 0.413605 0.028381
0.900635 0.413940 0.028595
0.927948 0.414276 0.028625
0.049652 0.375153 0.067078
0.066833 0.373627 0.063080
0.087952 0.370667 0.058167
0.109192 0.367218 0.054016
0.131714 0.363281 0.050018
0.156799 0.359222 0.046082
0.183685 0.355652 0.043549
0.211823 0.353119 0.041321
0.240295 0.352386 0.040436
0.268677 0.354279 0.039001
0.296936 0.359589 0.037598
0.324829 0.368225 0.036987
0.353363 0.378937 0.036255
0.382721 0.391083 0.034363
0.412476 0.403229 0.032410
0.442383 0.413574 0.030884
0.473511 0.422852 0.028625
0.505035 0.430359 0.026825
0.536469 0.435364 0.027100
0.567444 0.438416 0.027283
0.597961 0.440338 0.027557
0.627869 0.441650 0.027832
0.657288 0.442566 0.028137
0.686218 0.443268 0.028412
0.714691 0.443878 0.028687
0.742920 0.444458 0.028992
0.770874 0.445038 0.029205
0.798920 0.445404 0.029480
0.826813 0.445923 0.029694
0.854614 0.446442 0.029907
0.882324 0.446930 0.030060
0.910278 0.447418 0.030243
0.938080 0.447845 0.030396
0.065186 0.403564 0.070190
0.082214 0.402344 0.067108
0.100372 0.400787 0.062653
0.120697 0.397858 0.058319
0.142334 0.394501 0.053772
0.165100 0.391022 0.050354
0.190948 0.387695 0.046875
0.217987 0.385132 0.045197
0.246674 0.383728 0.043579
0.275330 0.384399 0.042114
0.304260 0.387634 0.040863
0.332214 0.393921 0.039917
0.360138 0.403107 0.038635
0.388245 0.414368 0.037170
0.416931 0.426544 0.035980
0.445984 0.438354 0.033600
0.475708 0.448425 0.031738
0.506134 0.457062 0.029236
0.536804 0.463837 0.028564
0.567932 0.468323 0.028748
0.598938 0.470978 0.028931
0.629669 0.472656 0.029205
0.659943 0.473816 0.029480
0.689575 0.474792 0.029724
0.718933 0.475525 0.029999
0.747833 0.476196 0.030334
0.776398 0.476898 0.030609
0.804840 0.477509 0.030884
0.833160 0.478119 0.031128
0.861450 0.478729 0.031372
0.889740 0.479279 0.031647
0.917908 0.479919 0.031830
0.946014 0.480499 0.032043
0.083649 0.430786 0.071869
0.098450 0.431030 0.069580
0.115387 0.430145 0.066956
0.133667 0.428223 0.062866
0.153168 0.425720 0.058258
0.174927 0.422852 0.053894
0.198914 0.419739 0.050842
0.224915 0.417328 0.047974
0.252777 0.415680 0.046631
0.282135 0.415405 0.044861
0.311035 0.417389 0.043732
0.339600 0.421539 0.042969
0.367218 0.428680 0.041809
0.394745 0.438354 0.040344
0.422394 0.449738 0.038483
0.450165 0.461823 0.036560
0.478577 0.473206 0.034637
0.507904 0.482941 0.032166
0.537750 0.491028 0.030121
0.568237 0.496979 0.030304
0.599182 0.500885 0.030426
0.630188 0.503296 0.030579
0.661011 0.504761 0.030853
0.691284 0.505829 0.031036
0.721375 0.506653 0.031311
0.750977 0.507446 0.031616
0.780151 0.508179 0.031891
0.809143 0.508881 0.032227
0.838013 0.509552 0.032532
0.866608 0.510284 0.032745
0.895325 0.511017 0.033081
0.923828 0.511749 0.033295
0.952179 0.512482 0.033539
0.102417 0.458221 0.072388
0.116669 0.458771 0.071198
0.131012 0.459198 0.069336
0.147491 0.458405 0.066376
0.165161 0.456665 0.062317
0.185577 0.454102 0.057617
0.207428 0.451721 0.054352
0.231995 0.449402 0.051819
0.258972 0.447815 0.049286
0.287537 0.447205 0.048340
0.317047 0.448181 0.046661
0.346069 0.450928 0.045654
0.374207 0.456055 0.044342
0.401520 0.463715 0.042725
0.428253 0.473724 0.041168
0.455170 0.484894 0.039856
0.482422 0.496643 0.037659
0.510315 0.507812 0.035217
0.539276 0.517029 0.032288
0.568665 0.524445 0.031799
0.599152 0.529816 0.031982
0.630219 0.533295 0.032104
0.661194 0.535431 0.032257
0.692047 0.536621 0.032410
0.722626 0.537537 0.032654
0.752777 0.538330 0.032928
0.782684 0.539001 0.033203
0.812042 0.539795 0.033508
0.841309 0.540619 0.033844
0.870392 0.541382 0.034119
0.899445 0.542145 0.034424
0.928345 0.542969 0.034698
0.957062 0.543701 0.034943
0.122223 0.484894 0.072418
0.133850 0.486603 0.072205
0.147675 0.487640 0.071045
0.162292 0.487610 0.068909
0.178375 0.486786 0.065430
0.196442 0.484985 0.061554
0.216827 0.482880 0.057495
0.239594 0.481018 0.054840
0.264954 0.479675 0.052399
0.292236 0.479034 0.051086
0.321655 0.479431 0.049896
0.351227 0.481293 0.048309
0.379944 0.484985 0.047180
0.407837 0.490723 0.045532
0.434509 0.498657 0.043915
0.460510 0.508728 0.042572
0.486816 0.519928 0.040131
0.513733 0.531281 0.038086
0.541199 0.542023 0.035309
0.569885 0.550812 0.033295
0.599304 0.557465 0.033508
0.629822 0.562378 0.033661
0.660950 0.565552 0.033752
0.692108 0.567322 0.033905
0.722961 0.568359 0.034058
0.753662 0.569092 0.034271
0.783905 0.569885 0.034515
0.813904 0.570526 0.034790
0.843536 0.571350 0.035126
0.873047 0.572083 0.035431
0.902374 0.572876 0.035736
0.931519 0.573730 0.036011
0.960571 0.574554 0.036285
0.140747 0.511444 0.071991
0.151184 0.514008 0.073242
0.163330 0.515961 0.072357
0.176361 0.516815 0.070740
0.190918 0.516693 0.067780
0.207397 0.515503 0.064270
0.226288 0.513763 0.060760
0.246857 0.512207 0.057983
0.270233 0.511017 0.055756
0.296509 0.510437 0.054047
0.324982 0.510773 0.052551
0.354523 0.512238 0.050751
0.383942 0.515015 0.049622
0.412354 0.519409 0.048065
0.439575 0.525604 0.046753
0.465576 0.533997 0.044403
0.491302 0.543945 0.042816
0.517151 0.554840 0.040588
0.543732 0.565979 0.037933
0.571442 0.576141 0.035278
0.599915 0.584320 0.034973
0.629547 0.590424 0.035187
0.660278 0.594879 0.035309
0.691528 0.597656 0.035400
0.722778 0.599152 0.035492
0.753815 0.599976 0.035675
0.784485 0.600677 0.035889
0.814850 0.601257 0.036102
0.844940 0.601959 0.036438
0.874695 0.602661 0.036713
0.904266 0.603424 0.037018
0.933777 0.604218 0.037292
0.963104 0.605042 0.037628
0.158539 0.537964 0.071899
0.167969 0.541229 0.073059
0.178650 0.544098 0.073151
0.190491 0.545624 0.072144
0.203644 0.546204 0.070007
0.218628 0.545654 0.066711
0.235687 0.544281 0.064117
0.254791 0.542969 0.061157
0.276306 0.541992 0.058777
0.300598 0.541534 0.056671
0.327484 0.542053 0.055298
0.356628 0.543335 0.053345
0.386292 0.545654 0.051697
0.415436 0.549164 0.050812
0.443359 0.554108 0.049347
0.470154 0.560852 0.047546
0.495636 0.569275 0.045746
0.520935 0.579285 0.043488
0.546661 0.589966 0.040802
0.573273 0.600555 0.038116
0.600983 0.610138 0.036346
0.629822 0.617676 0.036652
0.659821 0.623322 0.036865
0.690704 0.627289 0.036926
0.722046 0.629669 0.036987
0.753510 0.630829 0.037109
0.784515 0.631561 0.037262
0.815216 0.632141 0.037476
0.845673 0.632660 0.037720
0.875702 0.633270 0.037964
0.905670 0.633911 0.038300
0.935272 0.634705 0.038574
0.964783 0.635498 0.038879
0.175293 0.564667 0.072266
0.183960 0.568420 0.073456
0.193420 0.571991 0.073975
0.204163 0.574432 0.073303
0.216003 0.575714 0.071472
0.229889 0.575592 0.069580
0.245483 0.574768 0.066864
0.263184 0.573639 0.064178
0.282928 0.572784 0.061371
0.305359 0.572510 0.059143
0.330566 0.573181 0.057983
0.358490 0.574493 0.056274
0.387695 0.576508 0.054596
0.417206 0.579651 0.052887
0.446045 0.583832 0.051575
0.473328 0.589478 0.049866
0.499359 0.596497 0.048584
0.524475 0.605042 0.046417
0.549774 0.614838 0.043884
0.575562 0.625275 0.040863
0.602509 0.635284 0.038147
0.630524 0.644073 0.038086
0.659760 0.651062 0.038361
0.690094 0.656189 0.038544
0.721252 0.659637 0.038605
0.752808 0.661560 0.038635
0.784149 0.662567 0.038696
0.815247 0.663086 0.038879
0.846008 0.663513 0.039062
0.876373 0.664001 0.039307
0.906525 0.664551 0.039581
0.936462 0.665192 0.039856
0.966125 0.665924 0.040161
0.191223 0.591614 0.073486
0.199188 0.595886 0.074127
0.208313 0.599670 0.074829
0.217926 0.602905 0.074554
0.228699 0.604919 0.073395
0.241364 0.605560 0.071991
0.255951 0.605164 0.069000
0.272095 0.604431 0.066711
0.290131 0.603760 0.064545
0.310883 0.603485 0.061554
0.334595 0.604187 0.060394
0.360840 0.605682 0.058350
0.389099 0.607788 0.056915
0.418365 0.610657 0.055634
0.447540 0.614410 0.054138
0.475555 0.619202 0.052582
0.502380 0.625183 0.050934
0.527954 0.632477 0.048950
0.552917 0.641144 0.046539
0.578033 0.650787 0.043976
0.604309 0.660583 0.041382
0.631714 0.670044 0.039581
0.660278 0.678192 0.039856
0.689941 0.684570 0.040070
0.720581 0.689087 0.040192
0.751984 0.691925 0.040222
0.783539 0.693451 0.040253
0.815033 0.694092 0.040314
0.846008 0.694489 0.040466
0.876678 0.694885 0.040649
0.907135 0.695251 0.040924
0.937286 0.695801 0.041168
0.967102 0.696503 0.041504
0.207092 0.618652 0.074188
0.214447 0.623230 0.075165
0.222565 0.627563 0.075775
0.231415 0.631256 0.075623
0.241455 0.633972 0.074829
0.252747 0.635620 0.074188
0.266205 0.635834 0.071381
0.281403 0.635376 0.069885
0.298523 0.634918 0.066620
0.317535 0.634705 0.065216
0.339417 0.635376 0.062775
0.364166 0.636871 0.061127
0.390991 0.639069 0.059265
0.419220 0.641937 0.058105
0.448486 0.645386 0.056305
0.477112 0.649689 0.054657
0.504456 0.655151 0.052917
0.530579 0.661591 0.050873
0.555817 0.669037 0.048859
0.580750 0.677673 0.046417
0.606506 0.687042 0.043884
0.633453 0.696503 0.041107
0.661438 0.705170 0.041412
0.690613 0.712769 0.041626
0.720886 0.718201 0.041779
0.751678 0.721893 0.041901
0.783081 0.724091 0.041901
0.814575 0.725189 0.041901
0.845856 0.725555 0.041901
0.876770 0.725861 0.042053
0.907410 0.726135 0.042236
0.937805 0.726562 0.042511
0.967865 0.727112 0.042786
0.222168 0.646179 0.077087
0.229004 0.650909 0.076813
0.236511 0.655701 0.077576
0.244995 0.659943 0.077454
0.254333 0.663269 0.077301
0.264709 0.665558 0.076508
0.276947 0.666595 0.074799
0.291077 0.666656 0.072571
0.307190 0.666351 0.069916
0.325165 0.666077 0.067841
0.345398 0.666779 0.065430
0.368500 0.668274 0.063965
0.393799 0.670532 0.062408
0.420990 0.673370 0.060577
0.449402 0.676910 0.059235
0.477997 0.681183 0.057190
0.505859 0.686157 0.055695
0.532654 0.691895 0.053528
0.558289 0.698730 0.051422
0.583557 0.706726 0.048889
0.609192 0.715515 0.045746
0.635773 0.724609 0.043457
0.663452 0.733276 0.042969
0.692139 0.741180 0.043304
0.721954 0.747467 0.043518
0.752319 0.751892 0.043610
0.783142 0.754761 0.043671
0.814209 0.756256 0.043579
0.845551 0.756836 0.043518
0.876740 0.756958 0.043518
0.907593 0.757141 0.043640
0.938171 0.757416 0.043823
0.968414 0.757843 0.044098
0.236664 0.674072 0.078278
0.243256 0.679016 0.078888
0.250610 0.683960 0.079041
0.258392 0.688538 0.079010
0.266876 0.692535 0.078705
0.276733 0.695587 0.078033
0.287811 0.697418 0.077271
0.301117 0.698029 0.074799
0.316132 0.698029 0.072876
0.333344 0.697845 0.070526
0.352478 0.698608 0.067596
0.373962 0.700256 0.065887
0.397797 0.702545 0.064392
0.423584 0.705627 0.062439
0.450897 0.709229 0.060760
0.478790 0.713562 0.058716
0.506775 0.718414 0.057068
0.533997 0.723969 0.055145
0.560242 0.730347 0.052704
0.586060 0.737610 0.049896
0.612030 0.745483 0.047485
0.638672 0.753998 0.045166
0.666138 0.762451 0.044647
0.694458 0.770355 0.045044
0.723938 0.776917 0.045410
0.753693 0.781982 0.045563
0.783997 0.785339 0.045593
0.814545 0.787292 0.045471
0.845490 0.788086 0.045288
0.876617 0.788208 0.045105
0.907593 0.788239 0.045074
0.938446 0.788361 0.045227
0.968842 0.788635 0.045380
0.248932 0.703217 0.078735
0.255676 0.708038 0.079895
0.262451 0.713287 0.080109
0.269836 0.718323 0.079590
0.278046 0.722687 0.079254
0.287170 0.726349 0.078949
0.297791 0.728973 0.077728
0.310181 0.730347 0.076111
0.324524 0.730865 0.073486
0.340729 0.731049 0.071777
0.359406 0.731689 0.069153
0.380035 0.733307 0.066895
0.402466 0.735779 0.065033
0.426819 0.738892 0.063293
0.453003 0.742767 0.061310
0.480011 0.747101 0.059540
0.507446 0.751862 0.057678
0.534882 0.757111 0.055206
0.561798 0.763000 0.053009
0.588226 0.769562 0.050964
0.614838 0.776917 0.048492
0.641754 0.784729 0.046814
0.669403 0.792725 0.046356
