nova/tdt-studio/app/Lut_mau/IWLTBAP/1 - LUTs by IWLTBAP (CUBE)/01 - Standard/Cinematic/C-6720-STD.cube
# Copyright: (C) Copyright 2010-2019 by IWLTBAP SAS
# Cannot be resold, shared or otherwise redistributed
# Website: https://luts.iwltbap.com
TITLE "IWLTBAP 6720 (Rec.709, sRGB, DCI-P3)"
LUT_3D_SIZE 9
0.000702 0.001923 0.000641
0.041595 0.006287 0.004028
0.112488 0.010986 0.005463
0.199310 0.016602 0.004883
0.293121 0.023804 0.003510
0.392914 0.032898 0.002136
0.495880 0.045624 0.000031
0.602203 0.059723 0.000031
0.711792 0.073730 0.000031
0.015045 0.088837 0.025177
0.079498 0.084869 0.015289
0.177704 0.097076 0.013214
0.261230 0.095459 0.011841
0.349426 0.096375 0.009521
0.443756 0.103271 0.008972
0.545929 0.113831 0.008575
0.656250 0.126404 0.007751
0.773132 0.139160 0.006531
0.023407 0.196075 0.039551
0.099762 0.182312 0.026276
0.202637 0.195679 0.022858
0.331726 0.231903 0.018341
0.435913 0.234344 0.017914
0.532654 0.233185 0.017761
0.631653 0.234070 0.017822
0.734497 0.236908 0.017639
0.840637 0.240906 0.017120
0.035706 0.314178 0.057770
0.117615 0.300568 0.041321
0.227173 0.294159 0.033630
0.342743 0.332001 0.030060
0.471436 0.368652 0.023651
0.589752 0.376221 0.024780
0.698822 0.377655 0.025696
0.806732 0.378815 0.026398
0.915283 0.379883 0.026642
0.083649 0.430786 0.071869
0.153168 0.425720 0.058258
0.252777 0.415680 0.046631
0.367218 0.428680 0.041809
0.478577 0.473206 0.034637
0.599182 0.500885 0.030426
0.721375 0.506653 0.031311
0.838013 0.509552 0.032532
0.952179 0.512482 0.033539
0.158539 0.537964 0.071899
0.203644 0.546204 0.070007
0.276306 0.541992 0.058777
0.386292 0.545654 0.051697
0.495636 0.569275 0.045746
0.600983 0.610138 0.036346
0.722046 0.629669 0.036987
0.845673 0.632660 0.037720
0.964783 0.635498 0.038879
0.222168 0.646179 0.077087
0.254333 0.663269 0.077301
0.307190 0.666351 0.069916
0.393799 0.670532 0.062408
0.505859 0.686157 0.055695
0.609192 0.715515 0.045746
0.721954 0.747467 0.043518
0.845551 0.756836 0.043518
0.968414 0.757843 0.044098
0.258667 0.768250 0.075928
0.291107 0.787292 0.076416
0.337372 0.799011 0.071625
0.413086 0.804565 0.063507
0.510712 0.820221 0.056335
0.620270 0.842590 0.049713
0.733215 0.868317 0.057739
0.849518 0.882172 0.052216
0.969421 0.882202 0.049927
0.235840 0.917084 0.063660
0.289429 0.926849 0.060150
0.347656 0.934387 0.057098
0.428223 0.943634 0.053162
0.521881 0.958160 0.053223
0.631317 0.977905 0.054657
0.746277 0.993347 0.077209
0.857239 1.000000 0.102478
0.968201 1.000000 0.115723
0.032471 0.079071 0.092682
0.066711 0.057159 0.080688
0.121002 0.025482 0.054047
0.190979 0.018616 0.037903
0.281036 0.024414 0.037689
0.381805 0.033722 0.042023
0.488373 0.045776 0.046417
0.602173 0.057495 0.049622
0.721710 0.068695 0.051575
0.047150 0.150177 0.143982
0.093353 0.136566 0.120178
0.174286 0.110504 0.084656
0.252533 0.097534 0.060089
0.339417 0.097443 0.054718
0.435059 0.104340 0.056915
0.537781 0.114563 0.061523
0.648132 0.126617 0.065979
0.765320 0.139435 0.069611
0.076385 0.242004 0.186035
0.120911 0.233765 0.160309
0.213135 0.224274 0.117615
0.336578 0.238953 0.110474
0.433014 0.236389 0.098846
0.529053 0.235565 0.091370
0.629028 0.237518 0.088806
0.732971 0.240814 0.088501
0.839722 0.244385 0.088928
0.116089 0.344696 0.215057
0.149841 0.342041 0.192780
0.234070 0.331116 0.149597
0.350800 0.347717 0.120453
0.475128 0.373566 0.125183
0.590698 0.378479 0.125305
0.698700 0.379852 0.120087
0.806519 0.381531 0.115875
0.915710 0.383148 0.113678
0.152740 0.449890 0.228149
0.182373 0.454224 0.212158
0.253479 0.447906 0.176788
0.375031 0.451111 0.144379
0.484344 0.482513 0.126556
0.602020 0.504272 0.132965
0.723663 0.509033 0.136261
0.839752 0.512024 0.135010
0.953766 0.514984 0.134338
0.181000 0.553192 0.216705
0.211517 0.564178 0.212921
0.274200 0.563141 0.186493
0.385986 0.566528 0.164276
0.502136 0.583405 0.137085
0.604614 0.616241 0.128540
0.725067 0.632690 0.137756
0.848389 0.635315 0.140717
0.967529 0.638336 0.140808
0.221039 0.657959 0.191223
0.250763 0.674774 0.198578
0.305847 0.680084 0.184540
0.394501 0.686646 0.162872
0.509613 0.701019 0.145813
0.614197 0.724701 0.130371
0.724274 0.751068 0.137848
0.848572 0.759644 0.143005
0.971771 0.761139 0.142334
0.257324 0.778900 0.159180
0.290009 0.797394 0.168304
0.338562 0.809875 0.166870
0.415558 0.816559 0.148834
0.513855 0.831604 0.139801
0.624420 0.850800 0.143860
0.733429 0.869843 0.165863
0.848938 0.881866 0.169891
0.972748 0.885376 0.147369
0.229858 0.927185 0.133606
0.284821 0.935852 0.143677
0.347870 0.942413 0.159912
0.430389 0.951538 0.150299
0.526245 0.965607 0.145966
0.634094 0.980774 0.169037
0.745300 0.991943 0.204987
0.856018 1.000000 0.217133
0.967987 1.000000 0.233063
0.053131 0.159088 0.209625
0.082855 0.144043 0.194427
0.148865 0.098053 0.163452
0.212341 0.046478 0.121826
0.284424 0.032410 0.106384
0.373901 0.036163 0.105591
0.475098 0.045898 0.109192
0.585724 0.057007 0.114502
0.704071 0.068146 0.120819
0.068970 0.218414 0.259979
0.104706 0.211914 0.242462
0.179169 0.177643 0.203186
0.263611 0.129547 0.155853
0.342896 0.110321 0.131683
0.431519 0.110107 0.128723
0.530090 0.116333 0.132294
0.636932 0.125946 0.137177
0.750702 0.136841 0.143250
0.105469 0.298096 0.304657
0.141693 0.296661 0.291656
0.214447 0.277435 0.255066
0.323944 0.250488 0.214111
0.422058 0.241089 0.191315
0.520538 0.240997 0.181793
0.622284 0.243683 0.177002
0.727631 0.246674 0.173676
0.835052 0.249115 0.172455
0.158508 0.394836 0.341064
0.192535 0.395569 0.332855
0.254211 0.383636 0.303467
0.360687 0.372681 0.256592
0.479065 0.379028 0.247314
0.588684 0.380737 0.240631
0.694458 0.382141 0.229950
0.801544 0.384247 0.219635
0.910736 0.386292 0.213348
0.209747 0.491943 0.362274
0.238464 0.494995 0.356720
0.283081 0.487610 0.328766
0.383453 0.482178 0.289368
0.491364 0.495453 0.260132
0.604492 0.506836 0.256714
0.723785 0.509857 0.257324
0.838379 0.512878 0.254211
0.951355 0.515930 0.251221
0.243500 0.580933 0.361572
0.264954 0.589905 0.358704
0.297607 0.587677 0.328796
0.382599 0.589844 0.300201
0.505798 0.600189 0.278168
0.607727 0.623535 0.262390
0.726318 0.633514 0.262665
0.848785 0.635468 0.264374
0.967316 0.638519 0.265015
0.261322 0.674377 0.338348
0.280457 0.690063 0.340637
0.314087 0.694855 0.318817
0.388977 0.700562 0.296234
0.505768 0.713470 0.286743
0.616730 0.733673 0.273285
0.725250 0.754059 0.268494
0.848907 0.759552 0.268524
0.971710 0.760895 0.268829
0.261200 0.789215 0.300110
0.289948 0.806671 0.307098
0.333649 0.817902 0.302765
0.410278 0.823730 0.286316
0.509979 0.837799 0.281006
0.623108 0.855347 0.284729
0.733551 0.872406 0.291626
0.848907 0.882660 0.288452
0.972412 0.884796 0.275085
0.218964 0.934723 0.272034
0.275146 0.941650 0.284210
0.339935 0.946442 0.299683
0.425415 0.954742 0.291504
0.523590 0.967712 0.287689
0.631653 0.981445 0.302155
0.744873 0.992798 0.321472
0.856354 1.000000 0.332825
0.968109 1.000000 0.352692
0.053375 0.236481 0.337860
0.083710 0.226776 0.317871
0.156372 0.196991 0.291656
0.251801 0.144165 0.251068
0.321838 0.094025 0.216644
0.400452 0.071167 0.212067
0.492554 0.065277 0.217285
0.595612 0.066742 0.222717
0.706543 0.071442 0.225006
0.072968 0.288940 0.378601
0.112213 0.286194 0.365387
0.180176 0.265656 0.332611
0.282623 0.221191 0.287750
0.372772 0.181274 0.254028
0.461914 0.165619 0.251923
0.558105 0.160248 0.259460
0.660858 0.156342 0.264282
0.765869 0.153442 0.262756
0.117584 0.355652 0.413605
0.156769 0.359985 0.408447
0.216736 0.350464 0.382904
0.321106 0.319489 0.339935
0.430298 0.287994 0.309143
0.527924 0.280396 0.304749
0.628448 0.280151 0.308105
0.734161 0.279144 0.308319
0.842468 0.275116 0.302948
0.180054 0.442749 0.450256
0.218384 0.449097 0.449799
0.270386 0.448151 0.436981
0.366028 0.432526 0.403900
0.478180 0.404022 0.366333
0.579224 0.398407 0.354645
0.684052 0.398682 0.350983
0.793335 0.400024 0.347015
0.904663 0.401398 0.341675
0.238098 0.539948 0.483795
0.273193 0.544495 0.483093
0.317749 0.542511 0.471863
0.397614 0.534637 0.445984
0.502258 0.521332 0.399231
0.606628 0.510681 0.377899
0.721466 0.513214 0.376556
0.834351 0.516998 0.374390
0.946991 0.521027 0.372131
0.274139 0.626343 0.492401
0.302246 0.631653 0.491943
0.341553 0.626160 0.474976
0.403046 0.623810 0.449615
0.510986 0.626404 0.419769
0.612000 0.634552 0.392914
0.727966 0.635010 0.383453
0.849426 0.636292 0.384125
0.967010 0.639709 0.384888
0.298859 0.705078 0.477417
0.320251 0.716095 0.480225
0.353973 0.715210 0.461914
0.404297 0.718231 0.433197
0.501373 0.729858 0.416992
0.617859 0.744324 0.406464
0.726074 0.758484 0.394775
0.850159 0.760162 0.388977
0.972382 0.761353 0.389343
0.289825 0.803589 0.446777
0.315765 0.818695 0.451447
0.352112 0.827026 0.439941
0.411530 0.832214 0.413849
0.503571 0.845093 0.405701
0.619263 0.860748 0.410095
0.733551 0.875885 0.413239
0.849243 0.884369 0.406311
0.973358 0.885132 0.395111
0.215820 0.941864 0.418549
0.273285 0.946838 0.425323
0.336853 0.951660 0.427704
0.419067 0.959229 0.413788
0.520111 0.970306 0.410889
0.630402 0.983093 0.422516
0.744202 0.994171 0.434021
0.856995 1.000000 0.447235
0.968811 1.000000 0.471649
0.041565 0.309204 0.456238
0.079742 0.301453 0.440582
0.147461 0.282715 0.408356
0.261292 0.243378 0.385437
0.367432 0.208618 0.350922
0.448090 0.179749 0.340851
0.540710 0.157196 0.354675
0.643341 0.140167 0.371368
0.748016 0.123657 0.378632
0.072693 0.356506 0.488831
0.117004 0.356018 0.481750
0.178741 0.343231 0.452698
0.282928 0.310120 0.417633
0.399689 0.277924 0.383881
0.490570 0.260437 0.376343
0.589111 0.251862 0.394501
0.696289 0.244171 0.413788
0.805176 0.232483 0.423523
0.126862 0.412231 0.513947
0.170074 0.418793 0.514069
0.226074 0.415741 0.496521
0.315948 0.395813 0.462585
0.439056 0.369049 0.432251
0.538208 0.353882 0.423737
0.637848 0.350098 0.437775
0.743958 0.347260 0.451416
0.853271 0.341553 0.457977
0.192017 0.484161 0.539001
0.234528 0.492706 0.541229
0.285706 0.498627 0.537109
0.360840 0.495941 0.519531
0.481354 0.480774 0.496063
0.584442 0.459290 0.479431
0.681702 0.451050 0.478943
0.785950 0.446533 0.481384
0.894897 0.443634 0.482452
0.252380 0.571655 0.571014
0.293335 0.579468 0.574310
0.339355 0.588684 0.577087
0.402679 0.593353 0.570465
0.509888 0.587555 0.549530
0.609558 0.553864 0.511505
0.710144 0.544617 0.500183
0.818542 0.542389 0.497559
0.930756 0.543488 0.497833
0.289001 0.663177 0.601715
0.325470 0.668579 0.603729
0.368378 0.671997 0.601044
0.425049 0.673035 0.590485
0.518250 0.672913 0.570740
0.618530 0.660767 0.528931
0.728973 0.638580 0.503082
0.846619 0.640350 0.503021
0.962463 0.644867 0.504425
0.298096 0.743591 0.604034
0.329132 0.748993 0.604736
0.375427 0.746857 0.594147
0.432495 0.746429 0.577362
0.512085 0.753296 0.559387
0.619293 0.762665 0.539307
0.726990 0.766968 0.518738
0.850800 0.761658 0.507965
0.972992 0.762207 0.508331
0.273956 0.830353 0.577057
0.307861 0.840240 0.579895
0.363190 0.840973 0.569214
0.429382 0.843170 0.549042
0.508209 0.854126 0.533600
0.615814 0.868530 0.531403
0.733032 0.880829 0.532715
0.848663 0.886993 0.524536
0.973633 0.886078 0.514008
0.191650 0.955811 0.554718
0.259705 0.956421 0.556366
0.334625 0.958801 0.551208
0.418274 0.965118 0.532745
0.518494 0.974274 0.525543
0.629517 0.985535 0.533905
0.743286 0.995972 0.544281
0.858093 1.000000 0.562653
0.969421 1.000000 0.591064
0.043488 0.376617 0.560303
0.083649 0.371002 0.551239
0.147614 0.356354 0.522827
0.242737 0.330811 0.494720
0.382935 0.295288 0.483429
0.481445 0.288544 0.465637
0.568207 0.280334 0.479919
0.673615 0.266785 0.511169
0.785980 0.250183 0.537384
0.089355 0.417419 0.586487
0.130585 0.419556 0.585358
0.186401 0.410706 0.564667
0.269012 0.389771 0.528076
0.401825 0.358582 0.509705
0.510254 0.353790 0.495575
0.600647 0.354950 0.511871
0.704926 0.349823 0.541901
0.815552 0.339569 0.565247
0.146454 0.465790 0.606354
0.187653 0.473511 0.609131
0.240204 0.472656 0.598083
0.310089 0.461670 0.568451
0.428802 0.439423 0.546600
0.543854 0.435608 0.537048
0.636810 0.438263 0.550842
0.738525 0.434113 0.574219
0.845673 0.425537 0.590485
0.204651 0.526520 0.622375
0.248779 0.534393 0.623779
0.300903 0.541046 0.621429
0.361786 0.544159 0.610413
0.461304 0.537872 0.596100
0.579803 0.536224 0.592346
0.674469 0.530334 0.596252
0.772675 0.519165 0.605499
0.878021 0.508698 0.612122
0.259155 0.598450 0.639832
0.305237 0.606445 0.642670
0.354431 0.618042 0.648163
0.409668 0.629578 0.650940
0.492279 0.636536 0.646759
0.604919 0.638092 0.641144
0.702179 0.617828 0.630371
0.801147 0.601990 0.626190
0.907684 0.593323 0.626465
0.293701 0.680786 0.668152
0.337463 0.688690 0.673615
0.383331 0.698975 0.680725
0.436218 0.709167 0.685211
0.511475 0.718353 0.682953
0.615448 0.722504 0.669647
0.718414 0.690247 0.638489
0.825653 0.678650 0.629913
0.940125 0.674683 0.630341
0.274841 0.769623 0.699799
0.327332 0.771301 0.699280
0.381256 0.774750 0.698761
0.440277 0.779907 0.695923
0.515411 0.786652 0.688416
0.614899 0.794250 0.674133
0.725189 0.787354 0.646362
0.850769 0.764862 0.626953
0.970490 0.765961 0.627472
0.171356 0.867828 0.706940
0.254456 0.865204 0.699829
0.344086 0.860443 0.687439
0.426025 0.862030 0.675537
0.511963 0.869019 0.663971
0.613068 0.880188 0.655670
0.729980 0.889954 0.652435
0.847046 0.892212 0.643158
0.973663 0.887573 0.632538
0.073669 0.981812 0.689270
0.159637 0.984924 0.690826
0.291260 0.975281 0.671021
0.402832 0.975555 0.654053
0.512512 0.981354 0.644165
0.626221 0.990143 0.645386
0.741730 0.998962 0.654663
0.860199 1.000000 0.678131
0.970428 1.000000 0.710022
0.087921 0.432434 0.646332
0.117432 0.430756 0.643677
0.163269 0.420868 0.626221
0.237549 0.404846 0.593445
0.361603 0.376831 0.588470
0.497833 0.363281 0.585693
0.583740 0.382843 0.589020
0.674103 0.388184 0.618042
0.780334 0.374634 0.652588
0.131073 0.469421 0.668243
0.161713 0.474365 0.671234
0.204956 0.468811 0.659668
0.268555 0.455292 0.628937
0.378204 0.432983 0.608765
0.514862 0.421539 0.610077
0.607605 0.444122 0.615784
0.697357 0.454956 0.643890
0.800537 0.446442 0.674377
0.175171 0.514374 0.685486
0.209869 0.521912 0.688995
0.255890 0.521423 0.682343
0.312256 0.514771 0.661865
0.403870 0.501434 0.637421
0.535004 0.494171 0.641510
0.634338 0.515839 0.649353
0.722870 0.525970 0.672882
0.822266 0.517731 0.696472
0.218231 0.568054 0.697266
0.261414 0.573944 0.697113
0.312012 0.579010 0.695435
0.365997 0.582642 0.689453
0.439575 0.582184 0.675842
0.555939 0.582153 0.680389
0.659912 0.598877 0.689484
0.748383 0.601715 0.703461
0.846741 0.589172 0.718323
0.259125 0.628021 0.705841
0.308838 0.634216 0.706543
0.360870 0.643860 0.710815
0.414368 0.654205 0.715332
0.477936 0.664307 0.716003
0.574066 0.672852 0.719543
0.678894 0.685364 0.726624
0.772980 0.678223 0.731018
0.874512 0.661591 0.737549
0.283905 0.696289 0.722534
0.333923 0.704346 0.727448
0.384857 0.714447 0.734619
0.438782 0.725128 0.742188
0.501587 0.738220 0.749390
0.586639 0.752716 0.754425
0.692749 0.764221 0.755066
0.799255 0.745636 0.749786
0.909515 0.726532 0.750031
0.236877 0.780060 0.758728
0.305878 0.783203 0.760010
0.369843 0.789032 0.763550
0.433929 0.797150 0.768250
0.503845 0.807861 0.773346
0.592133 0.820374 0.775574
0.705841 0.828247 0.768860
0.827576 0.806519 0.753296
0.944794 0.798187 0.751862
0.065216 0.874390 0.790314
0.170990 0.880066 0.792999
0.292328 0.877441 0.785950
0.396301 0.879578 0.781097
0.491760 0.886322 0.777740
0.597168 0.895630 0.773010
0.718475 0.904327 0.768677
0.841553 0.903046 0.760498
0.973053 0.890228 0.750946
0.048676 0.939728 0.753113
0.068420 0.978088 0.784698
0.179779 0.996307 0.794159
0.344879 0.991425 0.779144
0.484009 0.992371 0.768341
0.611511 0.997559 0.762909
0.741394 1.000000 0.769501
0.864655 1.000000 0.790619
0.973236 1.000000 0.825623
0.154053 0.481659 0.718201
0.170288 0.483551 0.719513
0.198059 0.477539 0.710236
0.251373 0.466461 0.686584
0.343689 0.449219 0.667999
0.481934 0.431915 0.688843
0.595367 0.446198 0.689789
0.674927 0.481628 0.705261
0.762451 0.488739 0.735626
0.181793 0.516449 0.737427
0.202362 0.522247 0.741486
0.232544 0.518372 0.734344
0.279907 0.508667 0.715118
0.361694 0.495270 0.688721
0.491669 0.484131 0.702820
0.611053 0.498444 0.711700
0.692657 0.534119 0.725372
0.777802 0.544434 0.753082
0.206635 0.557129 0.752777
0.233185 0.563568 0.755249
0.271088 0.562134 0.749298
0.317413 0.557068 0.737549
0.387115 0.549774 0.715179
0.503448 0.546082 0.720551
0.626556 0.559448 0.737854
0.710449 0.592743 0.748383
0.793030 0.602905 0.771851
0.224701 0.605469 0.764160
0.265564 0.608490 0.761292
0.314270 0.610718 0.757965
0.364075 0.612762 0.755280
0.423737 0.614105 0.747131
0.518646 0.618317 0.748993
0.637024 0.630432 0.767303
0.726898 0.658203 0.774200
0.811188 0.665070 0.792389
0.236603 0.657318 0.771301
0.294861 0.659576 0.767609
0.350494 0.665833 0.768860
0.404510 0.673096 0.772858
0.460999 0.681427 0.778320
0.537994 0.691864 0.787354
0.645996 0.704926 0.798798
0.743469 0.727509 0.801666
0.835419 0.728729 0.814789
0.228271 0.716278 0.784149
0.297150 0.720306 0.784607
0.360321 0.727112 0.788422
0.420013 0.735321 0.794556
0.480316 0.746399 0.805328
0.555939 0.760895 0.820160
0.659668 0.776123 0.827850
0.765320 0.790588 0.829681
0.872101 0.780701 0.838593
0.130188 0.791779 0.815735
0.222168 0.794250 0.816895
0.312347 0.798828 0.819916
0.395691 0.803986 0.823944
0.472168 0.812927 0.833801
0.565674 0.824799 0.846039
0.680267 0.837341 0.852081
0.795227 0.847931 0.852814
0.913513 0.838501 0.857330
0.051056 0.844055 0.818085
0.068054 0.879303 0.852875
0.178040 0.887634 0.860321
0.317596 0.890625 0.861664
0.442535 0.895020 0.864014
0.566101 0.902802 0.867401
0.697083 0.912415 0.868805
0.824341 0.919922 0.868378
0.951996 0.912506 0.868713
0.046204 0.929810 0.824982
0.061005 0.956177 0.847961
0.080841 0.994720 0.882019
0.242157 0.999542 0.882751
0.428101 1.000000 0.879730
0.586700 1.000000 0.876007
0.735352 1.000000 0.877655
0.870361 1.000000 0.891724
0.980804 1.000000 0.930847
0.218323 0.530182 0.782684
0.227539 0.533142 0.785095
0.241882 0.528961 0.779266
0.275146 0.520691 0.765167
0.344269 0.509644 0.740631
0.451324 0.498535 0.762817
0.586945 0.500336 0.780823
0.681244 0.530548 0.783722
0.753632 0.570221 0.804352
0.231537 0.560852 0.799530
0.244019 0.566315 0.803619
0.263245 0.562500 0.797516
0.295807 0.554840 0.785187
0.357605 0.545685 0.763000
0.459747 0.540741 0.767395
0.594757 0.544861 0.796051
0.693970 0.573425 0.799042
0.764038 0.611908 0.816345
0.233063 0.595947 0.813843
0.251038 0.600433 0.815399
0.281921 0.597260 0.808716
0.320068 0.592590 0.799988
0.376068 0.587494 0.786255
0.468018 0.588654 0.782654
0.597504 0.596771 0.810455
0.703857 0.621887 0.816101
0.774475 0.657654 0.829620
0.208832 0.638672 0.828156
0.252777 0.637482 0.821869
0.301788 0.636353 0.815948
0.349670 0.636169 0.812836
0.399506 0.636597 0.813873
0.476562 0.641388 0.822449
0.596954 0.653687 0.837280
0.711182 0.676208 0.837708
0.788147 0.709625 0.846405
0.152985 0.689423 0.843567
0.244507 0.681702 0.830566
0.313660 0.682800 0.827576
0.370239 0.686371 0.830780
0.421509 0.691132 0.844238
0.500214 0.697784 0.859222
0.609436 0.711945 0.866669
0.719208 0.734955 0.864288
0.809265 0.761383 0.869965
0.058197 0.746857 0.861786
0.185608 0.740051 0.852905
0.289703 0.738251 0.849121
0.361298 0.742401 0.855286
0.433289 0.749542 0.868500
0.527863 0.759064 0.880371
0.632233 0.772095 0.890564
0.740936 0.787598 0.896606
0.844574 0.803894 0.901825
0.045837 0.765289 0.829956
0.060669 0.802887 0.870331
0.183594 0.813263 0.882446
0.311462 0.811859 0.884521
0.421722 0.815063 0.893066
0.540161 0.822662 0.904083
0.657623 0.833374 0.917267
0.774628 0.844940 0.928009
0.886719 0.856598 0.935150
0.045441 0.832672 0.842072
0.053223 0.853210 0.865326
0.070801 0.895020 0.910522
0.226532 0.903625 0.922516
0.394348 0.902496 0.925293
0.541199 0.906036 0.931610
0.677185 0.914856 0.941956
0.809662 0.922668 0.952332
0.934113 0.928131 0.962219
0.046173 0.932831 0.878937
0.061646 0.957764 0.904358
0.078461 0.987274 0.934204
0.204590 0.998810 0.946716
0.409882 1.000000 0.950989
0.577606 1.000000 0.953644
0.732178 1.000000 0.960022
0.876740 1.000000 0.971954
0.999939 1.000000 0.999969
