nova/tdt-studio/app/Lut_mau/IWLTBAP/1 - LUTs by IWLTBAP (CUBE)/01 - Standard/Cinematic/F-8700-V2-STD.cube
# Copyright: (C) Copyright 2010-2019 by IWLTBAP SAS
# Cannot be resold, shared or otherwise redistributed
# Website: https://luts.iwltbap.com
TITLE "IWLTBAP 8700-V2 (Rec.709, sRGB, DCI-P3)"
LUT_3D_SIZE 33
0.000000 0.000000 0.000000
0.000000 0.000000 0.000000
0.000000 0.000000 0.000000
0.021987 0.003402 0.000000
0.050777 0.010536 0.000508
0.083997 0.018355 0.001765
0.117391 0.025673 0.002430
0.150210 0.030693 0.000817
0.182518 0.034775 0.000084
0.214077 0.038188 0.000000
0.245184 0.041159 0.000000
0.275936 0.043766 0.000000
0.305611 0.046402 0.000000
0.333384 0.049412 0.000000
0.360201 0.053085 0.000000
0.386843 0.057657 0.000000
0.414566 0.062851 0.000000
0.444406 0.068345 0.000000
0.476225 0.073979 0.001509
0.509675 0.079682 0.005643
0.544189 0.085289 0.010864
0.579424 0.090384 0.015941
0.614811 0.095211 0.020876
0.649542 0.100102 0.025913
0.683853 0.105141 0.030876
0.717561 0.110815 0.036168
0.750498 0.117136 0.041329
0.780869 0.124954 0.045965
0.810291 0.133419 0.050495
0.837119 0.144765 0.053452
0.863435 0.156407 0.055990
0.888526 0.169237 0.056315
0.913330 0.182068 0.056610
0.000000 0.000000 0.000000
0.000000 0.002606 0.000000
0.000000 0.012779 0.000443
0.027318 0.018300 0.002697
0.056402 0.025015 0.004366
0.089859 0.031255 0.004808
0.123593 0.038321 0.005130
0.158279 0.043670 0.002877
0.191269 0.047864 0.000557
0.223482 0.051093 0.000000
0.254923 0.054234 0.000000
0.286013 0.057184 0.000000
0.316080 0.060016 0.000000
0.344365 0.063193 0.000000
0.372217 0.067217 0.000000
0.400283 0.072169 0.000000
0.429171 0.077795 0.000000
0.459787 0.083931 0.000000
0.492293 0.090503 0.001845
0.526298 0.097189 0.006460
0.561573 0.104166 0.011563
0.597897 0.111361 0.016295
0.633765 0.118197 0.020700
0.668758 0.125550 0.024559
0.703025 0.132347 0.028511
0.736119 0.140835 0.031671
0.768972 0.148329 0.035541
0.799573 0.157889 0.037275
0.828927 0.166623 0.040680
0.855623 0.177573 0.040094
0.881741 0.189034 0.042219
0.904256 0.200361 0.039961
0.929117 0.212991 0.040113
0.000000 0.021201 0.007152
0.000000 0.025138 0.005600
0.000000 0.029215 0.003568
0.029254 0.034192 0.005446
0.062058 0.039222 0.007548
0.095810 0.045031 0.007952
0.129654 0.050736 0.007808
0.165036 0.055924 0.005388
0.199655 0.060610 0.002210
0.232472 0.063963 0.000386
0.264455 0.066904 0.000000
0.295967 0.069852 0.000000
0.326396 0.073140 0.000000
0.355069 0.076706 0.000000
0.383426 0.080898 0.000000
0.412503 0.086109 0.000000
0.442731 0.092125 0.000000
0.474420 0.098843 0.000000
0.507636 0.106132 0.002231
0.542323 0.113668 0.007286
0.578184 0.121604 0.012333
0.615090 0.130116 0.017039
0.651949 0.138999 0.021170
0.687459 0.148061 0.024314
0.721940 0.157336 0.027083
0.755065 0.167268 0.029265
0.787248 0.177421 0.031004
0.817535 0.188060 0.031489
0.847142 0.198586 0.031963
0.873753 0.209632 0.030562
0.899800 0.220701 0.029043
0.921967 0.231960 0.026616
0.944447 0.243114 0.024103
0.000000 0.043799 0.010257
0.000000 0.049534 0.010664
0.000000 0.053212 0.008765
0.034960 0.051931 0.001756
0.068760 0.055747 0.003257
0.108319 0.058057 0.005149
0.143057 0.062817 0.005265
0.178397 0.067250 0.003164
0.213070 0.071734 0.000750
0.246050 0.075102 0.000039
0.277972 0.078150 0.000000
0.309097 0.081566 0.000000
0.339437 0.085346 0.000000
0.368341 0.089755 0.000000
0.397309 0.094730 0.000000
0.427474 0.100567 0.000000
0.458510 0.107084 0.000000
0.490680 0.114095 0.000804
0.524287 0.121716 0.003886
0.559121 0.129627 0.008703
0.594842 0.138031 0.013216
0.631210 0.147201 0.017249
0.667939 0.156860 0.020829
0.703677 0.166941 0.023362
0.738239 0.176913 0.025534
0.771389 0.187912 0.026851
0.803227 0.198682 0.027910
0.832098 0.210040 0.027109
0.860955 0.221066 0.026877
0.885571 0.233174 0.025120
0.910965 0.244430 0.023439
0.931261 0.257014 0.021454
0.953234 0.268204 0.018978
0.000000 0.064976 0.012638
0.000000 0.071354 0.013517
0.000000 0.076953 0.013309
0.033337 0.075591 0.005713
0.074136 0.073426 0.000957
0.115675 0.074241 0.000605
0.155887 0.075516 0.001404
0.192341 0.078934 0.000575
0.226918 0.082747 0.000073
0.259949 0.085896 0.000000
0.291828 0.089243 0.000000
0.322815 0.092946 0.000000
0.352974 0.097079 0.000000
0.381930 0.101945 0.000000
0.411124 0.107632 0.000000
0.441806 0.114190 0.000000
0.473831 0.121286 0.000000
0.506795 0.128680 0.001776
0.540711 0.136591 0.005858
0.575738 0.144900 0.010462
0.611478 0.153743 0.014693
0.647504 0.163455 0.018146
0.683554 0.173546 0.020960
0.719088 0.184199 0.022984
0.753845 0.195228 0.024662
0.786768 0.206684 0.025308
0.818581 0.218210 0.025639
0.846898 0.230124 0.024453
0.874222 0.241878 0.022858
0.898047 0.254435 0.020829
0.921534 0.266759 0.018656
0.941201 0.279604 0.016861
0.961224 0.292309 0.014976
0.000000 0.082597 0.012089
0.000000 0.091785 0.014278
0.000000 0.097988 0.014494
0.029079 0.102230 0.006603
0.070436 0.100113 0.000723
0.122120 0.092206 0.000000
0.165237 0.091277 0.000140
0.206444 0.090550 0.000038
0.242334 0.093174 0.000000
0.275094 0.096353 0.000000
0.306640 0.099887 0.000000
0.336655 0.104441 0.000000
0.366708 0.109241 0.000000
0.396823 0.114586 0.000000
0.426650 0.120518 0.000000
0.457341 0.127109 0.000000
0.489486 0.134309 0.001017
0.522630 0.141841 0.004190
0.556720 0.149943 0.008521
0.591798 0.158637 0.012683
0.627442 0.167918 0.016428
0.663376 0.177974 0.019446
0.698878 0.188416 0.021868
0.733327 0.199399 0.023425
0.767201 0.210652 0.024566
0.798761 0.222368 0.024676
0.829805 0.234358 0.024600
0.857031 0.246831 0.023363
0.883720 0.259039 0.021781
0.906265 0.272334 0.020060
0.929148 0.285002 0.017857
0.947125 0.299045 0.015987
0.966524 0.311889 0.014234
0.000000 0.099615 0.011312
0.000000 0.109312 0.013977
0.000000 0.118180 0.015350
0.027067 0.124269 0.007314
0.065891 0.127395 0.000809
0.119713 0.119017 0.000000
0.171501 0.109825 0.000000
0.215732 0.106350 0.000000
0.256097 0.105063 0.000000
0.290098 0.107104 0.000000
0.321770 0.110557 0.000000
0.351497 0.115444 0.000000
0.380773 0.120890 0.000000
0.411065 0.126762 0.000000
0.441874 0.133087 0.000000
0.473109 0.139748 0.000764
0.505137 0.146921 0.003313
0.538098 0.154543 0.007251
0.572165 0.162732 0.011359
0.607230 0.171621 0.015091
0.642851 0.181254 0.018277
0.678685 0.191718 0.020890
0.713889 0.202497 0.022937
0.747649 0.213731 0.024164
0.780491 0.225192 0.024858
0.810940 0.237189 0.024603
0.840437 0.249410 0.024026
0.866857 0.262214 0.022637
0.892604 0.275162 0.021139
0.914483 0.288832 0.019423
0.936150 0.302262 0.017706
0.953665 0.316654 0.015931
0.971630 0.330662 0.014067
0.000000 0.116925 0.010597
0.000000 0.126644 0.014172
0.000000 0.136270 0.015988
0.020333 0.145822 0.007381
0.057278 0.151043 0.000810
0.117613 0.148194 0.000000
0.172832 0.138616 0.000000
0.221734 0.126928 0.000000
0.264472 0.122460 0.000000
0.302334 0.121024 0.000000
0.335656 0.123080 0.000000
0.367065 0.127371 0.000000
0.396912 0.132636 0.000000
0.426702 0.138568 0.000000
0.457359 0.144949 0.000375
0.488478 0.151768 0.002570
0.520275 0.158973 0.006136
0.552933 0.166640 0.009997
0.586525 0.174979 0.013787
0.621156 0.183903 0.017095
0.656405 0.193586 0.019947
0.691983 0.204290 0.022162
0.726799 0.215505 0.023823
0.759644 0.226976 0.024964
0.791561 0.238611 0.025515
0.821256 0.250863 0.024953
0.849771 0.263299 0.024178
0.875031 0.276615 0.022461
0.899900 0.289886 0.020771
0.920983 0.304391 0.019164
0.942096 0.318279 0.017577
0.959163 0.333172 0.016430
0.976512 0.347498 0.014515
0.000000 0.133942 0.010117
0.000000 0.143225 0.014019
0.000000 0.153159 0.016534
0.018592 0.164373 0.007297
0.049688 0.172990 0.000791
0.111373 0.172558 0.000000
0.172434 0.168182 0.000000
0.223901 0.155876 0.000000
0.270782 0.143539 0.000000
0.311158 0.138557 0.000000
0.347840 0.137366 0.000000
0.381136 0.140123 0.000000
0.412579 0.144698 0.000000
0.442940 0.150284 0.000000
0.473093 0.156618 0.001742
0.503825 0.163458 0.005233
0.535328 0.170811 0.008953
0.567654 0.178536 0.012672
0.600763 0.186868 0.016214
0.634755 0.195928 0.019254
0.669481 0.205747 0.021789
0.704608 0.216539 0.023543
0.739050 0.227967 0.024850
0.771175 0.239697 0.025700
0.802194 0.251489 0.026109
0.830920 0.263998 0.025524
0.858759 0.276799 0.024463
0.883139 0.290446 0.022658
0.906864 0.304161 0.020677
0.927361 0.319046 0.019084
0.947687 0.333811 0.017505
0.964282 0.348963 0.016591
0.981171 0.363922 0.015312
0.000000 0.149843 0.010010
0.000000 0.157937 0.014027
0.000000 0.167577 0.016780
0.016903 0.181778 0.005617
0.045554 0.192400 0.000556
0.107765 0.195339 0.000000
0.170767 0.193466 0.000000
0.225682 0.185717 0.000000
0.274847 0.172528 0.000000
0.319372 0.159623 0.000000
0.358485 0.154635 0.000000
0.394091 0.154449 0.000000
0.426892 0.157471 0.000000
0.458146 0.162340 0.000508
0.488587 0.168305 0.003265
0.519047 0.175051 0.007484
0.550303 0.182369 0.011451
0.582293 0.190308 0.015064
0.614900 0.198872 0.018306
0.648242 0.208127 0.021066
0.682256 0.218107 0.023285
0.716681 0.228885 0.024764
0.750327 0.240391 0.025750
0.781670 0.252379 0.026193
0.811774 0.264503 0.026346
0.839625 0.277232 0.025797
0.866629 0.290320 0.024649
0.890298 0.304281 0.022765
0.913356 0.318429 0.020673
0.933046 0.333531 0.019121
0.952686 0.348703 0.017636
0.968657 0.364541 0.016948
0.985059 0.379877 0.015862
0.000000 0.165373 0.009905
0.000000 0.172978 0.014057
0.000000 0.181580 0.016941
0.016919 0.196548 0.005359
0.043471 0.209978 0.000518
0.105405 0.215013 0.000000
0.169146 0.217159 0.000000
0.225560 0.212797 0.000000
0.277693 0.203229 0.000000
0.324649 0.188707 0.000000
0.367543 0.175829 0.000000
0.405354 0.171425 0.000000
0.439898 0.171873 0.000000
0.472177 0.175254 0.001043
0.503364 0.180472 0.004511
0.534191 0.186687 0.009152
0.565059 0.193861 0.013394
0.596667 0.201834 0.017052
0.628903 0.210571 0.020111
0.661648 0.220007 0.022673
0.694929 0.230240 0.024648
0.728440 0.241216 0.025836
0.761280 0.252730 0.026480
0.791671 0.264883 0.026623
0.820881 0.277335 0.026524
0.847812 0.290426 0.025842
0.873903 0.303703 0.024710
0.897031 0.318011 0.022850
0.919440 0.332483 0.020689
0.938439 0.348001 0.019250
0.957326 0.363433 0.017850
0.972983 0.379463 0.017411
0.988675 0.395475 0.016683
0.000000 0.181034 0.009537
0.000000 0.188467 0.013948
0.000000 0.196510 0.016988
0.017956 0.210676 0.006155
0.043686 0.225057 0.000627
0.104202 0.232364 0.000000
0.167793 0.236882 0.000000
0.225617 0.239682 0.000000
0.279478 0.234167 0.000000
0.328870 0.220891 0.000000
0.374014 0.205178 0.000000
0.414950 0.192686 0.000000
0.451437 0.188620 0.000000
0.484957 0.189625 0.001434
0.517024 0.193313 0.005372
0.548533 0.198877 0.010318
0.579587 0.205652 0.014733
0.610658 0.213444 0.018434
0.642299 0.222056 0.021438
0.674390 0.231632 0.023766
0.706784 0.242104 0.025470
0.739342 0.253306 0.026579
0.771230 0.264979 0.027130
0.800784 0.277270 0.027023
0.828999 0.289942 0.026568
0.855099 0.303416 0.025731
0.880417 0.317143 0.024519
0.903047 0.331828 0.022798
0.924961 0.346620 0.020732
0.943209 0.362601 0.019618
0.961506 0.378346 0.018441
0.976826 0.394399 0.018365
0.992201 0.410475 0.017919
0.000000 0.196629 0.009083
0.000000 0.204156 0.013698
0.000000 0.211910 0.017062
0.019944 0.225315 0.007058
0.045402 0.239241 0.000750
0.104884 0.247895 0.000000
0.167456 0.254797 0.000000
0.225819 0.261767 0.000000
0.280388 0.263636 0.002103
0.330772 0.253711 0.002516
0.378569 0.238300 0.000948
0.421999 0.222218 0.000098
0.461369 0.210123 0.000000
0.496632 0.206452 0.001411
0.529609 0.207962 0.005585
0.561904 0.212030 0.010797
0.593500 0.218115 0.015385
0.624581 0.225449 0.019277
0.655573 0.233950 0.022262
0.686891 0.243430 0.024431
0.718450 0.253920 0.026008
0.750000 0.265299 0.026952
0.780976 0.277320 0.027477
0.809639 0.289980 0.027227
0.836940 0.302864 0.026520
0.862158 0.316636 0.025516
0.886619 0.330836 0.024280
0.908514 0.346001 0.022805
0.929948 0.361126 0.021002
0.947699 0.377556 0.020193
0.965291 0.393649 0.019221
0.980496 0.409833 0.019770
0.995766 0.425705 0.019718
0.000000 0.212331 0.009092
0.000000 0.220134 0.013728
0.001036 0.227903 0.017186
0.023278 0.240168 0.008266
0.049172 0.253331 0.000915
0.107202 0.263199 0.000000
0.168734 0.271858 0.000000
0.227158 0.281558 0.000000
0.282076 0.288005 0.003854
0.331184 0.285906 0.007829
0.379642 0.273736 0.007040
0.426664 0.256442 0.003583
0.469042 0.239841 0.001531
0.506903 0.228432 0.001467
0.541435 0.225234 0.004971
0.574384 0.227256 0.010478
0.606526 0.231868 0.015361
0.637905 0.238498 0.019450
0.668760 0.246551 0.022516
0.699485 0.255984 0.024588
0.730226 0.266404 0.026066
0.760668 0.277813 0.026896
0.790546 0.290030 0.027364
0.818465 0.303145 0.027043
0.844915 0.316507 0.026266
0.869274 0.330606 0.025072
0.892803 0.345144 0.023845
0.913750 0.360800 0.022904
0.934331 0.376426 0.021628
0.951684 0.393204 0.021230
0.968762 0.409728 0.020641
0.984025 0.425928 0.021910
0.998847 0.441885 0.022356
0.000000 0.228062 0.009645
0.000000 0.236351 0.013925
0.003129 0.244437 0.017421
0.026593 0.255918 0.009650
0.053631 0.268213 0.001133
0.110853 0.278981 0.000005
0.170916 0.288892 0.000000
0.228826 0.300447 0.000027
0.284380 0.309907 0.004841
0.333276 0.313262 0.011537
0.379496 0.309108 0.014758
0.427125 0.294541 0.011662
0.473696 0.275943 0.006748
0.515005 0.259499 0.004489
0.551787 0.248491 0.005259
0.586021 0.245567 0.009276
0.618655 0.248045 0.014505
0.650369 0.253100 0.018799
0.681389 0.260427 0.022118
0.711945 0.269282 0.024369
0.741954 0.279638 0.025759
0.771367 0.290979 0.026573
0.800100 0.303312 0.026904
0.827019 0.316905 0.026609
0.852773 0.330755 0.025957
0.876161 0.345320 0.024842
0.898807 0.360111 0.023625
0.918729 0.376351 0.023199
0.938357 0.392551 0.022578
0.955280 0.409670 0.022829
0.972087 0.426530 0.022743
0.987550 0.442862 0.024584
1.000000 0.459015 0.025766
0.000000 0.243892 0.010806
0.000000 0.252859 0.014340
0.005391 0.261358 0.017659
0.029675 0.272573 0.011188
0.057700 0.284336 0.002983
0.114904 0.295901 0.000982
0.174075 0.306955 0.000152
0.230389 0.319384 0.000187
0.285696 0.330892 0.005125
0.336609 0.337841 0.013380
0.382451 0.339816 0.019653
0.426211 0.333638 0.020549
0.473137 0.317662 0.016143
0.519551 0.298447 0.010940
0.560200 0.281626 0.008337
0.596341 0.270586 0.008956
0.630002 0.267730 0.012602
0.661997 0.270499 0.017228
0.693210 0.276001 0.020888
0.723820 0.283884 0.023617
0.753484 0.293543 0.025364
0.782101 0.304829 0.026159
0.809760 0.317233 0.026403
0.835604 0.331170 0.026121
0.860381 0.345553 0.025565
0.882793 0.360680 0.024872
0.904435 0.376011 0.024058
0.923543 0.392752 0.023967
0.942303 0.409516 0.023919
0.958784 0.427026 0.024982
0.975230 0.444169 0.025607
0.991174 0.460662 0.027778
1.000000 0.476971 0.029673
0.000000 0.260376 0.012604
0.000000 0.269999 0.015309
0.007839 0.279064 0.018200
0.033529 0.290171 0.012814
0.062342 0.301701 0.006096
0.119387 0.314084 0.003583
0.178241 0.326044 0.001942
0.233139 0.339151 0.001883
0.287391 0.351700 0.005363
0.339716 0.361717 0.014155
0.387373 0.367542 0.022396
0.429028 0.367911 0.026593
0.471365 0.360699 0.026140
0.518639 0.343867 0.020896
0.564636 0.324002 0.015111
0.604433 0.306929 0.012184
0.639748 0.295593 0.012184
0.672630 0.292497 0.015002
0.704037 0.295404 0.018834
0.734769 0.301221 0.021835
0.764391 0.309711 0.024187
0.792620 0.320174 0.025360
0.819414 0.332477 0.025722
0.844258 0.346362 0.025699
0.867939 0.361290 0.025204
0.889233 0.377060 0.025000
0.909929 0.393033 0.024760
0.928232 0.410475 0.025292
0.946272 0.427744 0.025686
0.962451 0.445416 0.027672
0.978578 0.462817 0.029098
0.994575 0.479183 0.031691
1.000000 0.495621 0.034012
0.000000 0.277746 0.014788
0.000000 0.287998 0.016775
0.010555 0.297762 0.019054
0.038149 0.308966 0.014676
0.068200 0.320406 0.009188
0.124938 0.333349 0.006936
0.183309 0.346059 0.005260
0.237098 0.359551 0.004784
0.290421 0.373023 0.006771
0.343519 0.385076 0.014446
0.392611 0.394274 0.023581
0.434666 0.398451 0.030103
0.474132 0.398291 0.033110
0.516553 0.390732 0.031641
0.563209 0.373552 0.025769
0.608180 0.353549 0.019708
0.647055 0.335830 0.015951
0.681523 0.323655 0.014831
0.713743 0.320275 0.016584
0.744631 0.323127 0.019430
0.774361 0.329225 0.021841
0.802531 0.338288 0.023641
0.828909 0.349584 0.024537
0.852841 0.363235 0.025047
0.875518 0.378211 0.025053
0.895716 0.394626 0.025250
0.915333 0.411318 0.025616
0.932942 0.429622 0.026869
0.950328 0.447483 0.027962
0.966440 0.465062 0.030728
0.982420 0.482536 0.033043
0.997920 0.498524 0.036205
1.000000 0.514772 0.038938
0.000000 0.296051 0.017467
0.001423 0.307117 0.018835
0.013689 0.317487 0.020453
0.043610 0.329142 0.016856
0.075297 0.340744 0.012457
0.131888 0.354033 0.010434
0.189663 0.367374 0.008795
0.242126 0.381268 0.007857
0.294270 0.395102 0.008761
0.347680 0.408887 0.015010
0.398252 0.420215 0.023622
0.441248 0.427734 0.031875
0.480212 0.431474 0.037384
0.518909 0.431604 0.039273
0.560344 0.424290 0.037303
0.605780 0.407333 0.031344
0.649622 0.387043 0.024784
0.687485 0.368549 0.020133
0.721130 0.355522 0.017619
0.752700 0.351715 0.017966
0.782713 0.354346 0.019812
0.811075 0.360511 0.021432
0.837332 0.370194 0.023048
0.860776 0.382720 0.024172
0.882640 0.397261 0.024973
0.902155 0.413434 0.025848
0.920735 0.430803 0.026830
0.937555 0.449483 0.029001
0.954345 0.468055 0.030881
0.970553 0.485426 0.034414
0.986296 0.502811 0.037625
0.999917 0.518755 0.041114
1.000000 0.534603 0.044350
0.000000 0.315269 0.020923
0.004765 0.327158 0.021658
0.017248 0.338266 0.022765
0.049697 0.350672 0.019372
0.083469 0.362765 0.015843
0.140194 0.376176 0.014052
0.197479 0.390006 0.012462
0.248659 0.404276 0.011340
0.299450 0.418683 0.011341
0.351710 0.433347 0.015573
0.403069 0.446423 0.023134
0.448378 0.455783 0.032045
0.487794 0.462895 0.039777
0.524742 0.467217 0.044041
0.561722 0.468193 0.045555
0.601691 0.461750 0.043830
0.645780 0.445183 0.037927
0.688490 0.424656 0.030974
0.725285 0.405412 0.024955
0.758122 0.391431 0.020601
0.788852 0.387033 0.019610
0.817679 0.388950 0.020276
0.844170 0.395471 0.021582
0.867405 0.406140 0.023313
0.888902 0.419302 0.024868
0.908085 0.434396 0.026612
0.926185 0.451205 0.028359
0.942081 0.469897 0.031632
0.958240 0.488732 0.034512
0.974517 0.505812 0.038796
0.990045 0.522953 0.042783
1.000000 0.539347 0.046368
1.000000 0.555238 0.049995
0.000000 0.335827 0.024883
0.008695 0.348521 0.025079
0.021232 0.360564 0.025582
0.057176 0.373384 0.022525
0.093381 0.386195 0.019311
0.149873 0.400230 0.017627
0.206892 0.414220 0.016198
0.256929 0.428808 0.015023
0.306193 0.443549 0.014725
0.357000 0.458795 0.016955
0.407393 0.472937 0.022373
0.454256 0.484151 0.031236
0.496207 0.492929 0.040148
0.532757 0.500600 0.046549
0.567283 0.505673 0.050213
0.602467 0.507743 0.051997
0.640820 0.501972 0.050550
0.683546 0.485442 0.044646
0.724953 0.464809 0.037192
0.760530 0.445040 0.030134
0.792368 0.430240 0.024437
0.821903 0.425460 0.022491
0.848937 0.427153 0.022482
0.872296 0.434449 0.023653
0.893622 0.445509 0.025771
0.912774 0.458896 0.028086
0.930728 0.474231 0.030738
0.946563 0.491972 0.034642
0.961987 0.510544 0.038747
0.978239 0.527019 0.043420
0.993752 0.543843 0.047994
1.000000 0.560055 0.051862
1.000000 0.576370 0.055668
0.001689 0.358377 0.028954
0.013177 0.372031 0.028923
0.026043 0.384891 0.028880
0.066657 0.397694 0.026009
0.105876 0.410967 0.022991
0.161754 0.426102 0.021332
0.218035 0.440639 0.019981
0.267128 0.455277 0.018979
0.314795 0.469988 0.018243
0.363631 0.484997 0.019194
0.412654 0.499977 0.022690
0.459190 0.512917 0.029984
0.502916 0.523502 0.039111
0.541885 0.532244 0.046922
0.575724 0.540309 0.052616
0.608005 0.546303 0.056021
0.641174 0.548829 0.057934
0.677797 0.543204 0.056824
0.718767 0.527119 0.051494
0.758572 0.506858 0.044503
0.792804 0.487159 0.037022
0.823259 0.472425 0.030727
0.850882 0.467677 0.028233
0.874812 0.469456 0.027678
0.896357 0.477048 0.029039
0.915595 0.487967 0.031633
0.933707 0.501491 0.034586
0.949996 0.517158 0.038961
0.965355 0.534579 0.043423
0.981753 0.550160 0.048238
0.997253 0.566370 0.052933
1.000000 0.581688 0.057209
1.000000 0.597816 0.061155
0.006496 0.382071 0.033073
0.018015 0.396871 0.032750
0.031265 0.410615 0.032472
0.076447 0.423492 0.029645
0.119994 0.436786 0.026770
0.175189 0.452571 0.025214
0.230453 0.468009 0.023870
0.278585 0.482930 0.022984
0.325144 0.497583 0.022193
0.371855 0.512238 0.022132
0.418885 0.526937 0.024213
0.464643 0.541218 0.029624
0.508404 0.553606 0.037382
0.549114 0.563727 0.045947
0.585268 0.572544 0.053176
0.616468 0.581105 0.058137
0.646567 0.587470 0.061326
0.678143 0.590044 0.063582
0.712823 0.584917 0.063215
0.751994 0.569382 0.058669
0.789899 0.549531 0.052111
0.821963 0.530238 0.044752
0.850550 0.515718 0.038270
0.875276 0.511624 0.035697
0.897427 0.513368 0.035125
0.917084 0.521064 0.036729
0.935474 0.531830 0.039742
0.952341 0.545389 0.043905
0.968331 0.560590 0.048543
0.985043 0.575175 0.053148
0.999725 0.590276 0.058006
1.000000 0.604896 0.062418
1.000000 0.620006 0.066612
0.011498 0.406217 0.037230
0.023408 0.423033 0.036487
0.037343 0.437781 0.036137
0.088151 0.450688 0.033555
0.135422 0.463904 0.030832
0.189180 0.479818 0.029429
0.243196 0.495736 0.028184
0.290930 0.511105 0.027244
0.336525 0.525786 0.026320
0.381580 0.540055 0.025975
0.426662 0.554597 0.026572
0.470910 0.569080 0.029952
0.514209 0.582692 0.036203
0.555104 0.594186 0.044316
0.592760 0.603847 0.052503
0.625862 0.612656 0.058918
0.655071 0.621477 0.063316
0.684004 0.628151 0.066440
0.713885 0.630991 0.069007
0.746533 0.626464 0.069129
0.782995 0.610932 0.065434
0.817560 0.590997 0.060122
0.847508 0.572453 0.053288
0.873583 0.559154 0.047406
0.896592 0.555647 0.044839
0.917247 0.557624 0.044235
0.936321 0.565333 0.046174
0.954202 0.575674 0.049400
0.971000 0.588928 0.053782
0.988034 0.601859 0.058306
1.000000 0.616011 0.063097
1.000000 0.629550 0.067755
1.000000 0.643839 0.072205
0.016709 0.430809 0.041473
0.029834 0.449124 0.040350
0.044399 0.465801 0.039698
0.099154 0.478793 0.037452
0.151792 0.491855 0.034921
0.204704 0.507611 0.033639
0.256816 0.523748 0.032657
0.303871 0.539286 0.031660
0.349051 0.554253 0.030661
0.392555 0.568332 0.030124
0.435848 0.582339 0.030203
0.478451 0.596787 0.031696
0.520434 0.610710 0.035794
0.561152 0.623344 0.043016
0.599187 0.634213 0.051208
0.633654 0.643394 0.058603
0.664543 0.652149 0.064358
0.692529 0.661323 0.068432
0.719759 0.668327 0.071572
0.747781 0.671372 0.074315
0.777853 0.667174 0.075152
0.811170 0.651419 0.072465
0.843084 0.631925 0.068132
0.870238 0.614587 0.062192
0.894884 0.601751 0.056577
0.916442 0.599266 0.054407
0.936620 0.601228 0.053833
0.955201 0.608553 0.055963
0.973271 0.618308 0.059269
0.990272 0.629764 0.063471
1.000000 0.642269 0.068015
1.000000 0.654991 0.072962
1.000000 0.668228 0.077743
0.021919 0.456403 0.045856
0.038763 0.476691 0.043794
0.054872 0.494634 0.042689
0.114388 0.508194 0.041248
0.169869 0.521240 0.039074
0.221544 0.536391 0.037936
0.272207 0.552259 0.037026
0.318129 0.567726 0.036108
0.362461 0.582742 0.035195
0.404765 0.596697 0.034762
0.446358 0.610351 0.034452
0.487263 0.624142 0.034918
0.527996 0.638121 0.037132
0.568029 0.651352 0.042277
0.606086 0.662812 0.049914
0.640944 0.672302 0.057939
0.672794 0.681173 0.064793
0.701890 0.690415 0.069872
0.728018 0.699631 0.073581
0.753416 0.706523 0.076667
0.779777 0.709671 0.079384
0.807670 0.706075 0.080462
0.838391 0.690328 0.078552
0.867095 0.670869 0.075583
0.892721 0.654446 0.070171
0.915974 0.642940 0.065414
0.936872 0.640749 0.063503
0.956532 0.641793 0.063171
0.975095 0.648952 0.065394
0.992013 0.657114 0.068610
1.000000 0.668282 0.072887
1.000000 0.679878 0.078044
1.000000 0.692516 0.082894
0.027439 0.482648 0.050318
0.048178 0.503763 0.047866
0.067683 0.523590 0.045661
0.128741 0.537517 0.044499
0.188694 0.550943 0.043152
0.239790 0.565873 0.042276
0.288922 0.581112 0.041424
0.333857 0.596230 0.040504
0.377122 0.611140 0.039771
0.418173 0.624949 0.039403
0.458397 0.638420 0.039156
0.497671 0.651610 0.038947
0.536839 0.664963 0.040089
0.575722 0.678414 0.043395
0.613031 0.690548 0.049069
0.647831 0.700331 0.056846
0.680144 0.709183 0.064525
0.710188 0.718458 0.070609
0.737498 0.727821 0.075255
0.761967 0.736926 0.078715
0.785605 0.743973 0.081637
0.810215 0.747362 0.084425
0.835846 0.744248 0.086040
