nova/tdt-studio/app/Lut_mau/IWLTBAP/1 - LUTs by IWLTBAP (CUBE)/01 - Standard/Cinematic/F-8700-STD.cube
# Copyright: (C) Copyright 2010-2019 by IWLTBAP SAS
# Cannot be resold, shared or otherwise redistributed
# Website: https://luts.iwltbap.com
TITLE "IWLTBAP 8700 (Rec.709, sRGB, DCI-P3)"
LUT_3D_SIZE 5
0.061859 0.077515 0.085999
0.226690 0.117246 0.093500
0.409087 0.136711 0.088399
0.631063 0.167735 0.114258
0.824524 0.226410 0.132507
0.075495 0.189777 0.100484
0.296324 0.195208 0.082864
0.507938 0.217354 0.099615
0.730735 0.279767 0.111328
0.881985 0.369592 0.103686
0.083517 0.286692 0.101763
0.308002 0.359528 0.095960
0.595638 0.309542 0.100664
0.786047 0.366110 0.110388
0.907554 0.475716 0.116207
0.104521 0.422670 0.121698
0.357148 0.523712 0.114102
0.616072 0.604522 0.138682
0.808682 0.560748 0.131925
0.927979 0.618165 0.147718
0.149750 0.608246 0.152771
0.472254 0.705200 0.140855
0.663870 0.773375 0.142704
0.820077 0.825213 0.170880
0.935791 0.786285 0.171936
0.060896 0.115654 0.188617
0.148115 0.140017 0.184951
0.337438 0.161694 0.181246
0.601719 0.215125 0.201993
0.842123 0.298332 0.206910
0.073075 0.186764 0.220080
0.157352 0.238961 0.259477
0.454268 0.293778 0.250254
0.738551 0.355228 0.231148
0.894527 0.435713 0.233027
0.099605 0.384578 0.347944
0.154024 0.391523 0.276095
0.537054 0.412785 0.183564
0.765865 0.497013 0.245268
0.900274 0.594623 0.243798
0.121712 0.544491 0.392053
0.184525 0.551766 0.287425
0.529101 0.636027 0.280180
0.805005 0.656382 0.202066
0.918850 0.703454 0.232798
0.145457 0.670054 0.419588
0.359802 0.751887 0.340892
0.622508 0.793583 0.362235
0.809966 0.846981 0.301506
0.941546 0.824082 0.221777
0.072052 0.162109 0.289919
0.104401 0.176214 0.278231
0.219526 0.198143 0.268819
0.551805 0.234103 0.250356
0.795812 0.348723 0.312654
0.084640 0.217036 0.332398
0.129025 0.266764 0.398091
0.302413 0.324289 0.377673
0.654807 0.416782 0.390994
0.858513 0.509432 0.443071
0.097024 0.288530 0.372116
0.146133 0.357726 0.445383
0.349624 0.470605 0.501506
0.729875 0.574489 0.512479
0.890057 0.641972 0.532041
0.140846 0.562000 0.591578
0.181184 0.632041 0.641605
0.424775 0.665484 0.535656
0.788153 0.716128 0.436549
0.912853 0.758346 0.502010
0.178125 0.765942 0.752138
0.229731 0.787515 0.668167
0.594499 0.826021 0.522032
0.797479 0.860180 0.524205
0.944339 0.851397 0.278428
0.088980 0.229682 0.446991
0.112994 0.239659 0.427104
0.142405 0.251888 0.409902
0.452668 0.288652 0.337357
0.767656 0.364388 0.363862
0.102105 0.288856 0.497999
0.134420 0.336320 0.567070
0.182625 0.359660 0.555575
0.588949 0.456481 0.492596
0.824438 0.542422 0.557875
0.113075 0.338030 0.539621
0.147825 0.395719 0.606692
0.226130 0.467538 0.670730
0.676503 0.599244 0.634903
0.859825 0.672773 0.682823
0.132119 0.445005 0.597984
0.169008 0.509205 0.662324
0.263054 0.593570 0.719553
0.755835 0.758770 0.726311
0.896856 0.789358 0.735778
0.177705 0.667598 0.762223
0.209073 0.713515 0.799087
0.299812 0.791742 0.837695
0.788372 0.871879 0.724073
0.931719 0.871022 0.647440
0.111145 0.325867 0.639343
0.134134 0.334632 0.624220
0.152689 0.340663 0.607673
0.273479 0.401726 0.616680
0.724731 0.456451 0.547882
0.123714 0.381817 0.677512
0.153373 0.420828 0.727316
0.180647 0.439452 0.730917
0.428732 0.537609 0.732913
0.793531 0.565004 0.676226
0.134339 0.426777 0.708053
0.166108 0.473027 0.755509
0.217153 0.522350 0.798553
0.580328 0.657137 0.804567
0.839114 0.666970 0.765373
0.148989 0.492858 0.746119
0.181443 0.545103 0.788355
0.247216 0.608492 0.825548
0.697619 0.765187 0.846729
0.876578 0.795173 0.832292
0.170868 0.601929 0.789215
0.202413 0.644489 0.823754
0.283155 0.700510 0.849663
0.720803 0.840860 0.871626
0.902069 0.896576 0.849335
