nova/tdt-studio/app/Lut_mau/IWLTBAP/1 - LUTs by IWLTBAP (CUBE)/01 - Standard/Cinematic/F-8700-STD.cube
# Copyright: (C) Copyright 2010-2019 by IWLTBAP SAS
# Cannot be resold, shared or otherwise redistributed
# Website: https://luts.iwltbap.com
TITLE "IWLTBAP 8700 (Rec.709, sRGB, DCI-P3)"
LUT_3D_SIZE 33
0.061859 0.077515 0.085999
0.071428 0.082901 0.090024
0.087899 0.091341 0.092271
0.106358 0.096774 0.094367
0.127613 0.100717 0.094411
0.151402 0.106254 0.095403
0.177092 0.111177 0.095917
0.202547 0.114623 0.095176
0.226690 0.117246 0.093500
0.251582 0.119702 0.091642
0.275124 0.121517 0.089935
0.299007 0.123246 0.088528
0.323235 0.124950 0.087301
0.345552 0.126960 0.086379
0.366356 0.129556 0.086017
0.386888 0.132787 0.086558
0.409087 0.136711 0.088399
0.433369 0.140920 0.091221
0.459218 0.145172 0.094269
0.486727 0.149444 0.097429
0.514933 0.153464 0.100777
0.543852 0.157210 0.104118
0.573685 0.160777 0.107568
0.602882 0.164388 0.110983
0.631063 0.167735 0.114258
0.659943 0.171632 0.118003
0.687029 0.176660 0.121584
0.713151 0.182447 0.125297
0.737034 0.188812 0.128288
0.758488 0.196536 0.130302
0.781413 0.206341 0.132087
0.803335 0.216756 0.133056
0.824524 0.226410 0.132507
0.064326 0.091563 0.092920
0.073739 0.094627 0.094971
0.089184 0.100394 0.095485
0.108164 0.105364 0.097769
0.130289 0.110302 0.097587
0.154280 0.114993 0.098558
0.180837 0.119425 0.097826
0.206946 0.123337 0.097321
0.231815 0.126552 0.095901
0.256524 0.128740 0.093715
0.280724 0.130489 0.091136
0.305864 0.132551 0.089660
0.330688 0.134693 0.088720
0.353944 0.137014 0.087556
0.376232 0.139669 0.086695
0.397741 0.142920 0.087065
0.420170 0.146935 0.089042
0.445064 0.151464 0.091962
0.472129 0.156331 0.095037
0.500401 0.161375 0.098264
0.529329 0.166447 0.101785
0.559246 0.171664 0.105313
0.589082 0.176927 0.108552
0.617929 0.182070 0.111499
0.646002 0.187274 0.114271
0.674532 0.193546 0.117392
0.701749 0.201043 0.120113
0.728144 0.208893 0.121858
0.753708 0.217368 0.122804
0.776910 0.226200 0.123148
0.798906 0.234819 0.122553
0.819410 0.243244 0.121280
0.839741 0.252188 0.119735
0.066979 0.107686 0.098759
0.074626 0.111029 0.100991
0.090015 0.113088 0.096555
0.111095 0.116227 0.098085
0.135822 0.120103 0.099053
0.159677 0.124161 0.099982
0.185535 0.128463 0.099366
0.212935 0.132742 0.098216
0.239853 0.135785 0.095636
0.265503 0.137972 0.093149
0.290196 0.140041 0.091185
0.315400 0.142195 0.089532
0.339635 0.144231 0.087947
0.362001 0.146577 0.086744
0.384444 0.149671 0.086400
0.407637 0.153531 0.087457
0.431684 0.158092 0.089458
0.457225 0.163108 0.092006
0.484672 0.168452 0.095184
0.513340 0.174107 0.098554
0.542747 0.180030 0.101922
0.573863 0.186498 0.105252
0.604998 0.193376 0.107979
0.634127 0.200247 0.110018
0.662958 0.207373 0.111943
0.691359 0.214899 0.113673
0.717818 0.222834 0.114536
0.743159 0.230865 0.114814
0.768372 0.239277 0.115057
0.791401 0.247721 0.114586
0.812732 0.256393 0.112930
0.832137 0.265011 0.110686
0.851057 0.273996 0.109238
0.069159 0.122817 0.100494
0.076183 0.126446 0.103301
0.088711 0.131107 0.101378
0.111713 0.130584 0.094548
0.142605 0.130285 0.096498
0.168201 0.133146 0.099328
0.194412 0.137176 0.099309
0.222411 0.141215 0.097667
0.249693 0.144172 0.095018
0.276173 0.146350 0.092026
0.301616 0.148165 0.089505
0.327373 0.150404 0.087565
0.351144 0.152796 0.086023
0.372661 0.155816 0.085496
0.394754 0.159819 0.086120
0.418879 0.164545 0.087858
0.444627 0.169678 0.090343
0.471208 0.175016 0.093039
0.498773 0.180569 0.096030
0.527603 0.186505 0.099280
0.556823 0.192842 0.102331
0.587011 0.199750 0.105062
0.618507 0.207415 0.107327
0.648446 0.215198 0.109001
0.677822 0.223238 0.110633
0.705972 0.231506 0.111646
0.732020 0.239711 0.111625
0.756607 0.248224 0.110798
0.780604 0.257111 0.110389
0.803022 0.266197 0.109206
0.823218 0.275176 0.107328
0.841553 0.284681 0.104692
0.859237 0.293975 0.104107
0.071075 0.139031 0.102304
0.077656 0.141621 0.104758
0.087051 0.147531 0.103007
0.108072 0.150035 0.097098
0.144797 0.144246 0.093104
0.177911 0.143481 0.095054
0.206706 0.146018 0.095830
0.234685 0.149086 0.095118
0.261145 0.151744 0.093067
0.286926 0.154010 0.090405
0.312169 0.156037 0.087877
0.337143 0.158668 0.086485
0.360709 0.161707 0.085854
0.383069 0.165162 0.086336
0.406216 0.169411 0.087591
0.431271 0.174498 0.089399
0.457298 0.179913 0.091870
0.483932 0.185438 0.094692
0.512023 0.191362 0.097660
0.541300 0.197759 0.100643
0.570685 0.204474 0.103425
0.600299 0.211656 0.105845
0.630716 0.219576 0.107643
0.660817 0.227871 0.108968
0.689819 0.236432 0.110163
0.718350 0.245438 0.110909
0.744798 0.254406 0.110818
0.768981 0.263442 0.109958
0.791453 0.272807 0.108604
0.812249 0.282454 0.106772
0.831316 0.292229 0.105819
0.849254 0.302187 0.104094
0.865128 0.312799 0.103265
0.072373 0.151540 0.101346
0.079080 0.156176 0.104795
0.086934 0.162537 0.104218
0.103276 0.167775 0.099619
0.143494 0.165501 0.092340
0.181530 0.157403 0.090926
0.215879 0.155803 0.090665
0.247226 0.156775 0.089858
0.274331 0.158606 0.088565
0.299434 0.160791 0.086831
0.323256 0.163511 0.085757
0.346580 0.166720 0.085375
0.369875 0.170371 0.085924
0.393598 0.174390 0.087569
0.418562 0.179004 0.089518
0.444294 0.184200 0.091549
0.469878 0.189585 0.093854
0.496574 0.195224 0.096454
0.525438 0.201475 0.099410
0.555009 0.208254 0.102345
0.584320 0.215380 0.104806
0.613971 0.223027 0.106852
0.643703 0.231186 0.108443
0.672740 0.239639 0.109537
0.701347 0.248604 0.110095
0.728789 0.257793 0.110520
0.754712 0.267093 0.110214
0.778192 0.276491 0.109297
0.799689 0.286305 0.108397
0.819230 0.296261 0.106366
0.838008 0.306882 0.105869
0.854461 0.317326 0.104598
0.869761 0.328312 0.103143
0.073475 0.163755 0.100997
0.080352 0.169769 0.104621
0.087597 0.177986 0.104394
0.098895 0.184066 0.100374
0.137213 0.185825 0.093336
0.181707 0.179641 0.088019
0.219259 0.170319 0.087094
0.254639 0.167177 0.085377
0.285578 0.166795 0.083950
0.312068 0.168233 0.083167
0.335971 0.171414 0.084042
0.358810 0.175229 0.085612
0.381933 0.179514 0.087205
0.406229 0.183976 0.089214
0.431838 0.188753 0.091512
0.457514 0.193879 0.093797
0.482938 0.199176 0.096010
0.509462 0.204848 0.098490
0.538107 0.211132 0.101295
0.567655 0.217972 0.103873
0.596952 0.225344 0.105989
0.626997 0.233401 0.107755
0.656734 0.241889 0.109144
0.684869 0.250494 0.109932
0.712494 0.259659 0.110300
0.738621 0.269060 0.110612
0.762963 0.278417 0.109711
0.785626 0.288338 0.108526
0.806919 0.298624 0.107672
0.825416 0.309041 0.106768
0.843576 0.320038 0.105573
0.858779 0.331163 0.104289
0.873657 0.343176 0.102912
0.074540 0.177171 0.100420
0.081412 0.183011 0.103926
0.088537 0.192836 0.105178
0.096770 0.199695 0.099918
0.128280 0.204140 0.094237
0.179049 0.202078 0.086601
0.220495 0.194218 0.084201
0.258291 0.183940 0.083383
0.291241 0.179100 0.082183
0.320128 0.178365 0.082255
0.347156 0.180583 0.084072
0.371590 0.184123 0.086531
0.395121 0.188491 0.088769
0.419530 0.193160 0.091035
0.444693 0.197944 0.093404
0.470006 0.203008 0.095669
0.495481 0.208436 0.097914
0.521854 0.214140 0.100364
0.550144 0.220328 0.102957
0.579278 0.227233 0.105315
0.608122 0.234626 0.107215
0.638247 0.242782 0.108681
0.668318 0.251754 0.109663
0.695825 0.260634 0.110249
0.722313 0.269821 0.110805
0.747852 0.279482 0.111111
0.770803 0.289290 0.110108
0.792666 0.299567 0.108703
0.813073 0.310118 0.107258
0.831018 0.320981 0.107001
0.848393 0.332586 0.105275
0.863401 0.344464 0.103995
0.877869 0.356667 0.103332
0.075495 0.189777 0.100484
0.082299 0.193968 0.103686
0.089335 0.204388 0.105310
0.095819 0.214003 0.098420
0.122989 0.220593 0.092719
0.172250 0.220917 0.086859
0.219933 0.217199 0.083684
0.261417 0.206757 0.083983
0.296324 0.195208 0.082864
0.327346 0.190506 0.082747
0.357116 0.190898 0.084556
0.384186 0.193466 0.087265
0.408731 0.197297 0.090006
0.432646 0.201738 0.092424
0.457206 0.206574 0.094874
0.482504 0.211842 0.097285
0.507938 0.217354 0.099615
0.533812 0.223113 0.102123
0.561638 0.229498 0.104546
0.590445 0.236514 0.106598
0.618756 0.243919 0.108423
0.648260 0.252203 0.109807
0.677837 0.261434 0.110467
0.704990 0.270554 0.110920
0.730735 0.279767 0.111328
0.755955 0.289627 0.111330
0.778571 0.299663 0.110211
0.799297 0.310332 0.109047
0.818804 0.321311 0.107461
0.836585 0.332580 0.106788
0.853136 0.345068 0.105186
0.867841 0.357238 0.103955
0.881985 0.369592 0.103686
0.076281 0.201324 0.100759
0.082948 0.205765 0.103144
0.089934 0.215043 0.105233
0.095770 0.227112 0.097383
0.120506 0.235342 0.090402
0.167133 0.237147 0.086731
0.218724 0.237224 0.084181
0.261620 0.231548 0.086165
0.300579 0.217484 0.085481
0.334452 0.206596 0.084207
0.365722 0.202992 0.085183
0.394737 0.203821 0.087784
0.420908 0.206642 0.090828
0.445148 0.210516 0.093537
0.469707 0.215231 0.096066
0.494944 0.220532 0.098665
0.520281 0.226091 0.101282
0.546101 0.231970 0.103753
0.573372 0.238632 0.105971
0.601429 0.245987 0.107934
0.629459 0.253650 0.109591
0.658601 0.262093 0.110719
0.687298 0.271256 0.111159
0.713631 0.280429 0.111451
0.738794 0.289997 0.111632
0.763353 0.299991 0.111298
0.785458 0.310198 0.110223
0.805658 0.321066 0.108811
0.824149 0.332822 0.107692
0.841679 0.344233 0.106477
0.857602 0.357019 0.105241
0.871852 0.369390 0.103975
0.885430 0.382603 0.103986
0.076824 0.213426 0.100411
0.083498 0.217954 0.102332
0.090621 0.225256 0.105425
0.096178 0.239113 0.097246
0.118755 0.249320 0.089145
0.165161 0.251807 0.086648
0.216980 0.254316 0.084690
0.261579 0.254232 0.088225
0.301643 0.243552 0.089269
0.340596 0.228907 0.086924
0.373318 0.218889 0.086162
0.403115 0.216060 0.088057
0.431258 0.217218 0.091148
0.457095 0.220126 0.094172
0.482381 0.224348 0.096965
0.507389 0.229399 0.099862
0.532341 0.234941 0.102725
0.558209 0.240975 0.105195
0.585280 0.247794 0.107332
0.612743 0.255321 0.109147
0.640292 0.263206 0.110474
0.668895 0.271808 0.111325
0.696667 0.280919 0.111632
0.722026 0.290074 0.111688
0.746517 0.300023 0.111583
0.770126 0.310294 0.111236
0.791327 0.320761 0.110409
0.811350 0.331928 0.108512
0.829622 0.343941 0.107486
0.845838 0.355590 0.106596
0.861568 0.368498 0.105406
0.875135 0.381097 0.104444
0.888312 0.394786 0.104582
0.077348 0.225794 0.099806
0.084211 0.230458 0.101940
0.091418 0.236764 0.105472
0.097043 0.249720 0.097565
0.118291 0.260636 0.089666
0.165358 0.264233 0.087077
0.215281 0.268931 0.085471
0.262569 0.273354 0.089667
0.301951 0.270323 0.093170
0.341439 0.256928 0.091755
0.379666 0.241520 0.088674
0.411445 0.231782 0.088500
0.440166 0.229304 0.091128
0.467470 0.230777 0.094459
0.493912 0.234075 0.097629
0.519399 0.238540 0.100692
0.544236 0.243785 0.103575
0.569702 0.249774 0.106113
0.596454 0.256631 0.108223
0.623597 0.264212 0.109887
0.650416 0.272269 0.111165
0.678058 0.281128 0.111883
0.705135 0.290414 0.112030
0.729545 0.299567 0.112042
0.753455 0.309828 0.111572
0.776318 0.320389 0.110990
0.796740 0.331344 0.110291
0.816339 0.343014 0.108613
0.834449 0.354928 0.107514
0.849561 0.366874 0.106970
0.865025 0.380272 0.105792
0.877783 0.393039 0.105267
0.891260 0.406339 0.105211
0.078136 0.237466 0.099686
0.085161 0.242864 0.102016
0.092426 0.248956 0.105443
0.098296 0.260659 0.098104
0.120056 0.271049 0.090843
0.167020 0.276257 0.088057
0.214843 0.282465 0.086778
0.263233 0.289475 0.090215
0.303730 0.292476 0.095590
0.340432 0.285739 0.097206
0.382335 0.269288 0.093649
0.419342 0.253382 0.090491
0.449028 0.244681 0.091136
0.476308 0.242906 0.094114
0.503774 0.244904 0.097642
0.530845 0.248581 0.101115
0.556433 0.253352 0.104238
0.581394 0.259020 0.106821
0.607235 0.265711 0.108887
0.633655 0.273255 0.110417
0.659860 0.281338 0.111477
0.686641 0.290389 0.112131
0.713132 0.299914 0.112292
0.736638 0.309271 0.112346
0.759676 0.319864 0.111619
0.781836 0.330621 0.110565
0.801785 0.342116 0.109783
0.820802 0.354329 0.108475
0.838627 0.366415 0.107451
0.853638 0.378640 0.107040
0.868018 0.392630 0.106313
0.879895 0.405902 0.106438
0.894283 0.418876 0.106394
0.079151 0.249157 0.099821
0.086237 0.254806 0.102006
0.093695 0.261451 0.105576
0.099721 0.272744 0.098549
0.123324 0.281824 0.092147
0.169284 0.288157 0.089613
0.215531 0.295533 0.088483
0.263059 0.303982 0.090436
0.306067 0.310505 0.096803
0.341705 0.310411 0.100841
0.380879 0.299478 0.099831
0.423036 0.281478 0.095229
0.457173 0.266300 0.092523
0.485265 0.258306 0.093760
0.512996 0.257092 0.097117
0.541144 0.259762 0.100912
0.567573 0.263845 0.104407
0.592634 0.268920 0.107160
0.618259 0.275340 0.109187
0.644036 0.282841 0.110528
0.669538 0.290953 0.111348
0.695443 0.300059 0.112001
0.721030 0.309739 0.112282
0.744129 0.319673 0.112339
0.766288 0.330695 0.111421
0.787426 0.341654 0.110228
0.806980 0.353351 0.109275
0.824865 0.366139 0.108269
0.842104 0.378751 0.107645
0.857280 0.391339 0.107274
0.870932 0.405614 0.107012
0.882404 0.419265 0.107730
0.897153 0.432214 0.108301
0.080324 0.261859 0.099889
0.087493 0.267114 0.102025
0.095045 0.274348 0.105734
0.101271 0.285229 0.099046
0.126965 0.292828 0.093631
0.172135 0.300078 0.091557
0.217491 0.308694 0.090494
0.262790 0.318293 0.091139
0.307544 0.327192 0.096895
0.345457 0.330859 0.102817
0.380842 0.328120 0.104885
0.420213 0.315217 0.102270
0.460410 0.296951 0.097282
0.493969 0.281779 0.094933
0.522581 0.273761 0.096555
0.550645 0.272835 0.100045
0.577340 0.275681 0.103790
0.603068 0.280040 0.106873
0.629406 0.286075 0.108980
0.655123 0.293295 0.110299
0.679878 0.301302 0.111125
0.704587 0.310369 0.111721
0.728845 0.320155 0.111922
0.751769 0.330622 0.111924
0.773295 0.342063 0.111000
0.793402 0.353488 0.110136
0.812230 0.365238 0.109275
0.829209 0.378379 0.108462
0.845329 0.391529 0.108305
0.860244 0.404767 0.108039
0.873836 0.419153 0.108428
0.885818 0.432514 0.109306
0.900272 0.445772 0.110592
0.081850 0.274657 0.100668
0.088945 0.280316 0.102464
0.096404 0.287458 0.105732
0.102850 0.297766 0.100095
0.129763 0.305601 0.095339
0.175462 0.313619 0.093686
0.220484 0.322996 0.092667
0.263510 0.332971 0.092388
0.307852 0.343510 0.096171
0.349116 0.350044 0.103287
0.384458 0.352244 0.108026
0.417863 0.347899 0.108687
0.456424 0.333950 0.105111
0.497313 0.314823 0.099704
0.531878 0.298929 0.097224
0.560187 0.290775 0.098888
0.586477 0.289804 0.102283
0.612810 0.292968 0.105611
0.639681 0.298037 0.108171
0.665624 0.304428 0.109813
0.689947 0.312032 0.110938
0.713712 0.321018 0.111486
0.736813 0.331055 0.111496
0.758910 0.341905 0.111312
0.779856 0.353763 0.110609
0.799300 0.365745 0.110019
0.817172 0.377884 0.109550
0.833611 0.391231 0.108989
0.848597 0.404814 0.109227
0.863001 0.418949 0.109307
0.876494 0.433241 0.110492
0.889620 0.446278 0.111434
0.903851 0.460195 0.113339
0.083517 0.286692 0.101763
0.090487 0.293566 0.103123
0.097870 0.301052 0.105880
0.104659 0.310212 0.101837
0.132910 0.319035 0.097372
0.179096 0.328300 0.095821
0.223551 0.338221 0.094913
0.264917 0.347915 0.094185
0.308002 0.359528 0.095960
0.351561 0.368800 0.102729
0.389537 0.373201 0.109705
0.420920 0.374544 0.112910
0.453496 0.369401 0.112475
0.493841 0.354193 0.107996
0.535582 0.333865 0.102039
0.569148 0.317439 0.099391
0.595638 0.309542 0.100664
0.621379 0.308864 0.103587
0.648361 0.311998 0.106509
0.674653 0.317132 0.108743
0.699210 0.323961 0.110315
0.722900 0.332411 0.111081
0.745207 0.342519 0.111100
0.765936 0.353708 0.110760
0.786047 0.366110 0.110388
0.804750 0.378700 0.109968
0.821533 0.391501 0.109990
0.837425 0.405339 0.109675
0.851958 0.419440 0.110424
0.865890 0.434066 0.111168
0.879163 0.448265 0.112828
0.893162 0.461792 0.114140
0.907554 0.475716 0.116207
0.085282 0.299551 0.102996
0.092212 0.307458 0.104131
0.099537 0.315875 0.106370
0.106898 0.323695 0.103786
0.137402 0.333145 0.099582
0.183527 0.343780 0.097921
0.227191 0.354156 0.097105
0.267627 0.364000 0.096358
0.309490 0.375956 0.096881
0.353756 0.387063 0.102181
0.394776 0.393916 0.110233
0.427140 0.397594 0.115495
0.456133 0.398890 0.117276
0.490104 0.393560 0.116165
0.532204 0.376877 0.111073
0.572882 0.355934 0.104789
0.603641 0.339922 0.101683
0.629301 0.331351 0.102144
0.656158 0.329962 0.104274
0.682884 0.333380 0.106672
0.707754 0.338869 0.108666
0.731670 0.346182 0.109951
0.753666 0.355553 0.110275
0.773539 0.366659 0.110218
0.792506 0.379490 0.110218
0.810250 0.392594 0.110041
0.825831 0.406330 0.110574
0.841202 0.421113 0.110591
0.855531 0.435911 0.111904
0.869005 0.450167 0.113531
0.882264 0.464683 0.115575
0.896284 0.478659 0.117498
0.910503 0.491543 0.119537
0.087416 0.314754 0.105044
0.094266 0.323029 0.105839
0.101467 0.331732 0.107290
0.109877 0.339538 0.105390
0.142580 0.349669 0.101642
0.189266 0.360739 0.100215
0.232303 0.371154 0.099367
0.272387 0.381738 0.098684
0.312750 0.393396 0.098511
0.356072 0.405704 0.101751
0.398996 0.415190 0.109618
0.434220 0.420437 0.116666
0.462659 0.424440 0.120210
0.491120 0.426963 0.121461
0.526896 0.420992 0.120161
0.568546 0.404738 0.115197
0.606220 0.384483 0.108768
0.636181 0.366830 0.104504
0.663423 0.356644 0.103459
0.690039 0.354986 0.104518
0.714973 0.358142 0.106394
0.738998 0.363727 0.108064
0.761249 0.371626 0.108959
0.781035 0.381589 0.109562
0.798987 0.394101 0.110027
0.815823 0.407478 0.110320
0.830623 0.421957 0.111152
0.845261 0.437664 0.112017
0.858910 0.452940 0.113881
0.872160 0.466975 0.116230
0.885907 0.481435 0.118672
0.899409 0.495070 0.121327
0.912999 0.507545 0.123593
0.089795 0.330401 0.107535
0.096564 0.339100 0.107934
0.103666 0.348065 0.108726
0.113266 0.357267 0.106786
0.148677 0.367663 0.103731
0.196190 0.378635 0.102715
0.238491 0.389199 0.101826
0.278324 0.400626 0.101145
0.317062 0.412104 0.100526
0.358584 0.425048 0.101856
0.401856 0.436462 0.108357
0.440272 0.443558 0.116390
0.471389 0.448731 0.121757
0.497448 0.453952 0.124532
0.526472 0.456905 0.126051
0.561767 0.452145 0.125244
0.600737 0.437379 0.120525
0.637714 0.416459 0.113402
0.668728 0.396995 0.107571
0.695213 0.385671 0.105013
0.719999 0.383073 0.105070
0.744583 0.385665 0.106249
0.767389 0.391630 0.107439
0.787038 0.400174 0.108659
0.804519 0.411057 0.109763
0.820779 0.423778 0.110825
0.835444 0.438038 0.111977
0.849206 0.454167 0.113862
0.862018 0.469449 0.116444
0.875335 0.483846 0.119523
0.889622 0.497556 0.122299
0.902964 0.510893 0.124986
0.916130 0.524450 0.127719
0.092307 0.346011 0.110080
0.099052 0.355489 0.110249
0.106106 0.365642 0.110527
0.116744 0.376283 0.108537
0.155804 0.386289 0.106154
0.204051 0.397353 0.105209
0.245632 0.408539 0.104345
0.285096 0.420798 0.103585
0.322201 0.432505 0.102901
0.361984 0.445052 0.103152
0.404878 0.457578 0.107517
0.444724 0.466848 0.115187
0.478466 0.473197 0.121919
0.507098 0.478985 0.126245
0.533621 0.484997 0.128921
0.560913 0.488924 0.130618
0.593047 0.485427 0.130211
0.631058 0.470760 0.125719
0.668436 0.448975 0.118134
0.698513 0.429187 0.111303
0.723287 0.417291 0.107668
0.748003 0.413627 0.106675
0.771515 0.416234 0.106961
0.791227 0.423411 0.108177
0.808458 0.432483 0.109771
0.824962 0.443049 0.111490
0.839686 0.456196 0.113373
0.852646 0.471599 0.116217
0.865237 0.486881 0.119336
0.878634 0.501156 0.123155
0.892816 0.514380 0.126324
0.906189 0.527795 0.128755
0.919203 0.541875 0.131834
0.095056 0.364193 0.112788
0.101835 0.374156 0.112904
0.108962 0.385140 0.112810
0.123297 0.396568 0.110715
0.164841 0.406088 0.108729
0.213087 0.418000 0.107725
0.254412 0.429955 0.106917
0.292885 0.442439 0.106121
0.329094 0.454328 0.105498
0.367284 0.466181 0.105343
0.408688 0.479032 0.107701
0.448529 0.490656 0.113672
0.483662 0.498856 0.120781
0.515285 0.505352 0.126556
0.543239 0.512174 0.130380
0.567678 0.519217 0.132808
0.592418 0.523271 0.134547
0.623065 0.519201 0.134675
0.660502 0.504202 0.130853
0.696730 0.483104 0.123578
0.725173 0.464132 0.116567
0.749440 0.451644 0.112127
0.772897 0.448006 0.110291
0.793537 0.451273 0.110186
0.810678 0.458485 0.111514
0.827467 0.467129 0.113571
0.842442 0.478342 0.115903
0.854993 0.491567 0.119477
0.868104 0.506613 0.122734
0.881768 0.520091 0.126505
0.895781 0.532829 0.129820
0.908707 0.546012 0.132933
0.921402 0.559121 0.135865
0.098020 0.383445 0.115667
0.104847 0.394495 0.115680
0.112585 0.406169 0.115423
0.134433 0.417674 0.112860
0.176977 0.427135 0.111371
0.223509 0.440355 0.110349
0.264446 0.452872 0.109450
0.301622 0.464928 0.108859
0.337646 0.476909 0.108203
0.374758 0.488606 0.107984
0.413446 0.501155 0.108765
0.451578 0.513967 0.112257
0.487295 0.524126 0.118703
0.520842 0.531706 0.125655
0.551309 0.538793 0.130851
0.576540 0.546156 0.133982
0.599053 0.553132 0.136226
0.623387 0.557422 0.138345
0.652817 0.553707 0.139099
0.687892 0.539383 0.136129
0.722039 0.519298 0.129578
0.749347 0.500548 0.122849
0.772608 0.488780 0.118237
0.793458 0.485391 0.116017
0.811405 0.487977 0.116042
0.828038 0.494869 0.117676
0.843239 0.503802 0.119938
0.856549 0.515057 0.123154
0.870539 0.528312 0.126475
0.884666 0.540840 0.129977
0.898947 0.552642 0.133212
0.911597 0.565112 0.136548
0.923454 0.577429 0.139801
0.101139 0.402501 0.118632
0.107986 0.414228 0.118594
0.116626 0.428414 0.118007
0.145798 0.439302 0.115038
0.189653 0.448361 0.114067
0.234773 0.462354 0.113194
0.274272 0.475065 0.112371
0.310721 0.487491 0.111770
0.346732 0.499660 0.111146
0.383463 0.511574 0.110638
0.419700 0.523452 0.110475
0.455666 0.536147 0.112043
0.491104 0.547731 0.116889
0.525347 0.556983 0.123848
0.556728 0.564710 0.130204
0.583991 0.571703 0.134707
0.607551 0.578930 0.137658
0.630137 0.586677 0.139979
0.654166 0.591802 0.142135
0.681452 0.588667 0.143251
0.713132 0.574492 0.141416
0.744944 0.553741 0.135848
0.771164 0.535615 0.129294
0.791863 0.525398 0.124999
0.810616 0.522049 0.123000
0.828394 0.524733 0.122786
0.843523 0.531403 0.124614
0.857887 0.541189 0.127220
0.872974 0.551379 0.130106
0.887636 0.563083 0.133688
0.902230 0.574068 0.136774
0.914294 0.585857 0.140335
0.925859 0.597467 0.143822
0.104521 0.422670 0.121698
0.111417 0.434968 0.121591
0.120864 0.451302 0.120726
0.157028 0.462287 0.117556
0.202178 0.471901 0.116861
0.245714 0.485289 0.116191
0.284556 0.498479 0.115601
0.321220 0.511182 0.114989
0.357148 0.523712 0.114102
0.393123 0.535322 0.113487
0.426956 0.546513 0.113188
0.461390 0.558604 0.113592
0.496111 0.570802 0.116436
0.530459 0.581769 0.122192
0.562180 0.590439 0.128856
0.590620 0.597470 0.134567
0.616072 0.604522 0.138682
0.638675 0.612223 0.141330
0.660395 0.619943 0.143421
0.683113 0.625202 0.145687
0.708069 0.621908 0.147279
0.736617 0.606838 0.146147
0.765607 0.587144 0.141580
0.789093 0.570640 0.135964
0.808682 0.560748 0.131925
0.827391 0.558126 0.129691
0.843680 0.561164 0.129977
0.859047 0.568120 0.131700
0.874796 0.576015 0.134181
0.890097 0.585913 0.137584
0.905194 0.596191 0.140685
0.916985 0.606990 0.144275
0.927979 0.618165 0.147718
0.108101 0.443617 0.124826
0.115164 0.456986 0.124583
0.127706 0.474315 0.122973
0.170279 0.486138 0.119992
0.215759 0.496651 0.119704
0.257542 0.508904 0.119131
0.296377 0.522220 0.118620
0.333139 0.534875 0.117902
0.368032 0.547534 0.117138
0.402464 0.558846 0.116745
0.435190 0.570001 0.116474
0.468257 0.581748 0.116508
0.501683 0.593414 0.117799
0.535581 0.605229 0.121281
0.567488 0.614928 0.127194
0.596337 0.622108 0.133689
0.623352 0.629124 0.139013
0.647674 0.636905 0.142566
0.668417 0.644545 0.144767
0.688334 0.651942 0.146965
0.709676 0.657134 0.149362
0.732503 0.653635 0.150976
0.758111 0.639319 0.150802
0.784323 0.620094 0.147394
0.807284 0.603539 0.141895
0.825855 0.595024 0.138286
0.843170 0.593227 0.137150
0.859956 0.595231 0.137025
0.876457 0.600886 0.138427
0.891704 0.608831 0.141102
0.907333 0.617437 0.144070
0.918903 0.627544 0.148170
0.929566 0.638796 0.151488
0.111866 0.464810 0.127964
0.119196 0.480647 0.127426
0.136472 0.498771 0.124583
0.185732 0.510276 0.122795
0.231415 0.520632 0.122792
0.272055 0.533260 0.122058
0.309754 0.545555 0.121651
0.345440 0.558198 0.120926
0.379620 0.570758 0.120387
0.413425 0.582309 0.120277
0.445287 0.593202 0.120205
0.476861 0.604324 0.119759
0.509055 0.615194 0.119878
0.541748 0.627046 0.121511
0.573180 0.637608 0.126296
0.601931 0.645164 0.132906
0.628801 0.652088 0.138802
0.654308 0.660048 0.143219
0.676991 0.667808 0.146343
0.696226 0.674825 0.148620
0.715271 0.682421 0.150627
0.736146 0.688382 0.152808
0.757224 0.685595 0.154612
