nova/tdt-studio/app/Lut_mau/IWLTBAP/1 - LUTs by IWLTBAP (CUBE)/01 - Standard/Cinematic/F-8700-V2-STD.cube
# Copyright: (C) Copyright 2010-2019 by IWLTBAP SAS
# Cannot be resold, shared or otherwise redistributed
# Website: https://luts.iwltbap.com
TITLE "IWLTBAP 8700-V2 (Rec.709, sRGB, DCI-P3)"
LUT_3D_SIZE 5
0.000000 0.000000 0.000000
0.182518 0.034775 0.000084
0.414566 0.062851 0.000000
0.683853 0.105141 0.030876
0.913330 0.182068 0.056610
0.000000 0.133942 0.010117
0.270782 0.143539 0.000000
0.535328 0.170811 0.008953
0.802194 0.251489 0.026109
0.981171 0.363922 0.015312
0.000000 0.260376 0.012604
0.287391 0.351700 0.005363
0.639748 0.295593 0.012184
0.867939 0.361290 0.025204
1.000000 0.495621 0.034012
0.016709 0.430809 0.041473
0.349051 0.554253 0.030661
0.664543 0.652149 0.064358
0.894884 0.601751 0.056577
1.000000 0.668228 0.077743
0.080170 0.655945 0.084686
0.490227 0.772171 0.068352
0.723526 0.853225 0.071380
0.908363 0.914405 0.109146
1.000000 0.868347 0.110413
0.000000 0.032975 0.132316
0.079567 0.066227 0.127464
0.325786 0.097359 0.123226
0.649801 0.167870 0.149189
0.933464 0.273934 0.155952
0.000000 0.132868 0.176754
0.097227 0.200407 0.222753
0.469030 0.269727 0.212942
0.808974 0.347776 0.190016
0.994900 0.447283 0.191488
0.008553 0.380093 0.333718
0.090166 0.396049 0.250140
0.566410 0.423824 0.136999
0.843653 0.521377 0.206499
1.000000 0.639236 0.209331
0.041225 0.578614 0.392675
0.134805 0.591064 0.263833
0.562619 0.691490 0.246695
0.888741 0.716801 0.150884
1.000000 0.770470 0.193455
0.075630 0.731178 0.429260
0.348394 0.825047 0.328586
0.673321 0.877644 0.353703
0.896191 0.939741 0.278588
1.000000 0.913079 0.175965
0.000000 0.097443 0.264526
0.016266 0.116577 0.249905
0.177948 0.145599 0.236374
0.587684 0.194080 0.214745
0.879806 0.337371 0.292114
0.000000 0.170849 0.318893
0.051516 0.233969 0.398460
0.283295 0.307068 0.374437
0.712417 0.422426 0.390113
0.953362 0.536095 0.455307
0.005486 0.265243 0.370598
0.075413 0.353519 0.462238
0.342793 0.490459 0.522892
0.800098 0.615700 0.537977
0.989906 0.697548 0.563377
0.067639 0.596672 0.633007
0.123695 0.681489 0.692138
0.427895 0.727243 0.573534
0.868821 0.787258 0.454640
1.000000 0.835049 0.526287
0.117829 0.841293 0.821457
0.186470 0.867607 0.729538
0.631134 0.913841 0.555069
0.881889 0.955471 0.553215
1.000000 0.944809 0.261948
0.000000 0.187172 0.460770
0.029030 0.199730 0.436281
0.071243 0.215882 0.415871
0.466820 0.262715 0.328518
0.846176 0.358849 0.358810
0.012926 0.263048 0.522894
0.059154 0.322097 0.605147
0.126823 0.352982 0.592623
0.628853 0.471125 0.519988
0.913164 0.575985 0.594834
0.029201 0.325520 0.573803
0.078282 0.398060 0.655106
0.188288 0.487959 0.729515
0.734220 0.645697 0.689796
0.955399 0.733288 0.744793
0.056814 0.459912 0.646194
0.107921 0.538714 0.723241
0.238503 0.642522 0.790649
0.829440 0.835025 0.796951
0.998541 0.871952 0.807057
0.118119 0.726875 0.839813
0.159569 0.781868 0.883268
0.279328 0.875382 0.927864
0.866670 0.969852 0.794541
1.000000 0.968498 0.702400
0.026154 0.309204 0.693207
0.058761 0.320168 0.675019
0.084655 0.328033 0.655014
0.250572 0.403862 0.663216
0.795441 0.471375 0.583160
0.044342 0.379189 0.738846
0.085075 0.427162 0.797613
0.124210 0.451290 0.802334
0.435587 0.566616 0.803310
0.876793 0.603805 0.737167
0.059143 0.435318 0.775483
0.102543 0.491958 0.831986
0.171028 0.551796 0.881172
0.618382 0.710529 0.888481
0.930740 0.727264 0.843537
0.079392 0.516754 0.820778
0.123207 0.580181 0.870882
0.210178 0.656242 0.914032
0.757790 0.841306 0.939144
0.975228 0.878296 0.921662
0.109100 0.648376 0.871826
0.151314 0.699745 0.912758
0.256653 0.767319 0.943588
0.787468 0.932541 0.969093
1.000000 0.998322 0.942749
