nova/tdt-studio/app/Lut_mau/IWLTBAP/1 - LUTs by IWLTBAP (CUBE)/01 - Standard/Cinematic/F-8700-V2-STD.cube
# Copyright: (C) Copyright 2010-2019 by IWLTBAP SAS
# Cannot be resold, shared or otherwise redistributed
# Website: https://luts.iwltbap.com
TITLE "IWLTBAP 8700-V2 (Rec.709, sRGB, DCI-P3)"
LUT_3D_SIZE 9
0.000000 0.000000 0.000000
0.050777 0.010536 0.000508
0.182518 0.034775 0.000084
0.305611 0.046402 0.000000
0.414566 0.062851 0.000000
0.544189 0.085289 0.010864
0.683853 0.105141 0.030876
0.810291 0.133419 0.050495
0.913330 0.182068 0.056610
0.000000 0.064976 0.012638
0.074136 0.073426 0.000957
0.226918 0.082747 0.000073
0.352974 0.097079 0.000000
0.473831 0.121286 0.000000
0.611478 0.153743 0.014693
0.753845 0.195228 0.024662
0.874222 0.241878 0.022858
0.961224 0.292309 0.014976
0.000000 0.133942 0.010117
0.049688 0.172990 0.000791
0.270782 0.143539 0.000000
0.412579 0.144698 0.000000
0.535328 0.170811 0.008953
0.669481 0.205747 0.021789
0.802194 0.251489 0.026109
0.906864 0.304161 0.020677
0.981171 0.363922 0.015312
0.000000 0.196629 0.009083
0.045402 0.239241 0.000750
0.280388 0.263636 0.002103
0.461369 0.210123 0.000000
0.593500 0.218115 0.015385
0.718450 0.253920 0.026008
0.836940 0.302864 0.026520
0.929948 0.361126 0.021002
0.995766 0.425705 0.019718
0.000000 0.260376 0.012604
0.062342 0.301701 0.006096
0.287391 0.351700 0.005363
0.471365 0.360699 0.026140
0.639748 0.295593 0.012184
0.764391 0.309711 0.024187
0.867939 0.361290 0.025204
0.946272 0.427744 0.025686
1.000000 0.495621 0.034012
0.000000 0.335827 0.024883
0.093381 0.386195 0.019311
0.306193 0.443549 0.014725
0.496207 0.492929 0.040148
0.640820 0.501972 0.050550
0.792368 0.430240 0.024437
0.893622 0.445509 0.025771
0.961987 0.510544 0.038747
1.000000 0.576370 0.055668
0.016709 0.430809 0.041473
0.151792 0.491855 0.034921
0.349051 0.554253 0.030661
0.520434 0.610710 0.035794
0.664543 0.652149 0.064358
0.777853 0.667174 0.075152
0.894884 0.601751 0.056577
0.973271 0.618308 0.059269
1.000000 0.668228 0.077743
0.039352 0.538521 0.059555
0.232535 0.610455 0.051688
0.411475 0.667539 0.048743
0.559353 0.717709 0.047859
0.693859 0.761677 0.063685
0.805055 0.800119 0.086488
0.891431 0.816071 0.097786
0.977472 0.756244 0.089939
1.000000 0.763775 0.094468
0.080170 0.655945 0.084686
0.334328 0.724144 0.069919
0.490227 0.772171 0.068352
0.613567 0.814640 0.067276
0.723526 0.853225 0.071380
0.830200 0.888630 0.091133
0.908363 0.914405 0.109146
0.968448 0.923126 0.122391
1.000000 0.868347 0.110413
0.000000 0.002937 0.060627
0.015344 0.025229 0.062548
0.144895 0.041676 0.064850
0.249387 0.064694 0.074414
0.366005 0.085339 0.080639
0.529581 0.105812 0.078521
0.687823 0.133261 0.074318
0.827075 0.174075 0.077961
0.931198 0.216980 0.069107
0.000000 0.055194 0.081545
0.024468 0.085154 0.099930
0.183740 0.119836 0.104161
0.324715 0.137054 0.096024
0.475029 0.149408 0.081393
0.635378 0.163604 0.060481
0.778265 0.201681 0.058391
0.892988 0.248760 0.052206
0.972593 0.301636 0.042912
0.000000 0.177642 0.144102
0.020012 0.186437 0.118242
0.223358 0.183982 0.077475
0.370829 0.195467 0.093223
0.517056 0.215234 0.074446
0.670779 0.245244 0.053829
0.808399 0.302026 0.050986
0.909369 0.371709 0.056713
0.980962 0.437852 0.068660
0.000000 0.261162 0.158973
0.025456 0.255194 0.112919
0.187557 0.292554 0.078388
0.422678 0.262947 0.049918
0.573167 0.261291 0.052699
0.708265 0.305263 0.055659
0.832988 0.371316 0.059610
0.924519 0.444991 0.069597
0.994229 0.510058 0.081935
0.000000 0.329182 0.155014
0.034913 0.323634 0.114112
0.174313 0.378185 0.084113
0.415411 0.406789 0.059662
0.611760 0.360393 0.056712
0.752513 0.371538 0.060379
0.855513 0.446391 0.075563
0.941555 0.515495 0.087330
1.000000 0.579376 0.100773
0.000000 0.400749 0.147893
0.048585 0.404990 0.120352
0.191935 0.477875 0.090586
0.412268 0.513066 0.066242
0.603468 0.553584 0.081991
0.773673 0.508256 0.079706
0.882632 0.529943 0.087661
0.958599 0.594865 0.107842
1.000000 0.652688 0.121854
0.011862 0.485623 0.155596
0.069819 0.504513 0.134991
0.238149 0.593346 0.108881
0.438429 0.624252 0.097171
0.621754 0.677713 0.084523
0.764424 0.712785 0.105031
0.891717 0.669711 0.108894
0.974441 0.683090 0.119732
1.000000 0.726599 0.139019
0.040661 0.578898 0.199050
0.106728 0.637885 0.160290
0.326074 0.705656 0.151250
0.500052 0.730595 0.160202
0.651162 0.773915 0.145789
0.794301 0.822111 0.112683
0.890134 0.849807 0.127945
0.979323 0.802941 0.131547
1.000000 0.803832 0.144044
0.076790 0.664067 0.253437
0.208361 0.765583 0.205381
0.432227 0.804978 0.214660
0.572180 0.828305 0.231203
0.694210 0.864767 0.218370
0.810367 0.902528 0.175242
0.904407 0.929736 0.135427
0.968487 0.944350 0.152210
1.000000 0.893257 0.146331
0.000000 0.032975 0.132316
0.000000 0.048053 0.129648
0.079567 0.066227 0.127464
0.218901 0.073933 0.115515
0.325786 0.097359 0.123226
0.467228 0.130114 0.137944
0.649801 0.167870 0.149189
0.819465 0.217767 0.152186
0.933464 0.273934 0.155952
0.000000 0.073592 0.153936
0.001063 0.101236 0.182009
0.089930 0.128616 0.175357
0.259484 0.159710 0.172822
0.392507 0.191137 0.181839
0.571742 0.221364 0.178861
0.753911 0.262039 0.173143
0.886053 0.309309 0.170640
0.975837 0.353296 0.163499
0.000000 0.132868 0.176754
0.010626 0.168450 0.210549
0.097227 0.200407 0.222753
0.301699 0.243981 0.223530
0.469030 0.269727 0.212942
0.654340 0.298673 0.193027
0.808974 0.347776 0.190016
0.919536 0.398950 0.190840
0.994900 0.447283 0.191488
0.000000 0.251549 0.256911
0.020568 0.292517 0.282676
0.086820 0.315034 0.256686
0.345273 0.318333 0.182405
0.515538 0.332424 0.208696
0.678558 0.380995 0.204389
0.819348 0.446918 0.210392
0.922690 0.509204 0.218700
0.992226 0.564077 0.236098
0.008553 0.380093 0.333718
0.036757 0.400927 0.324269
0.090166 0.396049 0.250140
0.300718 0.433039 0.193196
0.566410 0.423824 0.136999
0.721748 0.451579 0.186514
0.843653 0.521377 0.206499
0.936553 0.584197 0.206063
1.000000 0.639236 0.209331
0.026738 0.490463 0.379602
0.051606 0.490363 0.326326
0.103558 0.484055 0.249881
0.295345 0.540466 0.216577
0.552210 0.585839 0.166967
0.751893 0.572461 0.136144
0.873336 0.598578 0.173445
0.950183 0.658815 0.199780
1.000000 0.707238 0.201091
0.041225 0.578614 0.392675
0.070252 0.570098 0.320425
0.134805 0.591064 0.263833
0.341564 0.653923 0.250428
0.562619 0.691490 0.246695
0.753637 0.744977 0.172062
0.888741 0.716801 0.150884
0.967411 0.731297 0.173715
1.000000 0.770470 0.193455
0.056301 0.652325 0.407605
0.099044 0.648438 0.342793
0.217797 0.708928 0.295977
0.435965 0.756046 0.297921
0.614548 0.784906 0.312775
0.774807 0.836741 0.253730
0.885737 0.870817 0.180949
0.978263 0.834804 0.164316
1.000000 0.832697 0.185440
0.075630 0.731178 0.429260
0.137910 0.733236 0.372775
0.348394 0.825047 0.328586
0.536364 0.855858 0.340429
0.673321 0.877644 0.353703
0.793740 0.910768 0.343201
0.896191 0.939741 0.278588
0.967797 0.957510 0.219479
1.000000 0.913079 0.175965
0.000000 0.064415 0.197018
0.000000 0.074568 0.190700
0.022224 0.090281 0.190900
0.127376 0.105792 0.183146
0.283882 0.113462 0.162636
0.437674 0.140939 0.169055
0.614026 0.184559 0.186733
0.776581 0.248274 0.216314
0.902542 0.317623 0.245537
0.000000 0.104164 0.222806
0.000000 0.130251 0.254481
0.038296 0.144923 0.247864
0.150062 0.175509 0.239131
0.345229 0.202094 0.224887
0.516753 0.241167 0.234032
0.694088 0.299670 0.259112
0.845025 0.363962 0.284009
0.952596 0.413625 0.291545
0.000000 0.145638 0.246076
0.007604 0.175427 0.280210
0.055989 0.204963 0.310045
0.178032 0.242389 0.302763
0.401595 0.298143 0.298570
0.586117 0.343901 0.304655
0.762164 0.400961 0.320958
0.891816 0.451471 0.333549
0.978737 0.492399 0.337645
0.000000 0.197974 0.267960
0.017363 0.232197 0.303905
0.068311 0.278040 0.345112
0.184043 0.325245 0.360434
0.449073 0.387448 0.354718
0.643322 0.431799 0.353463
0.803456 0.486267 0.366392
0.916004 0.536254 0.379869
0.991060 0.579747 0.389824
0.007759 0.309473 0.349501
0.037866 0.365441 0.397357
0.082705 0.427900 0.437567
0.171980 0.459029 0.406791
0.492266 0.482038 0.318157
0.676488 0.515883 0.371121
0.819579 0.577716 0.389599
0.922296 0.634305 0.404893
0.992628 0.680982 0.418613
0.037767 0.489498 0.488626
0.062687 0.532987 0.513379
0.104411 0.567244 0.503740
0.191249 0.561836 0.409859
0.470720 0.607682 0.347296
0.727887 0.620902 0.293914
0.854321 0.653065 0.370366
0.940309 0.705655 0.393491
1.000000 0.747875 0.388400
0.063531 0.639849 0.596861
0.084202 0.654501 0.581744
0.125545 0.649247 0.498961
0.249385 0.660132 0.417360
0.505264 0.713095 0.393874
0.732025 0.764901 0.349530
0.882070 0.755083 0.244485
0.961154 0.772015 0.326749
1.000000 0.805935 0.349422
0.083345 0.732114 0.646214
0.104359 0.726655 0.586513
0.156618 0.712862 0.493609
0.362872 0.760385 0.437255
0.583810 0.805431 0.434004
0.753702 0.845227 0.419813
0.879191 0.884215 0.348592
0.977983 0.860852 0.204617
1.000000 0.857109 0.238766
0.098927 0.810177 0.653373
0.134117 0.806586 0.564824
0.211461 0.810234 0.491849
0.481937 0.872707 0.441045
0.658653 0.897284 0.454470
0.785163 0.919949 0.457976
0.889221 0.947570 0.420669
0.965916 0.966507 0.361827
1.000000 0.928810 0.204189
0.000000 0.097443 0.264526
0.000000 0.105833 0.256012
0.016266 0.116577 0.249905
0.056471 0.132687 0.251271
0.177948 0.145599 0.236374
0.394526 0.159912 0.205465
0.587684 0.194080 0.214745
0.753147 0.258835 0.246210
0.879806 0.337371 0.292114
0.000000 0.137595 0.293438
0.004141 0.163608 0.331145
0.034910 0.176479 0.326302
0.074790 0.188903 0.314517
0.229046 0.224991 0.301828
0.474713 0.256829 0.276491
0.661627 0.308854 0.294637
0.809025 0.385082 0.343065
0.921955 0.448280 0.383014
0.000000 0.170849 0.318893
0.014268 0.202058 0.358770
0.051516 0.233969 0.398460
0.096280 0.250136 0.390602
0.283295 0.307068 0.374437
0.538802 0.359259 0.357474
0.712417 0.422426 0.390113
0.852553 0.487770 0.431408
0.953362 0.536095 0.455307
0.000000 0.209776 0.343740
0.022866 0.241861 0.382835
0.063292 0.282614 0.428881
0.115467 0.315947 0.457534
0.324185 0.387250 0.448675
0.589407 0.461082 0.443333
0.758354 0.522374 0.475690
0.889252 0.573956 0.500499
0.974516 0.614546 0.518778
0.005486 0.265243 0.370598
0.034199 0.303644 0.411433
0.075413 0.353519 0.462238
0.129443 0.405232 0.502022
0.342793 0.490459 0.522892
0.636837 0.566370 0.520036
0.800098 0.615700 0.537977
0.914229 0.660132 0.552609
0.989906 0.697548 0.563377
0.031711 0.393825 0.465475
0.061846 0.455281 0.522353
0.091763 0.509181 0.567923
0.151979 0.581766 0.613097
0.348034 0.628128 0.570594
0.687373 0.666384 0.492569
0.830197 0.700247 0.546523
0.928109 0.746272 0.558603
0.998054 0.781528 0.562468
0.067639 0.596672 0.633007
0.092664 0.641342 0.665889
0.123695 0.681489 0.692138
0.183846 0.714498 0.678970
0.427895 0.727243 0.573534
0.702299 0.777153 0.522143
0.868821 0.787258 0.454640
0.952445 0.806796 0.518762
1.000000 0.835049 0.526287
0.095106 0.740637 0.747520
0.116432 0.765193 0.759956
0.156219 0.789089 0.750560
0.226130 0.782940 0.670105
0.538335 0.815661 0.569496
0.740468 0.855774 0.558836
0.872985 0.895413 0.502074
0.973395 0.882255 0.358967
1.000000 0.880657 0.429205
0.117829 0.841293 0.821457
0.138384 0.860244 0.806252
0.186470 0.867607 0.729538
0.311132 0.870348 0.635534
0.631134 0.913841 0.555069
0.780968 0.930632 0.571434
0.881889 0.955471 0.553215
0.962643 0.973976 0.501936
1.000000 0.944809 0.261948
0.000000 0.136829 0.351105
0.000621 0.145499 0.339384
0.017331 0.151172 0.330092
0.043437 0.161710 0.323938
0.093370 0.181385 0.325464
0.283073 0.193548 0.288732
0.548526 0.220838 0.259217
0.729173 0.272068 0.280669
0.862648 0.346630 0.323124
0.000000 0.178587 0.383799
0.015700 0.205492 0.427517
0.034573 0.213761 0.419581
0.065416 0.227152 0.412317
0.123112 0.246572 0.400004
0.374258 0.288255 0.359887
0.620891 0.329975 0.344044
0.785955 0.391612 0.375634
0.903113 0.464987 0.435028
0.000086 0.211723 0.412066
0.025851 0.244893 0.458166
0.049971 0.271631 0.495951
0.087019 0.290921 0.498120
0.155774 0.313797 0.479373
0.444904 0.385809 0.443552
0.677325 0.433317 0.432351
0.825871 0.498316 0.477748
0.928446 0.564443 0.543238
0.006049 0.241149 0.435931
0.034060 0.278171 0.483015
0.060432 0.311159 0.524572
0.107165 0.351553 0.567884
0.188608 0.382611 0.557227
0.504916 0.478070 0.524573
0.722333 0.531699 0.525832
0.857764 0.594235 0.576131
0.950965 0.643890 0.617960
0.015350 0.281984 0.464079
0.042970 0.319703 0.510211
0.072496 0.359916 0.554516
0.122489 0.412179 0.601892
0.223194 0.465962 0.628354
0.564052 0.575586 0.608134
0.769556 0.632380 0.614470
0.891507 0.681588 0.648452
0.974977 0.717733 0.669334
0.029533 0.352670 0.500705
0.057432 0.396557 0.547516
0.088010 0.441559 0.591671
0.141653 0.500012 0.642461
0.237416 0.562875 0.673973
0.621174 0.687766 0.678229
0.813881 0.733749 0.678085
0.919129 0.768004 0.693405
0.993122 0.794161 0.702532
0.059391 0.496399 0.604327
0.087761 0.547788 0.652708
0.111783 0.589787 0.691218
0.163601 0.651208 0.739540
0.258441 0.718166 0.766339
0.655922 0.792593 0.692716
0.853402 0.814044 0.644880
0.939643 0.837103 0.683603
1.000000 0.860037 0.686938
0.094700 0.673551 0.751575
0.119244 0.710733 0.781887
0.141928 0.742015 0.804785
0.198144 0.792266 0.834736
0.326630 0.832267 0.805350
0.716134 0.870910 0.689320
0.862692 0.902112 0.663719
0.964081 0.900577 0.583721
1.000000 0.902058 0.633496
0.121784 0.798591 0.849670
0.143004 0.824965 0.866350
0.173706 0.855625 0.884195
0.232245 0.895707 0.882611
0.437695 0.918808 0.765442
0.766462 0.945483 0.681035
0.875036 0.961192 0.685484
0.957850 0.980764 0.642260
1.000000 0.956509 0.496277
0.000000 0.187172 0.460770
0.013422 0.195093 0.448179
0.029030 0.199730 0.436281
0.043250 0.204284 0.424543
0.071243 0.215882 0.415871
0.174830 0.250275 0.414754
0.466820 0.262715 0.328518
0.701123 0.301386 0.328175
0.846176 0.358849 0.358810
0.003549 0.228622 0.494718
0.029640 0.258352 0.541453
0.045232 0.265318 0.533873
0.063534 0.272474 0.520705
0.099064 0.286844 0.508868
0.236114 0.333975 0.497622
0.572605 0.367939 0.410590
0.754199 0.416986 0.431910
0.887814 0.476831 0.480922
0.012926 0.263048 0.522894
0.039525 0.297892 0.570293
0.059154 0.322097 0.605147
0.084169 0.336864 0.607813
0.126823 0.352982 0.592623
0.300553 0.413372 0.576912
0.628853 0.471125 0.519988
0.798219 0.517145 0.539335
0.913164 0.575985 0.594834
0.020900 0.293608 0.548105
0.047538 0.330359 0.594464
0.068834 0.360177 0.630993
0.103632 0.395305 0.671209
0.155654 0.418036 0.666931
0.366290 0.491135 0.650445
0.679954 0.557810 0.612293
0.836265 0.604725 0.629431
0.934843 0.657109 0.678082
0.029201 0.325520 0.573803
0.056159 0.364153 0.618608
0.078282 0.398060 0.655106
0.118053 0.443507 0.701483
0.188288 0.487959 0.729515
0.452032 0.579335 0.720356
0.734220 0.645697 0.689796
0.870140 0.689030 0.704725
0.955399 0.733288 0.744793
0.040226 0.375978 0.604452
0.067129 0.418582 0.648762
0.090591 0.455310 0.685976
0.137441 0.507214 0.732451
0.213481 0.559823 0.760038
0.537698 0.672076 0.777706
0.788333 0.740832 0.753191
0.902959 0.774710 0.766227
0.979147 0.803722 0.785718
0.056814 0.459912 0.646194
0.083731 0.502661 0.687813
0.107921 0.538714 0.723241
0.160261 0.592184 0.767031
0.238503 0.642522 0.790649
0.572103 0.758723 0.813438
0.829440 0.835025 0.796951
0.927655 0.857485 0.804393
0.998541 0.871952 0.807057
0.086632 0.591134 0.735074
0.112385 0.629384 0.769629
0.133449 0.659877 0.796369
0.174103 0.704096 0.830209
0.248115 0.762644 0.860655
0.535811 0.870434 0.878106
0.846986 0.908752 0.801848
0.950457 0.915426 0.767845
1.000000 0.923685 0.783787
0.118119 0.726875 0.839813
0.141351 0.758077 0.865222
0.159569 0.781868 0.883268
0.196452 0.817607 0.907594
0.279328 0.875382 0.927864
0.589671 0.954262 0.868780
0.866670 0.969852 0.794541
0.949267 0.984946 0.777823
1.000000 0.968498 0.702400
0.009014 0.246738 0.582195
0.028770 0.252302 0.569381
0.043401 0.257755 0.556540
0.055554 0.259954 0.542853
0.071531 0.263721 0.526165
0.121777 0.287073 0.520204
0.349702 0.336034 0.489187
0.668285 0.348304 0.392743
0.824547 0.408916 0.451046
0.020185 0.288498 0.612346
0.044016 0.315871 0.651378
0.059433 0.324256 0.649490
0.071807 0.326188 0.634072
0.098492 0.338476 0.625300
0.161421 0.364145 0.614550
0.439524 0.438788 0.596015
0.722174 0.472224 0.543909
0.863429 0.519946 0.582834
0.028775 0.321965 0.636301
0.053456 0.353202 0.677738
0.072494 0.377196 0.709820
0.087661 0.385582 0.711005
0.125224 0.404938 0.706940
0.206168 0.434910 0.692509
0.516366 0.519680 0.677943
0.768348 0.554276 0.638395
0.894876 0.598101 0.668501
0.036249 0.351023 0.657168
0.061584 0.384912 0.698992
0.081639 0.412371 0.732260
0.102897 0.436129 0.760431
0.151640 0.463886 0.769146
0.264982 0.504377 0.756434
0.590039 0.594682 0.745649
0.811191 0.622448 0.708169
0.919821 0.665618 0.734621
0.044283 0.381235 0.681173
0.069990 0.417788 0.721212
0.090730 0.447468 0.753370
0.115596 0.478110 0.785006
0.178944 0.522011 0.815577
0.358128 0.586200 0.811133
0.667571 0.677632 0.804437
0.849499 0.699297 0.775812
0.942703 0.738336 0.796165
0.054201 0.419770 0.707113
0.080111 0.459782 0.745113
0.101077 0.492168 0.777059
0.131881 0.531484 0.809943
0.200930 0.582295 0.838811
0.460094 0.673856 0.854484
0.742850 0.764756 0.849108
0.885951 0.783944 0.831859
0.965926 0.810415 0.841393
0.067153 0.482495 0.739465
0.092445 0.520464 0.774436
0.113622 0.552585 0.802374
0.154448 0.595746 0.836491
0.226213 0.642348 0.857535
0.508708 0.740711 0.875289
0.798192 0.836895 0.878324
0.915657 0.855640 0.861557
0.987699 0.872734 0.866586
0.084380 0.564158 0.774752
0.108998 0.599010 0.806773
0.130748 0.628019 0.831631
0.178561 0.671258 0.863148
0.250476 0.712465 0.878020
0.530833 0.806659 0.896342
0.810180 0.899733 0.905673
0.931954 0.929564 0.884371
1.000000 0.940202 0.883841
0.111736 0.672303 0.840908
0.135053 0.699873 0.863690
0.153840 0.722292 0.881530
0.182892 0.750658 0.902148
0.247540 0.794279 0.922321
0.399929 0.873244 0.953287
0.772452 0.986706 0.941797
0.942150 0.988891 0.881210
1.000000 0.983025 0.847209
0.026154 0.309204 0.693207
0.044376 0.314903 0.683536
0.058761 0.320168 0.675019
0.071316 0.323895 0.666496
0.084655 0.328033 0.655014
0.117939 0.344281 0.648674
0.250572 0.403862 0.663216
0.583423 0.429935 0.621964
0.795441 0.471375 0.583160
0.036011 0.347599 0.717850
0.058706 0.373457 0.751458
0.073864 0.382827 0.755924
0.086683 0.388306 0.749016
0.103832 0.395414 0.741648
0.152275 0.419315 0.736618
0.338317 0.490608 0.745124
0.662200 0.509909 0.717330
0.838795 0.546993 0.674740
0.044342 0.379189 0.738846
0.067175 0.405767 0.770908
0.085075 0.427162 0.797613
0.099550 0.437470 0.804417
0.124210 0.451290 0.802334
0.185600 0.477872 0.797121
0.435587 0.566616 0.803310
0.726252 0.576200 0.785004
0.876793 0.603805 0.737167
0.051338 0.406292 0.757450
0.074964 0.435882 0.788213
0.093817 0.459664 0.815314
0.111179 0.478859 0.836467
0.147703 0.502236 0.848574
0.226657 0.533110 0.842159
0.528066 0.637523 0.849719
0.780583 0.643982 0.837261
0.905174 0.660599 0.792549
0.059143 0.435318 0.775483
0.083021 0.465715 0.806366
0.102543 0.491958 0.831986
0.121481 0.514936 0.855373
0.171028 0.551796 0.881172
0.287993 0.595976 0.879313
0.618382 0.710529 0.888481
0.827454 0.719784 0.879797
0.930740 0.727264 0.843537
0.068340 0.469166 0.796463
0.092527 0.501644 0.826682
0.112407 0.530432 0.851511
0.133109 0.558396 0.873198
0.189259 0.602549 0.898706
0.363626 0.668568 0.910257
0.700660 0.781841 0.917559
0.866959 0.799464 0.910570
0.953247 0.805401 0.887878
0.079392 0.516754 0.820778
0.103810 0.553036 0.847566
0.123207 0.580181 0.870882
0.147445 0.611271 0.892299
0.210178 0.656242 0.914032
0.396428 0.726840 0.927460
0.757790 0.841306 0.939144
0.897365 0.874386 0.931487
0.975228 0.878296 0.921662
0.092953 0.580253 0.846172
0.116695 0.611157 0.871967
0.135799 0.636861 0.892086
0.168222 0.670165 0.914205
0.234671 0.709452 0.928812
0.446377 0.783268 0.943621
0.775859 0.882027 0.953377
0.919355 0.934610 0.946789
0.994530 0.934105 0.930828
0.109100 0.648376 0.871826
0.132175 0.677407 0.894199
0.151314 0.699745 0.912758
0.190498 0.731971 0.933498
0.256653 0.767319 0.943588
0.462734 0.837448 0.959720
0.787468 0.932541 0.969093
0.920856 0.985351 0.960236
1.000000 0.998322 0.942749
