nova/tdt-studio/app/Lut_mau/IWLTBAP/1 - LUTs by IWLTBAP (CUBE)/01 - Standard/Cinematic/F-8700-STD.cube
# Copyright: (C) Copyright 2010-2019 by IWLTBAP SAS
# Cannot be resold, shared or otherwise redistributed
# Website: https://luts.iwltbap.com
TITLE "IWLTBAP 8700 (Rec.709, sRGB, DCI-P3)"
LUT_3D_SIZE 9
0.061859 0.077515 0.085999
0.127613 0.100717 0.094411
0.226690 0.117246 0.093500
0.323235 0.124950 0.087301
0.409087 0.136711 0.088399
0.514933 0.153464 0.100777
0.631063 0.167735 0.114258
0.737034 0.188812 0.128288
0.824524 0.226410 0.132507
0.071075 0.139031 0.102304
0.144797 0.144246 0.093104
0.261145 0.151744 0.093067
0.360709 0.161707 0.085854
0.457298 0.179913 0.091870
0.570685 0.204474 0.103425
0.689819 0.236432 0.110163
0.791453 0.272807 0.108604
0.865128 0.312799 0.103265
0.075495 0.189777 0.100484
0.122989 0.220593 0.092719
0.296324 0.195208 0.082864
0.408731 0.197297 0.090006
0.507938 0.217354 0.099615
0.618756 0.243919 0.108423
0.730735 0.279767 0.111328
0.818804 0.321311 0.107461
0.881985 0.369592 0.103686
0.078136 0.237466 0.099686
0.120056 0.271049 0.090843
0.303730 0.292476 0.095590
0.449028 0.244681 0.091136
0.556433 0.253352 0.104238
0.659860 0.281338 0.111477
0.759676 0.319864 0.111619
0.838627 0.366415 0.107451
0.894283 0.418876 0.106394
0.083517 0.286692 0.101763
0.132910 0.319035 0.097372
0.308002 0.359528 0.095960
0.453496 0.369401 0.112475
0.595638 0.309542 0.100664
0.699210 0.323961 0.110315
0.786047 0.366110 0.110388
0.851958 0.419440 0.110424
0.907554 0.475716 0.116207
0.092307 0.346011 0.110080
0.155804 0.386289 0.106154
0.322201 0.432505 0.102901
0.478466 0.473197 0.121919
0.593047 0.485427 0.130211
0.723287 0.417291 0.107668
0.808458 0.432483 0.109771
0.865237 0.486881 0.119336
0.919203 0.541875 0.131834
0.104521 0.422670 0.121698
0.202178 0.471901 0.116861
0.357148 0.523712 0.114102
0.496111 0.570802 0.116436
0.616072 0.604522 0.138682
0.708069 0.621908 0.147279
0.808682 0.560748 0.131925
0.874796 0.576015 0.134181
0.927979 0.618165 0.147718
0.120199 0.510609 0.134614
0.265583 0.569741 0.128906
0.407471 0.617392 0.126736
0.527771 0.659201 0.125689
0.639521 0.696245 0.137330
0.733246 0.728656 0.154380
0.805143 0.745420 0.163201
0.878323 0.690449 0.156466
0.935254 0.697399 0.160030
0.149750 0.608246 0.152771
0.346789 0.664583 0.142121
0.472254 0.705200 0.140855
0.573380 0.741260 0.139971
0.663870 0.773375 0.142704
0.754358 0.803477 0.157746
0.820077 0.825213 0.170880
0.870178 0.833961 0.181471
0.935791 0.786285 0.171936
0.062024 0.095457 0.135376
0.102901 0.110714 0.136610
0.198336 0.121650 0.138321
0.277756 0.138381 0.146080
0.368579 0.153260 0.150574
0.504932 0.168465 0.148911
0.634184 0.188807 0.144240
0.751139 0.220231 0.147795
0.839419 0.253326 0.140738
0.068189 0.130211 0.149459
0.108874 0.152546 0.164605
0.228795 0.179221 0.167451
0.339355 0.191479 0.160757
0.460217 0.200561 0.150193
0.593237 0.209571 0.132882
0.711495 0.239651 0.132645
0.807660 0.276195 0.127808
0.874816 0.318749 0.120832
0.072514 0.225009 0.199660
0.106434 0.229006 0.176244
0.263281 0.225383 0.144326
0.373451 0.236945 0.161008
0.493490 0.251206 0.144389
0.620363 0.273742 0.127365
0.736048 0.319594 0.126089
0.820206 0.376927 0.131136
0.880978 0.431350 0.140433
0.079482 0.288508 0.209489
0.110547 0.281320 0.172162
0.228642 0.313361 0.147880
0.418392 0.285512 0.125043
0.539100 0.285752 0.127294
0.651378 0.320750 0.129924
0.756715 0.373892 0.132816
0.833307 0.434879 0.141284
0.893200 0.488007 0.150147
0.084872 0.341047 0.204663
0.117206 0.335123 0.173262
0.218382 0.381416 0.151444
0.412168 0.405529 0.132904
0.573563 0.360745 0.131295
0.689633 0.372184 0.134020
0.775179 0.435772 0.145829
0.848342 0.491536 0.154382
0.902125 0.545165 0.164877
0.090605 0.397912 0.197949
0.126633 0.399791 0.179092
0.232292 0.462755 0.155496
0.407086 0.488470 0.135335
0.562787 0.526086 0.151928
0.708453 0.482157 0.148676
0.798277 0.502751 0.154761
0.862745 0.557193 0.170243
0.913007 0.605502 0.180610
0.100568 0.466787 0.202964
0.141187 0.479818 0.189725
0.268694 0.557892 0.168733
0.428211 0.580447 0.159202
0.580239 0.627228 0.147950
0.696881 0.658591 0.167904
0.806068 0.617407 0.170816
0.876165 0.630145 0.178922
0.923609 0.666669 0.193830
0.120863 0.544000 0.237977
0.164800 0.592805 0.208553
0.340040 0.650491 0.201693
0.479084 0.669259 0.209179
0.602875 0.705893 0.199468
0.725109 0.747348 0.171902
0.804116 0.773053 0.185283
0.880460 0.729924 0.187557
0.934124 0.731474 0.197202
0.147170 0.614950 0.281697
0.244446 0.702548 0.244004
0.425907 0.732909 0.251939
0.538864 0.751852 0.266070
0.639573 0.783088 0.255642
0.737192 0.815373 0.221656
0.817085 0.838460 0.189060
0.870573 0.852088 0.203774
0.938659 0.807385 0.199055
0.060896 0.115654 0.188617
0.085609 0.126266 0.186364
0.148115 0.140017 0.184951
0.256282 0.144639 0.175001
0.337438 0.161694 0.181246
0.450492 0.186450 0.192884
0.601719 0.215125 0.201993
0.745698 0.254390 0.204493
0.842123 0.298332 0.206910
0.066549 0.144284 0.204663
0.093557 0.165199 0.227046
0.154440 0.185392 0.220714
0.287738 0.208610 0.218505
0.389143 0.233808 0.227437
0.537822 0.256725 0.224403
0.691158 0.288933 0.219924
0.801683 0.326751 0.218575
0.878078 0.361318 0.212702
0.073075 0.186764 0.220080
0.100350 0.213653 0.246520
0.157352 0.238961 0.259477
0.321027 0.275295 0.260174
0.454268 0.293778 0.250254
0.609700 0.315305 0.232923
0.738551 0.355228 0.231148
0.830663 0.396142 0.231912
0.894527 0.435713 0.233027
0.086012 0.281211 0.286342
0.106575 0.314818 0.308688
0.150511 0.330912 0.285760
0.361506 0.331543 0.219611
0.489856 0.343068 0.248988
0.626827 0.382143 0.242780
0.744659 0.437088 0.248984
0.832075 0.488140 0.255857
0.891013 0.533692 0.270610
0.099605 0.384578 0.347944
0.117842 0.400487 0.341179
0.154024 0.391523 0.276095
0.314990 0.424846 0.234655
0.537054 0.412785 0.183564
0.662849 0.439012 0.230759
0.765865 0.497013 0.245268
0.844398 0.548821 0.243117
0.900274 0.594623 0.243798
0.111923 0.473541 0.384754
0.128289 0.471940 0.338981
0.164006 0.462157 0.276630
0.311697 0.512459 0.251581
0.523079 0.551046 0.210406
0.689620 0.535690 0.186412
0.791550 0.560072 0.215838
0.855332 0.610916 0.237580
0.907877 0.651219 0.237373
0.121712 0.544491 0.392053
0.141550 0.536586 0.331086
0.184525 0.551766 0.287425
0.348472 0.606884 0.278134
0.529101 0.636027 0.280180
0.690053 0.684741 0.214854
0.805005 0.656382 0.202066
0.870074 0.670427 0.218043
0.918850 0.703454 0.232798
0.132032 0.604807 0.403207
0.163177 0.601446 0.351392
0.249396 0.653732 0.313101
0.426245 0.691906 0.315528
0.573341 0.714187 0.330795
0.708617 0.759957 0.282913
0.800696 0.790116 0.220622
0.879820 0.756690 0.211857
0.932724 0.755633 0.229072
0.145457 0.670054 0.419588
0.191735 0.668165 0.377165
0.359802 0.751887 0.340892
0.509732 0.776177 0.350756
0.622508 0.793583 0.362235
0.723029 0.822170 0.354592
0.809966 0.846981 0.301506
0.870085 0.862812 0.254164
0.941546 0.824082 0.221777
0.065495 0.138270 0.237820
0.083144 0.145239 0.232679
0.106942 0.156548 0.233298
0.183063 0.169087 0.227650
0.306316 0.173598 0.210006
0.427538 0.194347 0.215993
0.572944 0.227512 0.229482
0.707969 0.278131 0.253486
0.814855 0.332752 0.276506
0.072197 0.167166 0.257606
0.091849 0.186865 0.282965
0.118682 0.197622 0.276827
0.198982 0.221940 0.270577
0.355654 0.240950 0.258327
0.492248 0.271371 0.265815
0.639260 0.318264 0.286710
0.766551 0.370417 0.307032
0.858329 0.409965 0.311754
0.078214 0.198172 0.275842
0.098287 0.221048 0.302526
0.131752 0.243693 0.326888
0.220040 0.271718 0.319840
0.400401 0.316797 0.316917
0.549119 0.353423 0.322742
0.697803 0.399987 0.335746
0.806249 0.440550 0.345733
0.880083 0.473669 0.348999
0.084580 0.236738 0.290757
0.104553 0.261970 0.318297
0.140652 0.297420 0.351369
0.221064 0.335728 0.368839
0.439575 0.388794 0.364095
0.599536 0.422815 0.360270
0.733578 0.467020 0.370405
0.827542 0.507831 0.381954
0.890726 0.544277 0.390396
0.098609 0.323598 0.355839
0.119210 0.369873 0.396492
0.151272 0.424006 0.433592
0.209347 0.447967 0.408039
0.480433 0.464216 0.322918
0.623556 0.492056 0.377763
0.745110 0.543351 0.389624
0.831285 0.590943 0.403850
0.890958 0.630279 0.416681
0.119390 0.473527 0.473180
0.136872 0.509219 0.493765
0.167913 0.540738 0.490793
0.224542 0.526690 0.402625
0.451623 0.568347 0.355111
0.670676 0.576108 0.306052
0.774417 0.605967 0.379135
0.846902 0.649572 0.395156
0.903790 0.685107 0.390426
0.137801 0.597901 0.563927
0.152266 0.609607 0.552955
0.182658 0.602609 0.476173
0.272466 0.609359 0.409544
0.481502 0.655895 0.392679
0.673662 0.701020 0.358930
0.799745 0.688907 0.260246
0.864688 0.704788 0.343714
0.917218 0.733799 0.360872
0.152140 0.673131 0.603085
0.166743 0.666880 0.552229
0.204634 0.652221 0.471081
0.370488 0.695387 0.425857
0.547653 0.732980 0.425640
0.690198 0.766389 0.416724
0.795192 0.800483 0.361391
0.879894 0.778908 0.236054
0.932130 0.775949 0.264439
0.163700 0.737637 0.606458
0.189420 0.734949 0.528676
0.241503 0.733619 0.473205
0.468954 0.791335 0.430240
0.610363 0.810783 0.442589
0.715907 0.829762 0.445747
0.804025 0.853345 0.415309
0.868560 0.870074 0.370940
0.943155 0.837309 0.242897
0.072052 0.162109 0.289919
0.086153 0.168251 0.283150
0.104401 0.176214 0.278231
0.129847 0.188200 0.280121
0.219526 0.198143 0.268819
0.395476 0.209034 0.242772
0.551805 0.234103 0.250356
0.688815 0.285281 0.275535
0.795812 0.348723 0.312654
0.078992 0.192243 0.312577
0.096405 0.212093 0.343209
0.117111 0.221780 0.338526
0.142473 0.229907 0.328258
0.257958 0.259439 0.320351
0.459301 0.283330 0.298590
0.613364 0.324345 0.312934
0.735656 0.386922 0.352852
0.831294 0.437858 0.385349
0.084640 0.217036 0.332398
0.102989 0.241203 0.364711
0.129025 0.266764 0.398091
0.157889 0.277277 0.389735
0.302413 0.324289 0.377673
0.512398 0.364413 0.362058
0.654807 0.416782 0.390994
0.772408 0.470138 0.424658
0.858513 0.509432 0.443071
0.090143 0.247236 0.352688
0.108556 0.271829 0.383731
0.137156 0.303913 0.420959
0.173263 0.329218 0.444993
0.335660 0.386882 0.436402
0.553799 0.446818 0.431682
0.692957 0.498586 0.461234
0.804213 0.540659 0.480366
0.876113 0.574705 0.496625
0.097024 0.288530 0.372116
0.116041 0.318079 0.403832
0.146133 0.357726 0.445383
0.184941 0.397218 0.476852
0.349624 0.470605 0.501506
0.593084 0.534942 0.499286
0.729875 0.574489 0.512479
0.825841 0.610711 0.523848
0.890057 0.641972 0.532041
0.114540 0.389912 0.447476
0.136279 0.441857 0.496403
0.156639 0.485578 0.534413
0.202454 0.550879 0.578229
0.349693 0.587365 0.542058
0.639000 0.616454 0.466673
0.753430 0.645237 0.520932
0.836687 0.683964 0.528036
0.896764 0.713828 0.531239
0.140846 0.562000 0.591578
0.159024 0.598298 0.617811
0.181184 0.632041 0.641605
0.226022 0.662662 0.636430
0.424775 0.665484 0.535656
0.647139 0.709381 0.499659
0.788153 0.716128 0.436549
0.857187 0.734054 0.498064
0.912853 0.758346 0.502010
0.160744 0.680241 0.685248
0.176546 0.701041 0.698112
0.207054 0.724647 0.696656
0.250540 0.711650 0.620115
0.518386 0.740633 0.532252
0.678832 0.774255 0.529841
0.790789 0.809821 0.480590
0.875975 0.796998 0.355329
0.931348 0.796073 0.423813
0.178125 0.765942 0.752138
0.192349 0.783212 0.741893
0.229731 0.787515 0.668167
0.318947 0.785237 0.592068
0.594499 0.826021 0.522032
0.712671 0.838334 0.538908
0.797479 0.860180 0.524205
0.865711 0.876002 0.482286
0.944339 0.851397 0.278428
0.079674 0.191376 0.358210
0.093483 0.198059 0.348484
0.104718 0.202069 0.341134
0.122977 0.210191 0.336288
0.155352 0.225233 0.339091
0.301209 0.233008 0.309502
0.519620 0.255683 0.286553
0.669062 0.295569 0.302357
0.781505 0.355505 0.336801
0.086891 0.223432 0.384676
0.104055 0.244299 0.420895
0.116181 0.249899 0.412836
0.138750 0.261089 0.408286
0.174698 0.273775 0.397618
0.377511 0.306816 0.363312
0.578711 0.341485 0.352886
0.716909 0.391269 0.377917
0.815938 0.451263 0.426473
0.092597 0.248749 0.407497
0.110826 0.274566 0.444632
0.126992 0.295362 0.476454
0.154429 0.310925 0.477947
0.197157 0.325637 0.461664
0.436713 0.386326 0.431350
0.626283 0.424137 0.422592
0.750541 0.477860 0.460006
0.836816 0.533666 0.516959
0.097710 0.271418 0.426142
0.116556 0.300525 0.464921
0.134314 0.325766 0.498056
0.169284 0.359439 0.536904
0.220096 0.379705 0.526159
0.486598 0.462220 0.496851
0.663358 0.504132 0.498292
0.776712 0.557529 0.542925
0.855811 0.598947 0.578348
0.103648 0.303105 0.449290
0.122597 0.332519 0.487530
0.143132 0.364301 0.523580
0.180342 0.407773 0.563309
0.245259 0.448110 0.586556
0.534932 0.542759 0.566461
0.703107 0.588275 0.573316
0.805495 0.629506 0.602772
0.876851 0.659486 0.619417
0.112745 0.357527 0.477000
0.132507 0.392590 0.516104
0.154523 0.428987 0.551961
0.194964 0.476990 0.594817
0.255414 0.523806 0.620125
0.585291 0.637429 0.629123
0.740897 0.674322 0.629534
0.829544 0.701872 0.641215
0.892592 0.723415 0.648248
0.134347 0.474410 0.562426
0.155041 0.516882 0.603056
0.172168 0.551698 0.635625
0.210920 0.603513 0.678242
0.271366 0.660211 0.705929
0.616837 0.723485 0.635656
0.775549 0.739146 0.595414
0.846183 0.759855 0.632991
0.905233 0.779122 0.633989
0.160561 0.623573 0.689078
0.178693 0.654748 0.714442
0.194506 0.680123 0.732727
0.238711 0.723990 0.760883
0.321538 0.757599 0.743709
0.666886 0.788028 0.631001
0.781440 0.815099 0.614909
0.867899 0.812645 0.543556
0.925540 0.814328 0.591785
0.180765 0.728791 0.771166
0.196701 0.750335 0.785092
0.219477 0.776092 0.801858
0.265460 0.814210 0.807963
0.425483 0.829443 0.699246
0.706355 0.851754 0.628173
0.791788 0.864717 0.633421
0.861856 0.881747 0.596681
0.938712 0.860895 0.477406
0.088980 0.229682 0.446991
0.102475 0.236034 0.436575
0.112994 0.239659 0.427104
0.122453 0.242630 0.417530
0.142405 0.251888 0.409902
0.216175 0.281000 0.412882
0.452668 0.288652 0.337357
0.645226 0.319272 0.340758
0.767656 0.364388 0.363862
0.096147 0.262138 0.474731
0.113459 0.285786 0.514723
0.124255 0.290853 0.507116
0.136711 0.296156 0.496069
0.162452 0.307368 0.486671
0.262022 0.346742 0.481187
0.544614 0.371056 0.400225
0.689624 0.411401 0.422164
0.803347 0.460209 0.462748
0.102105 0.288856 0.497999
0.120360 0.316674 0.537078
0.134420 0.336320 0.567070
0.152006 0.347482 0.568536
0.182625 0.359660 0.555575
0.314828 0.409921 0.544540
0.588949 0.456481 0.492596
0.726720 0.493026 0.510711
0.824438 0.542422 0.557875
0.107450 0.313011 0.518623
0.126071 0.342315 0.557267
0.141141 0.366063 0.586712
0.166663 0.395154 0.622557
0.203527 0.411469 0.617076
0.368441 0.472606 0.604579
0.630987 0.527302 0.570224
0.759134 0.565371 0.585298
0.842708 0.609007 0.626062
0.113075 0.338030 0.539621
0.132036 0.368769 0.576535
0.147825 0.395719 0.606692
0.176931 0.432959 0.646795
0.226130 0.467538 0.670730
0.441677 0.545289 0.662362
0.676503 0.599244 0.634903
0.787622 0.635015 0.647896
0.859825 0.672773 0.682823
0.120586 0.377720 0.564660
0.140000 0.412590 0.601793
0.156268 0.441442 0.632247
0.191602 0.485125 0.673014
0.243021 0.526133 0.695030
0.516218 0.623053 0.711652
0.721397 0.677786 0.687761
0.815339 0.707100 0.700505
0.880149 0.731642 0.717007
0.132119 0.445005 0.597984
0.151782 0.480313 0.633317
0.169008 0.509205 0.662324
0.209518 0.554691 0.700719
0.263054 0.593570 0.719553
0.547418 0.693741 0.738891
0.755835 0.758770 0.726311
0.836183 0.777912 0.734441
0.896856 0.789358 0.735778
0.154180 0.553366 0.672707
0.173296 0.584929 0.701519
0.188757 0.609848 0.723643
0.219022 0.646730 0.752907
0.274440 0.695589 0.779371
0.506283 0.792794 0.803617
0.771370 0.819521 0.729436
0.856254 0.825092 0.700622
0.913207 0.832951 0.716087
0.177705 0.667598 0.762223
0.195275 0.693491 0.783934
0.209073 0.713515 0.799087
0.236108 0.743055 0.819826
0.299812 0.791742 0.837695
0.558313 0.863492 0.790077
0.788372 0.871879 0.724073
0.854297 0.885106 0.710409
0.931719 0.871022 0.647440
0.099726 0.276122 0.546659
0.112720 0.280677 0.535917
0.123110 0.284884 0.525613
0.131718 0.286641 0.514412
0.142025 0.288847 0.500125
0.175027 0.305621 0.494455
0.354636 0.346949 0.471576
0.619563 0.354363 0.387832
0.749456 0.405193 0.438583
0.106952 0.309055 0.571636
0.123619 0.331042 0.604922
0.134514 0.337798 0.602351
0.143221 0.338827 0.589112
0.162309 0.348752 0.582702
0.201987 0.365550 0.571922
0.428389 0.431009 0.560255
0.662943 0.457723 0.515392
0.782417 0.496737 0.548225
0.112913 0.335786 0.591544
0.130254 0.360640 0.626087
0.144086 0.380546 0.653831
0.154115 0.385778 0.653467
0.182632 0.402720 0.651633
0.233033 0.422060 0.637127
0.492100 0.497135 0.627095
0.701846 0.524612 0.592919
0.808996 0.560885 0.618738
0.118063 0.358768 0.608575
0.136089 0.386198 0.643797
0.150557 0.408234 0.671768
0.164895 0.426608 0.695092
0.202456 0.450018 0.703172
0.276483 0.477958 0.691124
0.552892 0.558672 0.683503
0.738006 0.579987 0.650109
0.830016 0.616233 0.673570
0.123605 0.382702 0.628614
0.142196 0.412507 0.662239
0.157283 0.436633 0.689409
0.174229 0.460057 0.715043
0.223057 0.497181 0.742796
0.356646 0.547180 0.737262
0.618448 0.627545 0.732677
0.770168 0.643346 0.707112
0.849226 0.676986 0.725590
0.130616 0.413248 0.650130
0.149451 0.446042 0.682085
0.164843 0.472883 0.709180
0.186622 0.504435 0.736765
0.238467 0.546637 0.761680
0.449565 0.623526 0.775444
0.682782 0.700890 0.770320
0.801191 0.715451 0.755828
0.869181 0.737518 0.763667
0.139954 0.464696 0.677469
0.158556 0.495709 0.706959
0.173907 0.522039 0.730007
0.204689 0.558202 0.760042
0.257008 0.595308 0.777195
0.490325 0.679624 0.792417
0.730378 0.760868 0.794920
0.826695 0.774305 0.779448
0.887508 0.789408 0.784522
0.152265 0.531413 0.706144
0.170803 0.560313 0.733515
0.186216 0.583689 0.753999
0.223618 0.620871 0.781816
0.276398 0.653519 0.793593
0.512128 0.735027 0.809363
0.740571 0.813017 0.818268
0.839985 0.837665 0.799775
0.901081 0.847399 0.800004
0.172985 0.621719 0.762831
0.190384 0.644806 0.781869
0.204587 0.663293 0.796885
0.225687 0.686478 0.814287
0.275884 0.722806 0.831318
0.379757 0.786335 0.858515
0.706329 0.890311 0.852917
0.849457 0.888060 0.797590
0.919909 0.883530 0.768300
0.111145 0.325867 0.639343
0.123918 0.330419 0.631087
0.134134 0.334632 0.624220
0.143019 0.337517 0.617248
0.152689 0.340663 0.607673
0.176820 0.353160 0.601355
0.273479 0.401726 0.616680
0.547915 0.420758 0.581349
0.724731 0.456451 0.547882
0.117995 0.356579 0.659867
0.134158 0.377450 0.688652
0.145021 0.384974 0.692128
0.154420 0.389206 0.686300
0.165695 0.394013 0.679499
0.202384 0.413871 0.675384
0.345405 0.473570 0.685019
0.614254 0.486385 0.661491
0.761472 0.518449 0.624179
0.123714 0.381817 0.677512
0.140158 0.403230 0.704312
0.153373 0.420828 0.727316
0.163758 0.428870 0.732838
0.180647 0.439452 0.730917
0.224901 0.460092 0.725921
0.428732 0.537609 0.732913
0.667894 0.541160 0.717873
0.793531 0.565004 0.676226
0.128761 0.403532 0.693058
0.145845 0.427692 0.718783
0.159596 0.446780 0.741611
0.172185 0.462300 0.759561
0.198923 0.481576 0.770733
0.248250 0.502380 0.763859
0.505659 0.596925 0.771896
0.713611 0.597090 0.761391
0.817303 0.611827 0.722247
0.134339 0.426777 0.708053
0.151657 0.451406 0.733750
0.166108 0.473027 0.755509
0.179548 0.491062 0.775045
0.217153 0.522350 0.798553
0.292390 0.552548 0.794528
0.580328 0.657137 0.804567
0.752910 0.660451 0.797043
0.839114 0.666970 0.765373
0.141000 0.453876 0.725499
0.158726 0.480348 0.751163
0.173464 0.504086 0.772179
0.187693 0.526224 0.789819
0.230938 0.564059 0.812612
0.357161 0.614947 0.821562
0.648840 0.715653 0.828616
0.786045 0.727672 0.822808
0.858104 0.732746 0.802795
0.148989 0.492858 0.746119
0.166952 0.523195 0.768615
0.181443 0.545103 0.788355
0.198019 0.570001 0.805820
0.247216 0.608492 0.825548
0.382816 0.664116 0.836005
0.697619 0.765187 0.846729
0.811101 0.791220 0.839706
0.876578 0.795173 0.832292
0.159087 0.545063 0.767219
0.176601 0.570749 0.789242
0.190969 0.591906 0.806079
0.214500 0.619481 0.825356
0.265957 0.652176 0.837713
0.429542 0.713124 0.850258
0.711251 0.798315 0.858597
0.829818 0.842407 0.852634
0.893368 0.841186 0.838884
0.170868 0.601929 0.789215
0.188299 0.626187 0.808036
0.202413 0.644489 0.823754
0.232155 0.671555 0.841694
0.283155 0.700510 0.849663
0.442484 0.758855 0.864137
0.720803 0.840860 0.871626
0.830173 0.886079 0.864135
0.902069 0.896576 0.849335
