nova/tdt-studio/app/Lut_mau/IWLTBAP/1 - LUTs by IWLTBAP (CUBE)/01 - Standard/Cinematic/H-9110-STD.cube
# Copyright: (C) Copyright 2010-2019 by IWLTBAP SAS
# Cannot be resold, shared or otherwise redistributed
# Website: https://luts.iwltbap.com
TITLE "IWLTBAP 9110 (Rec.709, sRGB, DCI-P3)"
LUT_3D_SIZE 33
0.000000 0.000000 0.000000
0.030396 0.000000 0.002075
0.060638 0.000000 0.004150
0.094818 0.000000 0.006500
0.125488 0.000000 0.008606
0.155884 0.000000 0.010681
0.186066 0.000000 0.012756
0.219971 0.000000 0.015076
0.251038 0.000000 0.017212
0.281342 0.000000 0.019287
0.311768 0.000000 0.023956
0.341827 0.000000 0.027374
0.375061 0.000000 0.026947
0.407013 0.000000 0.027924
0.437256 0.000000 0.029999
0.467407 0.000000 0.032074
0.500000 0.000000 0.034302
0.532562 0.000000 0.036560
0.562744 0.000000 0.038605
0.592957 0.000000 0.040680
0.624939 0.000000 0.042877
0.658142 0.000000 0.045166
0.688202 0.000000 0.047241
0.718628 0.000000 0.049316
0.748932 0.000000 0.051392
0.780029 0.000000 0.053528
0.813934 0.000000 0.055847
0.844116 0.000000 0.057922
0.874481 0.000000 0.059998
0.905182 0.000000 0.062103
0.939209 0.000000 0.064453
0.965576 0.000000 0.066254
0.992188 0.000000 0.068085
0.026550 0.012573 0.000000
0.049652 0.013306 0.002930
0.068695 0.011993 0.004822
0.098999 0.009949 0.006592
0.125793 0.008179 0.008331
0.155853 0.006104 0.010345
0.186066 0.006317 0.012390
0.220215 0.004517 0.014709
0.247986 0.002686 0.016663
0.277405 0.000824 0.018707
0.307861 0.000000 0.020905
0.337982 0.000000 0.023041
0.371216 0.000000 0.025330
0.402924 0.000000 0.027466
0.435638 0.000000 0.029694
0.467651 0.000000 0.031891
0.500000 0.000000 0.034088
0.532806 0.000000 0.036316
0.561127 0.000000 0.038269
0.588806 0.000000 0.040161
0.620972 0.000000 0.042358
0.654114 0.000000 0.044617
0.685425 0.000000 0.046753
0.718903 0.000000 0.049042
0.748932 0.000000 0.051086
0.780029 0.000000 0.053223
0.813934 0.000000 0.055542
0.844147 0.000000 0.057617
0.874176 0.000000 0.059662
0.901093 0.000000 0.061523
0.935303 0.000000 0.063843
0.961823 0.000000 0.065674
0.992188 0.000000 0.067749
0.056824 0.027405 0.000000
0.068634 0.028870 0.000000
0.080017 0.032288 0.002899
0.102905 0.030884 0.009583
0.125916 0.029327 0.012756
0.155701 0.027191 0.014648
0.185944 0.027283 0.016327
0.220123 0.025482 0.018616
0.247833 0.021759 0.017090
0.277222 0.019470 0.018372
0.307678 0.017426 0.020386
0.337860 0.015472 0.022430
0.371155 0.013306 0.024689
0.402832 0.011292 0.026855
0.435608 0.009186 0.029144
0.467651 0.006989 0.031342
0.500000 0.006256 0.033569
0.532806 0.005646 0.035797
0.561035 0.002533 0.037811
0.588623 0.000000 0.039825
0.620850 0.000000 0.042053
0.654022 0.000000 0.044403
0.685364 0.000000 0.046600
0.718903 0.000000 0.048981
0.748932 0.000000 0.051086
0.780029 0.000000 0.053192
0.813934 0.000000 0.056061
0.844147 0.000000 0.061768
0.874146 0.000000 0.063293
0.901031 0.000000 0.061432
0.935211 0.000000 0.063751
0.961731 0.000000 0.065552
0.992188 0.000000 0.067627
0.087250 0.042297 0.000000
0.098602 0.041321 0.000000
0.109894 0.043152 0.000000
0.122498 0.042084 0.000793
0.130432 0.043549 0.001434
0.158997 0.043518 0.013916
0.189575 0.045715 0.020447
0.223755 0.044220 0.023407
0.251343 0.040436 0.021790
0.280701 0.036041 0.019531
0.311615 0.035461 0.020905
0.338928 0.034363 0.022614
0.370850 0.032166 0.024628
0.402679 0.030060 0.026703
0.435547 0.027924 0.028839
0.467651 0.025696 0.031006
0.500000 0.024963 0.033173
0.532593 0.024231 0.035370
0.562653 0.022064 0.037415
0.592896 0.020142 0.039459
0.623322 0.017273 0.041565
0.653595 0.013641 0.043701
0.685272 0.011780 0.045898
0.718933 0.009583 0.048248
0.748932 0.008179 0.050323
0.780029 0.008118 0.052399
0.813934 0.005829 0.054810
0.844147 0.004059 0.057159
0.874146 0.001923 0.059235
0.900879 0.000000 0.060974
0.935059 0.000000 0.063354
0.961578 0.000000 0.065216
0.992188 0.000000 0.067383
0.117676 0.054657 0.000000
0.128998 0.053680 0.000000
0.140717 0.052856 0.000000
0.142059 0.054810 0.000000
0.141052 0.059723 0.000000
0.166016 0.057861 0.000000
0.193359 0.061768 0.014679
0.226837 0.062286 0.026855
0.257965 0.060547 0.029572
0.288422 0.054962 0.025879
0.316254 0.052185 0.022217
0.342194 0.051025 0.023468
0.374298 0.048584 0.025330
0.406616 0.046387 0.027283
0.437134 0.044342 0.029144
0.467438 0.042175 0.031067
0.500000 0.041473 0.033173
0.532562 0.040771 0.035339
0.562744 0.038574 0.037292
0.593018 0.036560 0.039307
0.624817 0.034424 0.041443
0.657776 0.032135 0.043640
0.687958 0.030212 0.045685
0.718658 0.028168 0.047760
0.748932 0.026764 0.049835
0.780029 0.026855 0.051910
0.813934 0.024506 0.054230
0.844116 0.022614 0.056305
0.874451 0.020447 0.058411
0.904846 0.016205 0.060577
0.938873 0.014130 0.062927
0.965240 0.012451 0.064789
0.992188 0.010742 0.066650
0.147766 0.069366 0.000000
0.159393 0.066010 0.000000
0.171173 0.064880 0.000000
0.171204 0.067139 0.000000
0.173309 0.072144 0.000000
0.189117 0.073120 0.000000
0.205231 0.076050 0.002350
0.237579 0.077911 0.020142
0.265991 0.078491 0.033478
0.295959 0.074677 0.032562
0.323608 0.072021 0.032715
0.349731 0.072052 0.034729
0.379669 0.071106 0.034698
0.408051 0.067688 0.032471
0.436859 0.064941 0.032928
0.467194 0.063171 0.035187
0.499878 0.059967 0.035126
0.532593 0.056946 0.035614
0.562744 0.056000 0.037537
0.592957 0.055420 0.039459
0.624939 0.053101 0.041504
0.658203 0.050842 0.043671
0.688232 0.048889 0.045624
0.718628 0.046844 0.047638
0.748932 0.045441 0.049652
0.780029 0.045471 0.051697
0.813965 0.043121 0.053986
0.844330 0.041199 0.056030
0.874725 0.039001 0.058075
0.905457 0.034607 0.060211
0.939484 0.032532 0.062531
0.965607 0.030853 0.064301
0.992188 0.029144 0.066132
0.181274 0.081177 0.000000
0.189636 0.077820 0.000000
0.201172 0.076874 0.000000
0.204437 0.078949 0.000000
0.211334 0.081146 0.000000
0.216736 0.085297 0.000000
0.220520 0.090057 0.000000
0.248718 0.091858 0.007355
0.277557 0.093658 0.025085
0.304474 0.093933 0.036713
0.331146 0.092072 0.043945
0.357666 0.091888 0.046783
0.384491 0.093079 0.046082
0.410828 0.089569 0.041870
0.439606 0.084534 0.039062
0.470520 0.081696 0.039612
0.501434 0.078400 0.039398
0.532104 0.073730 0.037018
0.562469 0.072418 0.038025
0.592804 0.071869 0.039917
0.624939 0.070435 0.041901
0.658142 0.069855 0.044006
0.688202 0.067657 0.045898
0.718628 0.065430 0.047791
0.748932 0.064026 0.049744
0.780090 0.064117 0.051788
0.813446 0.061768 0.053955
0.840576 0.059998 0.055725
0.871124 0.057953 0.057739
0.901733 0.055664 0.059753
0.935913 0.053436 0.062042
0.965607 0.051514 0.064026
0.992188 0.049805 0.065826
0.219360 0.099487 0.000000
0.223358 0.096588 0.000000
0.234924 0.093384 0.000000
0.241943 0.095215 0.000000
0.249420 0.097015 0.000000
0.253754 0.099609 0.000000
0.253418 0.102509 0.000000
0.269653 0.106903 0.000000
0.284210 0.110748 0.005127
0.310760 0.112976 0.020660
0.338745 0.111267 0.035431
0.365082 0.110535 0.046875
0.393982 0.112854 0.052582
0.421356 0.110809 0.052216
0.450592 0.107422 0.049713
0.477386 0.105804 0.050476
0.504333 0.104095 0.050812
0.535065 0.100647 0.048767
0.565735 0.098480 0.048553
0.594727 0.096619 0.047729
0.624420 0.092102 0.044952
0.657867 0.089844 0.046509
0.688019 0.087372 0.046478
0.718658 0.086853 0.048401
0.748932 0.085236 0.050232
0.780090 0.085327 0.052216
0.813354 0.082947 0.054291
0.839905 0.081177 0.055969
0.870514 0.079163 0.057892
0.901093 0.077179 0.059845
0.935303 0.074921 0.062073
0.965607 0.072784 0.064026
0.991943 0.071075 0.065765
0.251129 0.115265 0.000000
0.257904 0.112122 0.000000
0.266113 0.108673 0.000000
0.276794 0.108215 0.000000
0.287872 0.109894 0.000000
0.289551 0.112213 0.000000
0.289276 0.114319 0.000000
0.291412 0.121124 0.000000
0.294189 0.124634 0.000000
0.320618 0.125946 0.001465
0.347229 0.127258 0.019104
0.372314 0.128845 0.034027
0.401611 0.129669 0.051147
0.431915 0.129272 0.061768
0.460480 0.127930 0.061859
0.484497 0.126465 0.059692
0.510834 0.126190 0.059845
0.542084 0.125061 0.061584
0.571350 0.123260 0.062256
0.597748 0.120331 0.059265
0.627289 0.114716 0.055298
0.661163 0.109619 0.052734
0.690247 0.105408 0.049042
0.718201 0.105896 0.051544
0.748962 0.104309 0.053619
0.780090 0.104492 0.055817
0.813385 0.101746 0.057251
0.839996 0.098419 0.056458
0.870575 0.096375 0.058319
0.901154 0.094330 0.060211
0.935364 0.092133 0.062347
0.965668 0.092041 0.064301
0.995300 0.090027 0.066193
0.281342 0.130157 0.000000
0.289307 0.126892 0.000000
0.296753 0.123474 0.000000
0.308044 0.120605 0.000000
0.320160 0.119965 0.000000
0.320831 0.122192 0.000000
0.320679 0.124359 0.000000
0.320038 0.131714 0.000000
0.321747 0.134857 0.000000
0.338196 0.138580 0.000000
0.355499 0.141998 0.000000
0.381531 0.145538 0.018402
0.412445 0.146912 0.041290
0.443298 0.148132 0.060089
0.471649 0.148926 0.071167
0.495331 0.148102 0.072693
0.522034 0.146515 0.073822
0.551575 0.145844 0.076111
0.578430 0.145630 0.076721
0.604675 0.142029 0.073029
0.632965 0.137268 0.069061
0.664642 0.133850 0.066956
0.694031 0.128784 0.062744
0.720306 0.127441 0.061737
0.748444 0.124298 0.060425
0.779816 0.122955 0.059967
0.813080 0.120819 0.061890
0.839691 0.118591 0.059753
0.870300 0.116364 0.061462
0.900879 0.112885 0.060822
0.935089 0.110687 0.062866
0.965698 0.111084 0.064819
0.996490 0.108978 0.066711
0.311768 0.142914 0.000000
0.316833 0.139832 0.000000
0.324249 0.138519 0.000000
0.335510 0.133148 0.000000
0.347107 0.131683 0.000000
0.350800 0.133636 0.000000
0.350769 0.135895 0.000000
0.350433 0.141205 0.000000
0.353363 0.145477 0.000000
0.358551 0.150543 0.000000
0.368256 0.156219 0.000000
0.392883 0.158783 0.000977
0.422119 0.162445 0.026245
0.452118 0.167786 0.051666
0.480408 0.170227 0.071503
0.503815 0.167999 0.081726
0.530273 0.165680 0.085266
0.559296 0.165833 0.088531
0.585754 0.165588 0.088226
0.612122 0.163422 0.087097
0.640289 0.160309 0.085876
0.670197 0.156769 0.081207
0.697357 0.153381 0.077057
0.723602 0.151093 0.074951
0.750671 0.146393 0.071167
0.782501 0.144104 0.069366
0.816010 0.139008 0.065826
0.842529 0.137604 0.064026
0.873138 0.135254 0.065582
0.903809 0.130798 0.063477
0.937897 0.127594 0.063751
0.965607 0.128296 0.065491
0.993256 0.126190 0.067108
0.342133 0.156708 0.000000
0.343048 0.154022 0.000000
0.350433 0.153534 0.000000
0.361542 0.147461 0.000000
0.375946 0.145752 0.000000
0.380707 0.147797 0.000000
0.382996 0.149963 0.000000
0.382996 0.154449 0.000000
0.386139 0.159698 0.000000
0.391327 0.161316 0.000000
0.399109 0.164642 0.000000
0.411469 0.170807 0.000000
0.428284 0.176758 0.005768
0.455322 0.181641 0.027863
0.486359 0.183746 0.051117
0.512756 0.184021 0.070557
0.542297 0.183594 0.087860
0.571320 0.185394 0.097534
0.595825 0.186829 0.101105
0.622711 0.185455 0.102051
0.649841 0.184113 0.101379
0.677032 0.180542 0.096039
0.703339 0.179138 0.093872
0.730743 0.176422 0.091461
0.760010 0.171021 0.087189
0.788483 0.168854 0.085083
0.819763 0.161743 0.078217
0.846436 0.160858 0.077515
0.877045 0.158478 0.078979
0.907745 0.154022 0.073761
0.941681 0.147980 0.069092
0.965240 0.147400 0.070923
0.992065 0.147186 0.072540
0.372803 0.173706 0.000000
0.372223 0.171021 0.000000
0.379639 0.170380 0.000000
0.390930 0.164124 0.000000
0.406830 0.162476 0.000000
0.413361 0.162842 0.000000
0.422363 0.164215 0.000000
0.423401 0.169006 0.000000
0.423309 0.172913 0.000000
0.432495 0.173798 0.000000
0.439636 0.173615 0.000000
0.439331 0.181519 0.000000
0.444275 0.189331 0.000000
0.465179 0.193665 0.000854
0.493958 0.196899 0.024414
0.522827 0.199524 0.049011
0.555511 0.202667 0.077728
0.584167 0.206726 0.099701
0.607758 0.209290 0.111328
0.633301 0.209747 0.115234
0.658844 0.209930 0.115387
0.687408 0.208679 0.115173
0.713745 0.207214 0.115540
0.740784 0.204956 0.112823
0.768555 0.200653 0.107574
0.795135 0.197144 0.102844
0.822754 0.189240 0.094818
0.850037 0.186768 0.093903
0.880859 0.185089 0.093750
0.911835 0.181213 0.088715
0.945709 0.174500 0.083679
0.968018 0.171387 0.082458
0.992188 0.172729 0.084534
0.400543 0.188019 0.000000
0.402771 0.186829 0.000000
0.410217 0.186157 0.000000
0.419373 0.181854 0.000000
0.431976 0.179047 0.000000
0.444580 0.176086 0.000000
0.456787 0.177124 0.000000
0.460236 0.180298 0.000000
0.461823 0.182587 0.000000
0.468018 0.186005 0.000000
0.473236 0.186981 0.000000
0.472046 0.193970 0.000000
0.473846 0.201477 0.000000
0.484650 0.205963 0.000000
0.501923 0.209900 0.000305
0.528046 0.214539 0.023285
0.561920 0.219635 0.055511
0.591736 0.223328 0.082336
0.616821 0.226837 0.102112
0.642609 0.231232 0.119720
0.669617 0.232239 0.126831
0.699371 0.231567 0.130341
0.725677 0.229553 0.130890
0.752136 0.228546 0.129242
0.778412 0.226959 0.127502
0.805267 0.221252 0.121185
0.831268 0.216278 0.115387
0.855835 0.212769 0.113953
0.884064 0.210175 0.110168
0.912567 0.206390 0.105042
0.946808 0.201477 0.100433
0.969238 0.199707 0.099030
0.991913 0.196655 0.096405
0.429169 0.201569 0.000000
0.433167 0.201508 0.000000
0.440704 0.200836 0.000000
0.445770 0.197845 0.000000
0.456604 0.194214 0.000000
0.472015 0.190002 0.000000
0.486420 0.189453 0.000000
0.493561 0.191223 0.000000
0.497772 0.193146 0.000000
0.501404 0.197601 0.000000
0.503387 0.201843 0.000000
0.505585 0.205811 0.000000
0.507568 0.212128 0.000000
0.506317 0.217407 0.000000
0.510864 0.224304 0.000000
0.531769 0.230652 0.000000
0.564880 0.235291 0.027740
0.597443 0.238678 0.057922
0.624847 0.242188 0.083282
0.650879 0.247772 0.107910
0.679016 0.251648 0.127136
0.708405 0.252228 0.138519
0.734406 0.250824 0.140442
0.761688 0.249176 0.140839
0.789642 0.247864 0.142609
0.814270 0.244385 0.140656
0.840546 0.242432 0.137665
0.863037 0.238739 0.133057
0.889648 0.234192 0.125824
0.916382 0.232117 0.123108
0.948273 0.229584 0.120361
0.971069 0.226105 0.114502
0.994446 0.220215 0.108948
0.459503 0.217957 0.000000
0.463257 0.216187 0.000000
0.471191 0.215424 0.000000
0.474670 0.213989 0.000000
0.483337 0.210754 0.000000
0.498047 0.206848 0.000000
0.513885 0.203674 0.000000
0.524811 0.203430 0.000000
0.529266 0.205383 0.000000
0.533356 0.208374 0.000000
0.533905 0.213287 0.000000
0.536896 0.215729 0.000000
0.539520 0.221222 0.000000
0.528351 0.230164 0.000000
0.521912 0.240753 0.000000
0.538391 0.246674 0.000000
0.567902 0.248993 0.000000
0.598938 0.252991 0.031067
0.628693 0.256317 0.060211
0.657227 0.260803 0.086823
0.686646 0.266541 0.110352
0.716522 0.269562 0.128510
0.744232 0.271790 0.143799
0.771667 0.271637 0.150818
0.800842 0.269531 0.152863
0.823151 0.268890 0.155579
0.847626 0.266144 0.153107
0.872681 0.263519 0.149139
0.899658 0.257782 0.142395
0.926453 0.256897 0.141357
0.956421 0.255066 0.139709
0.977386 0.249603 0.130341
0.996307 0.244354 0.124908
0.492615 0.235535 0.000000
0.496368 0.232269 0.000000
0.502106 0.231628 0.000000
0.505646 0.231537 0.000000
0.512329 0.228577 0.000000
0.526855 0.224670 0.000000
0.542267 0.220642 0.000000
0.556427 0.218811 0.000000
0.563477 0.219177 0.000000
0.566101 0.220886 0.000000
0.566162 0.225403 0.000000
0.569580 0.227875 0.000000
0.570831 0.233337 0.000000
0.557800 0.244476 0.000000
0.547394 0.256073 0.000000
0.554718 0.260193 0.000000
0.574463 0.261536 0.000000
0.601685 0.265747 0.001343
0.632904 0.271027 0.032532
0.662781 0.275757 0.060638
0.692688 0.280182 0.085663
0.724792 0.285828 0.110840
0.754639 0.291229 0.135162
0.783661 0.291992 0.150452
0.812500 0.291809 0.159882
0.834686 0.292908 0.165985
0.859467 0.290771 0.166504
0.886169 0.289093 0.164551
0.910919 0.284180 0.161194
0.938171 0.281677 0.159912
0.968323 0.281097 0.160004
0.983063 0.276123 0.150360
0.996094 0.270966 0.144257
0.521149 0.250549 0.000000
0.524963 0.248749 0.000000
0.528412 0.248383 0.000000
0.534058 0.247894 0.000000
0.541168 0.244843 0.000000
0.555664 0.240997 0.000000
0.570801 0.235718 0.000000
0.588257 0.233612 0.000000
0.599792 0.232544 0.000000
0.601227 0.234161 0.000000
0.600800 0.238800 0.000000
0.601227 0.242706 0.000000
0.599792 0.248108 0.000000
0.597321 0.255920 0.000000
0.595367 0.263062 0.000000
0.587341 0.270355 0.000000
0.587219 0.276093 0.000000
0.609985 0.280029 0.000000
0.641846 0.285217 0.003723
0.669434 0.290710 0.033691
0.698669 0.295013 0.062469
0.732452 0.302551 0.092804
0.762756 0.308380 0.120178
0.793304 0.307800 0.137573
0.822388 0.309631 0.154785
0.847229 0.312653 0.170288
0.875610 0.314575 0.179565
0.901642 0.312408 0.178741
0.924072 0.309723 0.178314
0.949402 0.307007 0.176697
0.977600 0.306458 0.178680
0.986420 0.302887 0.170288
0.996094 0.300232 0.165771
0.546478 0.263947 0.000000
0.550323 0.263733 0.000000
0.554047 0.263336 0.000000
0.560120 0.263123 0.000000
0.567688 0.259888 0.000000
0.582214 0.255890 0.000000
0.597229 0.250275 0.000000
0.616272 0.248047 0.000000
0.631622 0.245697 0.000000
0.635376 0.247070 0.000000
0.635498 0.250763 0.000000
0.631805 0.255981 0.000000
0.629547 0.261322 0.000000
0.637451 0.264557 0.000000
0.645477 0.267670 0.000000
0.629486 0.277130 0.000000
0.613342 0.287628 0.000000
0.627380 0.292938 0.000000
0.653198 0.296967 0.000000
0.676605 0.302368 0.004150
0.706512 0.308533 0.037537
0.739410 0.315247 0.069427
0.768890 0.321136 0.097076
0.801147 0.321991 0.119873
0.830475 0.324463 0.142365
0.858002 0.328979 0.162598
0.889801 0.332306 0.183960
0.915344 0.331207 0.187958
0.937744 0.330536 0.190460
0.960693 0.330292 0.189941
0.985138 0.328217 0.191467
0.990326 0.327087 0.186401
0.996094 0.327393 0.183563
0.577454 0.279968 0.000000
0.581238 0.279572 0.000000
0.585022 0.279236 0.000000
0.588562 0.276825 0.000000
0.592438 0.274963 0.000000
0.606842 0.272064 0.000000
0.621948 0.268188 0.000000
0.640625 0.266327 0.000000
0.657410 0.262421 0.000000
0.666595 0.262207 0.000000
0.669312 0.263336 0.000000
0.667480 0.267609 0.000000
0.665863 0.272308 0.000000
0.671997 0.275085 0.000000
0.679810 0.278717 0.000000
0.673523 0.283905 0.000000
0.663300 0.290985 0.000000
0.661407 0.300446 0.000000
0.665253 0.309753 0.000000
0.681885 0.316071 0.000000
0.713989 0.320892 0.007019
0.746429 0.325989 0.040771
0.773499 0.332458 0.069305
0.805328 0.335297 0.097198
0.835114 0.339172 0.123596
0.864227 0.345306 0.148926
0.898224 0.346558 0.171509
0.925415 0.347382 0.185486
0.949066 0.349823 0.197479
0.970367 0.350464 0.200012
0.989227 0.350037 0.200989
0.992401 0.351013 0.199158
0.996094 0.350983 0.197357
0.608063 0.297760 0.000000
0.612000 0.297363 0.000000
0.615784 0.296967 0.000000
0.619507 0.291870 0.000000
0.619629 0.290833 0.000000
0.632355 0.289856 0.000000
0.647491 0.286041 0.000000
0.666229 0.284180 0.000000
0.682434 0.280579 0.000000
0.695374 0.278870 0.000000
0.702423 0.277130 0.000000
0.704834 0.279724 0.000000
0.704865 0.282562 0.000000
0.706116 0.287201 0.000000
0.708191 0.292389 0.000000
0.715820 0.292419 0.000000
0.721588 0.294464 0.000000
0.707794 0.306000 0.000000
0.690613 0.320160 0.000000
0.697449 0.328766 0.000000
0.723053 0.331848 0.000000
0.752869 0.337769 0.008759
0.779999 0.344177 0.038849
0.806610 0.348236 0.067596
0.836243 0.354370 0.098175
0.867798 0.358795 0.124207
0.901794 0.360565 0.149139
0.932220 0.361816 0.169769
0.959290 0.367645 0.191650
0.976013 0.369263 0.201477
0.990143 0.370758 0.205200
0.993652 0.373749 0.206299
0.996094 0.373474 0.207245
0.637665 0.313354 0.000000
0.640106 0.313080 0.000000
0.643829 0.313538 0.000000
0.648743 0.311676 0.000000
0.653748 0.308380 0.000000
0.662933 0.307343 0.000000
0.676147 0.303711 0.000000
0.694733 0.300995 0.000000
0.710938 0.297241 0.000000
0.724060 0.295074 0.000000
0.734222 0.291687 0.000000
0.740631 0.291382 0.000000
0.743195 0.293091 0.000000
0.741669 0.299408 0.000000
0.738495 0.305023 0.000000
0.745972 0.306244 0.000000
0.758789 0.307098 0.000000
0.757660 0.312988 0.000000
0.747253 0.324097 0.000000
0.737244 0.335144 0.000000
0.734894 0.344086 0.000000
0.756348 0.350525 0.000000
0.788086 0.355621 0.004120
0.814362 0.361450 0.036896
0.841156 0.368774 0.066956
0.871552 0.372101 0.095459
0.905304 0.375732 0.122803
0.934570 0.378601 0.147522
0.963928 0.384460 0.173126
0.978149 0.388336 0.186493
0.992920 0.390778 0.197510
0.996429 0.394318 0.201813
0.996094 0.394836 0.202820
0.660797 0.327393 0.000000
0.661499 0.327362 0.000000
0.664978 0.329803 0.000000
0.672760 0.328766 0.000000
0.680481 0.325317 0.000000
0.688660 0.324371 0.000000
0.698883 0.321106 0.000000
0.717010 0.316620 0.000000
0.732849 0.312683 0.000000
0.749329 0.308563 0.000000
0.762390 0.304718 0.000000
0.772247 0.302856 0.000000
0.778595 0.303741 0.000000
0.774231 0.309631 0.000000
0.767059 0.316315 0.000000
0.768951 0.321655 0.000000
0.780884 0.323212 0.000000
0.798889 0.323395 0.000000
0.807007 0.328125 0.000000
0.784882 0.339935 0.000000
0.758636 0.355591 0.000000
0.769043 0.361938 0.000000
0.795410 0.365204 0.000000
0.820862 0.371521 0.004242
0.847198 0.379761 0.038177
0.875122 0.384857 0.069153
0.908630 0.391388 0.098572
0.935028 0.395569 0.124817
0.964325 0.399170 0.151733
0.978973 0.404480 0.170288
0.993805 0.410370 0.188538
0.996124 0.411896 0.193115
0.996094 0.414642 0.198792
0.675537 0.347290 0.000000
0.679474 0.346191 0.000000
0.684052 0.348511 0.000000
0.691559 0.344452 0.000000
0.699707 0.341431 0.000000
0.711029 0.340210 0.000000
0.721863 0.336975 0.000000
0.739807 0.332703 0.000000
0.756073 0.328094 0.000000
0.774872 0.323730 0.000000
0.788849 0.319916 0.000000
0.800781 0.318054 0.000000
0.808472 0.318604 0.000000
0.805145 0.322327 0.000000
0.798584 0.327667 0.000000
0.800720 0.333038 0.000000
0.808685 0.337189 0.000000
0.826111 0.337036 0.000000
0.840515 0.337463 0.000000
0.830109 0.347321 0.000000
0.812622 0.361633 0.000000
0.803406 0.369537 0.000000
0.803070 0.376587 0.000000
0.823090 0.383392 0.000000
0.851624 0.389191 0.002411
0.879852 0.395172 0.037384
0.913391 0.406586 0.078705
0.940186 0.411682 0.102448
0.969360 0.414978 0.129822
0.982941 0.420258 0.153809
0.996887 0.427460 0.174438
0.996094 0.430267 0.180176
0.996094 0.434326 0.188873
0.677704 0.373413 0.000000
0.682190 0.369629 0.000000
0.689972 0.370819 0.000000
0.697266 0.364105 0.000000
0.709381 0.362488 0.000000
0.721375 0.361481 0.000000
0.732819 0.357483 0.000000
0.751923 0.353058 0.000000
0.772675 0.346039 0.000000
0.793243 0.340637 0.000000
0.811066 0.335938 0.000000
0.825043 0.333923 0.000000
0.835388 0.332947 0.000000
0.837524 0.333618 0.000000
0.834106 0.337616 0.000000
0.833710 0.344238 0.000000
0.835876 0.350647 0.000000
0.846527 0.352600 0.000000
0.861298 0.351929 0.000000
0.870758 0.357239 0.000000
0.871155 0.367584 0.000000
0.847107 0.377502 0.000000
0.821686 0.385986 0.000000
0.831665 0.394348 0.000000
0.860779 0.398560 0.000000
0.887634 0.405548 0.005707
0.921143 0.418671 0.052551
0.947205 0.424164 0.077850
0.976166 0.428131 0.105804
0.986389 0.434845 0.131958
0.995605 0.441437 0.151642
0.996094 0.447845 0.165894
0.996094 0.452087 0.175171
0.703308 0.514526 0.000000
0.699493 0.493927 0.000000
0.698700 0.480591 0.000000
0.691711 0.452484 0.000000
0.690582 0.427063 0.000000
0.690369 0.399963 0.000000
0.705536 0.390625 0.000000
0.732330 0.383423 0.000000
0.760925 0.375488 0.000000
0.790710 0.366364 0.000000
0.817963 0.357452 0.000000
0.841095 0.353424 0.000000
0.857178 0.351807 0.000000
0.868225 0.350311 0.000000
0.873077 0.352356 0.000000
0.869720 0.357178 0.000000
0.867950 0.362244 0.000000
0.874573 0.365997 0.000000
0.884949 0.367279 0.000000
0.899261 0.368805 0.000000
0.907623 0.373383 0.000000
0.892761 0.380310 0.000000
0.872803 0.389862 0.000000
0.866791 0.400452 0.000000
0.873169 0.409149 0.000000
0.894379 0.417206 0.000000
0.928345 0.426483 0.013275
0.951202 0.435852 0.046448
0.979736 0.443542 0.077759
0.988983 0.449524 0.103333
0.992188 0.454498 0.123627
0.996155 0.462036 0.142090
0.996094 0.467834 0.155060
0.761841 0.738708 0.077698
0.758026 0.719421 0.067688
0.754028 0.699066 0.057129
0.750397 0.667908 0.039703
0.746948 0.638000 0.022949
0.743011 0.589478 0.000000
0.736053 0.537933 0.000000
0.731964 0.479523 0.000000
0.728607 0.418488 0.000000
0.769440 0.401642 0.000000
0.810150 0.388367 0.000000
0.844147 0.380798 0.000000
0.871948 0.375092 0.000000
0.892334 0.371979 0.000000
0.905548 0.370239 0.000000
0.905457 0.370941 0.000000
0.901794 0.374878 0.000000
0.903900 0.379730 0.000000
0.908997 0.383301 0.000000
0.920197 0.383789 0.000000
0.933777 0.381897 0.000000
0.941193 0.382782 0.000000
0.938782 0.391724 0.000000
