nova/tdt-studio/app/Lut_mau/IWLTBAP/1 - LUTs by IWLTBAP (CUBE)/01 - Standard/Cinematic/H-9110-STD.cube
# Copyright: (C) Copyright 2010-2019 by IWLTBAP SAS
# Cannot be resold, shared or otherwise redistributed
# Website: https://luts.iwltbap.com
TITLE "IWLTBAP 9110 (Rec.709, sRGB, DCI-P3)"
LUT_3D_SIZE 5
0.000000 0.000000 0.000000
0.251038 0.000000 0.017212
0.500000 0.000000 0.034302
0.748932 0.000000 0.051392
0.992188 0.000000 0.068085
0.251129 0.115265 0.000000
0.294189 0.124634 0.000000
0.510834 0.126190 0.059845
0.748962 0.104309 0.053619
0.995300 0.090027 0.066193
0.492615 0.235535 0.000000
0.563477 0.219177 0.000000
0.574463 0.261536 0.000000
0.812500 0.291809 0.159882
0.996094 0.270966 0.144257
0.677704 0.373413 0.000000
0.772675 0.346039 0.000000
0.835876 0.350647 0.000000
0.860779 0.398560 0.000000
0.996094 0.452087 0.175171
0.879028 0.941193 0.089813
0.938385 0.910919 0.096344
0.925507 0.657043 0.000000
0.941162 0.542816 0.000000
0.996094 0.550079 0.000000
0.003632 0.000000 0.275452
0.247284 0.003265 0.246490
0.497986 0.006989 0.252045
0.748291 0.000000 0.272217
0.992188 0.000000 0.289368
0.017731 0.183899 0.242981
0.249237 0.244537 0.250214
0.496368 0.251373 0.257294
0.747467 0.236450 0.273895
0.992188 0.218903 0.292023
0.363800 0.470703 0.116486
0.479279 0.315857 0.109558
0.559784 0.378662 0.233398
0.771698 0.391388 0.302277
0.992188 0.376129 0.298828
0.673431 0.379456 0.000000
0.712036 0.368378 0.000000
0.833496 0.432617 0.154633
0.841431 0.509277 0.218231
0.996094 0.529816 0.327393
0.830780 0.948212 0.069489
0.921051 0.939087 0.106476
0.925232 0.516785 0.000000
0.996094 0.566742 0.089478
0.996094 0.646790 0.167145
0.006531 0.000000 0.500000
0.254517 0.009125 0.498047
0.500092 0.006744 0.494598
0.748932 0.011017 0.503265
0.994141 0.014221 0.507874
0.008453 0.168396 0.558868
0.041534 0.175690 0.569641
0.496033 0.250977 0.488312
0.745361 0.258545 0.498505
0.992188 0.253540 0.515900
0.066315 0.395081 0.495300
0.271271 0.450684 0.494385
0.499695 0.495117 0.497131
0.745819 0.511871 0.500916
0.992188 0.502869 0.512909
0.433014 0.722565 0.328735
0.499847 0.723572 0.350983
0.717529 0.570221 0.361145
0.808075 0.637604 0.480103
0.992188 0.661804 0.542053
0.729431 0.946320 0.248291
0.906464 0.760834 0.181519
0.953156 0.633911 0.214783
0.996094 0.694122 0.390137
0.996094 0.759705 0.437073
0.009827 0.000000 0.748932
0.256470 0.009857 0.745758
0.502167 0.014465 0.744995
0.745819 0.010620 0.744751
0.992981 0.015045 0.751129
0.011749 0.163086 0.756378
0.231110 0.238495 0.747742
0.501709 0.257141 0.747833
0.745667 0.256622 0.739014
0.992188 0.261169 0.747345
0.000610 0.334076 0.780182
0.001556 0.335022 0.795837
0.323334 0.434906 0.823669
0.745026 0.499390 0.733948
0.992188 0.508545 0.743500
0.128479 0.611816 0.745087
0.275421 0.630188 0.743835
0.519806 0.704895 0.745575
0.745789 0.741486 0.742767
0.992279 0.762177 0.748688
0.527191 0.969391 0.545654
0.574402 0.968689 0.558411
0.717133 0.967529 0.595428
0.958069 0.817566 0.609528
0.995300 0.876648 0.714722
0.013000 0.000000 0.992188
0.260712 0.010437 0.995300
0.506012 0.018188 0.994141
0.751984 0.019501 0.992188
0.996094 0.013245 0.989777
0.015747 0.168884 0.996094
0.263977 0.250519 0.992188
0.508667 0.260254 0.992188
0.753296 0.265076 0.992828
0.993011 0.259155 0.985016
0.014679 0.325073 0.986237
0.014709 0.324310 0.987976
0.149872 0.371857 0.992188
0.753082 0.506958 0.992188
0.992188 0.505646 0.981567
0.000000 0.500397 0.980469
0.000000 0.503296 0.991455
0.001923 0.511383 0.995697
0.597870 0.690491 0.995941
0.992188 0.748260 0.977722
0.139343 0.776611 0.992188
0.292389 0.820221 0.988190
0.516724 0.882477 0.990204
0.745850 0.923798 0.988190
0.992188 0.988190 0.991547
