nova/tdt-studio/app/Lut_mau/IWLTBAP/1 - LUTs by IWLTBAP (CUBE)/01 - Standard/Cinematic/H-9110-STD.cube
# Copyright: (C) Copyright 2010-2019 by IWLTBAP SAS
# Cannot be resold, shared or otherwise redistributed
# Website: https://luts.iwltbap.com
TITLE "IWLTBAP 9110 (Rec.709, sRGB, DCI-P3)"
LUT_3D_SIZE 9
0.000000 0.000000 0.000000
0.125488 0.000000 0.008606
0.251038 0.000000 0.017212
0.375061 0.000000 0.026947
0.500000 0.000000 0.034302
0.624939 0.000000 0.042877
0.748932 0.000000 0.051392
0.874481 0.000000 0.059998
0.992188 0.000000 0.068085
0.117676 0.054657 0.000000
0.141052 0.059723 0.000000
0.257965 0.060547 0.029572
0.374298 0.048584 0.025330
0.500000 0.041473 0.033173
0.624817 0.034424 0.041443
0.748932 0.026764 0.049835
0.874451 0.020447 0.058411
0.992188 0.010742 0.066650
0.251129 0.115265 0.000000
0.287872 0.109894 0.000000
0.294189 0.124634 0.000000
0.401611 0.129669 0.051147
0.510834 0.126190 0.059845
0.627289 0.114716 0.055298
0.748962 0.104309 0.053619
0.870575 0.096375 0.058319
0.995300 0.090027 0.066193
0.372803 0.173706 0.000000
0.406830 0.162476 0.000000
0.423309 0.172913 0.000000
0.444275 0.189331 0.000000
0.555511 0.202667 0.077728
0.658844 0.209930 0.115387
0.768555 0.200653 0.107574
0.880859 0.185089 0.093750
0.992188 0.172729 0.084534
0.492615 0.235535 0.000000
0.512329 0.228577 0.000000
0.563477 0.219177 0.000000
0.570831 0.233337 0.000000
0.574463 0.261536 0.000000
0.692688 0.280182 0.085663
0.812500 0.291809 0.159882
0.910919 0.284180 0.161194
0.996094 0.270966 0.144257
0.608063 0.297760 0.000000
0.619629 0.290833 0.000000
0.682434 0.280579 0.000000
0.704865 0.282562 0.000000
0.721588 0.294464 0.000000
0.723053 0.331848 0.000000
0.836243 0.354370 0.098175
0.959290 0.367645 0.191650
0.996094 0.373474 0.207245
0.677704 0.373413 0.000000
0.709381 0.362488 0.000000
0.772675 0.346039 0.000000
0.835388 0.332947 0.000000
0.835876 0.350647 0.000000
0.871155 0.367584 0.000000
0.860779 0.398560 0.000000
0.976166 0.428131 0.105804
0.996094 0.452087 0.175171
0.774506 0.827057 0.079712
0.797241 0.820099 0.090271
0.817932 0.738586 0.049805
0.789398 0.463074 0.000000
0.918457 0.418396 0.000000
0.964630 0.418030 0.000000
0.976379 0.435577 0.000000
0.986328 0.469849 0.000000
0.996094 0.506470 0.067017
0.879028 0.941193 0.089813
0.902802 0.941193 0.098938
0.938385 0.910919 0.096344
0.931030 0.779205 0.018707
0.925507 0.657043 0.000000
0.934906 0.641968 0.000000
0.941162 0.542816 0.000000
0.996094 0.534851 0.000000
0.996094 0.550079 0.000000
0.002686 0.002625 0.194366
0.117828 0.002075 0.121552
0.247498 0.003265 0.124054
0.371124 0.000000 0.134735
0.496185 0.000000 0.141052
0.620880 0.000000 0.152313
0.744995 0.000000 0.162567
0.870880 0.000000 0.167999
0.996094 0.000000 0.176788
0.008179 0.094421 0.118134
0.122284 0.121613 0.121460
0.250458 0.122620 0.129700
0.371460 0.117035 0.136292
0.496033 0.107513 0.146179
0.623413 0.101776 0.153595
0.745300 0.093475 0.162415
0.874146 0.083954 0.172150
0.992493 0.076965 0.180145
0.152771 0.231659 0.059082
0.235291 0.155060 0.050354
0.277893 0.187164 0.116943
0.380280 0.192383 0.144135
0.495483 0.183655 0.144958
0.622589 0.177155 0.155670
0.745117 0.171478 0.163361
0.871185 0.163574 0.175537
0.992157 0.154266 0.180786
0.326294 0.190125 0.000000
0.359070 0.184692 0.000000
0.415894 0.213745 0.072052
0.424408 0.248016 0.105774
0.529755 0.261078 0.168304
0.639008 0.257233 0.177673
0.750153 0.247467 0.174866
0.874054 0.234375 0.173401
0.992523 0.230835 0.181763
0.460571 0.243958 0.000000
0.480377 0.238983 0.000000
0.539581 0.228271 0.000000
0.559204 0.277008 0.070343
0.576294 0.311798 0.101959
0.684906 0.331116 0.178864
0.795746 0.330261 0.216980
0.899628 0.320435 0.212280
0.992371 0.316803 0.210938
0.589233 0.304626 0.000000
0.600006 0.297852 0.000000
0.654327 0.290497 0.000000
0.700867 0.287903 0.000000
0.712799 0.341888 0.067108
0.711334 0.381897 0.092102
0.826324 0.395813 0.178558
0.948456 0.404419 0.249908
0.995880 0.406708 0.257477
0.692230 0.369629 0.000000
0.709839 0.365814 0.000000
0.744019 0.355194 0.000000
0.821075 0.338776 0.000000
0.835938 0.354065 0.000000
0.868500 0.410767 0.086823
0.852356 0.449249 0.083832
0.968689 0.462524 0.174622
0.996094 0.477325 0.229492
0.774658 0.824402 0.080475
0.813843 0.801666 0.090729
0.796417 0.631653 0.000031
0.860901 0.426178 0.000000
0.962830 0.397919 0.000000
0.969025 0.421326 0.000000
0.977081 0.479004 0.066010
0.986694 0.516815 0.073090
0.996094 0.538910 0.138306
0.860840 0.945099 0.081818
0.883972 0.944763 0.090790
0.932495 0.938202 0.111084
0.933350 0.815582 0.040009
0.923584 0.641266 0.000000
0.918457 0.536560 0.000000
0.990509 0.514557 0.000000
0.996094 0.552185 0.000000
0.996094 0.593658 0.029053
0.003632 0.000000 0.275452
0.128021 0.004578 0.251068
0.247284 0.003265 0.246490
0.374786 0.005524 0.252258
0.497986 0.006989 0.252045
0.624390 0.000458 0.263214
0.748291 0.000000 0.272217
0.870850 0.000000 0.277374
0.992188 0.000000 0.289368
0.004639 0.084900 0.304718
0.015503 0.088226 0.315643
0.247955 0.125031 0.246826
0.371521 0.129028 0.249390
0.496002 0.124542 0.257416
0.621185 0.116669 0.263885
0.744995 0.111176 0.274811
0.870575 0.102478 0.281555
0.995026 0.095490 0.290039
0.017731 0.183899 0.242981
0.116364 0.213013 0.243134
0.249237 0.244537 0.250214
0.373871 0.253296 0.252441
0.496368 0.251373 0.257294
0.620972 0.242004 0.265900
0.747467 0.236450 0.273895
0.871246 0.227783 0.283112
0.992188 0.218903 0.292023
0.195587 0.358917 0.159760
0.245941 0.354919 0.175781
0.356140 0.283051 0.179230
0.406006 0.316833 0.241425
0.512451 0.325989 0.266693
0.622498 0.319214 0.267273
0.746490 0.312073 0.276733
0.871155 0.306061 0.284546
0.992188 0.297150 0.294403
0.363800 0.470703 0.116486
0.456665 0.428497 0.132172
0.479279 0.315857 0.109558
0.545807 0.340454 0.196777
0.559784 0.378662 0.233398
0.663849 0.396179 0.290253
0.771698 0.391388 0.302277
0.878510 0.383179 0.298523
0.992188 0.376129 0.298828
0.559845 0.374725 0.000000
0.555817 0.320190 0.000000
0.602112 0.331665 0.000000
0.667419 0.367401 0.132416
0.696655 0.410156 0.203735
0.704712 0.441742 0.226562
0.812164 0.456116 0.289459
0.932556 0.459320 0.330994
0.996094 0.461304 0.336823
0.673431 0.379456 0.000000
0.686890 0.374298 0.000000
0.712036 0.368378 0.000000
0.781403 0.381073 0.000000
0.833496 0.432617 0.154633
0.849762 0.473297 0.207611
0.841431 0.509277 0.218231
0.954803 0.521545 0.290863
0.996094 0.529816 0.327393
0.788086 0.559265 0.000000
0.780396 0.511902 0.000000
0.811859 0.438232 0.000000
0.874023 0.421448 0.000000
0.958252 0.435242 0.037476
0.968353 0.497650 0.138916
0.982239 0.539520 0.213654
0.979828 0.574493 0.202484
0.996094 0.589844 0.252380
0.830780 0.948212 0.069489
0.865845 0.945068 0.083740
0.921051 0.939087 0.106476
0.935333 0.831635 0.048920
0.925232 0.516785 0.000000
0.994568 0.508240 0.000000
0.996094 0.566742 0.089478
0.996094 0.614624 0.165649
0.996094 0.646790 0.167145
0.004913 0.000000 0.375061
0.126282 0.004852 0.375061
0.252228 0.007233 0.373718
0.373474 0.006012 0.375336
0.497223 0.007507 0.372192
0.624939 0.009033 0.377625
0.745026 0.010651 0.381134
0.873260 0.004059 0.389435
0.993561 0.000000 0.397858
0.006897 0.085449 0.440308
0.097198 0.112946 0.381683
0.251312 0.129425 0.371979
0.371155 0.125732 0.365234
0.496338 0.129120 0.371277
0.620941 0.131500 0.374878
0.745270 0.125854 0.385498
0.872711 0.122192 0.391296
0.993439 0.112549 0.398987
0.001831 0.168060 0.414368
0.003265 0.168152 0.418243
0.131561 0.208527 0.436829
0.372040 0.250702 0.368866
0.496552 0.255035 0.371735
0.620911 0.254028 0.378357
0.745239 0.247589 0.384308
0.870575 0.243042 0.394592
0.994507 0.237091 0.403839
0.064148 0.310699 0.370789
0.129089 0.309998 0.367340
0.230652 0.333344 0.367065
0.374420 0.368530 0.370300
0.498505 0.377930 0.376160
0.621521 0.384888 0.376984
0.745117 0.374878 0.385040
0.872833 0.369293 0.392944
0.992188 0.361633 0.401672
0.244537 0.484619 0.269257
0.283264 0.480927 0.274414
0.356628 0.479095 0.298401
0.476746 0.407288 0.302368
0.532837 0.440155 0.364868
0.640991 0.457275 0.390045
0.747925 0.455444 0.389465
0.872131 0.446899 0.397186
0.993469 0.441345 0.404816
0.381348 0.597839 0.228088
0.415375 0.597412 0.233337
0.510406 0.590179 0.264740
0.596375 0.442413 0.236176
0.669708 0.471252 0.320984
0.688995 0.508606 0.358307
0.790527 0.527313 0.405853
0.897980 0.527191 0.422913
0.992188 0.516815 0.415985
0.565765 0.704956 0.185364
0.650452 0.694885 0.210632
0.676300 0.502655 0.113434
0.720428 0.468781 0.155426
0.796844 0.500244 0.269196
0.828400 0.539917 0.329285
0.832977 0.571045 0.351227
0.941376 0.591675 0.413116
0.993652 0.595001 0.442627
0.789856 0.559814 0.000000
0.783752 0.510040 0.000000
0.791504 0.457214 0.000000
0.831635 0.490692 0.044708
0.909882 0.529022 0.178467
0.966431 0.560242 0.282166
0.977509 0.603241 0.334869
0.968903 0.633545 0.335571
0.996094 0.651154 0.382141
0.936707 0.934448 0.111664
0.922363 0.852325 0.068115
0.908661 0.667328 0.000031
0.915924 0.511749 0.000000
0.986237 0.544647 0.036530
0.996094 0.587067 0.185883
0.996094 0.631866 0.242615
0.996094 0.667389 0.313080
0.996094 0.701935 0.296448
0.006531 0.000000 0.500000
0.132111 0.005280 0.500000
0.254517 0.009125 0.498047
0.376648 0.009827 0.500000
0.500092 0.006744 0.494598
0.622925 0.009613 0.499451
0.748932 0.011017 0.503265
0.874542 0.012543 0.503357
0.994141 0.014221 0.507874
0.008179 0.083069 0.515137
0.124268 0.121552 0.496735
0.251312 0.127136 0.498016
0.375061 0.130157 0.495544
0.498413 0.129974 0.497101
0.620941 0.131073 0.495392
0.746094 0.132233 0.499084
0.870544 0.138000 0.505280
0.992188 0.130798 0.511322
0.008453 0.168396 0.558868
0.008667 0.163879 0.570709
0.041534 0.175690 0.569641
0.374237 0.254639 0.498138
0.496033 0.250977 0.488312
0.620911 0.254761 0.493835
0.745361 0.258545 0.498505
0.870972 0.254456 0.508057
0.992188 0.253540 0.515900
0.000000 0.252960 0.519501
0.013763 0.258087 0.527527
0.021820 0.259521 0.546997
0.275085 0.339020 0.554932
0.497101 0.375153 0.492035
0.621368 0.379791 0.494904
0.745026 0.381775 0.500336
0.870697 0.376740 0.505707
0.994141 0.373566 0.514282
0.066315 0.395081 0.495300
0.173492 0.437042 0.496185
0.271271 0.450684 0.494385
0.359314 0.459351 0.491791
0.499695 0.495117 0.497131
0.623566 0.503571 0.500854
0.745819 0.511871 0.500916
0.870667 0.508575 0.505280
0.992188 0.502869 0.512909
0.297791 0.607300 0.378845
0.316559 0.605438 0.389709
0.387970 0.610260 0.392426
0.474670 0.601074 0.421783
0.601349 0.533478 0.429565
0.659058 0.565094 0.490997
0.765747 0.585815 0.517212
0.872162 0.590485 0.510376
0.992188 0.583099 0.518188
0.433014 0.722565 0.328735
0.454254 0.722717 0.334717
0.499847 0.723572 0.350983
0.605713 0.714691 0.378143
0.717529 0.570221 0.361145
0.800598 0.605530 0.448273
0.808075 0.637604 0.480103
0.915985 0.662567 0.530518
0.992188 0.661804 0.542053
0.558655 0.840759 0.293121
0.589996 0.835846 0.297424
0.654633 0.832123 0.307495
0.802887 0.702118 0.302216
0.843201 0.601410 0.292328
0.926849 0.630341 0.393768
0.955475 0.671387 0.454895
0.957153 0.699951 0.468170
0.994324 0.717438 0.506714
0.729431 0.946320 0.248291
0.788483 0.940704 0.266266
0.906464 0.760834 0.181519
0.900391 0.623413 0.126434
0.953156 0.633911 0.214783
0.991852 0.659973 0.305603
0.996094 0.694122 0.390137
0.996094 0.727753 0.434082
0.996094 0.759705 0.437073
0.008209 0.000000 0.624939
0.134186 0.005524 0.626190
0.255676 0.009521 0.620880
0.378235 0.011871 0.625031
0.502533 0.012238 0.620911
0.623871 0.009857 0.624023
0.748932 0.011688 0.625580
0.871948 0.013031 0.623596
0.992188 0.014435 0.629730
0.009918 0.085663 0.620270
0.129578 0.123199 0.620667
0.255859 0.127350 0.621216
0.376099 0.131744 0.623535
0.503204 0.132904 0.624939
0.621979 0.131012 0.616730
0.747375 0.131470 0.622803
0.874298 0.136353 0.625732
0.992310 0.139526 0.625519
0.010345 0.162964 0.671051
0.011169 0.164001 0.670563
0.129517 0.204376 0.648651
0.373718 0.252777 0.622528
0.501312 0.256439 0.620728
0.622284 0.254028 0.617340
0.745087 0.256897 0.618164
0.871613 0.258820 0.621552
0.995819 0.262207 0.628021
0.006287 0.250092 0.669495
0.006836 0.250000 0.677643
0.008209 0.247742 0.692383
0.150055 0.293488 0.693146
0.498779 0.378387 0.623688
0.620911 0.374817 0.611328
0.745026 0.379272 0.616608
0.871490 0.383911 0.621368
0.996094 0.381042 0.628937
0.000000 0.338470 0.626740
0.012695 0.344635 0.632416
0.035522 0.351990 0.650879
0.100800 0.371277 0.669250
0.412445 0.468384 0.678894
0.621674 0.500153 0.614197
0.745300 0.505737 0.617767
0.870575 0.510010 0.622894
0.994843 0.506836 0.628387
0.096680 0.503967 0.620026
0.160767 0.505432 0.617004
0.288177 0.559387 0.620483
0.390808 0.572327 0.618500
0.489960 0.586884 0.616669
0.624573 0.617828 0.619904
0.747650 0.628235 0.625702
0.871399 0.638031 0.625153
0.992188 0.639801 0.628082
0.347290 0.733429 0.488373
0.367157 0.734222 0.494781
0.418060 0.733948 0.506378
0.496735 0.731079 0.519836
0.593170 0.725922 0.543488
0.727081 0.656342 0.551361
0.779999 0.690247 0.613861
0.889832 0.710297 0.642395
0.992218 0.716400 0.634399
0.475189 0.847931 0.441711
0.495728 0.844269 0.436523
0.539429 0.848206 0.454163
0.607178 0.848267 0.476959
0.717346 0.839661 0.501801
0.838654 0.693634 0.481232
0.927094 0.731598 0.573883
0.930328 0.763245 0.604492
0.992584 0.782593 0.645477
0.602966 0.962433 0.405457
0.619202 0.962006 0.410645
0.654449 0.958984 0.426239
0.733582 0.956451 0.432983
0.935730 0.935760 0.499176
0.958282 0.725433 0.417572
0.991821 0.758545 0.503937
0.996094 0.794434 0.563477
0.996094 0.819916 0.576569
0.009827 0.000000 0.748932
0.132355 0.005585 0.748871
0.256470 0.009857 0.745758
0.379791 0.013641 0.749207
0.502167 0.014465 0.744995
0.627106 0.014740 0.747009
0.745819 0.010620 0.744751
0.870850 0.013733 0.749054
0.992981 0.015045 0.751129
0.012024 0.085144 0.744873
0.132629 0.125641 0.745026
0.256531 0.127716 0.745117
0.378479 0.134247 0.744995
0.502014 0.134827 0.746857
0.626801 0.136932 0.744995
0.747925 0.137665 0.746216
0.871155 0.133636 0.743896
0.992188 0.138977 0.745941
0.011749 0.163086 0.756378
0.019165 0.165558 0.756836
0.231110 0.238495 0.747742
0.377991 0.253296 0.745056
0.501709 0.257141 0.747833
0.629944 0.259735 0.748657
0.745667 0.256622 0.739014
0.873077 0.258087 0.745056
0.992188 0.261169 0.747345
0.011780 0.245636 0.784027
0.011902 0.245667 0.791962
0.012024 0.246124 0.798950
0.081085 0.268585 0.798553
0.497559 0.375824 0.748016
0.627228 0.381592 0.744843
0.745728 0.377594 0.738251
0.870605 0.380981 0.740143
0.994232 0.383392 0.743408
0.000610 0.334076 0.780182
0.001099 0.332947 0.784454
0.001556 0.335022 0.795837
0.012939 0.336365 0.816620
0.323334 0.434906 0.823669
0.624115 0.503448 0.749329
0.745026 0.499390 0.733948
0.870575 0.504517 0.738708
0.992188 0.508545 0.743500
0.000000 0.423767 0.747864
0.043549 0.441467 0.748047
0.112122 0.463348 0.752350
0.057465 0.447510 0.771210
0.278503 0.515900 0.793823
0.545288 0.595612 0.807312
0.745544 0.624329 0.735687
0.870667 0.631775 0.739838
0.992188 0.638702 0.746246
0.128479 0.611816 0.745087
0.179535 0.609222 0.741669
0.275421 0.630188 0.743835
0.411560 0.686340 0.744995
0.519806 0.704895 0.745575
0.618439 0.710510 0.740845
0.745789 0.741486 0.742767
0.871216 0.752380 0.749664
0.992279 0.762177 0.748688
0.386200 0.854218 0.612274
0.417328 0.859253 0.599915
0.460419 0.854980 0.606232
0.528046 0.854980 0.621948
0.617737 0.855103 0.640472
0.713959 0.851562 0.668915
0.852600 0.781708 0.676117
0.904480 0.815277 0.737823
0.992432 0.832886 0.762451
0.527191 0.969391 0.545654
0.541107 0.969543 0.548767
0.574402 0.968689 0.558411
0.639587 0.968994 0.567993
0.717133 0.967529 0.595428
0.827728 0.962341 0.625336
0.958069 0.817566 0.609528
0.992584 0.849213 0.692535
0.995300 0.876648 0.714722
0.011414 0.000000 0.870575
0.138336 0.005951 0.874207
0.262268 0.010284 0.874146
0.381195 0.014038 0.874481
0.507996 0.016388 0.870331
0.627869 0.017059 0.870544
0.753510 0.017242 0.874786
0.873840 0.011627 0.868469
0.996094 0.015839 0.874268
0.014160 0.083374 0.870544
0.135284 0.124603 0.870605
0.258453 0.128967 0.870850
0.380432 0.132019 0.870636
0.504883 0.138184 0.872589
0.627869 0.137238 0.870544
0.754150 0.141846 0.870819
0.870850 0.134430 0.866547
0.992828 0.135315 0.871735
0.013702 0.168671 0.874420
0.118225 0.202637 0.870300
0.246796 0.246063 0.871002
0.381256 0.253723 0.871307
0.503571 0.259979 0.870575
0.627686 0.261078 0.871613
0.752441 0.264160 0.870575
0.874023 0.264435 0.870911
0.992188 0.259674 0.867279
0.013336 0.243591 0.875549
0.013733 0.243683 0.882263
0.020996 0.246887 0.884857
0.193665 0.306763 0.887268
0.500732 0.376251 0.871582
0.627930 0.381958 0.873352
0.755402 0.385010 0.874207
0.870911 0.379822 0.861603
0.992310 0.384155 0.864960
0.009338 0.328430 0.895386
0.009491 0.329498 0.899963
0.010437 0.329407 0.913879
0.010559 0.330719 0.918762
0.210205 0.392426 0.930756
0.617950 0.502350 0.874023
0.752319 0.507385 0.870453
0.870819 0.501831 0.860443
0.992371 0.509491 0.863495
0.000000 0.417267 0.884155
0.000000 0.418518 0.887695
0.000000 0.418732 0.896423
0.000000 0.420715 0.918945
0.131012 0.459229 0.946411
0.467773 0.563416 0.949890
0.749268 0.629486 0.874023
0.870575 0.624054 0.857941
0.993439 0.629700 0.862427
0.000000 0.506989 0.869202
0.088867 0.541626 0.870483
0.200989 0.575592 0.873718
0.263000 0.596069 0.872925
0.225464 0.585480 0.893188
0.427673 0.647461 0.920410
0.669098 0.719788 0.936096
0.870789 0.746490 0.857300
0.992188 0.756989 0.862396
0.124451 0.692535 0.870789
0.199127 0.714752 0.870300
0.285095 0.731079 0.870331
0.392395 0.752014 0.870300
0.518982 0.794128 0.868591
0.635376 0.823090 0.870819
0.740967 0.834045 0.866425
0.870911 0.866943 0.870392
0.992188 0.877777 0.875153
0.435760 0.980865 0.739380
0.452393 0.980865 0.731720
0.491364 0.976807 0.727570
0.562500 0.980499 0.727051
0.640381 0.976807 0.746002
0.733948 0.978333 0.764526
0.837128 0.976837 0.794495
0.973389 0.903809 0.804260
0.992188 0.932648 0.854584
0.013000 0.000000 0.992188
0.137085 0.006012 0.992523
0.260712 0.010437 0.995300
0.383026 0.014435 0.993561
0.506012 0.018188 0.994141
0.633850 0.019073 0.992188
0.751984 0.019501 0.992188
0.875366 0.019531 0.992523
0.996094 0.013245 0.989777
0.016205 0.083588 0.992188
0.137115 0.124542 0.992157
0.261078 0.131897 0.995850
0.382690 0.135834 0.992188
0.505310 0.139740 0.992188
0.629425 0.141083 0.992188
0.752777 0.139771 0.992188
0.877655 0.144043 0.992493
0.992523 0.136108 0.987854
0.015747 0.168884 0.996094
0.139557 0.209717 0.992188
0.263977 0.250519 0.992188
0.382843 0.253876 0.992188
0.508667 0.260254 0.992188
0.630463 0.264801 0.992188
0.753296 0.265076 0.992828
0.880981 0.269012 0.992188
0.993011 0.259155 0.985016
0.015259 0.250610 0.994141
0.118805 0.283844 0.989563
0.220520 0.316162 0.991669
0.348328 0.360718 0.992188
0.501801 0.378571 0.993469
0.628693 0.384064 0.992645
0.752808 0.386688 0.992188
0.880829 0.389465 0.993439
0.994751 0.384583 0.983063
0.014679 0.325073 0.986237
0.014771 0.322571 0.990204
0.014709 0.324310 0.987976
0.014862 0.328003 0.992188
0.149872 0.371857 0.992188
0.625580 0.501495 0.993469
0.753082 0.506958 0.992188
0.881836 0.511292 0.992188
0.992188 0.505646 0.981567
0.002899 0.411346 0.992188
0.002472 0.414032 0.992188
0.002655 0.414032 0.994751
0.002441 0.415009 0.993561
0.019043 0.419983 0.995422
0.388000 0.535309 0.992859
0.745972 0.628204 0.992188
0.878784 0.633087 0.992188
0.992188 0.626129 0.979279
0.000000 0.500397 0.980469
0.000000 0.499939 0.983307
0.000000 0.503296 0.991455
0.000000 0.504578 0.991913
0.001923 0.511383 0.995697
0.326324 0.608337 0.995300
0.597870 0.690491 0.995941
0.877777 0.752716 0.992188
0.992188 0.748260 0.977722
0.000000 0.597748 0.995758
0.093231 0.630707 0.991852
0.214630 0.667847 0.988190
0.326111 0.701599 0.991913
0.419067 0.729248 0.992249
0.442535 0.739258 0.992249
0.565033 0.777191 0.992218
0.805695 0.848938 0.992493
0.995789 0.871155 0.979950
0.139343 0.776611 0.992188
0.198212 0.799042 0.992188
0.292389 0.820221 0.988190
0.400482 0.847931 0.989594
0.516724 0.882477 0.990204
0.630951 0.898712 0.988190
0.745850 0.923798 0.988190
0.863892 0.950348 0.988373
0.992188 0.988190 0.991547
