nova/tdt-studio/app/Lut_mau/IWLTBAP/1 - LUTs by IWLTBAP (CUBE)/01 - Standard/Cinematic/W-8370-STD.cube
# Copyright: (C) Copyright 2010-2019 by IWLTBAP SAS
# Cannot be resold, shared or otherwise redistributed
# Website: https://luts.iwltbap.com
TITLE "IWLTBAP 8370 (Rec.709, sRGB, DCI-P3)"
LUT_3D_SIZE 9
0.006134 0.011536 0.013275
0.074639 0.013206 0.029426
0.276253 0.020515 0.024154
0.496734 0.033776 0.014996
0.710052 0.147933 0.067977
0.861065 0.227482 0.135902
0.958687 0.303123 0.196243
0.999241 0.388584 0.292870
1.000000 0.510590 0.428223
0.022114 0.046646 0.016258
0.105030 0.061933 0.025777
0.304323 0.122460 0.006138
0.515036 0.173939 0.024717
0.707290 0.232613 0.083811
0.852736 0.292507 0.144201
0.953201 0.350907 0.208740
0.997535 0.423915 0.304249
0.997242 0.533386 0.439873
0.127426 0.149323 0.050637
0.209067 0.163112 0.050599
0.292583 0.192513 0.051853
0.495822 0.273667 0.080360
0.706570 0.357612 0.130062
0.852649 0.397814 0.175132
0.940155 0.441208 0.239441
0.998939 0.495036 0.339888
0.999825 0.583244 0.470939
0.230587 0.263287 0.113823
0.303474 0.274395 0.109689
0.363528 0.284579 0.107528
0.438548 0.313339 0.116678
0.649485 0.411909 0.159281
0.823692 0.502602 0.215262
0.923912 0.549209 0.307664
0.990299 0.593823 0.407146
0.998798 0.651230 0.515972
0.302918 0.369293 0.168518
0.362398 0.390068 0.158884
0.444065 0.389908 0.163094
0.494282 0.407015 0.165283
0.571312 0.440781 0.178344
0.756941 0.538250 0.239172
0.891788 0.618843 0.355045
0.970478 0.689922 0.487835
1.000000 0.732392 0.582199
0.371338 0.481121 0.233597
0.421831 0.505588 0.237553
0.498216 0.512857 0.229518
0.573673 0.527439 0.241542
0.626735 0.548609 0.251303
0.695120 0.577708 0.266426
0.842822 0.653799 0.365570
0.936725 0.727214 0.503781
0.996834 0.788826 0.625019
0.450676 0.617851 0.321915
0.484693 0.628723 0.326691
0.556286 0.637894 0.321394
0.646130 0.656586 0.331877
0.696617 0.669815 0.343723
0.747851 0.681156 0.354568
0.799650 0.702398 0.391548
0.902943 0.756537 0.509512
0.979416 0.819817 0.649918
0.545223 0.739769 0.448772
0.567764 0.745281 0.452333
0.618846 0.753960 0.469097
0.703551 0.773506 0.475929
0.773010 0.780520 0.486362
0.809418 0.796807 0.504928
0.862324 0.805759 0.524613
0.896758 0.816404 0.561694
0.965523 0.855141 0.674797
0.687042 0.890045 0.646393
0.713054 0.883647 0.655300
0.745956 0.886323 0.658974
0.797871 0.890397 0.671337
0.865020 0.895554 0.676102
0.906639 0.904743 0.685985
0.935859 0.912468 0.710464
0.965885 0.928303 0.759400
0.996857 0.948120 0.823029
0.016545 0.018288 0.028568
0.041122 0.013674 0.028416
0.217333 0.019363 0.077949
0.417995 0.022750 0.082600
0.615434 0.116043 0.138834
0.795856 0.201676 0.181389
0.922889 0.282308 0.226341
0.999668 0.379362 0.317683
1.000000 0.502376 0.436527
0.015679 0.043736 0.045561
0.074863 0.057441 0.055566
0.233570 0.093700 0.088210
0.436684 0.138003 0.095371
0.629682 0.196627 0.143428
0.798635 0.262284 0.187900
0.926922 0.330813 0.239712
0.998984 0.419313 0.328711
0.999990 0.527405 0.454079
0.069784 0.149675 0.087143
0.173566 0.158101 0.106350
0.261992 0.181940 0.102429
0.445623 0.253657 0.125406
0.646609 0.321708 0.166313
0.808543 0.371398 0.214025
0.919591 0.424963 0.271138
0.997030 0.490710 0.363390
1.000000 0.579809 0.484987
0.179085 0.263594 0.142843
0.263728 0.278301 0.151138
0.346864 0.277251 0.145003
0.418950 0.302689 0.143462
0.617679 0.397129 0.187138
0.799422 0.490442 0.251324
0.909051 0.537534 0.329197
0.983893 0.589971 0.425291
0.998774 0.651301 0.528455
0.276648 0.371729 0.196671
0.336950 0.393366 0.208773
0.426772 0.392031 0.190688
0.485371 0.405892 0.191053
0.559313 0.431818 0.202636
0.741209 0.533293 0.268716
0.881067 0.615237 0.378477
0.961216 0.689287 0.500223
0.998018 0.731174 0.590485
0.351812 0.490170 0.253965
0.396983 0.511786 0.272103
0.484095 0.521276 0.258009
0.568366 0.531658 0.263482
0.619098 0.548070 0.271454
0.688302 0.572458 0.288560
0.837331 0.653030 0.388003
0.932243 0.727279 0.516264
0.995867 0.790060 0.634795
0.432360 0.623971 0.335980
0.475449 0.639152 0.353230
0.541748 0.648715 0.359851
0.641940 0.662618 0.357667
0.695275 0.672270 0.364834
0.742437 0.685231 0.375587
0.796067 0.702166 0.409876
0.901338 0.760077 0.522350
0.976367 0.822453 0.658518
0.533864 0.747969 0.473359
0.566448 0.757235 0.484982
0.616071 0.765536 0.488593
0.695024 0.775539 0.502816
0.771713 0.784988 0.504702
0.807807 0.800858 0.515313
0.856425 0.806364 0.532759
0.896461 0.817735 0.568386
0.963450 0.858419 0.675330
0.688225 0.890079 0.657269
0.704782 0.894835 0.664243
0.741102 0.890004 0.670663
0.791780 0.894797 0.682342
0.863020 0.896437 0.683056
0.905790 0.905913 0.687383
0.936938 0.911883 0.712921
0.967139 0.929011 0.761462
0.996857 0.948094 0.822094
0.036293 0.040825 0.101082
0.032283 0.040489 0.098311
0.165905 0.023885 0.110512
0.352216 0.081849 0.165885
0.539078 0.121921 0.213192
0.729602 0.142332 0.233113
0.884590 0.248633 0.286127
0.986644 0.366830 0.368981
0.999382 0.511574 0.494461
0.037151 0.072704 0.111213
0.086823 0.081010 0.114176
0.189940 0.087317 0.133425
0.355253 0.131815 0.176399
0.549380 0.155023 0.207827
0.738451 0.207970 0.249311
0.885041 0.296694 0.301009
0.983785 0.410114 0.383381
0.999720 0.536782 0.502728
0.059019 0.145056 0.153233
0.122584 0.156745 0.158903
0.230533 0.189156 0.181156
0.381930 0.218753 0.195897
0.562141 0.264497 0.222153
0.741753 0.327167 0.270001
0.883536 0.401535 0.331859
0.977466 0.483821 0.407401
0.998800 0.588450 0.524645
0.088130 0.252643 0.196657
0.149196 0.271191 0.201871
0.295120 0.279793 0.213233
0.388230 0.297040 0.206264
0.570901 0.382791 0.251271
0.753672 0.466983 0.311487
0.882581 0.523442 0.382061
0.968013 0.584322 0.459913
1.000000 0.652305 0.564299
0.151547 0.363666 0.219444
0.207885 0.388576 0.231918
0.358950 0.394594 0.255604
0.459926 0.399652 0.250417
0.532318 0.423622 0.247093
0.716936 0.524931 0.323654
0.865522 0.621327 0.432289
0.948998 0.689669 0.535646
0.999576 0.731266 0.614147
0.229563 0.487612 0.266485
0.309599 0.509147 0.294259
0.420379 0.514238 0.313894
0.542147 0.529793 0.301237
0.602268 0.543454 0.310798
0.670447 0.568521 0.326378
0.820098 0.654546 0.429579
0.927232 0.733675 0.554058
0.989986 0.797506 0.660829
0.340208 0.619845 0.358521
0.403373 0.639654 0.389209
0.490337 0.644211 0.398070
0.603850 0.656270 0.392848
0.681110 0.671015 0.400776
0.731216 0.684255 0.412162
0.787208 0.702056 0.441155
0.894969 0.763340 0.546911
0.972607 0.827232 0.676251
0.479113 0.746347 0.498767
0.519840 0.755595 0.512962
0.580451 0.762642 0.516967
0.662956 0.773389 0.529150
0.761312 0.782771 0.524212
0.804219 0.799011 0.540668
0.853160 0.809277 0.555335
0.889059 0.817765 0.583586
0.961981 0.860793 0.688335
0.646218 0.887467 0.657387
0.672144 0.894034 0.668576
0.717016 0.892761 0.681097
0.769010 0.893388 0.685878
0.846023 0.897865 0.697464
0.901097 0.906409 0.701911
0.936755 0.918455 0.729511
0.968822 0.928457 0.768438
0.991791 0.948166 0.822738
0.017273 0.072857 0.200451
0.014794 0.071812 0.199994
0.135400 0.050337 0.206876
0.300682 0.074011 0.213022
0.473267 0.146443 0.247824
0.631654 0.214770 0.332043
0.818861 0.259611 0.376769
0.955648 0.347828 0.422653
1.000000 0.508213 0.542556
0.028480 0.104477 0.210788
0.062611 0.114868 0.205732
0.169644 0.121812 0.216396
0.307207 0.127708 0.223793
0.474203 0.180106 0.260629
0.634446 0.238064 0.335006
0.823522 0.280320 0.374620
0.954741 0.374790 0.430925
0.998663 0.528850 0.550820
0.063963 0.181330 0.235822
0.129244 0.192742 0.244542
0.230533 0.210105 0.249731
0.323716 0.206879 0.254023
0.473580 0.248329 0.287012
0.654029 0.280257 0.332666
0.829761 0.342694 0.382416
0.949764 0.454481 0.464378
0.999425 0.579051 0.569990
0.095398 0.254136 0.269279
0.143203 0.267680 0.282600
0.224240 0.279547 0.287937
0.354351 0.313804 0.305532
0.505532 0.349954 0.327283
0.678525 0.410437 0.363539
0.832062 0.486152 0.432761
0.941702 0.566756 0.511807
0.999712 0.646927 0.602308
0.093216 0.354168 0.307916
0.137915 0.371618 0.324288
0.213877 0.385673 0.321219
0.397413 0.410510 0.326913
0.495907 0.425854 0.327249
0.677220 0.523920 0.395195
0.828641 0.622177 0.496164
0.929396 0.675483 0.573633
0.994906 0.726311 0.646824
0.110743 0.481836 0.351405
0.154983 0.499046 0.357764
0.236887 0.506711 0.350646
0.448304 0.527362 0.379401
0.578055 0.540823 0.367794
0.645485 0.566989 0.381641
0.797366 0.660430 0.489102
0.914104 0.741688 0.603874
0.982762 0.802385 0.695765
0.113672 0.613420 0.391850
0.176472 0.628868 0.409382
0.313468 0.633717 0.428234
0.517327 0.649428 0.461309
0.654124 0.665494 0.449299
0.711791 0.684634 0.459808
0.770014 0.701998 0.486157
0.889864 0.766848 0.585632
0.970683 0.831202 0.704090
0.269747 0.733886 0.499257
0.334604 0.747694 0.526681
0.469307 0.755274 0.545136
0.600872 0.768600 0.560076
0.716027 0.781205 0.564374
0.791293 0.796636 0.568042
0.844957 0.809477 0.584310
0.883341 0.815408 0.607934
0.956519 0.867168 0.716949
0.534260 0.890446 0.654556
0.579819 0.897367 0.674534
0.647024 0.894893 0.678679
0.728172 0.893187 0.700546
0.808954 0.895409 0.716232
0.895583 0.904615 0.717681
0.929778 0.917075 0.740828
0.966321 0.928798 0.780402
0.993687 0.947910 0.832592
0.002426 0.115555 0.325103
0.001316 0.113836 0.320648
0.076237 0.103237 0.318260
0.275589 0.115473 0.326403
0.416824 0.131378 0.305580
0.587295 0.206142 0.347259
0.747131 0.294720 0.442516
0.875897 0.412335 0.535850
0.992096 0.539597 0.613007
0.001322 0.136927 0.327345
0.002974 0.152156 0.325816
0.135650 0.168686 0.331136
0.280088 0.165613 0.334218
0.417476 0.169994 0.312430
0.582548 0.234691 0.353211
0.744526 0.321574 0.451740
0.875879 0.424011 0.533577
0.992294 0.549425 0.616602
0.043957 0.234909 0.355133
0.132354 0.251404 0.363358
0.201304 0.259273 0.360403
0.295939 0.245381 0.350070
0.421501 0.236364 0.333441
0.584677 0.291741 0.375676
0.740645 0.372666 0.468155
0.883943 0.457313 0.537089
0.995583 0.566292 0.613892
0.096313 0.302570 0.375380
0.153790 0.318512 0.388348
0.225966 0.327016 0.389274
0.339451 0.346359 0.389970
0.437119 0.330362 0.379741
0.585810 0.376573 0.418850
0.754415 0.439471 0.484691
0.899986 0.515649 0.543784
0.997202 0.619606 0.627472
0.104294 0.370598 0.394836
0.147620 0.386724 0.408580
0.212763 0.390188 0.409271
0.296166 0.408481 0.424447
0.455040 0.449227 0.438034
0.620688 0.501486 0.482596
0.776207 0.572066 0.539415
0.901590 0.637690 0.600219
0.989059 0.703445 0.673210
0.030712 0.462324 0.430258
0.076565 0.482414 0.445164
0.170250 0.491017 0.448565
0.262877 0.515045 0.454537
0.483942 0.550766 0.464882
0.613850 0.575682 0.467740
0.772845 0.668681 0.565505
0.897468 0.746643 0.656395
0.974859 0.791712 0.721529
0.001606 0.611511 0.491310
0.002715 0.623698 0.505373
0.131312 0.631966 0.497636
0.277736 0.637480 0.488741
0.544207 0.659895 0.528549
0.689483 0.685541 0.523065
0.749208 0.701598 0.537846
0.878345 0.772365 0.638541
0.966580 0.842590 0.743916
0.010509 0.744881 0.546577
0.064573 0.756895 0.558467
0.210150 0.752018 0.548471
0.383059 0.756494 0.573791
0.631023 0.775817 0.611514
0.766352 0.795162 0.614810
0.821746 0.810520 0.623771
0.872974 0.818101 0.639357
0.956066 0.871733 0.743519
0.267365 0.875564 0.638305
0.315945 0.883531 0.650723
0.398205 0.888126 0.668533
0.600392 0.897528 0.700600
0.750160 0.899742 0.732765
0.866327 0.906084 0.750591
0.925854 0.920250 0.762322
0.963593 0.932524 0.792725
0.990570 0.952072 0.853058
0.002403 0.176174 0.465710
0.000625 0.172571 0.465942
0.001072 0.172016 0.462932
0.197315 0.179652 0.467774
0.392658 0.171595 0.436512
0.538855 0.193873 0.409980
0.711526 0.281358 0.466300
0.842939 0.404094 0.561022
0.940274 0.565323 0.685531
0.001685 0.179076 0.470038
0.000887 0.193434 0.469444
0.040196 0.218766 0.470825
0.215421 0.226642 0.472590
0.395470 0.212782 0.446568
0.543612 0.223069 0.418593
0.709819 0.305081 0.473056
0.836099 0.421529 0.566781
0.934234 0.574051 0.689080
0.000775 0.296073 0.494897
0.031828 0.306560 0.501376
0.163263 0.313169 0.496408
0.249787 0.307117 0.487003
0.392313 0.283315 0.460264
0.541190 0.283552 0.434560
0.706196 0.357485 0.486404
0.827925 0.462243 0.583233
0.930517 0.599267 0.695115
0.008018 0.366729 0.511692
0.112148 0.383830 0.521484
0.223119 0.395450 0.518060
0.296672 0.407345 0.519108
0.396365 0.380945 0.498209
0.545089 0.366135 0.474708
0.698669 0.437214 0.524198
0.813862 0.526605 0.614092
0.939005 0.628338 0.699084
0.028334 0.430569 0.519814
0.115423 0.447113 0.538107
0.212573 0.454419 0.535983
0.302366 0.470166 0.542091
0.433904 0.495986 0.550580
0.548962 0.474506 0.530533
0.690936 0.532423 0.578525
0.831944 0.592573 0.637767
0.965742 0.664076 0.695116
0.001726 0.497539 0.535737
0.057717 0.514574 0.549090
0.172207 0.520614 0.551271
0.266917 0.529519 0.556650
0.362176 0.554878 0.578188
0.562242 0.599309 0.594255
0.725335 0.650947 0.635765
0.861683 0.702299 0.680575
0.966513 0.760473 0.734474
0.001951 0.593720 0.569070
0.001168 0.607790 0.583240
0.002290 0.608243 0.579475
0.180591 0.625130 0.587385
0.328034 0.653073 0.604638
0.591249 0.687052 0.618021
0.717918 0.706096 0.612568
0.860837 0.784300 0.702200
0.965127 0.852887 0.791686
0.001228 0.731544 0.633184
0.001709 0.740337 0.636908
0.002866 0.741747 0.631870
0.172727 0.755621 0.639152
0.374276 0.770797 0.643426
0.665866 0.791237 0.675254
0.798679 0.806299 0.671792
0.856414 0.821173 0.678080
0.954167 0.881452 0.781716
0.000000 0.876045 0.687863
0.003147 0.876399 0.694088
0.031752 0.877447 0.694967
0.293065 0.887997 0.702583
0.529114 0.903450 0.736429
0.788813 0.908824 0.779132
0.912602 0.918858 0.786137
0.959111 0.936695 0.821856
0.990990 0.959740 0.870270
0.002357 0.249596 0.624100
0.001049 0.252532 0.625172
0.001068 0.251198 0.624006
0.097301 0.252721 0.620314
0.306919 0.257393 0.620602
0.535244 0.243289 0.582103
0.682581 0.270368 0.557905
0.812481 0.374921 0.589911
0.920822 0.540222 0.695854
0.002830 0.253185 0.630520
0.000900 0.254992 0.626373
0.002882 0.271104 0.629452
0.147539 0.293954 0.627043
0.315385 0.296320 0.628116
0.527467 0.278569 0.590054
0.681839 0.295064 0.557354
0.807478 0.391456 0.592445
0.918586 0.551734 0.696879
0.000490 0.337164 0.639353
0.001932 0.348376 0.645632
0.014499 0.366366 0.641338
0.218387 0.378783 0.636030
0.323302 0.372990 0.641560
0.522473 0.341801 0.603231
0.673896 0.344534 0.575098
0.799171 0.438350 0.607731
0.911798 0.578659 0.706356
0.000916 0.433854 0.655514
0.003072 0.442872 0.655405
0.179697 0.466960 0.665209
0.290480 0.481354 0.664250
0.355639 0.476088 0.662857
0.512283 0.431952 0.631437
0.663888 0.419369 0.597009
0.790058 0.503643 0.630856
0.902674 0.619546 0.727524
0.001510 0.498619 0.662090
0.002195 0.509061 0.670319
0.187433 0.528491 0.673038
0.318754 0.558019 0.682969
0.416576 0.583508 0.696417
0.512347 0.545826 0.670191
0.656595 0.509087 0.630160
0.783296 0.578824 0.663223
0.899639 0.670235 0.747391
0.001162 0.564867 0.672641
0.002072 0.576009 0.680501
0.164838 0.590721 0.685033
0.298869 0.605665 0.692360
0.404576 0.629924 0.707622
0.568357 0.653103 0.703704
0.651944 0.611442 0.667576
0.784292 0.659475 0.703834
0.910686 0.726428 0.769883
0.001568 0.636238 0.684435
0.004162 0.645011 0.694123
0.065306 0.649666 0.695408
0.251102 0.660915 0.702822
0.362608 0.676957 0.709222
0.498154 0.695776 0.721685
0.666306 0.719499 0.714739
0.825093 0.768640 0.757640
0.948105 0.822411 0.809084
0.001184 0.737580 0.721525
0.002280 0.742420 0.726622
0.001816 0.741270 0.727500
0.039558 0.747177 0.723880
0.277916 0.762375 0.734425
0.417851 0.779923 0.742139
0.706930 0.804052 0.742031
0.826233 0.821314 0.746679
0.949265 0.893550 0.836875
0.002357 0.869881 0.770218
0.000690 0.872607 0.776111
0.002390 0.873665 0.769394
0.002972 0.873911 0.770792
0.264999 0.889191 0.777927
0.512805 0.909550 0.792132
0.839878 0.919584 0.828350
0.948604 0.937003 0.850495
0.987999 0.960685 0.898361
0.008858 0.373802 0.767368
0.008591 0.372891 0.769579
0.008945 0.371874 0.761049
0.015335 0.366277 0.763348
0.267097 0.360897 0.761911
0.433912 0.363059 0.770419
0.653549 0.330458 0.723643
0.799995 0.379871 0.717592
0.908455 0.518597 0.740048
0.011407 0.375129 0.769032
0.010189 0.374814 0.767742
0.011199 0.375285 0.768944
0.060137 0.388838 0.767154
0.285973 0.397423 0.765845
0.426695 0.391951 0.773742
0.649322 0.355042 0.727295
0.796926 0.392944 0.720682
0.904243 0.528913 0.742499
0.011969 0.391973 0.769438
0.016845 0.401241 0.770599
0.043502 0.421647 0.773700
0.174030 0.463069 0.777079
0.325002 0.479011 0.777192
0.429749 0.458530 0.782477
0.645533 0.409081 0.737821
0.788495 0.435866 0.724119
0.900780 0.560298 0.743860
0.142675 0.496281 0.784727
0.156871 0.507833 0.792483
0.174886 0.524509 0.791884
0.275017 0.553858 0.791910
0.387339 0.578302 0.797034
0.450509 0.552678 0.796454
0.628793 0.493242 0.757754
0.778338 0.499133 0.732436
0.887447 0.602223 0.751620
0.206654 0.587933 0.796890
0.210716 0.596845 0.802614
0.201568 0.596761 0.801174
0.321674 0.625142 0.803065
0.427242 0.656593 0.813703
0.518199 0.640349 0.806828
0.620107 0.587614 0.775559
0.771693 0.565949 0.744645
0.885180 0.655229 0.768406
0.023100 0.627981 0.795735
0.027135 0.633719 0.801594
0.070724 0.640483 0.801824
0.293164 0.666160 0.808211
0.429539 0.700102 0.822156
0.594635 0.722851 0.823902
0.647818 0.683653 0.791685
0.761866 0.643793 0.766259
0.884313 0.716823 0.791973
0.000544 0.687364 0.804750
0.002688 0.694360 0.810013
0.015066 0.701090 0.809773
0.265078 0.719256 0.815002
0.398803 0.736004 0.820717
0.559479 0.760346 0.836058
0.709311 0.777529 0.819327
0.763114 0.733801 0.785682
0.888783 0.792579 0.828304
0.004524 0.757799 0.815745
0.000415 0.765224 0.821854
0.002839 0.767359 0.817367
0.191113 0.776563 0.823435
0.351390 0.784802 0.824785
0.455663 0.798876 0.831478
0.641965 0.812411 0.839092
0.792662 0.832789 0.834071
0.938276 0.893595 0.885103
0.000000 0.865967 0.855881
0.000694 0.872630 0.855146
0.001027 0.872745 0.858252
0.001372 0.870876 0.853260
0.056469 0.874979 0.849297
0.371876 0.885585 0.859027
0.587133 0.913769 0.874630
0.904730 0.943727 0.897913
0.983059 0.974045 0.934655
0.307434 0.570221 0.886139
0.304676 0.566914 0.882836
0.303703 0.565789 0.881683
0.302380 0.560601 0.880474
0.314530 0.535324 0.883850
0.413380 0.517013 0.890533
0.572151 0.512329 0.902794
0.775844 0.478599 0.873249
0.926208 0.549591 0.879639
0.304344 0.561069 0.880222
0.307923 0.564952 0.884724
0.304492 0.561488 0.881024
0.301927 0.560643 0.881641
0.316376 0.535593 0.875218
0.423958 0.541045 0.891877
0.582164 0.534986 0.899551
0.773297 0.490023 0.876871
0.918697 0.556713 0.870990
0.310150 0.568222 0.882790
0.306634 0.568505 0.880991
0.305210 0.566908 0.884001
0.306486 0.566337 0.884624
0.354198 0.587273 0.884396
0.444521 0.594265 0.897164
0.597818 0.580462 0.904269
0.760784 0.531078 0.879368
0.914451 0.579522 0.870651
0.314140 0.572827 0.883919
0.316153 0.576741 0.887101
0.317861 0.579601 0.884031
0.333102 0.602609 0.884674
0.396154 0.646868 0.893589
0.481782 0.660550 0.908842
0.624209 0.642813 0.905772
0.761499 0.583860 0.878165
0.906353 0.615357 0.870170
0.348236 0.619766 0.888016
0.352461 0.626911 0.888107
0.357208 0.632671 0.889210
0.371544 0.653589 0.890444
0.409462 0.683403 0.897309
0.557733 0.729183 0.918365
0.646042 0.709454 0.911060
0.759014 0.653187 0.883623
0.897964 0.659439 0.868454
0.432262 0.721733 0.902481
0.434763 0.724739 0.905661
0.432251 0.721115 0.903565
0.431853 0.719821 0.906612
0.434511 0.724915 0.904209
0.566952 0.773086 0.924836
0.701200 0.778643 0.908711
0.761177 0.730722 0.893266
0.894535 0.716423 0.883857
0.406090 0.758201 0.898941
0.407534 0.760383 0.903987
0.407446 0.760309 0.901936
0.408686 0.761169 0.903852
0.412254 0.761913 0.900902
0.472766 0.781166 0.918033
0.745005 0.838724 0.918800
0.792036 0.815333 0.904618
0.895203 0.789246 0.897995
0.338440 0.794460 0.903622
0.336065 0.798033 0.900049
0.337337 0.795461 0.899796
0.334220 0.801266 0.904118
0.335348 0.800854 0.902174
0.418988 0.816505 0.913920
0.690960 0.860896 0.935697
0.854668 0.898635 0.925455
0.903908 0.878971 0.914532
0.266663 0.856720 0.915955
0.261116 0.861054 0.917049
0.260406 0.860168 0.916168
0.259185 0.863335 0.916942
0.255630 0.868530 0.919464
0.351193 0.885922 0.920902
0.655388 0.920075 0.951721
0.885803 0.948555 0.952351
0.982452 0.978333 0.977448
