nova/tdt-studio/app/Lut_mau/IWLTBAP/1 - LUTs by IWLTBAP (CUBE)/01 - Standard/Cinematic/W-8370-STD.cube
# Copyright: (C) Copyright 2010-2019 by IWLTBAP SAS
# Cannot be resold, shared or otherwise redistributed
# Website: https://luts.iwltbap.com
TITLE "IWLTBAP 8370 (Rec.709, sRGB, DCI-P3)"
LUT_3D_SIZE 33
0.006134 0.011536 0.013275
0.006134 0.011654 0.013275
0.007050 0.011772 0.013304
0.038446 0.015154 0.020026
0.074639 0.013206 0.029426
0.119541 0.013728 0.035537
0.172806 0.017654 0.035942
0.226486 0.018953 0.030463
0.276253 0.020515 0.024154
0.331042 0.021983 0.018912
0.386841 0.026020 0.015556
0.445569 0.027800 0.015500
0.496734 0.033776 0.014996
0.551081 0.059465 0.026557
0.609473 0.093567 0.040069
0.663694 0.122639 0.050143
0.710052 0.147933 0.067977
0.752792 0.169238 0.088731
0.794474 0.188112 0.104368
0.830090 0.208186 0.119294
0.861065 0.227482 0.135902
0.889522 0.245409 0.152615
0.913822 0.264175 0.168527
0.937710 0.284195 0.183412
0.958687 0.303123 0.196243
0.975843 0.326300 0.213396
0.993332 0.349964 0.236614
0.999433 0.372164 0.263032
0.999241 0.388584 0.292870
0.999449 0.414947 0.317840
0.997253 0.441996 0.349169
1.000000 0.468668 0.382487
1.000000 0.510590 0.428223
0.009032 0.011595 0.013334
0.006225 0.011656 0.013277
0.010071 0.014655 0.013553
0.042472 0.012897 0.019622
0.090441 0.013166 0.023573
0.129804 0.014457 0.027069
0.179812 0.016507 0.028237
0.225889 0.018489 0.029573
0.271434 0.022851 0.025744
0.329309 0.023000 0.019334
0.382580 0.026157 0.011475
0.435929 0.039753 0.013245
0.490593 0.064677 0.015251
0.547680 0.094173 0.025387
0.602238 0.118593 0.037525
0.653762 0.139495 0.051252
0.699986 0.160262 0.067756
0.744739 0.182124 0.085599
0.785899 0.201658 0.103021
0.819871 0.217878 0.118658
0.852684 0.235087 0.136560
0.882366 0.253222 0.152428
0.913693 0.274514 0.166211
0.937282 0.293259 0.179867
0.956373 0.313693 0.193923
0.974896 0.332781 0.211302
0.990930 0.353603 0.240699
0.999544 0.375981 0.265403
0.999543 0.396178 0.290885
0.997372 0.422722 0.321969
0.999336 0.445795 0.352657
0.997050 0.472680 0.386541
1.000000 0.514344 0.436027
0.006321 0.011739 0.013279
0.006611 0.011965 0.013275
0.021195 0.015330 0.013481
0.046035 0.022163 0.020483
0.091573 0.022105 0.021678
0.135306 0.027701 0.029076
0.175759 0.030750 0.030915
0.227943 0.032785 0.031494
0.274726 0.037510 0.020188
0.325331 0.045586 0.014331
0.380458 0.056792 0.008906
0.435141 0.074279 0.007840
0.490631 0.097460 0.011851
0.542211 0.118905 0.022405
0.593438 0.137817 0.035696
0.646630 0.157957 0.051598
0.695513 0.178055 0.071182
0.741008 0.196219 0.090230
0.782596 0.213961 0.106649
0.818362 0.229961 0.122853
0.850897 0.245736 0.138245
0.879711 0.265246 0.151508
0.908165 0.284045 0.166302
0.931623 0.302501 0.180315
0.953824 0.318118 0.194191
0.973285 0.337610 0.213428
0.988519 0.357678 0.240805
0.999327 0.378893 0.266222
0.999472 0.404041 0.294369
0.999832 0.425751 0.325478
0.999786 0.445970 0.352537
0.997060 0.473231 0.386367
0.999799 0.514637 0.435421
0.009315 0.021014 0.013607
0.015256 0.024278 0.013741
0.033267 0.027966 0.019390
0.053182 0.032313 0.018323
0.094888 0.039703 0.021347
0.134435 0.053909 0.024615
0.180656 0.058341 0.025136
0.229511 0.065558 0.023812
0.276511 0.071567 0.020560
0.329259 0.083908 0.009905
0.384000 0.097043 0.006067
0.435529 0.111890 0.004434
0.487380 0.126896 0.008277
0.538373 0.144944 0.020116
0.589795 0.162981 0.037215
0.640452 0.179448 0.055604
0.687769 0.196486 0.071093
0.732877 0.213894 0.086625
0.774123 0.230266 0.103720
0.812639 0.245442 0.121214
0.848141 0.261641 0.139479
0.876148 0.277880 0.154577
0.904402 0.293623 0.168925
0.931447 0.313257 0.184007
0.952705 0.330151 0.198902
0.969977 0.351756 0.218270
0.986268 0.371955 0.241721
0.998610 0.388072 0.270711
0.997326 0.409074 0.292358
0.999705 0.433437 0.321195
0.999386 0.452944 0.349011
0.997233 0.479230 0.381456
0.997408 0.515368 0.425462
0.022114 0.046646 0.016258
0.044760 0.044170 0.021942
0.062921 0.047344 0.023552
0.077835 0.056359 0.026116
0.105030 0.061933 0.025777
0.147612 0.075316 0.026590
0.196026 0.089136 0.021782
0.249870 0.105774 0.014522
0.304323 0.122460 0.006138
0.357989 0.135987 0.006362
0.407011 0.148484 0.008034
0.457777 0.159194 0.011910
0.515036 0.173939 0.024717
0.564236 0.189692 0.036020
0.610494 0.203967 0.047097
0.658816 0.218540 0.065122
0.707290 0.232613 0.083811
0.750761 0.247690 0.099447
0.787584 0.263904 0.113522
0.822181 0.278977 0.127332
0.852736 0.292507 0.144201
0.880228 0.304319 0.161125
0.906825 0.319789 0.174893
0.930811 0.337773 0.189960
0.953201 0.350907 0.208740
0.974369 0.368449 0.229071
0.990471 0.388895 0.252198
0.997797 0.409614 0.279082
0.997535 0.423915 0.304249
0.999892 0.443927 0.336828
0.999097 0.468508 0.365406
0.997331 0.495127 0.400213
0.997242 0.533386 0.439873
0.046477 0.068504 0.016478
0.070331 0.067459 0.021505
0.092253 0.068215 0.021325
0.102899 0.074375 0.022425
0.118931 0.079067 0.026503
0.149055 0.089820 0.024940
0.199242 0.110611 0.022299
0.252300 0.129480 0.015411
0.303220 0.142818 0.011398
0.358299 0.160970 0.015806
0.407434 0.177898 0.019834
0.456671 0.190664 0.022590
0.511101 0.202960 0.033465
0.559998 0.217424 0.043204
0.608339 0.232595 0.056955
0.657252 0.246433 0.076324
0.704512 0.259470 0.093280
0.748680 0.273878 0.109193
0.785494 0.288383 0.123127
0.819169 0.301502 0.135161
0.850879 0.314967 0.148744
0.878646 0.328462 0.160803
0.908088 0.341686 0.174501
0.931692 0.355254 0.188581
0.952133 0.370146 0.206876
0.972678 0.386656 0.234205
0.987509 0.406120 0.262618
0.995183 0.423088 0.287448
0.997632 0.440974 0.309347
0.999699 0.458360 0.337949
0.999165 0.480687 0.368238
0.997514 0.504986 0.400982
0.999571 0.546121 0.448875
0.069801 0.083875 0.028004
0.091507 0.089356 0.031922
0.110160 0.089876 0.029436
0.128212 0.093038 0.029560
0.140593 0.101083 0.030295
0.165633 0.108823 0.031593
0.199650 0.123237 0.029639
0.241803 0.141033 0.027123
0.295162 0.157228 0.022061
0.344600 0.175512 0.026154
0.394381 0.195818 0.033980
0.448239 0.214939 0.038641
0.504087 0.230330 0.048257
0.554955 0.244752 0.057512
0.604931 0.258592 0.071164
0.655156 0.272912 0.088509
0.702146 0.287537 0.102333
0.745395 0.300942 0.115954
0.782899 0.313594 0.129977
0.816859 0.326163 0.142680
0.849009 0.339044 0.155123
0.876489 0.352216 0.165944
0.903829 0.365305 0.179085
0.927163 0.377493 0.193822
0.945609 0.389780 0.212383
0.965283 0.408015 0.241527
0.982769 0.425258 0.265862
0.997482 0.439046 0.292132
0.999433 0.456953 0.317930
0.998990 0.474751 0.340845
0.999130 0.495023 0.373361
0.995625 0.519081 0.407184
1.000000 0.554600 0.453581
0.091361 0.106285 0.032625
0.108391 0.111626 0.037598
0.131356 0.115986 0.040412
0.149469 0.119038 0.039703
0.167204 0.123223 0.039949
0.187578 0.131734 0.039448
0.207337 0.138322 0.036420
0.234984 0.150030 0.037774
0.285680 0.168586 0.036981
0.331860 0.185963 0.038177
0.382159 0.207997 0.047291
0.433594 0.229363 0.054687
0.493637 0.250267 0.063794
0.550751 0.270046 0.075243
0.602928 0.287277 0.087363
0.652217 0.302469 0.098944
0.697409 0.316655 0.113894
0.738721 0.329055 0.128574
0.776002 0.340317 0.138151
0.811111 0.352773 0.148111
0.843924 0.365032 0.160220
0.872226 0.375805 0.171884
0.897860 0.388146 0.184072
0.921798 0.402612 0.202198
0.940386 0.414255 0.222457
0.962220 0.426818 0.246848
0.981952 0.441988 0.272341
0.997195 0.457571 0.300031
0.999967 0.470794 0.322342
0.999745 0.487438 0.349039
0.999807 0.506065 0.379405
0.998929 0.528380 0.414019
0.999452 0.558339 0.454567
0.127426 0.149323 0.050637
0.150345 0.154962 0.059084
0.164317 0.158069 0.055852
0.190816 0.158513 0.052770
0.209067 0.163112 0.050599
0.226868 0.165316 0.050782
0.243674 0.172937 0.050537
0.262265 0.179248 0.051361
0.292583 0.192513 0.051853
0.335664 0.208759 0.056704
0.386674 0.230538 0.063868
0.438887 0.251316 0.071729
0.495822 0.273667 0.080360
0.553024 0.298104 0.091371
0.608422 0.321820 0.105650
0.660748 0.342947 0.119509
0.706570 0.357612 0.130062
0.747781 0.369281 0.141599
0.786531 0.379568 0.153972
0.821379 0.387515 0.164707
0.852649 0.397814 0.175132
0.878647 0.407899 0.184278
0.898938 0.418153 0.197468
0.920525 0.430694 0.216642
0.940155 0.441208 0.239441
0.961610 0.454440 0.264565
0.980455 0.466564 0.289344
0.994120 0.480037 0.315657
0.998939 0.495036 0.339888
1.000000 0.510492 0.367106
1.000000 0.528459 0.394639
0.999995 0.550924 0.431406
0.999825 0.583244 0.470939
0.155264 0.179383 0.066679
0.181263 0.187582 0.077147
0.194919 0.189272 0.074310
0.217475 0.190329 0.069365
0.245905 0.192380 0.066685
0.260045 0.193034 0.063830
0.271945 0.200552 0.064204
0.287512 0.203832 0.062581
0.303304 0.211205 0.069064
0.328975 0.219301 0.068532
0.374537 0.242780 0.075999
0.424554 0.263709 0.083021
0.479094 0.286316 0.092254
0.536544 0.311126 0.102797
0.594425 0.335186 0.115317
0.648928 0.358946 0.129748
0.698631 0.380547 0.140141
0.745043 0.399700 0.150788
0.786231 0.412861 0.164033
0.820024 0.420205 0.174405
0.850168 0.428419 0.183889
0.877066 0.436077 0.194931
0.896595 0.444834 0.210111
0.917430 0.457354 0.231463
0.937183 0.469366 0.255896
0.958236 0.482203 0.278560
0.976467 0.493858 0.300983
0.992161 0.505583 0.327433
0.998750 0.518799 0.356908
0.999787 0.534591 0.384238
0.999856 0.549467 0.409623
1.000000 0.569877 0.440393
1.000000 0.602438 0.483574
0.176262 0.200746 0.081316
0.200573 0.213368 0.090154
0.217804 0.218598 0.087581
0.239567 0.218442 0.083429
0.265073 0.217427 0.078539
0.281538 0.216732 0.075516
0.293874 0.222812 0.078353
0.308869 0.224561 0.075831
0.320858 0.231024 0.079996
0.333845 0.235138 0.077683
0.361943 0.248952 0.081748
0.405847 0.269662 0.089781
0.459053 0.293886 0.099857
0.516150 0.318538 0.110548
0.572884 0.342521 0.122259
0.628927 0.367896 0.135419
0.682020 0.394010 0.146792
0.730855 0.418462 0.159195
0.774062 0.437630 0.173209
0.809864 0.450478 0.183993
0.842071 0.458619 0.194289
0.869845 0.464355 0.207751
0.891431 0.473039 0.225305
0.913649 0.482399 0.247458
0.933385 0.495131 0.271688
0.952207 0.507537 0.293882
0.971636 0.518070 0.315313
0.990633 0.529401 0.342847
0.998680 0.539431 0.367873
0.999215 0.554452 0.394419
0.999284 0.568172 0.422122
0.999893 0.587770 0.453781
0.998532 0.615656 0.494635
0.197669 0.224239 0.095224
0.222384 0.238731 0.102642
0.238034 0.245825 0.099667
0.258090 0.245890 0.093538
0.282789 0.242110 0.090998
0.298550 0.242706 0.088052
0.313391 0.246627 0.091848
0.327680 0.247241 0.090749
0.339470 0.254511 0.093207
0.352436 0.258362 0.090729
0.369725 0.264731 0.092432
0.396903 0.277441 0.098432
0.442850 0.301222 0.106193
0.497246 0.326254 0.115519
0.552253 0.349480 0.126266
0.608687 0.374866 0.141045
0.663621 0.401481 0.153025
0.714374 0.426745 0.164161
0.759730 0.449002 0.178106
0.798130 0.467254 0.189240
0.831487 0.481640 0.202551
0.861037 0.492668 0.219736
0.886367 0.500875 0.238659
0.909631 0.508719 0.263497
0.929151 0.519427 0.287226
0.946541 0.530744 0.306636
0.965539 0.541566 0.329449
0.984108 0.555000 0.357417
0.993142 0.564228 0.381321
0.998982 0.574718 0.402339
0.999674 0.588037 0.430604
0.999946 0.605016 0.460466
0.999266 0.628422 0.498222
0.230587 0.263287 0.113823
0.249718 0.274170 0.120054
0.264336 0.279982 0.116085
0.283894 0.279959 0.110202
0.303474 0.274395 0.109689
0.319846 0.275965 0.108003
0.336740 0.277393 0.109397
0.354447 0.278180 0.107913
0.363528 0.284579 0.107528
0.378597 0.288110 0.106001
0.392054 0.292152 0.108461
0.409258 0.297349 0.113184
0.438548 0.313339 0.116678
0.483055 0.334365 0.123016
0.535924 0.357319 0.131497
0.593257 0.383345 0.145164
0.649485 0.411909 0.159281
0.700001 0.439060 0.172586
0.746911 0.462437 0.186406
0.788389 0.483669 0.198052
0.823692 0.502602 0.215262
0.855816 0.518991 0.238637
0.882347 0.531080 0.261776
0.905045 0.539841 0.286266
0.923912 0.549209 0.307664
0.941070 0.559415 0.326288
0.960269 0.569587 0.349478
0.978320 0.582392 0.380690
0.990299 0.593823 0.407146
0.997639 0.604490 0.427457
0.997985 0.615940 0.451581
0.999223 0.632010 0.481933
0.998798 0.651230 0.515972
0.251761 0.291170 0.128491
0.275612 0.306771 0.135327
0.286995 0.313693 0.131103
0.307092 0.313632 0.125778
0.322798 0.307484 0.125681
0.341693 0.306337 0.125631
0.356114 0.308313 0.124033
0.377416 0.307466 0.120715
0.387455 0.310421 0.120895
0.401076 0.314517 0.121406
0.411862 0.319127 0.121907
0.426084 0.323202 0.123538
0.442179 0.329541 0.126010
0.472174 0.342736 0.129440
0.518632 0.364239 0.135614
0.573641 0.390894 0.148801
0.628878 0.420098 0.164920
0.681057 0.448323 0.178751
0.729455 0.472500 0.191964
0.772978 0.494427 0.205447
0.812129 0.514241 0.222207
0.845375 0.532008 0.246387
0.874063 0.550136 0.274823
0.898660 0.564169 0.303502
0.918626 0.576792 0.328242
0.936989 0.588045 0.350917
0.956502 0.596772 0.377158
0.975636 0.608465 0.406954
0.988541 0.619366 0.431795
0.997772 0.632391 0.453869
0.997960 0.643901 0.475918
0.999471 0.657069 0.503823
0.998440 0.673640 0.535533
0.267195 0.312992 0.138731
0.292490 0.332696 0.149734
0.303611 0.339980 0.145453
0.323894 0.340029 0.135462
0.339132 0.336407 0.135537
0.356637 0.334157 0.138817
0.373093 0.335768 0.138600
0.390760 0.332134 0.134745
0.405401 0.334115 0.133483
0.419085 0.339293 0.134199
0.429788 0.345607 0.135602
0.442596 0.349654 0.135282
0.457195 0.353059 0.138117
0.475551 0.359628 0.139265
0.507668 0.373907 0.141268
0.553159 0.397403 0.152216
0.605617 0.425583 0.168050
0.659699 0.453197 0.182730
0.709657 0.477964 0.196948
0.754247 0.499764 0.211046
0.794127 0.519898 0.226327
0.829395 0.540387 0.249357
0.861188 0.560612 0.280134
0.887786 0.577293 0.310016
0.911377 0.594647 0.342560
0.930595 0.611230 0.372052
0.950173 0.624072 0.401442
0.969144 0.635300 0.429046
0.981693 0.645534 0.450529
0.995869 0.654275 0.473156
0.998544 0.665339 0.494276
0.999951 0.675162 0.516433
0.998447 0.691496 0.547088
0.286219 0.339343 0.152795
0.308769 0.357745 0.163204
0.321237 0.364124 0.160506
0.339440 0.365624 0.147163
0.352283 0.364517 0.147545
0.367879 0.364598 0.148435
0.387565 0.363490 0.153263
0.405768 0.360618 0.150764
0.424026 0.362991 0.146906
0.440365 0.366533 0.146763
0.452284 0.372472 0.150687
0.462658 0.375275 0.150340
0.477085 0.379262 0.151549
0.492769 0.384385 0.153578
0.510049 0.390632 0.152581
0.539096 0.404649 0.158273
0.583639 0.429826 0.170139
0.636651 0.458379 0.184448
0.688337 0.484319 0.199894
0.731947 0.506336 0.213320
0.772509 0.525899 0.229962
0.813519 0.548402 0.254607
0.846034 0.568972 0.285509
0.874764 0.587096 0.315453
0.900107 0.606375 0.347559
0.920057 0.625741 0.380016
0.941881 0.643915 0.414526
0.960035 0.658097 0.443765
0.974904 0.669456 0.468395
0.989974 0.673982 0.486177
0.996819 0.683596 0.507810
0.999975 0.693988 0.526686
0.999184 0.707743 0.555414
0.302918 0.369293 0.168518
0.325475 0.380823 0.171475
0.337661 0.386989 0.172300
0.352709 0.389574 0.161756
0.362398 0.390068 0.158884
0.379123 0.390969 0.155837
0.400576 0.390682 0.163626
0.422803 0.389053 0.164148
0.444065 0.389908 0.163094
0.460445 0.391662 0.161512
0.472867 0.398476 0.164725
0.481820 0.403279 0.164825
0.494282 0.407015 0.165283
0.511567 0.412795 0.168888
0.524070 0.417986 0.170899
0.540648 0.424209 0.172962
0.571312 0.440781 0.178344
0.616924 0.466966 0.189786
0.669517 0.494224 0.204268
0.715282 0.517913 0.218808
0.756941 0.538250 0.239172
0.798763 0.559122 0.265408
0.833627 0.579274 0.295077
0.864956 0.599224 0.326063
0.891788 0.618843 0.355045
0.913871 0.637399 0.387709
0.936400 0.657021 0.425977
0.954328 0.675204 0.457846
0.970478 0.689922 0.487835
0.986449 0.700355 0.507310
0.995263 0.710118 0.531944
0.999305 0.718851 0.552694
1.000000 0.732392 0.582199
0.318930 0.396626 0.182324
0.342755 0.407173 0.185270
0.352902 0.414884 0.188289
0.368061 0.416688 0.180517
0.375959 0.416827 0.171459
0.392209 0.417621 0.170523
0.413290 0.418473 0.176044
0.434427 0.416971 0.178998
0.458121 0.415720 0.179775
0.475797 0.416437 0.177550
0.489333 0.422297 0.179372
0.499120 0.429709 0.182101
0.510338 0.434507 0.182364
0.527798 0.441055 0.186028
0.542633 0.448117 0.191537
0.556382 0.452786 0.192981
0.574249 0.460412 0.193746
0.605598 0.477497 0.200007
0.651227 0.502353 0.211784
0.697959 0.528657 0.228244
0.741722 0.551981 0.249877
0.782460 0.571112 0.274696
0.821042 0.589224 0.301625
0.854125 0.609218 0.330142
0.882004 0.629670 0.359485
0.905553 0.649102 0.395622
0.928061 0.669449 0.434902
0.948131 0.688842 0.468432
0.963212 0.705318 0.499331
0.982004 0.721083 0.524647
0.991539 0.731991 0.552245
0.996982 0.742713 0.579143
0.999328 0.755581 0.608913
0.336534 0.421786 0.197500
0.360506 0.436683 0.204172
0.370194 0.444837 0.205471
0.384015 0.447799 0.200002
0.395350 0.445568 0.190208
0.409597 0.446649 0.189832
0.426347 0.446214 0.190298
0.445554 0.447653 0.194260
0.468403 0.445944 0.195653
0.489448 0.446698 0.196053
0.505838 0.448904 0.197571
0.518740 0.454150 0.199565
0.530614 0.461459 0.200236
0.546096 0.468312 0.204531
0.559861 0.474428 0.209361
0.573025 0.480172 0.211220
0.586546 0.485943 0.211527
0.605419 0.493897 0.212156
0.635240 0.509104 0.218124
0.674559 0.533639 0.233050
0.719796 0.558297 0.252920
0.762840 0.576568 0.275375
0.803854 0.595584 0.301098
0.839534 0.615483 0.326327
0.867016 0.636043 0.357800
0.893181 0.656782 0.398773
0.916435 0.676999 0.436814
0.938224 0.696992 0.470047
0.953753 0.713002 0.501024
0.971693 0.727807 0.524868
0.984122 0.738864 0.553990
0.993746 0.754382 0.585821
0.999193 0.767464 0.615034
0.353438 0.450243 0.215397
0.376541 0.466237 0.220637
0.386954 0.472460 0.220533
0.398849 0.476007 0.216356
0.410077 0.473684 0.212981
0.425733 0.474408 0.207999
0.441664 0.474461 0.205399
0.460743 0.478123 0.208363
0.481867 0.477580 0.211723
0.502994 0.480276 0.214676
0.521922 0.483415 0.216959
0.539163 0.485139 0.216413
0.553016 0.492151 0.218987
0.566559 0.498457 0.224203
0.577902 0.503494 0.227191
0.589788 0.509451 0.227629
0.603584 0.515604 0.229474
0.617418 0.519581 0.229990
0.634812 0.525099 0.230505
0.662253 0.540819 0.239710
0.700341 0.561928 0.255311
0.741599 0.580952 0.274956
0.783089 0.601847 0.300960
0.822373 0.622130 0.327347
0.853888 0.641910 0.359297
0.882893 0.662106 0.399831
0.905547 0.681497 0.435807
0.926976 0.700629 0.466825
0.944602 0.717601 0.499472
0.960115 0.731328 0.522146
0.975802 0.743418 0.552869
0.988147 0.758069 0.582739
0.997942 0.776528 0.615715
0.371338 0.481121 0.233597
0.391161 0.497318 0.238586
0.398738 0.502258 0.240764
0.414180 0.505179 0.238378
0.421831 0.505588 0.237553
0.438008 0.505235 0.227745
0.457771 0.507428 0.224928
0.476495 0.510716 0.224714
0.498216 0.512857 0.229518
0.518948 0.516683 0.232675
0.539455 0.520600 0.236601
0.559813 0.521514 0.239233
0.573673 0.527439 0.241542
0.587699 0.533375 0.244396
0.599755 0.537786 0.245824
0.612706 0.542484 0.246465
0.626735 0.548609 0.251303
0.640556 0.554172 0.254181
0.654725 0.558341 0.253744
0.670067 0.564939 0.258078
0.695120 0.577708 0.266426
0.729883 0.596481 0.281621
0.768039 0.615387 0.307232
0.807613 0.635819 0.337956
0.842822 0.653799 0.365570
0.871258 0.671598 0.401990
0.895713 0.692565 0.440090
0.918155 0.710744 0.471629
0.936725 0.727214 0.503781
0.951642 0.740736 0.528854
0.968972 0.754882 0.560923
0.982603 0.768349 0.587466
0.996834 0.788826 0.625019
0.393569 0.518977 0.252434
0.405001 0.527383 0.256738
0.411060 0.530938 0.259902
0.426069 0.535981 0.262459
0.439150 0.537711 0.257855
0.454040 0.536415 0.247661
0.474626 0.539811 0.244208
0.493735 0.544347 0.242384
0.514742 0.549590 0.249631
0.535345 0.552811 0.253769
0.558502 0.555451 0.258970
0.581270 0.557530 0.261674
0.596071 0.564811 0.262028
0.610586 0.569677 0.262806
0.621505 0.573215 0.264582
0.635137 0.579174 0.268982
0.651552 0.585961 0.276644
0.667302 0.592773 0.280109
0.681639 0.598651 0.280010
0.692026 0.601592 0.282655
0.706753 0.606080 0.286617
0.731273 0.618250 0.297717
0.764666 0.634275 0.321048
0.800384 0.653059 0.349349
0.833257 0.668735 0.376131
0.863353 0.684917 0.413797
0.890124 0.706583 0.451900
0.913317 0.726655 0.487882
0.931595 0.742268 0.517934
0.947982 0.757711 0.546505
0.964231 0.770152 0.574717
0.980267 0.782845 0.605212
0.996381 0.803425 0.644445
0.413931 0.554640 0.274666
0.427893 0.561509 0.279182
0.432686 0.565778 0.282047
0.443065 0.568797 0.282173
0.453573 0.568346 0.279587
0.470401 0.569170 0.272975
0.488088 0.570208 0.267109
0.508948 0.574626 0.264691
0.529220 0.578856 0.269245
0.549765 0.580638 0.274345
0.573728 0.584779 0.278458
0.595332 0.588752 0.277742
0.611633 0.594780 0.278397
0.627076 0.599899 0.283445
0.639423 0.603987 0.286440
0.651329 0.609896 0.289984
0.664906 0.614101 0.296297
0.680369 0.617702 0.300579
0.695251 0.623121 0.301731
0.707522 0.625872 0.302995
0.719184 0.627289 0.305732
0.732862 0.632234 0.312085
0.757421 0.642490 0.326609
0.787531 0.659310 0.345814
0.820073 0.674773 0.373496
0.852629 0.692772 0.414930
0.880112 0.712552 0.451964
0.904303 0.732277 0.488377
0.923984 0.747271 0.518938
0.941423 0.761891 0.546447
0.956552 0.772205 0.571769
0.974279 0.788313 0.605295
0.988145 0.805293 0.642004
0.429698 0.585284 0.298128
0.443595 0.592336 0.299536
0.449304 0.597180 0.302577
0.458014 0.598133 0.304410
0.468048 0.598113 0.302832
0.482284 0.597966 0.297015
0.500120 0.598899 0.291057
0.521423 0.603193 0.288846
0.542071 0.605949 0.291729
0.563268 0.611592 0.297156
0.585225 0.614309 0.298895
0.606926 0.619233 0.299462
0.626707 0.625191 0.302509
0.642899 0.629286 0.305839
0.658108 0.632154 0.308422
0.671133 0.634545 0.311572
0.679571 0.639393 0.315850
0.692211 0.644303 0.319366
0.707727 0.646855 0.320867
0.720801 0.650093 0.323082
0.734416 0.653041 0.327963
0.744518 0.654051 0.334078
0.757013 0.658658 0.340497
0.775148 0.672249 0.350654
0.804591 0.684726 0.375812
0.837605 0.700252 0.414630
0.867146 0.718740 0.450408
0.891458 0.736502 0.484135
0.912394 0.750407 0.513697
0.928383 0.765976 0.538417
0.949321 0.777454 0.570136
0.968097 0.792601 0.603195
0.983658 0.810012 0.642260
0.450676 0.617851 0.321915
0.461245 0.626136 0.325374
0.470398 0.631890 0.331558
0.475743 0.630305 0.329999
0.484693 0.628723 0.326691
0.500128 0.629143 0.322778
0.514620 0.631024 0.323028
0.539464 0.634907 0.320612
0.556286 0.637894 0.321394
0.577344 0.644345 0.325788
0.599105 0.647997 0.330419
0.620916 0.651547 0.332368
0.646130 0.656586 0.331877
0.665071 0.660915 0.334303
0.676922 0.665046 0.338757
0.688217 0.667526 0.343062
0.696617 0.669815 0.343723
0.707652 0.672816 0.343798
0.723517 0.675074 0.348149
0.735824 0.677049 0.351164
0.747851 0.681156 0.354568
0.761001 0.687482 0.362970
0.769822 0.690257 0.367334
0.779426 0.694076 0.373521
0.799650 0.702398 0.391548
0.829046 0.711536 0.420395
0.855606 0.727770 0.451547
0.880964 0.740618 0.480860
0.902943 0.756537 0.509512
0.921432 0.773760 0.539054
0.943078 0.787164 0.572248
0.960968 0.798279 0.603916
0.979416 0.819817 0.649918
0.478720 0.660530 0.355834
0.488904 0.665815 0.363165
0.500844 0.668980 0.368225
0.502414 0.668009 0.365291
0.508469 0.668052 0.366736
0.525552 0.669600 0.366227
0.538912 0.671131 0.367474
0.558069 0.673438 0.364217
0.574167 0.676978 0.365576
0.597665 0.684146 0.365774
0.621605 0.688548 0.368785
0.645674 0.693464 0.372092
0.671633 0.697126 0.378268
0.692316 0.701726 0.384303
0.703957 0.706690 0.387881
0.715570 0.711067 0.392802
0.726948 0.713846 0.396863
0.739025 0.717108 0.398558
0.752879 0.722094 0.401294
0.764327 0.723458 0.404667
0.775816 0.726415 0.409355
0.786767 0.733782 0.416049
0.798137 0.733060 0.421014
0.808671 0.732886 0.427348
0.818369 0.734200 0.436017
0.833944 0.742545 0.449505
0.859140 0.752374 0.475884
0.884039 0.763328 0.501448
0.906735 0.774663 0.530262
0.920327 0.791396 0.562859
0.943752 0.805116 0.595542
0.960688 0.818326 0.620055
0.977754 0.836438 0.665265
0.504555 0.685803 0.389318
0.509714 0.691542 0.395089
0.513113 0.694321 0.397364
0.520160 0.693450 0.391731
0.527273 0.692586 0.390463
0.537817 0.692759 0.391832
0.550456 0.692820 0.389565
0.570599 0.697254 0.388058
0.584226 0.699956 0.395252
0.608673 0.706160 0.392011
0.629812 0.709797 0.390940
0.654134 0.714310 0.398949
0.679205 0.719460 0.406800
0.700549 0.724359 0.412855
0.717378 0.729372 0.418535
0.732772 0.733498 0.425047
0.743711 0.737327 0.427307
0.753616 0.740537 0.428010
0.763902 0.744734 0.432695
0.773940 0.749465 0.436704
0.787501 0.751993 0.441636
0.799025 0.753421 0.448439
0.811376 0.753593 0.451985
