nova/tdt-studio/app/Lut_mau/IWLTBAP/1 - LUTs by IWLTBAP (CUBE)/01 - Standard/Cinematic/W-8370-STD.cube
# Copyright: (C) Copyright 2010-2019 by IWLTBAP SAS
# Cannot be resold, shared or otherwise redistributed
# Website: https://luts.iwltbap.com
TITLE "IWLTBAP 8370 (Rec.709, sRGB, DCI-P3)"
LUT_3D_SIZE 5
0.006134 0.011536 0.013275
0.276253 0.020515 0.024154
0.710052 0.147933 0.067977
0.958687 0.303123 0.196243
1.000000 0.510590 0.428223
0.127426 0.149323 0.050637
0.292583 0.192513 0.051853
0.706570 0.357612 0.130062
0.940155 0.441208 0.239441
0.999825 0.583244 0.470939
0.302918 0.369293 0.168518
0.444065 0.389908 0.163094
0.571312 0.440781 0.178344
0.891788 0.618843 0.355045
1.000000 0.732392 0.582199
0.450676 0.617851 0.321915
0.556286 0.637894 0.321394
0.696617 0.669815 0.343723
0.799650 0.702398 0.391548
0.979416 0.819817 0.649918
0.687042 0.890045 0.646393
0.745956 0.886323 0.658974
0.865020 0.895554 0.676102
0.935859 0.912468 0.710464
0.996857 0.948120 0.823029
0.036293 0.040825 0.101082
0.165905 0.023885 0.110512
0.539078 0.121921 0.213192
0.884590 0.248633 0.286127
0.999382 0.511574 0.494461
0.059019 0.145056 0.153233
0.230533 0.189156 0.181156
0.562141 0.264497 0.222153
0.883536 0.401535 0.331859
0.998800 0.588450 0.524645
0.151547 0.363666 0.219444
0.358950 0.394594 0.255604
0.532318 0.423622 0.247093
0.865522 0.621327 0.432289
0.999576 0.731266 0.614147
0.340208 0.619845 0.358521
0.490337 0.644211 0.398070
0.681110 0.671015 0.400776
0.787208 0.702056 0.441155
0.972607 0.827232 0.676251
0.646218 0.887467 0.657387
0.717016 0.892761 0.681097
0.846023 0.897865 0.697464
0.936755 0.918455 0.729511
0.991791 0.948166 0.822738
0.002426 0.115555 0.325103
0.076237 0.103237 0.318260
0.416824 0.131378 0.305580
0.747131 0.294720 0.442516
0.992096 0.539597 0.613007
0.043957 0.234909 0.355133
0.201304 0.259273 0.360403
0.421501 0.236364 0.333441
0.740645 0.372666 0.468155
0.995583 0.566292 0.613892
0.104294 0.370598 0.394836
0.212763 0.390188 0.409271
0.455040 0.449227 0.438034
0.776207 0.572066 0.539415
0.989059 0.703445 0.673210
0.001606 0.611511 0.491310
0.131312 0.631966 0.497636
0.544207 0.659895 0.528549
0.749208 0.701598 0.537846
0.966580 0.842590 0.743916
0.267365 0.875564 0.638305
0.398205 0.888126 0.668533
0.750160 0.899742 0.732765
0.925854 0.920250 0.762322
0.990570 0.952072 0.853058
0.002357 0.249596 0.624100
0.001068 0.251198 0.624006
0.306919 0.257393 0.620602
0.682581 0.270368 0.557905
0.920822 0.540222 0.695854
0.000490 0.337164 0.639353
0.014499 0.366366 0.641338
0.323302 0.372990 0.641560
0.673896 0.344534 0.575098
0.911798 0.578659 0.706356
0.001510 0.498619 0.662090
0.187433 0.528491 0.673038
0.416576 0.583508 0.696417
0.656595 0.509087 0.630160
0.899639 0.670235 0.747391
0.001568 0.636238 0.684435
0.065306 0.649666 0.695408
0.362608 0.676957 0.709222
0.666306 0.719499 0.714739
0.948105 0.822411 0.809084
0.002357 0.869881 0.770218
0.002390 0.873665 0.769394
0.264999 0.889191 0.777927
0.839878 0.919584 0.828350
0.987999 0.960685 0.898361
0.307434 0.570221 0.886139
0.303703 0.565789 0.881683
0.314530 0.535324 0.883850
0.572151 0.512329 0.902794
0.926208 0.549591 0.879639
0.310150 0.568222 0.882790
0.305210 0.566908 0.884001
0.354198 0.587273 0.884396
0.597818 0.580462 0.904269
0.914451 0.579522 0.870651
0.348236 0.619766 0.888016
0.357208 0.632671 0.889210
0.409462 0.683403 0.897309
0.646042 0.709454 0.911060
0.897964 0.659439 0.868454
0.406090 0.758201 0.898941
0.407446 0.760309 0.901936
0.412254 0.761913 0.900902
0.745005 0.838724 0.918800
0.895203 0.789246 0.897995
0.266663 0.856720 0.915955
0.260406 0.860168 0.916168
0.255630 0.868530 0.919464
0.655388 0.920075 0.951721
0.982452 0.978333 0.977448
