nova/tdt-studio/app/Lut_mau/IWLTBAP/1 - LUTs by IWLTBAP (CUBE)/01 - Standard/Cinematic/X-6500-STD.cube
# Copyright: (C) Copyright 2010-2019 by IWLTBAP SAS
# Cannot be resold, shared or otherwise redistributed
# Website: https://luts.iwltbap.com
TITLE "IWLTBAP 6500 (Rec.709, sRGB, DCI-P3)"
LUT_3D_SIZE 33
0.048309 0.063385 0.065094
0.056976 0.064240 0.065094
0.066223 0.065643 0.065369
0.076416 0.067963 0.067139
0.087830 0.071564 0.071564
0.100067 0.077576 0.078308
0.114410 0.085022 0.086975
0.131042 0.094147 0.097321
0.150208 0.105286 0.108978
0.171417 0.117859 0.121674
0.193878 0.131622 0.135498
0.217285 0.146301 0.150269
0.241364 0.161682 0.165802
0.265961 0.177887 0.182129
0.290619 0.194397 0.198975
0.314911 0.210907 0.215942
0.338440 0.227051 0.232605
0.360291 0.242004 0.247742
0.380981 0.256104 0.262024
0.400482 0.269409 0.275513
0.418793 0.281982 0.288269
0.435455 0.293549 0.299927
0.451080 0.304413 0.310883
0.465668 0.314606 0.321198
0.479279 0.324127 0.330902
0.491455 0.332611 0.339508
0.502472 0.340393 0.347351
0.512360 0.347382 0.354340
0.521149 0.353546 0.360443
0.528229 0.358582 0.365417
0.534424 0.362976 0.369720
0.539917 0.366943 0.373535
0.544922 0.370544 0.376984
0.049316 0.069519 0.067963
0.056976 0.070312 0.066345
0.067261 0.071106 0.066620
0.078217 0.072937 0.068481
0.090118 0.076141 0.073120
0.102875 0.081085 0.080048
0.117218 0.088287 0.088593
0.133575 0.097107 0.098694
0.152161 0.107788 0.110077
0.172577 0.119812 0.122375
0.195099 0.133240 0.136139
0.218506 0.147705 0.150848
0.242432 0.162964 0.166351
0.266907 0.179016 0.182739
0.291351 0.195435 0.199463
0.315552 0.211853 0.216339
0.339172 0.227966 0.232971
0.361389 0.243042 0.248322
0.382141 0.257172 0.262573
0.401672 0.270477 0.276062
0.420013 0.283081 0.288849
0.436737 0.294678 0.300568
0.452454 0.305634 0.311615
0.467102 0.315887 0.321991
0.480804 0.325470 0.331726
0.492981 0.333984 0.340363
0.504059 0.341827 0.348206
0.513977 0.348877 0.355225
0.522766 0.355042 0.361420
0.529877 0.360046 0.366302
0.536102 0.364502 0.370575
0.541626 0.368439 0.374390
0.546631 0.371979 0.377899
0.051025 0.076294 0.070770
0.057892 0.076538 0.069458
0.067749 0.077057 0.068634
0.079498 0.078369 0.070312
0.091949 0.081177 0.074921
0.105438 0.086151 0.081940
0.120453 0.092468 0.090393
0.136627 0.100830 0.100372
0.154755 0.110931 0.111481
0.174652 0.122375 0.123535
0.196045 0.135132 0.136780
0.219421 0.149292 0.151306
0.243256 0.164368 0.166656
0.267578 0.180298 0.182922
0.291656 0.196289 0.199493
0.315796 0.212646 0.216278
0.339478 0.228668 0.232849
0.362061 0.243896 0.248291
0.383240 0.258301 0.263031
0.402893 0.271667 0.276581
0.421295 0.284302 0.289429
0.438049 0.295898 0.301178
0.453796 0.306885 0.312347
0.468567 0.317200 0.322784
0.482330 0.326874 0.332520
0.494598 0.335449 0.341187
0.505707 0.343262 0.349091
0.515656 0.350342 0.356079
0.524475 0.356567 0.362274
0.531647 0.361633 0.367249
0.537842 0.366058 0.371582
0.543396 0.370026 0.375366
0.548462 0.373596 0.378845
0.053925 0.084229 0.074493
0.059448 0.084106 0.073456
0.067841 0.084229 0.072327
0.079803 0.084564 0.072662
0.092773 0.087006 0.076904
0.107147 0.091522 0.083710
0.122833 0.097717 0.092255
0.139923 0.105377 0.102203
0.157684 0.114807 0.113159
0.177185 0.125702 0.125000
0.197998 0.137817 0.137909
0.220428 0.151337 0.152100
0.244202 0.166107 0.167145
0.268494 0.181824 0.183289
0.292419 0.197662 0.199615
0.316132 0.213531 0.216125
0.339874 0.229523 0.232635
0.362732 0.244812 0.248199
0.384186 0.259338 0.263031
0.404144 0.272980 0.277069
0.422668 0.285706 0.290039
0.439484 0.297302 0.301880
0.455322 0.308289 0.313049
0.470123 0.318665 0.323608
0.483978 0.328400 0.333374
0.496277 0.337006 0.342010
0.507477 0.344879 0.349915
0.517487 0.351929 0.357025
0.526276 0.358154 0.363129
0.533508 0.363281 0.368195
0.539795 0.367737 0.372559
0.545319 0.371735 0.376465
0.550415 0.375366 0.379913
0.058655 0.093842 0.080048
0.062195 0.093536 0.079346
0.068512 0.093414 0.077881
0.078278 0.093536 0.077271
0.092163 0.093842 0.079102
0.107452 0.097504 0.085327
0.123962 0.103119 0.093658
0.141724 0.110504 0.103699
0.160706 0.119415 0.114990
0.179871 0.129822 0.126678
0.200256 0.141357 0.139313
0.222076 0.154175 0.153107
0.245605 0.168427 0.168182
0.269989 0.183868 0.184265
0.293884 0.199432 0.200378
0.317474 0.215057 0.216553
0.340912 0.230774 0.232758
0.363922 0.246155 0.248474
0.385590 0.260803 0.263397
0.405731 0.274567 0.277466
0.424194 0.287384 0.290710
0.441040 0.298950 0.302704
0.456940 0.309937 0.313934
0.471863 0.320312 0.324463
0.485779 0.330139 0.334290
0.498138 0.338776 0.342957
0.509369 0.346619 0.350861
0.519440 0.353668 0.357941
0.528320 0.359955 0.364166
0.535522 0.365082 0.369232
0.541870 0.369568 0.373627
0.547485 0.373596 0.377533
0.552582 0.377289 0.381073
0.065155 0.105469 0.087524
0.067169 0.104919 0.087219
0.070923 0.104462 0.086090
0.077637 0.104187 0.084259
0.087921 0.104095 0.083313
0.105042 0.104370 0.086334
0.123016 0.108826 0.094391
0.142120 0.115509 0.104675
0.162354 0.124298 0.116791
0.183014 0.134216 0.128967
0.203278 0.145447 0.141541
0.225037 0.157990 0.155334
0.248474 0.172089 0.170471
0.272980 0.187256 0.186584
0.296967 0.202759 0.202423
0.320496 0.218262 0.218292
0.343811 0.233734 0.234131
0.366333 0.248749 0.249573
0.387848 0.263306 0.264526
0.407990 0.277039 0.278656
0.426605 0.289795 0.291962
0.443573 0.301422 0.303864
0.459381 0.312378 0.315125
0.474274 0.322723 0.325653
0.488220 0.332520 0.335480
0.500580 0.341064 0.344177
0.511780 0.348969 0.352112
0.521881 0.356049 0.359222
0.530823 0.362305 0.365479
0.538055 0.367462 0.370544
0.544434 0.371979 0.375000
0.550140 0.376007 0.378937
0.555328 0.379730 0.382538
0.072235 0.117798 0.095947
0.073395 0.117615 0.095642
0.075256 0.117096 0.095154
0.079468 0.116180 0.093384
0.086731 0.115448 0.090912
0.100464 0.114716 0.090485
0.119965 0.115631 0.095490
0.140625 0.121033 0.105499
0.162292 0.128998 0.117920
0.184387 0.138947 0.130585
0.206543 0.150299 0.144012
0.228485 0.162811 0.157928
0.252167 0.176880 0.173279
0.276703 0.191956 0.189362
0.300507 0.206940 0.205200
0.323975 0.222290 0.220764
0.347107 0.237579 0.236298
0.369324 0.252258 0.251434
0.390656 0.266510 0.266113
0.410767 0.280182 0.280273
0.429504 0.292938 0.293640
0.446503 0.304535 0.305542
0.462372 0.315491 0.316742
0.477173 0.325775 0.327240
0.491058 0.335449 0.337006
0.503357 0.343964 0.345673
0.514557 0.351776 0.353577
0.524628 0.358887 0.360718
0.533569 0.365143 0.367004
0.540863 0.370270 0.372101
0.547333 0.374847 0.376587
0.553070 0.378876 0.380585
0.558319 0.382599 0.384216
0.079590 0.130737 0.104980
0.080322 0.130951 0.104706
0.081482 0.130798 0.104065
0.083435 0.129852 0.103210
0.088257 0.128143 0.100555
0.098419 0.126556 0.098114
0.114990 0.126068 0.099762
0.137177 0.127533 0.106445
0.160492 0.134094 0.118591
0.184296 0.143890 0.131805
0.208221 0.155609 0.145935
0.232147 0.168488 0.160797
0.256348 0.182770 0.176514
0.281036 0.197632 0.192627
0.304718 0.212311 0.208344
0.327850 0.227051 0.223877
0.350769 0.242126 0.239105
0.372711 0.256561 0.254028
0.393829 0.270599 0.268463
0.413940 0.284058 0.282379
0.432831 0.296814 0.295776
0.449860 0.308441 0.307678
0.465729 0.319336 0.318817
0.480530 0.329498 0.329254
0.494293 0.339020 0.338928
0.506500 0.347473 0.347504
0.517670 0.355225 0.355408
0.527740 0.362244 0.362488
0.536652 0.368500 0.368774
0.543976 0.373627 0.373932
0.550476 0.378174 0.378479
0.556305 0.382294 0.382538
0.561615 0.386017 0.386200
0.086945 0.144226 0.114319
0.087616 0.144867 0.114044
0.088501 0.145050 0.113251
0.089905 0.144440 0.112122
0.092163 0.142548 0.110779
0.098572 0.140228 0.107788
0.112030 0.138428 0.107513
0.131744 0.138092 0.110962
0.156952 0.140015 0.119080
0.182709 0.149628 0.132843
0.208679 0.161560 0.147705
0.234741 0.175140 0.163483
0.260773 0.189636 0.180023
0.285706 0.204224 0.196259
0.309387 0.218506 0.211945
0.332275 0.232758 0.227295
0.354736 0.247284 0.242462
0.376495 0.261597 0.257172
0.397491 0.275482 0.271423
0.417511 0.288849 0.285187
0.436432 0.301483 0.298401
0.453583 0.313080 0.310303
0.469452 0.323914 0.321411
0.484192 0.333984 0.331757
0.497894 0.343323 0.341339
0.510010 0.351654 0.349792
0.521118 0.359314 0.357605
0.531128 0.366241 0.364685
0.540039 0.372467 0.370941
0.547394 0.377594 0.376099
0.553925 0.382172 0.380707
0.559814 0.386292 0.384827
0.565186 0.390106 0.388580
0.095795 0.158966 0.123962
0.096069 0.159332 0.123718
0.096497 0.159668 0.122681
0.097321 0.159363 0.121460
0.098846 0.158020 0.120209
0.102295 0.155975 0.118988
0.111115 0.153839 0.115479
0.128662 0.152313 0.115875
0.154053 0.152344 0.121063
0.181458 0.157928 0.133942
0.208862 0.169189 0.149689
0.236298 0.182373 0.166199
0.263672 0.196777 0.183289
0.290283 0.211456 0.200287
0.314301 0.225555 0.216064
0.337341 0.239563 0.231415
0.359833 0.253784 0.246552
0.381378 0.267853 0.261017
0.402191 0.281586 0.275208
0.422089 0.294830 0.288849
0.440857 0.307434 0.301910
0.457733 0.318787 0.313690
0.473541 0.329559 0.324646
0.488159 0.339508 0.334869
0.501740 0.348694 0.344391
0.513824 0.356903 0.352753
0.524841 0.364471 0.360504
0.534821 0.371368 0.367554
0.543732 0.377533 0.373779
0.551178 0.382721 0.378967
0.557770 0.387268 0.383606
0.563721 0.391388 0.387756
0.569183 0.395233 0.391541
0.105652 0.175201 0.134186
0.105743 0.174896 0.133514
0.105682 0.174805 0.132599
0.105957 0.174835 0.131348
0.106842 0.173981 0.130249
0.109192 0.172974 0.129395
0.114044 0.171783 0.125854
0.127625 0.169952 0.123199
0.151520 0.168884 0.125549
0.179565 0.171631 0.136169
0.207672 0.177917 0.151031
0.236481 0.190277 0.168335
0.265228 0.204102 0.186066
0.293396 0.219116 0.203705
0.318909 0.233337 0.220154
0.342346 0.247192 0.235657
0.365082 0.261230 0.250885
0.386810 0.275116 0.265472
0.407440 0.288605 0.279419
0.427063 0.301575 0.292938
0.445587 0.313995 0.305786
0.462250 0.325195 0.317352
0.477844 0.335724 0.328186
0.492401 0.345673 0.338287
0.505890 0.354767 0.347748
0.517883 0.362854 0.356110
0.528900 0.370331 0.363739
0.538849 0.377167 0.370758
0.547760 0.383270 0.376984
0.555237 0.388428 0.382172
0.561890 0.393036 0.386810
0.567902 0.397125 0.391022
0.573456 0.400970 0.394806
0.116547 0.193207 0.145355
0.116547 0.192566 0.144531
0.116455 0.192047 0.143524
0.116180 0.191742 0.142395
0.116455 0.191437 0.141510
0.117920 0.191101 0.140900
0.121735 0.190399 0.138580
0.128143 0.189819 0.133331
0.148773 0.188507 0.132874
0.176270 0.189056 0.140625
0.205780 0.192352 0.153076
0.235291 0.199615 0.169617
0.265350 0.212524 0.188080
0.294739 0.226898 0.206329
0.321960 0.241364 0.223541
0.346802 0.255371 0.239685
0.369995 0.269318 0.255127
0.391968 0.283020 0.269836
0.412689 0.296265 0.283844
0.432159 0.309021 0.297150
0.450378 0.321075 0.309814
0.466919 0.332153 0.321259
0.482391 0.342529 0.332001
0.496826 0.352264 0.342010
0.510254 0.361420 0.351379
0.522217 0.369476 0.359711
0.533173 0.376831 0.367371
0.543152 0.383575 0.374268
0.552094 0.389618 0.380493
0.559601 0.394775 0.385681
0.566284 0.399384 0.390350
0.572388 0.403534 0.394592
0.578033 0.407379 0.398438
0.128418 0.213318 0.157959
0.128418 0.212646 0.157196
0.128418 0.212036 0.156311
0.128357 0.211578 0.155426
0.128113 0.211304 0.154633
0.128815 0.211304 0.154053
0.131775 0.210754 0.152832
0.137207 0.210144 0.149689
0.145325 0.210022 0.143402
0.171021 0.209045 0.147705
0.200745 0.210022 0.157104
0.232452 0.214172 0.171082
0.264069 0.222778 0.188995
0.294312 0.235626 0.207947
0.322845 0.249481 0.225891
0.349518 0.263672 0.242889
0.374054 0.277710 0.259003
0.396362 0.291260 0.273834
0.417297 0.304321 0.287903
0.436798 0.316833 0.301208
0.454956 0.328705 0.313812
0.471436 0.339600 0.325195
0.486877 0.349823 0.335907
0.501312 0.359436 0.345917
0.514771 0.368439 0.355255
0.526764 0.376526 0.363556
0.537720 0.383911 0.371185
0.547668 0.390564 0.378113
0.556641 0.396606 0.384308
0.564209 0.401672 0.389526
0.570953 0.406281 0.394196
0.577118 0.410492 0.398438
0.582886 0.414398 0.402435
0.141113 0.234589 0.171509
0.141510 0.234833 0.171692
0.141663 0.234344 0.171082
0.141602 0.233856 0.170380
0.141235 0.233368 0.169678
0.141235 0.232666 0.168640
0.142700 0.232025 0.167542
0.146240 0.231171 0.165619
0.152130 0.230652 0.161652
0.165802 0.230652 0.157501
0.195099 0.229919 0.162994
0.227295 0.231567 0.173889
0.260406 0.236816 0.189636
0.292236 0.245850 0.208466
0.322327 0.259064 0.227356
0.350403 0.272919 0.245148
0.376251 0.286774 0.261963
0.399445 0.299988 0.277344
0.420624 0.312805 0.291473
0.440430 0.325104 0.304871
0.458862 0.336823 0.317535
0.475647 0.347626 0.328979
0.491211 0.357819 0.339813
0.505768 0.367401 0.349915
0.519348 0.376312 0.359283
0.531433 0.384277 0.367645
0.542480 0.391663 0.375305
0.552490 0.398346 0.382263
0.561523 0.404327 0.388458
0.569183 0.409454 0.393768
0.576050 0.414032 0.398499
0.582306 0.418243 0.402771
0.588135 0.422150 0.406738
0.154114 0.256317 0.185577
0.154755 0.256897 0.186035
0.154999 0.256989 0.186005
0.155029 0.256439 0.185364
0.154633 0.255707 0.184601
0.154144 0.254364 0.183350
0.154510 0.253204 0.181976
0.156799 0.252289 0.180603
0.161041 0.251526 0.178253
0.170105 0.251434 0.173798
0.188690 0.251373 0.171875
0.220825 0.251068 0.178986
0.254761 0.253571 0.191803
0.288757 0.260010 0.208771
0.320618 0.270203 0.228088
0.350098 0.283325 0.246704
0.377228 0.296753 0.264221
0.401276 0.309509 0.280151
0.423370 0.321960 0.294769
0.443512 0.334045 0.308289
0.462280 0.345612 0.321045
0.479431 0.356232 0.332703
0.495392 0.366364 0.343628
0.510101 0.375854 0.353882
0.523834 0.384705 0.363342
0.536102 0.392639 0.371796
0.547363 0.399933 0.379547
0.557495 0.406616 0.386536
0.566620 0.412598 0.392761
0.574371 0.417664 0.398132
0.581390 0.422272 0.402954
0.587769 0.426514 0.407288
0.593689 0.430420 0.411316
0.167480 0.278503 0.200104
0.168182 0.279388 0.200745
0.168579 0.279663 0.200928
0.168610 0.279358 0.200562
0.168243 0.278412 0.199646
0.167542 0.276733 0.198242
0.167480 0.275146 0.196777
0.168427 0.273804 0.195312
0.171661 0.272949 0.193939
0.177734 0.272644 0.190033
0.190460 0.272736 0.186737
0.213898 0.272552 0.187225
0.248108 0.272858 0.196350
0.283752 0.277008 0.210632
0.317352 0.284698 0.228455
0.348602 0.295319 0.247711
0.376953 0.307953 0.265930
0.402008 0.320038 0.282349
0.424957 0.332062 0.297485
0.446045 0.343750 0.311432
0.465210 0.355133 0.324371
0.482727 0.365540 0.336243
0.499084 0.375458 0.347351
0.514282 0.384857 0.357788
0.528198 0.393646 0.367371
0.540741 0.401520 0.375946
0.552185 0.408752 0.383820
0.562592 0.415344 0.390930
0.571838 0.421356 0.397247
0.579742 0.426361 0.402649
0.586884 0.430969 0.407501
0.593445 0.435211 0.411987
0.599487 0.439178 0.416138
0.181122 0.301086 0.214966
0.181763 0.302216 0.215637
0.182220 0.302643 0.215973
0.182312 0.302399 0.215790
0.181976 0.301483 0.214966
0.181335 0.299805 0.213470
0.181122 0.298126 0.211945
0.181732 0.296600 0.210541
0.183502 0.295258 0.209259
0.188263 0.294525 0.206879
0.196716 0.294647 0.203094
0.213043 0.294891 0.201141
0.241364 0.294525 0.204163
0.278076 0.296661 0.214966
0.312897 0.302155 0.230438
0.345459 0.310364 0.248535
0.375488 0.320709 0.267212
0.401642 0.332031 0.284058
0.425568 0.343384 0.299683
0.447510 0.354584 0.314117
0.467651 0.365448 0.327484
0.485626 0.375641 0.339600
0.502380 0.385345 0.350952
0.518005 0.394531 0.361542
0.532501 0.403229 0.371429
0.545288 0.410919 0.380127
0.556976 0.418060 0.388123
0.567596 0.424622 0.395386
0.577179 0.430511 0.401825
0.585205 0.435547 0.407349
0.592499 0.440125 0.412292
0.599243 0.444336 0.416809
0.605499 0.448364 0.421082
0.194763 0.323944 0.230042
0.195801 0.325073 0.230774
0.196411 0.325897 0.231262
0.196777 0.326111 0.231384
0.196747 0.325745 0.231018
0.196594 0.324921 0.230286
0.196289 0.323395 0.228882
0.196503 0.321716 0.227386
0.197571 0.320007 0.225891
0.200592 0.318329 0.224274
0.206238 0.317749 0.220825
0.217743 0.317932 0.217163
0.239197 0.318146 0.216431
0.271942 0.319244 0.222992
0.307404 0.322357 0.235046
0.340912 0.328308 0.250946
0.372223 0.336426 0.268585
0.400452 0.345856 0.285706
0.425415 0.356445 0.301636
0.448212 0.366974 0.316437
0.469086 0.377228 0.330109
0.487976 0.386810 0.342743
0.505280 0.396240 0.354309
0.521393 0.405121 0.365143
0.536346 0.413544 0.375244
0.549774 0.421112 0.384277
0.561798 0.428131 0.392456
0.572693 0.434601 0.399902
0.582550 0.440460 0.406586
0.590973 0.445465 0.412262
0.598480 0.450012 0.417297
0.605408 0.454254 0.421936
0.611847 0.458252 0.426300
0.208862 0.347015 0.245575
0.209808 0.348236 0.246277
0.210693 0.349152 0.246796
0.211243 0.349762 0.247162
0.211517 0.349884 0.247192
0.211639 0.349518 0.246796
0.211609 0.348602 0.245972
0.211548 0.346985 0.244507
0.212067 0.345093 0.242859
0.214294 0.343231 0.241272
0.218353 0.341797 0.239136
0.225769 0.341644 0.234894
0.241089 0.342194 0.231567
0.268127 0.343109 0.234711
0.301178 0.344452 0.242584
0.335571 0.348267 0.255493
0.367981 0.354309 0.271332
0.397339 0.362091 0.287537
0.424133 0.370819 0.303528
0.447906 0.380524 0.318542
0.469635 0.390106 0.332458
0.489441 0.399048 0.345337
0.507751 0.407806 0.357452
0.524445 0.416412 0.368530
0.539948 0.424530 0.378876
0.553864 0.431885 0.388245
0.566559 0.438690 0.396759
0.577789 0.445038 0.404388
0.587982 0.450867 0.411285
0.596680 0.455780 0.417175
0.604553 0.460327 0.422455
0.611664 0.464508 0.427216
0.618317 0.468506 0.431702
0.223236 0.370331 0.261475
0.224182 0.371613 0.262177
0.224945 0.372589 0.262695
0.225677 0.373291 0.263092
0.226196 0.373779 0.263428
0.226471 0.373718 0.263245
0.226624 0.373138 0.262634
0.226746 0.372070 0.261627
0.226868 0.370178 0.259979
0.228516 0.368347 0.258484
0.231750 0.366760 0.256561
0.237061 0.365723 0.253815
0.247040 0.366333 0.249054
0.268036 0.367126 0.248993
0.296570 0.368195 0.253784
0.329620 0.369934 0.262634
0.363068 0.374115 0.275909
0.393280 0.380219 0.290619
0.421112 0.387390 0.305725
0.446625 0.395355 0.320679
0.469299 0.404083 0.334717
0.490051 0.412292 0.347748
0.509277 0.420410 0.360107
0.527069 0.428406 0.371704
0.543182 0.436218 0.382324
0.557709 0.443237 0.392029
0.570923 0.449860 0.400848
0.582855 0.455994 0.408844
0.593384 0.461731 0.415955
0.602417 0.466553 0.422028
0.610565 0.471008 0.427521
0.618042 0.475189 0.432526
0.624908 0.479126 0.437164
0.237854 0.393860 0.277710
0.238800 0.395172 0.278503
0.239532 0.396179 0.279053
0.240143 0.396912 0.279419
0.240723 0.397400 0.279724
0.240967 0.397430 0.279633
0.241211 0.397064 0.279114
0.241486 0.396240 0.278229
0.241852 0.394928 0.277039
0.243134 0.393311 0.275696
0.245758 0.391785 0.274109
0.250183 0.390686 0.271790
0.256958 0.390289 0.268341
0.271606 0.391022 0.265381
0.295319 0.391907 0.267273
0.325043 0.393280 0.273315
0.357758 0.395538 0.282776
0.388519 0.399933 0.295319
0.417145 0.405548 0.308990
0.443634 0.412079 0.323090
0.468079 0.419220 0.337067
0.489838 0.426605 0.350098
0.510010 0.433990 0.362610
0.528717 0.441345 0.374451
0.546051 0.448578 0.385590
0.561188 0.455231 0.395599
0.575043 0.461578 0.404755
0.587555 0.467529 0.413055
0.598724 0.473053 0.420593
0.608124 0.477783 0.426849
0.616608 0.482147 0.432526
0.624390 0.486267 0.437744
0.631653 0.490204 0.442627
0.252289 0.417084 0.293884
0.253296 0.418427 0.294708
0.254059 0.419495 0.295349
0.254608 0.420288 0.295715
0.255096 0.420807 0.295959
0.255554 0.420929 0.295959
0.255859 0.420715 0.295624
0.256195 0.420074 0.294922
0.256592 0.419037 0.293884
0.257568 0.417725 0.292694
0.259644 0.416199 0.291229
0.263306 0.414917 0.289398
0.269043 0.414185 0.286743
0.278900 0.414429 0.283112
0.297211 0.415192 0.282166
0.322968 0.416229 0.285614
0.353119 0.417877 0.292725
0.383423 0.420441 0.302063
0.412659 0.424713 0.313995
0.440002 0.429962 0.326874
0.465485 0.435913 0.340027
0.488831 0.441925 0.352753
0.510162 0.448608 0.365234
0.529877 0.455261 0.377197
0.548126 0.461853 0.388580
0.564514 0.467926 0.399048
0.579010 0.473969 0.408569
0.592133 0.479675 0.417206
0.603882 0.484985 0.425049
0.613892 0.489532 0.431702
0.622742 0.493835 0.437622
0.630859 0.497864 0.443085
0.638458 0.501740 0.448181
0.266449 0.439880 0.309875
0.267395 0.441223 0.310730
0.268280 0.442322 0.311401
0.268921 0.443207 0.311890
0.269409 0.443817 0.312134
0.269836 0.444061 0.312164
0.270233 0.443970 0.311890
0.270630 0.443512 0.311340
0.271088 0.442719 0.310516
0.272003 0.441498 0.309418
0.273590 0.440125 0.308105
0.276611 0.438782 0.306488
0.281525 0.437805 0.304382
0.289825 0.437683 0.301239
0.302307 0.438141 0.298431
0.323456 0.438965 0.299316
0.350403 0.440125 0.304108
0.378998 0.441986 0.311493
0.407959 0.444641 0.320526
0.435913 0.448669 0.331818
0.462219 0.453491 0.343903
0.486603 0.458496 0.355957
0.509552 0.463837 0.368073
0.530365 0.469818 0.380066
0.549622 0.475769 0.391541
0.566986 0.481384 0.402222
0.582672 0.486877 0.412201
0.596436 0.492249 0.421173
0.608765 0.497345 0.429321
0.619324 0.501770 0.436340
0.628845 0.505890 0.442627
0.637360 0.509796 0.448364
0.645325 0.513580 0.453705
0.280365 0.462311 0.325745
0.281281 0.463593 0.326569
0.282074 0.464722 0.327240
0.282867 0.465637 0.327820
0.283478 0.466370 0.328156
0.283905 0.466705 0.328217
0.284332 0.466736 0.328003
0.284729 0.466431 0.327545
0.285248 0.465820 0.326874
0.286163 0.464752 0.325897
0.287659 0.463501 0.324707
0.290039 0.462219 0.323212
0.294220 0.461090 0.321411
0.301239 0.460663 0.318726
0.311768 0.460815 0.316071
0.326721 0.461395 0.314331
0.349823 0.462219 0.316833
0.376251 0.463501 0.322235
0.403778 0.465424 0.329468
0.431580 0.468048 0.338165
0.458496 0.471741 0.348846
0.483734 0.475830 0.359985
0.507690 0.480255 0.371460
0.530151 0.485016 0.383057
0.550507 0.490356 0.394531
0.568848 0.495422 0.405334
0.585480 0.500427 0.415527
0.600403 0.505341 0.424988
0.613342 0.510101 0.433411
0.624512 0.514343 0.440765
0.634583 0.518341 0.447479
0.643799 0.522064 0.453552
0.652161 0.525726 0.459198
0.294037 0.484406 0.341431
0.294952 0.485626 0.342224
0.295715 0.486725 0.342896
0.296417 0.487671 0.343475
0.297150 0.488434 0.343964
0.297607 0.488831 0.343964
0.298096 0.488953 0.343811
0.298553 0.488739 0.343475
0.299011 0.488220 0.342926
0.299927 0.487366 0.342041
0.301422 0.486267 0.340973
0.303711 0.485107 0.339600
0.307068 0.484009 0.337921
0.312988 0.483337 0.335663
0.321838 0.483185 0.333130
0.334412 0.483490 0.331207
0.351593 0.484070 0.330780
0.375427 0.484924 0.334198
0.401093 0.486237 0.339600
0.427704 0.488098 0.346649
0.454498 0.490540 0.355042
0.480408 0.493744 0.365021
0.505219 0.497345 0.375580
0.528687 0.501312 0.386536
0.550659 0.505585 0.397644
0.570007 0.510040 0.408447
0.587585 0.514526 0.418762
0.603455 0.518982 0.428467
0.617584 0.523315 0.437378
0.629425 0.527374 0.445038
0.640076 0.531158 0.452087
0.649811 0.534729 0.458588
0.658936 0.538116 0.464630
0.307281 0.505737 0.356873
0.308075 0.506927 0.357666
0.308899 0.508026 0.358398
0.309601 0.508942 0.358948
0.310242 0.509735 0.359406
0.310852 0.510162 0.359497
0.311371 0.510345 0.359406
0.311859 0.510254 0.359131
0.312378 0.509888 0.358643
0.313232 0.509186 0.357971
0.314575 0.508240 0.356934
0.316620 0.507202 0.355682
0.319580 0.506104 0.354126
0.324432 0.505310 0.352112
0.331757 0.504913 0.349701
0.342194 0.504974 0.347382
0.356567 0.505310 0.346008
0.375854 0.505798 0.346863
0.399536 0.506653 0.350525
0.424805 0.507965 0.355927
0.450836 0.509766 0.362762
0.476990 0.511841 0.370789
0.502472 0.514709 0.380432
0.526794 0.517914 0.390656
0.549744 0.521484 0.401245
0.570709 0.525116 0.411774
0.589294 0.529114 0.422119
0.606079 0.533173 0.431946
0.621124 0.537140 0.441132
0.634064 0.540710 0.449310
0.645416 0.544312 0.456696
0.655823 0.547729 0.463562
0.665588 0.550964 0.470001
0.320129 0.526550 0.372162
0.320953 0.527740 0.372955
0.321716 0.528809 0.373657
0.322449 0.529755 0.374237
0.323090 0.530548 0.374664
0.323669 0.531006 0.374817
0.324249 0.531250 0.374756
0.324799 0.531219 0.374542
0.325317 0.530975 0.374146
0.326202 0.530396 0.373505
0.327484 0.529633 0.372742
0.329285 0.528687 0.371552
0.331909 0.527679 0.370117
0.336151 0.526825 0.368195
0.342041 0.526215 0.365936
0.350769 0.526031 0.363525
0.362823 0.526154 0.361542
0.379333 0.526459 0.361145
0.399170 0.526917 0.362396
0.422729 0.527771 0.366180
0.447693 0.529022 0.371490
0.473389 0.530518 0.378143
0.499268 0.532410 0.386017
