nova/tdt-studio/app/Lut_mau/IWLTBAP/1 - LUTs by IWLTBAP (CUBE)/01 - Standard/Cinematic/X-6500-STD.cube
# Copyright: (C) Copyright 2010-2019 by IWLTBAP SAS
# Cannot be resold, shared or otherwise redistributed
# Website: https://luts.iwltbap.com
TITLE "IWLTBAP 6500 (Rec.709, sRGB, DCI-P3)"
LUT_3D_SIZE 9
0.048309 0.063385 0.065094
0.087830 0.071564 0.071564
0.150208 0.105286 0.108978
0.241364 0.161682 0.165802
0.338440 0.227051 0.232605
0.418793 0.281982 0.288269
0.479279 0.324127 0.330902
0.521149 0.353546 0.360443
0.544922 0.370544 0.376984
0.058655 0.093842 0.080048
0.092163 0.093842 0.079102
0.160706 0.119415 0.114990
0.245605 0.168427 0.168182
0.340912 0.230774 0.232758
0.424194 0.287384 0.290710
0.485779 0.330139 0.334290
0.528320 0.359955 0.364166
0.552582 0.377289 0.381073
0.086945 0.144226 0.114319
0.092163 0.142548 0.110779
0.156952 0.140015 0.119080
0.260773 0.189636 0.180023
0.354736 0.247284 0.242462
0.436432 0.301483 0.298401
0.497894 0.343323 0.341339
0.540039 0.372467 0.370941
0.565186 0.390106 0.388580
0.128418 0.213318 0.157959
0.128113 0.211304 0.154633
0.145325 0.210022 0.143402
0.264069 0.222778 0.188995
0.374054 0.277710 0.259003
0.454956 0.328705 0.313812
0.514771 0.368439 0.355255
0.556641 0.396606 0.384308
0.582886 0.414398 0.402435
0.181122 0.301086 0.214966
0.181976 0.301483 0.214966
0.183502 0.295258 0.209259
0.241364 0.294525 0.204163
0.375488 0.320709 0.267212
0.467651 0.365448 0.327484
0.532501 0.403229 0.371429
0.577179 0.430511 0.401825
0.605499 0.448364 0.421082
0.237854 0.393860 0.277710
0.240723 0.397400 0.279724
0.241852 0.394928 0.277039
0.256958 0.390289 0.268341
0.357758 0.395538 0.282776
0.468079 0.419220 0.337067
0.546051 0.448578 0.385590
0.598724 0.473053 0.420593
0.631653 0.490204 0.442627
0.294037 0.484406 0.341431
0.297150 0.488434 0.343964
0.299011 0.488220 0.342926
0.307068 0.484009 0.337921
0.351593 0.484070 0.330780
0.454498 0.490540 0.355042
0.550659 0.505585 0.397644
0.617584 0.523315 0.437378
0.658936 0.538116 0.464630
0.344788 0.566711 0.402191
0.347809 0.570618 0.404602
0.350189 0.571533 0.404510
0.355743 0.569061 0.401306
0.377472 0.566650 0.392700
0.443329 0.567383 0.391541
0.543182 0.571533 0.415161
0.628204 0.580383 0.452026
0.684052 0.590698 0.485565
0.390198 0.640686 0.459808
0.393219 0.644836 0.462738
0.395630 0.646729 0.463104
0.399750 0.645691 0.460846
0.411377 0.642700 0.454712
0.444489 0.641571 0.440552
0.528198 0.640564 0.443024
0.629089 0.641113 0.467926
0.703705 0.645538 0.504608
0.053650 0.066772 0.083801
0.089600 0.072083 0.088287
0.149384 0.105286 0.113617
0.238800 0.161438 0.168182
0.333710 0.225006 0.231598
0.417145 0.282135 0.289185
0.478394 0.324799 0.332428
0.521332 0.354950 0.362610
0.545502 0.372192 0.379425
0.061646 0.101471 0.106415
0.087402 0.105286 0.108246
0.157959 0.125580 0.126862
0.251587 0.178040 0.179810
0.344269 0.236206 0.239441
0.426117 0.290985 0.295288
0.488220 0.333954 0.338776
0.530914 0.363800 0.368652
0.555542 0.381073 0.385315
0.089600 0.155670 0.138306
0.096313 0.156952 0.134491
0.164612 0.160217 0.138580
0.264954 0.199310 0.190247
0.359039 0.256073 0.250977
0.440796 0.308594 0.305511
0.502380 0.349976 0.347900
0.544739 0.378967 0.377380
0.570129 0.396149 0.394562
0.136261 0.232605 0.184570
0.138580 0.234253 0.184357
0.157196 0.231445 0.176910
0.268188 0.236359 0.198547
0.377350 0.288269 0.266632
0.459229 0.338776 0.321991
0.520508 0.378571 0.363983
0.563110 0.406219 0.392883
0.589752 0.423279 0.410553
0.190857 0.321625 0.243408
0.193939 0.324554 0.243561
0.196747 0.320038 0.237335
0.249451 0.319336 0.225861
0.380524 0.337921 0.278381
0.473206 0.380524 0.338135
0.539429 0.417145 0.382385
0.585052 0.443390 0.412476
0.613739 0.460175 0.430908
0.248688 0.414886 0.306213
0.251434 0.418030 0.306915
0.254425 0.417297 0.304138
0.273071 0.412628 0.296509
0.364166 0.417877 0.303558
0.473541 0.438477 0.351593
0.553589 0.465485 0.398254
0.607300 0.488037 0.432037
0.640228 0.503540 0.452850
0.303314 0.503418 0.369995
0.306335 0.507080 0.371307
0.309204 0.507141 0.369598
0.319916 0.503998 0.364563
0.364471 0.504333 0.357574
0.460846 0.510559 0.375031
0.557434 0.523376 0.411987
0.625336 0.538727 0.448578
0.666840 0.551361 0.474030
0.352417 0.583435 0.431000
0.355469 0.587219 0.432892
0.358368 0.588226 0.431793
0.365540 0.586304 0.427979
0.389557 0.584137 0.420105
0.451752 0.585266 0.415070
0.548676 0.588501 0.431793
0.634399 0.594910 0.463318
0.690460 0.602661 0.493835
0.396515 0.655762 0.489380
0.399384 0.659760 0.491547
0.402100 0.661621 0.491150
0.406891 0.660828 0.487610
0.420929 0.657959 0.481293
0.454803 0.656799 0.466705
0.533356 0.655853 0.461639
0.633453 0.654388 0.480133
0.708557 0.655762 0.511719
0.062225 0.076172 0.114655
0.087830 0.078125 0.125275
0.150452 0.101471 0.126862
0.241028 0.161682 0.177155
0.338013 0.228088 0.240082
0.416656 0.282776 0.293640
0.478241 0.326263 0.336334
0.521637 0.357056 0.366791
0.546814 0.375031 0.383942
0.075165 0.109344 0.139740
0.092590 0.116730 0.145599
0.163879 0.134186 0.156952
0.255341 0.185852 0.198547
0.348816 0.243408 0.254120
0.427795 0.296539 0.305725
0.489166 0.338470 0.346558
0.532806 0.368652 0.375946
0.558533 0.386230 0.392609
0.100311 0.167725 0.181976
0.104919 0.174896 0.182861
0.162170 0.186707 0.188171
0.273346 0.221893 0.223297
0.370636 0.275116 0.276489
0.447968 0.321625 0.323212
0.507507 0.359650 0.361328
0.549622 0.387299 0.388580
0.575745 0.404083 0.404663
0.145325 0.256226 0.234406
0.146423 0.257538 0.235718
0.164124 0.259888 0.225006
0.279724 0.270294 0.236694
0.388031 0.313324 0.294006
0.468719 0.358246 0.343842
0.529449 0.393768 0.381744
0.571869 0.419037 0.407928
0.598633 0.434723 0.423523
0.203033 0.348633 0.292114
0.206268 0.352600 0.292480
0.211487 0.351685 0.286194
0.262512 0.353729 0.275269
0.390991 0.369293 0.308716
0.483246 0.405518 0.362701
0.550201 0.437836 0.403656
0.596313 0.461273 0.430908
0.625092 0.475800 0.446991
0.260193 0.440948 0.352905
0.263824 0.445068 0.353516
0.268066 0.445007 0.349121
0.291992 0.443237 0.342163
0.376709 0.449005 0.343323
0.483307 0.466553 0.380524
0.564972 0.489655 0.421661
0.619354 0.509186 0.452026
0.652557 0.522339 0.470428
0.313110 0.526062 0.413239
0.316467 0.529999 0.413910
0.320496 0.530731 0.411133
0.334503 0.529083 0.405701
0.381439 0.530182 0.399994
0.470581 0.536926 0.408600
0.566925 0.547852 0.437134
0.636292 0.560486 0.468506
0.678345 0.570618 0.490936
0.360443 0.602692 0.470703
0.363678 0.606781 0.472260
0.367096 0.608276 0.470490
0.375946 0.607147 0.465912
0.402771 0.605774 0.458710
0.462433 0.607666 0.450684
0.555664 0.610840 0.458649
0.642456 0.615112 0.482971
0.699707 0.620026 0.508698
0.403046 0.672607 0.526733
0.406128 0.676697 0.528839
0.408936 0.678772 0.527893
0.414154 0.678436 0.523376
0.429810 0.676239 0.516235
0.466278 0.675079 0.502777
0.539612 0.675049 0.490265
0.638550 0.672058 0.500275
0.715210 0.670166 0.524200
0.086945 0.102631 0.166046
0.094238 0.102234 0.167480
0.149139 0.110779 0.181763
0.248383 0.163635 0.206085
0.343323 0.230255 0.257690
0.421173 0.284882 0.306946
0.481873 0.328369 0.347076
0.525177 0.359955 0.376068
0.551086 0.379425 0.393219
0.099915 0.129028 0.188812
0.111481 0.137421 0.198730
0.160950 0.143951 0.214600
0.261047 0.182648 0.226196
0.355225 0.246674 0.275269
0.433929 0.300842 0.323425
0.493500 0.343231 0.361725
0.536560 0.374359 0.389648
0.562805 0.393219 0.405609
0.124969 0.179138 0.231445
0.128723 0.186279 0.234070
0.168671 0.207031 0.252319
0.281860 0.239746 0.275269
0.378387 0.291718 0.313080
0.453522 0.334900 0.351593
0.511841 0.370941 0.384491
0.554169 0.397919 0.408447
0.581207 0.414642 0.422302
0.161926 0.268616 0.295258
0.165100 0.275269 0.297638
0.179138 0.285797 0.298248
0.282501 0.313324 0.318298
0.402954 0.349854 0.350769
0.481110 0.384277 0.384644
0.539490 0.413483 0.413483
0.581421 0.435577 0.434082
0.608795 0.449493 0.446014
0.213318 0.374451 0.360535
0.217468 0.380066 0.362213
0.225708 0.383820 0.357361
0.278381 0.394714 0.355225
0.407562 0.414062 0.375397
0.500793 0.442078 0.412537
0.566193 0.466553 0.442566
0.611298 0.485168 0.463013
0.640137 0.496765 0.474457
0.270599 0.467438 0.416809
0.274994 0.472473 0.418213
0.281738 0.474945 0.414551
0.309540 0.478241 0.408936
0.395691 0.488831 0.411530
0.502319 0.505432 0.434845
0.583496 0.523834 0.465271
0.636749 0.539215 0.488434
0.669983 0.549164 0.501984
0.322327 0.549927 0.470795
0.326477 0.554626 0.471985
0.332001 0.556915 0.469360
0.348938 0.558075 0.464111
0.399658 0.562317 0.460327
0.487823 0.571350 0.463531
0.583069 0.582031 0.482483
0.652588 0.592133 0.505951
0.695343 0.599640 0.523071
0.368744 0.623993 0.522705
0.372375 0.628601 0.524567
0.376617 0.630951 0.522827
0.386688 0.631592 0.517822
0.415985 0.632233 0.511780
0.476776 0.636047 0.504333
0.567047 0.641235 0.504608
0.654694 0.644592 0.519745
0.714050 0.646973 0.538055
0.410553 0.691437 0.573853
0.413727 0.695801 0.576172
0.416718 0.698364 0.575470
0.422241 0.698975 0.570679
0.438324 0.698273 0.563049
0.477692 0.698059 0.552185
0.548676 0.699738 0.536377
0.645447 0.697510 0.536194
0.725800 0.692932 0.549438
0.118073 0.135986 0.223114
0.121735 0.135956 0.222931
0.151245 0.142853 0.247284
0.250977 0.170074 0.270020
0.356354 0.235382 0.299866
0.433624 0.291626 0.338348
0.491150 0.333313 0.371216
0.533051 0.364288 0.395966
0.559692 0.384766 0.410889
0.134491 0.160950 0.249908
0.140594 0.165588 0.255615
0.164856 0.170074 0.270020
0.258575 0.190247 0.292358
0.367188 0.249603 0.318207
0.444244 0.305725 0.355652
0.502899 0.348755 0.388763
0.545044 0.380066 0.412811
0.571899 0.400360 0.426849
0.160461 0.210938 0.296509
0.163879 0.215698 0.299133
0.190247 0.233917 0.317963
0.278107 0.252930 0.348328
0.388184 0.293762 0.360321
0.463959 0.341736 0.389465
0.521332 0.379425 0.416718
0.562592 0.407074 0.436981
0.589691 0.425140 0.448669
0.192719 0.281860 0.349854
0.198151 0.291351 0.357544
0.213684 0.305481 0.366394
0.290710 0.339081 0.397797
0.413727 0.375397 0.421814
0.494232 0.407654 0.440155
0.550507 0.432892 0.457672
0.590851 0.452484 0.471497
0.618164 0.465485 0.479279
0.235870 0.384644 0.422791
0.239441 0.392242 0.426117
0.249146 0.402435 0.429169
0.299011 0.425781 0.441223
0.418030 0.457825 0.465759
0.521576 0.483917 0.487274
0.585266 0.501007 0.501801
0.626831 0.512726 0.511139
0.655060 0.520508 0.515900
0.282257 0.485504 0.484131
0.286865 0.492004 0.486725
0.295166 0.498291 0.486450
0.326355 0.509338 0.487000
0.412628 0.530487 0.498291
0.527283 0.553406 0.517731
0.609863 0.568390 0.535522
0.658691 0.576935 0.546265
0.690491 0.581879 0.551300
0.330231 0.570526 0.535095
0.334717 0.576172 0.537292
0.341553 0.580658 0.536255
0.360748 0.586304 0.533478
0.413910 0.597260 0.534607
0.509918 0.613281 0.541901
0.609558 0.626587 0.554840
0.676392 0.634186 0.568512
0.717560 0.638123 0.576996
0.375397 0.644684 0.582458
0.379425 0.649811 0.584961
0.384491 0.653442 0.584137
0.395721 0.656464 0.580353
0.426514 0.661072 0.576294
0.492432 0.669525 0.574249
0.587097 0.679413 0.574310
0.675049 0.684265 0.581604
0.734558 0.685059 0.590637
0.416901 0.710815 0.628204
0.420197 0.715607 0.631165
0.423706 0.718781 0.631165
0.429810 0.720703 0.627380
0.445923 0.722229 0.620422
0.486938 0.724731 0.612976
0.561554 0.729889 0.602142
0.658417 0.731934 0.595367
0.742554 0.726685 0.597168
0.156189 0.176483 0.287628
0.157196 0.176483 0.287109
0.170074 0.179169 0.297150
0.236053 0.195740 0.332764
0.360229 0.237518 0.365631
0.447906 0.296539 0.388947
0.505432 0.340179 0.412140
0.545105 0.370544 0.429565
0.570923 0.390808 0.440338
0.169373 0.196747 0.310486
0.173309 0.199921 0.313904
0.186707 0.204742 0.320709
0.250824 0.218384 0.359039
0.368927 0.253540 0.384003
0.457916 0.310028 0.407654
0.516479 0.354645 0.430603
0.557281 0.386139 0.448212
0.583832 0.406891 0.458496
0.196960 0.245270 0.358643
0.201477 0.251434 0.364471
0.217316 0.261932 0.375763
0.274170 0.275940 0.407043
0.384369 0.300110 0.425629
0.474243 0.343842 0.441559
0.533844 0.384308 0.460175
0.574951 0.413483 0.474670
0.601929 0.432587 0.482880
0.229431 0.311920 0.414398
0.234741 0.320831 0.422058
0.248383 0.334259 0.432556
0.303070 0.360931 0.460297
0.408325 0.386932 0.490723
0.502899 0.416565 0.500000
0.563934 0.443329 0.508484
0.603546 0.463318 0.515533
0.629700 0.476501 0.519073
0.266663 0.397552 0.476715
0.271393 0.406891 0.483215
0.282654 0.419525 0.491608
0.324432 0.444092 0.509888
0.422394 0.478302 0.540649
0.532318 0.509644 0.563110
0.603119 0.528198 0.569122
0.642059 0.536499 0.568634
0.667480 0.540588 0.566040
0.305511 0.495239 0.540985
0.310150 0.503632 0.546112
0.318542 0.512848 0.549927
0.347168 0.529022 0.557617
0.423126 0.557617 0.578247
0.539856 0.591980 0.606628
0.633179 0.613129 0.621521
0.681244 0.617798 0.621216
0.709229 0.615387 0.615082
0.344269 0.584534 0.595215
0.348541 0.591431 0.598907
0.355164 0.598175 0.600525
0.373138 0.607666 0.602020
0.422791 0.625244 0.610229
0.521576 0.652222 0.629211
0.634155 0.675171 0.647797
0.704895 0.683807 0.655212
0.743011 0.683502 0.653381
0.383392 0.661560 0.641785
0.387299 0.667450 0.645203
0.392334 0.672424 0.646118
0.403381 0.677917 0.645020
0.432892 0.686890 0.644989
0.500854 0.702515 0.651001
0.607300 0.721191 0.661194
0.703156 0.731567 0.668610
0.761658 0.733093 0.670929
0.421997 0.728638 0.684113
0.425568 0.733734 0.687683
0.429169 0.737793 0.688843
0.435425 0.741058 0.686981
0.451141 0.744995 0.682678
0.491669 0.751648 0.679199
0.573364 0.763123 0.679260
0.680359 0.773560 0.678345
0.767578 0.770813 0.674896
0.192932 0.217316 0.350677
0.191925 0.215515 0.347290
0.199341 0.217499 0.350372
0.240723 0.227753 0.388580
0.342590 0.256378 0.422394
0.453827 0.300018 0.451599
0.519501 0.344482 0.465637
0.559906 0.376068 0.475311
0.584564 0.396606 0.480743
0.203796 0.233429 0.368927
0.207611 0.237671 0.373230
0.217468 0.241974 0.378571
0.258423 0.252319 0.415466
0.355957 0.277008 0.445312
0.461945 0.315216 0.469574
0.529327 0.358246 0.484009
0.571472 0.390472 0.494019
0.597534 0.411896 0.499481
0.229584 0.276062 0.413391
0.233765 0.281708 0.418701
0.244171 0.288116 0.425629
0.282379 0.300354 0.449402
0.371796 0.317841 0.484283
0.472778 0.348511 0.500061
0.543915 0.385773 0.512146
0.588074 0.415741 0.520142
0.615387 0.436035 0.524078
0.263672 0.343109 0.473328
0.269165 0.351685 0.481384
0.279724 0.361908 0.490265
0.315887 0.377808 0.508362
0.395966 0.395508 0.540985
0.494171 0.417694 0.554840
0.569977 0.442627 0.559570
0.615784 0.463898 0.561737
0.642883 0.478821 0.561218
0.298035 0.419525 0.530853
0.303680 0.429230 0.538788
0.313690 0.440399 0.547272
0.344696 0.458344 0.562988
0.418030 0.483856 0.591431
0.521454 0.511322 0.618958
0.607422 0.531708 0.625305
0.655762 0.542908 0.621460
0.681458 0.547791 0.614563
0.332977 0.507141 0.590393
0.337921 0.515839 0.596802
0.346039 0.525696 0.602966
0.369110 0.540802 0.613403
0.428375 0.566498 0.635468
0.532623 0.602234 0.668976
0.637695 0.631104 0.690155
0.698364 0.641907 0.689758
0.727539 0.639771 0.679382
0.366425 0.594299 0.645966
0.370453 0.601807 0.650848
0.376434 0.609558 0.654694
0.391449 0.620422 0.659760
0.432343 0.639313 0.671875
0.519745 0.670929 0.697845
0.637482 0.705536 0.727936
0.723450 0.724243 0.740845
0.767883 0.727783 0.737427
0.398773 0.673157 0.693573
0.402344 0.679596 0.697693
0.406647 0.685638 0.700165
0.415741 0.692657 0.701874
0.440704 0.704132 0.705963
0.501404 0.724426 0.718597
0.609253 0.753052 0.741760
0.720062 0.775085 0.760773
0.789124 0.784058 0.766724
0.430450 0.742615 0.734619
0.433838 0.748260 0.738586
0.437225 0.752930 0.740784
0.442627 0.757385 0.741028
0.456207 0.763245 0.740265
0.492340 0.773499 0.741760
0.573120 0.791718 0.752075
0.692810 0.812500 0.766602
0.793793 0.818542 0.771332
0.226227 0.253998 0.406128
0.226044 0.253998 0.405609
0.229614 0.254761 0.406128
0.251892 0.260498 0.427490
0.328888 0.279053 0.468201
0.437378 0.312286 0.501526
0.523834 0.348114 0.521576
0.572693 0.379425 0.528381
0.600159 0.401306 0.529877
0.237518 0.271271 0.425629
0.240417 0.274994 0.429718
0.247162 0.278534 0.433533
0.274445 0.288025 0.455902
0.348816 0.304047 0.496552
0.448212 0.330902 0.521332
0.532257 0.363312 0.538971
0.583282 0.393219 0.546204
0.612274 0.415070 0.547791
0.256378 0.301605 0.457825
0.260498 0.307312 0.463684
0.269470 0.313904 0.471130
0.297516 0.325439 0.488708
0.365417 0.339935 0.530914
0.459656 0.361938 0.550446
0.542969 0.389191 0.563507
0.597260 0.415314 0.569733
0.628418 0.435883 0.570404
0.289825 0.364746 0.516937
0.294525 0.371887 0.523834
0.303192 0.379974 0.531586
0.328461 0.390717 0.544678
0.387482 0.403290 0.573364
0.476074 0.419281 0.597748
0.561279 0.438690 0.604950
0.620056 0.457153 0.606598
0.653290 0.472778 0.604370
0.324921 0.440338 0.576996
0.329681 0.448120 0.583649
0.337708 0.456573 0.590759
0.359741 0.468140 0.602295
0.411896 0.483521 0.623657
0.497833 0.502258 0.653473
0.589417 0.518494 0.665649
0.654175 0.529388 0.662018
0.690674 0.536499 0.655762
0.358063 0.520569 0.632812
0.362610 0.528534 0.639038
0.369598 0.536804 0.645264
0.386932 0.548096 0.654602
0.429810 0.565765 0.672302
0.512665 0.592499 0.703247
0.617035 0.618713 0.730743
0.695129 0.631744 0.733368
0.739105 0.634277 0.725220
0.388855 0.602661 0.686157
0.392792 0.610046 0.691589
0.398010 0.617554 0.696350
0.410126 0.627167 0.702698
0.441254 0.642731 0.714874
0.510742 0.669434 0.739563
0.620422 0.705078 0.774658
0.721069 0.731445 0.795837
0.782257 0.742859 0.796082
0.417389 0.680542 0.733704
0.420837 0.687195 0.738312
0.424683 0.693420 0.741882
0.432281 0.700745 0.745483
0.452026 0.711945 0.751862
0.501251 0.731689 0.766632
0.597229 0.763306 0.795319
0.714844 0.796387 0.826782
0.802551 0.817261 0.842041
0.444794 0.751526 0.774475
0.447906 0.757538 0.778687
0.450836 0.762695 0.781616
0.455017 0.767822 0.783447
0.465546 0.774719 0.785522
0.494843 0.786438 0.791138
0.564453 0.807709 0.807190
0.682770 0.837494 0.835144
0.803497 0.859802 0.858459
0.255951 0.288269 0.456207
0.257263 0.289948 0.458038
0.257263 0.289062 0.456360
0.270447 0.293762 0.464752
0.319458 0.302948 0.506622
0.415497 0.327484 0.538910
0.511627 0.357147 0.567047
0.579681 0.382660 0.582031
0.615082 0.405029 0.584412
0.268494 0.307312 0.477631
0.271423 0.311096 0.481995
0.274170 0.313110 0.483643
0.291107 0.320496 0.494904
0.340698 0.329681 0.535217
0.429962 0.348541 0.561859
0.520386 0.373505 0.584076
0.588440 0.396332 0.597900
0.626099 0.417053 0.601105
0.284241 0.333069 0.504456
0.287903 0.338043 0.510040
0.294037 0.344177 0.516357
0.312744 0.352814 0.528198
0.360535 0.363190 0.563202
0.443024 0.377472 0.590820
0.529877 0.397034 0.606598
0.598694 0.415985 0.617249
0.639648 0.433685 0.620605
0.308960 0.378662 0.547974
0.312988 0.384491 0.554047
0.319458 0.391083 0.560638
0.338348 0.401215 0.572632
0.382385 0.412384 0.596832
0.456940 0.422882 0.629150
0.542664 0.436279 0.641693
0.613495 0.449554 0.646301
0.659393 0.461426 0.648254
0.344055 0.452698 0.609772
0.348022 0.458710 0.615417
0.353851 0.464386 0.620758
0.369324 0.472076 0.629395
0.406464 0.481171 0.645355
0.473694 0.490540 0.673370
0.560425 0.499939 0.692871
0.635742 0.507385 0.692139
0.688385 0.511444 0.689392
0.377563 0.530731 0.665894
0.381561 0.537384 0.671539
0.387115 0.543610 0.676880
0.399323 0.550964 0.684204
0.429169 0.560638 0.696899
0.489532 0.574402 0.720581
0.580627 0.590607 0.751434
0.666992 0.598999 0.758667
0.727325 0.598267 0.748230
0.407318 0.609375 0.717041
0.410980 0.616150 0.722412
0.415558 0.622559 0.727325
0.424835 0.630096 0.733490
0.447296 0.640625 0.744080
0.497955 0.657837 0.764099
0.589844 0.685394 0.798645
0.696533 0.709717 0.827484
0.774536 0.718658 0.825012
0.433441 0.685394 0.763123
0.436676 0.691895 0.767944
0.440338 0.697937 0.772125
0.446625 0.704559 0.776733
0.461700 0.714050 0.784149
0.499207 0.729767 0.798950
0.578094 0.757446 0.827454
0.695496 0.793976 0.866394
0.802887 0.822754 0.890503
0.458649 0.756683 0.803162
0.461700 0.762848 0.807556
0.464691 0.768250 0.811157
0.468567 0.773560 0.814270
0.477051 0.780457 0.818359
0.499939 0.791687 0.826782
0.557037 0.812195 0.845551
0.666260 0.846588 0.881317
0.799225 0.886597 0.924805
