nova/tdt-studio/app/Lut_mau/IWLTBAP/1 - LUTs by IWLTBAP (CUBE)/01 - Standard/Cinematic/X-6500-STD.cube
# Copyright: (C) Copyright 2010-2019 by IWLTBAP SAS
# Cannot be resold, shared or otherwise redistributed
# Website: https://luts.iwltbap.com
TITLE "IWLTBAP 6500 (Rec.709, sRGB, DCI-P3)"
LUT_3D_SIZE 5
0.048309 0.063385 0.065094
0.150208 0.105286 0.108978
0.338440 0.227051 0.232605
0.479279 0.324127 0.330902
0.544922 0.370544 0.376984
0.086945 0.144226 0.114319
0.156952 0.140015 0.119080
0.354736 0.247284 0.242462
0.497894 0.343323 0.341339
0.565186 0.390106 0.388580
0.181122 0.301086 0.214966
0.183502 0.295258 0.209259
0.375488 0.320709 0.267212
0.532501 0.403229 0.371429
0.605499 0.448364 0.421082
0.294037 0.484406 0.341431
0.299011 0.488220 0.342926
0.351593 0.484070 0.330780
0.550659 0.505585 0.397644
0.658936 0.538116 0.464630
0.390198 0.640686 0.459808
0.395630 0.646729 0.463104
0.411377 0.642700 0.454712
0.528198 0.640564 0.443024
0.703705 0.645538 0.504608
0.062225 0.076172 0.114655
0.150452 0.101471 0.126862
0.338013 0.228088 0.240082
0.478241 0.326263 0.336334
0.546814 0.375031 0.383942
0.100311 0.167725 0.181976
0.162170 0.186707 0.188171
0.370636 0.275116 0.276489
0.507507 0.359650 0.361328
0.575745 0.404083 0.404663
0.203033 0.348633 0.292114
0.211487 0.351685 0.286194
0.390991 0.369293 0.308716
0.550201 0.437836 0.403656
0.625092 0.475800 0.446991
0.313110 0.526062 0.413239
0.320496 0.530731 0.411133
0.381439 0.530182 0.399994
0.566925 0.547852 0.437134
0.678345 0.570618 0.490936
0.403046 0.672607 0.526733
0.408936 0.678772 0.527893
0.429810 0.676239 0.516235
0.539612 0.675049 0.490265
0.715210 0.670166 0.524200
0.118073 0.135986 0.223114
0.151245 0.142853 0.247284
0.356354 0.235382 0.299866
0.491150 0.333313 0.371216
0.559692 0.384766 0.410889
0.160461 0.210938 0.296509
0.190247 0.233917 0.317963
0.388184 0.293762 0.360321
0.521332 0.379425 0.416718
0.589691 0.425140 0.448669
0.235870 0.384644 0.422791
0.249146 0.402435 0.429169
0.418030 0.457825 0.465759
0.585266 0.501007 0.501801
0.655060 0.520508 0.515900
0.330231 0.570526 0.535095
0.341553 0.580658 0.536255
0.413910 0.597260 0.534607
0.609558 0.626587 0.554840
0.717560 0.638123 0.576996
0.416901 0.710815 0.628204
0.423706 0.718781 0.631165
0.445923 0.722229 0.620422
0.561554 0.729889 0.602142
0.742554 0.726685 0.597168
0.192932 0.217316 0.350677
0.199341 0.217499 0.350372
0.342590 0.256378 0.422394
0.519501 0.344482 0.465637
0.584564 0.396606 0.480743
0.229584 0.276062 0.413391
0.244171 0.288116 0.425629
0.371796 0.317841 0.484283
0.543915 0.385773 0.512146
0.615387 0.436035 0.524078
0.298035 0.419525 0.530853
0.313690 0.440399 0.547272
0.418030 0.483856 0.591431
0.607422 0.531708 0.625305
0.681458 0.547791 0.614563
0.366425 0.594299 0.645966
0.376434 0.609558 0.654694
0.432343 0.639313 0.671875
0.637482 0.705536 0.727936
0.767883 0.727783 0.737427
0.430450 0.742615 0.734619
0.437225 0.752930 0.740784
0.456207 0.763245 0.740265
0.573120 0.791718 0.752075
0.793793 0.818542 0.771332
0.255951 0.288269 0.456207
0.257263 0.289062 0.456360
0.319458 0.302948 0.506622
0.511627 0.357147 0.567047
0.615082 0.405029 0.584412
0.284241 0.333069 0.504456
0.294037 0.344177 0.516357
0.360535 0.363190 0.563202
0.529877 0.397034 0.606598
0.639648 0.433685 0.620605
0.344055 0.452698 0.609772
0.353851 0.464386 0.620758
0.406464 0.481171 0.645355
0.560425 0.499939 0.692871
0.688385 0.511444 0.689392
0.407318 0.609375 0.717041
0.415558 0.622559 0.727325
0.447296 0.640625 0.744080
0.589844 0.685394 0.798645
0.774536 0.718658 0.825012
0.458649 0.756683 0.803162
0.464691 0.768250 0.811157
0.477051 0.780457 0.818359
0.557037 0.812195 0.845551
0.799225 0.886597 0.924805
