nova/tdt-studio/app/Lut_mau/Halcyon/HALCYON_DAYTONA_V2.cube
LUT_3D_SIZE 16
-0.101290 -0.097742 -0.097284
-0.092990 -0.097742 -0.097284
-0.042513 -0.097742 -0.097284
0.036597 -0.095757 -0.097507
0.069944 -0.089700 -0.097249
0.118226 -0.082724 -0.096370
0.175472 -0.073503 -0.095608
0.225571 -0.068196 -0.094858
0.262208 -0.066517 -0.094011
0.304428 -0.064440 -0.092384
0.344213 -0.063760 -0.090622
0.382933 -0.065146 -0.088658
0.422966 -0.066905 -0.086946
0.462069 -0.069332 -0.084894
0.501540 -0.069537 -0.082864
0.519902 -0.069824 -0.082122
-0.101290 -0.089461 -0.097284
-0.092990 -0.089461 -0.097284
-0.042513 -0.089461 -0.097284
0.036597 -0.090023 -0.097507
0.069944 -0.084598 -0.097249
0.118226 -0.077573 -0.096370
0.175472 -0.068156 -0.095608
0.225571 -0.062589 -0.094858
0.262208 -0.060626 -0.094011
0.304428 -0.058255 -0.092384
0.344213 -0.057343 -0.090622
0.382933 -0.058543 -0.088658
0.422966 -0.060126 -0.086946
0.462069 -0.062359 -0.084894
0.501540 -0.062394 -0.082864
0.519902 -0.062521 -0.082122
-0.101290 -0.039152 -0.097284
-0.092990 -0.039152 -0.097284
-0.042513 -0.039152 -0.097284
0.036597 -0.060003 -0.097507
0.069944 -0.058593 -0.097249
0.118226 -0.051232 -0.096370
0.175472 -0.040475 -0.095608
0.225571 -0.033199 -0.094858
0.262208 -0.029285 -0.094011
0.304428 -0.024887 -0.092384
0.344213 -0.022257 -0.090622
0.382933 -0.022036 -0.088658
0.422966 -0.022290 -0.086946
0.462069 -0.023124 -0.084894
0.501540 -0.021683 -0.082864
0.519902 -0.020462 -0.082122
-0.100828 0.034434 -0.095518
-0.095082 0.034434 -0.095518
-0.064917 0.034434 -0.095518
0.047684 0.042446 -0.094348
0.090582 0.048167 -0.095157
0.151646 0.059547 -0.094856
0.219529 0.069393 -0.094288
0.284492 0.079265 -0.092741
0.341722 0.087601 -0.090757
0.391376 0.091960 -0.088752
0.436707 0.095832 -0.086592
0.479368 0.098105 -0.084394
0.520484 0.103978 -0.082333
0.556065 0.104612 -0.080571
0.588956 0.107278 -0.078978
0.607659 0.110388 -0.077878
-0.100156 0.046176 -0.089225
-0.095016 0.046176 -0.089225
-0.068759 0.046176 -0.089225
0.041914 0.058297 -0.086947
0.139473 0.099129 -0.082824
0.230711 0.121801 -0.084885
0.316505 0.135614 -0.086199
0.398406 0.152483 -0.085235
0.468132 0.169077 -0.083741
0.520956 0.178384 -0.081599
0.561231 0.180310 -0.079763
0.594184 0.177661 -0.078392
0.625959 0.174960 -0.076789
0.656604 0.175957 -0.075076
0.685117 0.183377 -0.072605
0.702949 0.193201 -0.070532
-0.098260 0.065017 -0.079444
-0.093012 0.065017 -0.079444
-0.066302 0.065017 -0.079444
0.044481 0.086103 -0.076148
0.157914 0.148036 -0.071373
0.303114 0.207750 -0.070888
0.417854 0.242609 -0.072654
0.503952 0.260789 -0.075250
0.573895 0.277807 -0.071974
0.624852 0.289163 -0.069567
0.660187 0.285090 -0.068557
0.689476 0.276575 -0.068336
0.711663 0.264607 -0.067734
0.737301 0.261203 -0.066773
0.761562 0.272953 -0.062496
0.777144 0.288436 -0.056853
-0.092676 0.095482 -0.065229
-0.087215 0.095482 -0.065229
-0.059046 0.095482 -0.065229
0.057686 0.131237 -0.065197
0.179713 0.206715 -0.068318
0.355039 0.290602 -0.060764
0.494379 0.344782 -0.052961
0.592430 0.375397 -0.052982
0.659135 0.391280 -0.055410
0.704786 0.396868 -0.049244
0.734105 0.390438 -0.048995
0.759219 0.376062 -0.051367
0.781339 0.364491 -0.051346
0.804606 0.357681 -0.050068
0.823719 0.370913 -0.042448
0.834249 0.392546 -0.023499
-0.079553 0.140070 -0.050654
-0.073881 0.140070 -0.050654
-0.044187 0.140070 -0.050654
0.080250 0.190892 -0.055809
0.200850 0.270808 -0.061825
0.376977 0.355277 -0.046902
0.543814 0.429785 -0.027824
0.644617 0.462177 -0.014551
0.712106 0.478843 -0.015223
0.755966 0.484984 -0.015327
0.789766 0.480546 -0.022218
0.813984 0.467021 -0.023863
0.835392 0.453723 -0.027805
0.853909 0.450135 -0.023969
0.867679 0.464671 -0.006631
0.871567 0.488119 0.023539
-0.061037 0.193758 -0.029033
-0.055174 0.193758 -0.029033
-0.023996 0.193758 -0.029033
0.099811 0.253723 -0.031511
0.225204 0.343490 -0.042982
0.386265 0.407683 -0.027061
0.551059 0.483964 0.006835
0.679101 0.533388 0.025111
0.747902 0.547100 0.025817
0.797316 0.553850 0.021719
0.831860 0.552505 0.018680
0.856808 0.545381 0.013210
0.876377 0.532008 0.001963
0.888029 0.528366 0.006302
0.894510 0.545105 0.041089
0.893869 0.564157 0.089107
-0.041656 0.249925 -0.000205
-0.035616 0.249925 -0.000205
-0.002955 0.249925 -0.000205
0.118663 0.309848 -0.003072
0.235824 0.402686 -0.014419
0.387781 0.454011 -0.010914
0.552780 0.522490 0.016903
0.687945 0.579151 0.050252
0.778577 0.607310 0.066568
0.831570 0.613299 0.061575
0.866026 0.612815 0.050007
0.889263 0.606751 0.040165
0.904373 0.599361 0.039004
0.912418 0.599727 0.056281
0.913148 0.616768 0.122079
0.912103 0.635430 0.203246
-0.029020 0.304293 0.029778
-0.022821 0.304293 0.029778
0.009113 0.304293 0.029447
0.129501 0.355501 0.023414
0.241737 0.444152 -0.000140
0.393430 0.499600 -0.006511
0.549565 0.553631 0.013516
0.698660 0.618260 0.048069
0.796905 0.656212 0.081322
0.856706 0.668783 0.102695
0.890367 0.671245 0.113826
0.914029 0.669174 0.096932
0.924462 0.668550 0.099913
0.929867 0.673414 0.145444
0.929713 0.690466 0.253834
0.928478 0.709708 0.353155
-0.011317 0.354787 0.059653
-0.005046 0.354787 0.059653
0.024266 0.354787 0.058046
0.140698 0.397038 0.046440
0.238405 0.477696 0.008532
0.372687 0.529580 -0.008098
0.531132 0.579170 0.006125
0.691286 0.646456 0.049220
0.793868 0.688787 0.096957
0.859978 0.715451 0.139182
0.906494 0.729330 0.173625
0.930755 0.738061 0.198056
0.939956 0.741107 0.222467
0.944182 0.749004 0.293877
0.942492 0.763357 0.420713
0.939687 0.778357 0.495066
0.015158 0.402306 0.076690
0.020275 0.402306 0.076270
0.049033 0.402306 0.069909
0.167232 0.442093 0.057151
0.232457 0.507739 0.005915
0.325091 0.548248 -0.030182
0.490151 0.601815 -0.016221
0.660771 0.664827 0.022204
0.780312 0.717353 0.084266
0.851046 0.752058 0.168330
0.903290 0.777421 0.243850
0.934475 0.795395 0.309998
0.947971 0.807220 0.369170
0.950655 0.815642 0.474390
0.947705 0.822418 0.560307
0.945600 0.832632 0.608767
0.034473 0.453367 0.092323
0.039641 0.453367 0.091304
0.069090 0.453367 0.080808
0.195144 0.489114 0.057390
0.220428 0.534721 0.007769
0.273946 0.563794 -0.033101
0.426761 0.612275 -0.027039
0.602202 0.675852 0.022656
0.740524 0.740485 0.109887
0.825301 0.785700 0.242192
0.889201 0.816785 0.385037
0.928490 0.838007 0.477691
0.947013 0.853464 0.541038
0.953332 0.864012 0.599534
0.949231 0.864525 0.660557
0.948358 0.869377 0.687050
0.062966 0.504323 0.078270
0.068190 0.504323 0.075202
0.111804 0.504323 0.072381
0.213617 0.532703 0.050361
0.216275 0.563258 0.007264
0.262263 0.589089 -0.011154
0.407089 0.642370 0.023097
0.570774 0.706638 0.100851
0.708127 0.774721 0.263619
0.813074 0.823363 0.433613
0.884135 0.848971 0.549073
0.922600 0.865017 0.619042
0.943868 0.875933 0.662419
0.949488 0.881072 0.689788
0.950599 0.883620 0.705422
0.949596 0.883942 0.718782
0.083604 0.537961 0.064457
0.091579 0.537961 0.064457
0.134120 0.537961 0.064457
0.211343 0.558918 0.049121
0.219371 0.586781 0.036526
0.292259 0.630026 0.071915
0.433355 0.691286 0.151547
0.585493 0.750977 0.272164
0.723736 0.803395 0.416989
0.831393 0.842021 0.535730
0.893261 0.860821 0.613351
0.927134 0.873717 0.664513
0.944391 0.882472 0.700063
0.948889 0.886077 0.719520
0.949580 0.887158 0.725275
0.949797 0.887459 0.726813
-0.101290 -0.097742 -0.089016
-0.092990 -0.097742 -0.089016
-0.042513 -0.097742 -0.089016
0.036597 -0.095757 -0.091759
0.069944 -0.089700 -0.092106
0.118226 -0.082724 -0.091155
0.175472 -0.073503 -0.090154
0.225571 -0.068196 -0.089105
0.262208 -0.066517 -0.087979
0.304428 -0.064440 -0.086040
0.344213 -0.063760 -0.084048
0.382933 -0.065146 -0.081909
0.422966 -0.066905 -0.080034
0.462069 -0.069332 -0.077816
0.501540 -0.069537 -0.075626
0.519902 -0.069824 -0.074733
-0.101290 -0.089461 -0.089016
-0.092990 -0.089461 -0.089016
-0.042513 -0.089461 -0.089016
0.036597 -0.087477 -0.089223
0.069944 -0.081487 -0.088976
0.118226 -0.074551 -0.088097
0.175472 -0.065406 -0.087346
0.225571 -0.060138 -0.086607
0.262208 -0.058481 -0.085765
0.304428 -0.056407 -0.084134
0.344213 -0.055732 -0.082390
0.382933 -0.057107 -0.080446
0.422966 -0.058854 -0.078740
0.462069 -0.061261 -0.076703
0.501540 -0.061463 -0.074696
0.519902 -0.061751 -0.073951
-0.101290 -0.039152 -0.089016
-0.092990 -0.039152 -0.089016
-0.042513 -0.039152 -0.089016
0.036597 -0.057528 -0.089223
0.069944 -0.054967 -0.088976
0.118226 -0.047391 -0.088097
0.175472 -0.036775 -0.087346
0.225571 -0.029724 -0.086607
0.262208 -0.026105 -0.085765
0.304428 -0.022036 -0.084134
0.344213 -0.019703 -0.082390
0.382933 -0.019703 -0.080446
0.422966 -0.020171 -0.078740
0.462069 -0.021238 -0.076703
0.501540 -0.020060 -0.074696
0.519902 -0.019086 -0.073951
-0.100828 0.034434 -0.089787
-0.092516 0.034434 -0.087259
-0.062442 0.034434 -0.087259
0.047684 0.042446 -0.086086
0.092480 0.049636 -0.086544
0.154814 0.061398 -0.086321
0.223923 0.071199 -0.085848
0.289167 0.081005 -0.084310
0.345639 0.089106 -0.082364
0.394524 0.093137 -0.080413
0.439359 0.096853 -0.078273
0.481564 0.098980 -0.076109
0.522481 0.104886 -0.074080
0.557508 0.105362 -0.072352
0.590080 0.108033 -0.070772
0.608630 0.111150 -0.069685
-0.100156 0.046176 -0.084122
-0.091852 0.046176 -0.081004
-0.065098 0.046176 -0.081004
0.044541 0.059634 -0.078607
0.139472 0.099129 -0.074652
0.231848 0.122848 -0.076528
0.318117 0.137019 -0.077825
0.400292 0.153963 -0.076904
0.470102 0.170536 -0.075437
0.522763 0.180123 -0.073264
0.562575 0.181671 -0.071483
0.595411 0.178837 -0.070147
0.626928 0.175828 -0.068592
0.657399 0.176657 -0.066899
0.685818 0.184027 -0.064452
0.703320 0.193749 -0.062399
-0.098260 0.065017 -0.074307
-0.089973 0.065017 -0.071292
-0.062418 0.065017 -0.071292
0.047453 0.088488 -0.067906
0.160002 0.149057 -0.063204
0.303114 0.207750 -0.062809
0.418730 0.243547 -0.064459
0.505037 0.261883 -0.067034
0.574894 0.278872 -0.063770
0.625683 0.290243 -0.061299
0.660876 0.286052 -0.060335
0.689956 0.277344 -0.060153
0.712171 0.265330 -0.059575
0.737712 0.261727 -0.058651
0.761961 0.273419 -0.054409
0.777398 0.288850 -0.048795
-0.092676 0.095482 -0.059911
-0.084430 0.095482 -0.057191
-0.055286 0.095482 -0.057191
0.060867 0.134639 -0.057494
0.182369 0.207981 -0.060260
0.356485 0.291305 -0.052680
0.494379 0.344782 -0.045008
0.592863 0.375951 -0.044921
0.659623 0.391906 -0.047360
0.705138 0.397443 -0.041115
0.734498 0.390924 -0.040944
0.759563 0.376594 -0.043303
0.781873 0.364992 -0.043301
0.804849 0.358052 -0.042031
0.823996 0.371274 -0.034462
0.834296 0.392861 -0.015612
-0.079553 0.140070 -0.045148
-0.071410 0.140070 -0.042729
-0.040680 0.140070 -0.042729
0.083487 0.194880 -0.048412
0.203194 0.271906 -0.053851
0.379062 0.356346 -0.038826
0.544550 0.430097 -0.019975
0.644617 0.462177 -0.006896
0.712203 0.479017 -0.007472
0.756123 0.485254 -0.007529
0.789901 0.480834 -0.014335
0.814274 0.467384 -0.015980
0.835614 0.454040 -0.019947
0.853914 0.450394 -0.016162
0.867663 0.464861 0.000919
0.871680 0.488237 0.029681
-0.061037 0.193758 -0.023345
-0.053037 0.193757 -0.021267
-0.020836 0.193757 -0.021267
0.102311 0.257232 -0.024018
0.227438 0.344727 -0.035298
0.387914 0.408400 -0.019137
0.552098 0.484470 0.013126
0.679362 0.533467 0.031169
0.747902 0.547031 0.031838
0.797452 0.553914 0.027804
0.831809 0.552613 0.024802
0.856828 0.545556 0.019353
0.876345 0.532238 0.008166
0.888084 0.528488 0.012532
0.894594 0.545133 0.047179
0.893879 0.564063 0.095149
-0.041656 0.249925 0.005177
-0.033799 0.249925 0.006789
-0.000166 0.249925 0.006789
0.120303 0.312386 0.003631
0.238144 0.403414 -0.006745
0.389325 0.454681 -0.002985
0.553612 0.522862 0.023170
0.688143 0.579173 0.056233
0.778638 0.607239 0.072491
0.831570 0.613138 0.067479
0.866108 0.612815 0.055980
0.889311 0.606786 0.046238
0.904447 0.599469 0.045072
0.912421 0.599758 0.062323
0.913228 0.616722 0.128167
0.912165 0.635290 0.209543
-0.029020 0.304293 0.035365
-0.021256 0.304293 0.036775
0.011126 0.304293 0.036376
0.130417 0.357177 0.029404
0.243732 0.444883 0.005956
0.394822 0.500143 0.001114
0.550485 0.553995 0.019798
0.699107 0.618366 0.054121
0.797083 0.656153 0.087258
0.856717 0.668553 0.108618
0.890367 0.671117 0.119718
0.914061 0.669124 0.102867
0.924469 0.668444 0.105953
0.929937 0.673314 0.151583
0.929734 0.690482 0.260181
0.928462 0.709921 0.359197
-0.011317 0.354787 0.065388
-0.003686 0.354787 0.066636
0.026084 0.354787 0.065006
0.140883 0.398156 0.052264
0.239873 0.478334 0.014395
0.373857 0.529908 -0.000448
0.532103 0.579557 0.012482
0.691718 0.646647 0.055336
0.794096 0.688940 0.102962
0.860004 0.715310 0.145196
0.906542 0.729240 0.179685
0.930755 0.738062 0.204164
0.939968 0.741152 0.228722
0.944210 0.749112 0.300175
0.942511 0.763558 0.426215
0.939692 0.778663 0.500117
0.015158 0.402306 0.082645
0.021233 0.402306 0.083308
0.050659 0.402306 0.077344
0.167091 0.443018 0.062960
0.233109 0.508117 0.011607
0.326217 0.548595 -0.022369
0.491145 0.602117 -0.008374
0.661272 0.665033 0.028454
0.780515 0.717435 0.090368
0.851134 0.752075 0.174494
0.903413 0.777409 0.250077
0.934495 0.795427 0.316066
0.947971 0.807291 0.374934
0.950659 0.815787 0.479498
0.947707 0.822649 0.564750
0.945609 0.832984 0.612772
0.034473 0.453367 0.098640
0.040454 0.453367 0.098578
0.070521 0.453366 0.088854
0.195023 0.489767 0.062990
0.220521 0.534919 0.013475
0.274767 0.564075 -0.025361
0.427510 0.612513 -0.019133
0.602724 0.676091 0.028932
0.740732 0.740456 0.116070
0.825359 0.785672 0.248594
0.889227 0.816850 0.390911
0.928497 0.838245 0.482876
0.947021 0.853641 0.545626
0.953332 0.864248 0.603497
0.949233 0.864764 0.664007
0.948360 0.869567 0.690165
0.062966 0.504323 0.086097
0.068865 0.504323 0.084107
0.111147 0.504323 0.078262
0.213200 0.533130 0.055887
0.216238 0.563385 0.013085
0.262875 0.589327 -0.003356
0.407584 0.642638 0.029270
0.570968 0.706901 0.107076
0.708287 0.774786 0.270172
0.813287 0.823474 0.439284
0.884213 0.849046 0.553604
0.922596 0.865144 0.622936
0.943880 0.876104 0.665808
0.949489 0.881294 0.692857
0.950599 0.883726 0.708290
0.949597 0.884142 0.721489
0.080526 0.537961 0.069780
0.089443 0.537961 0.070351
0.133779 0.537961 0.070351
0.210690 0.559250 0.054814
0.219088 0.586884 0.042589
0.292158 0.630320 0.078076
0.433299 0.691520 0.157863
0.585656 0.751163 0.278678
0.724081 0.803553 0.422693
0.831533 0.842086 0.540408
0.893265 0.860943 0.617258
0.927175 0.873716 0.667822
0.944406 0.882619 0.703154
0.948890 0.886209 0.722264
0.949580 0.887304 0.727972
0.949797 0.887526 0.729454
-0.101290 -0.097742 -0.038724
-0.092990 -0.097742 -0.038724
-0.042513 -0.097742 -0.038724
0.036597 -0.095757 -0.061700
0.069944 -0.089700 -0.065928
0.118226 -0.082724 -0.064487
0.175472 -0.073503 -0.061905
0.225571 -0.068196 -0.058996
0.262208 -0.066517 -0.055818
0.304428 -0.064440 -0.051790
0.344213 -0.063760 -0.048064
0.382933 -0.065146 -0.044585
0.422966 -0.066905 -0.041488
0.462069 -0.069332 -0.038007
0.501540 -0.069537 -0.034418
0.519902 -0.069824 -0.032188
-0.101290 -0.089461 -0.038724
-0.092990 -0.089461 -0.038724
-0.042513 -0.089461 -0.038724
0.036597 -0.087477 -0.059218
0.069944 -0.081487 -0.062283
0.118226 -0.074551 -0.060603
0.175472 -0.065406 -0.058135
0.225571 -0.060138 -0.055425
0.262208 -0.058481 -0.052564
0.304428 -0.056407 -0.048864
0.344213 -0.055732 -0.045445
0.382933 -0.057107 -0.042204
0.422966 -0.058854 -0.039333
0.462069 -0.061261 -0.036092
0.501540 -0.061463 -0.032771
0.519902 -0.061751 -0.030794
-0.101290 -0.039152 -0.038724
-0.092990 -0.039152 -0.038724
-0.042513 -0.039152 -0.038724
0.036597 -0.037261 -0.038928
0.069944 -0.031540 -0.038688
0.118226 -0.024933 -0.037861
0.175472 -0.016208 -0.037140
0.225571 -0.011180 -0.036422
0.262208 -0.009594 -0.035626
0.304428 -0.007625 -0.034073
0.344213 -0.006982 -0.032406
0.382933 -0.008295 -0.030547
0.422966 -0.009960 -0.028931
0.462069 -0.012256 -0.026978
0.501540 -0.012450 -0.025067
0.519902 -0.012724 -0.024360
-0.100828 0.034434 -0.059787
-0.092516 0.034434 -0.057314
-0.042083 0.034434 -0.037051
0.047684 0.042446 -0.035936
0.101043 0.056238 -0.034873
0.167732 0.068933 -0.035122
0.241569 0.078404 -0.035051
0.307751 0.087951 -0.033551
0.361546 0.095244 -0.031748
0.407267 0.097843 -0.029997
0.450182 0.100996 -0.028037
0.490829 0.102658 -0.026026
0.530294 0.108929 -0.024141
0.563948 0.109239 -0.022551
0.595509 0.111861 -0.021052
0.613020 0.114510 -0.020041
-0.100156 0.046176 -0.058131
-0.091852 0.046176 -0.054505
-0.041445 0.046176 -0.031091
0.056475 0.065693 -0.028206
0.139473 0.099129 -0.025031
0.237203 0.127824 -0.026056
0.325136 0.143276 -0.027304
0.408439 0.160442 -0.026568
0.478417 0.177768 -0.025130
0.529873 0.187515 -0.022977
0.568671 0.187702 -0.021468
0.600657 0.183799 -0.020312
0.630931 0.179583 -0.018941
0.660548 0.179727 -0.017383
0.688234 0.186644 -0.015047
0.705416 0.196048 -0.013092
-0.098260 0.065017 -0.048041
-0.089973 0.065017 -0.044221
-0.039632 0.065017 -0.021826
0.059513 0.098139 -0.018134
0.170168 0.153921 -0.013732
0.303114 0.207750 -0.013731
0.422286 0.247582 -0.014826
0.509667 0.266973 -0.017330
0.579097 0.284111 -0.013960
0.629319 0.294917 -0.011507
0.663891 0.290158 -0.010698
0.692520 0.280843 -0.010717
0.714523 0.268489 -0.010244
0.739694 0.264291 -0.009485
0.763509 0.275531 -0.005457
0.778490 0.290598 -0.000048
-0.092676 0.095482 -0.032449
-0.084430 0.095482 -0.028777
-0.034351 0.095482 -0.008368
0.073623 0.148319 -0.009916
0.194116 0.213584 -0.011310
0.363267 0.294517 -0.003751
0.494379 0.344781 0.002689
0.594504 0.378254 0.003103
0.661823 0.394801 0.001247
0.706476 0.399783 0.006401
0.736064 0.393373 0.006313
0.761034 0.378910 0.004451
0.783118 0.366987 0.004389
0.805873 0.360003 0.005402
0.824808 0.372835 0.011270
0.834972 0.394115 0.026157
-0.079553 0.140070 -0.016237
-0.071410 0.140070 -0.012820
-0.021931 0.140070 0.004649
0.096581 0.211284 -0.002164
0.213488 0.276881 -0.005299
0.388162 0.360974 0.008087
0.547718 0.431301 0.022509
0.644617 0.462004 0.032484
0.712695 0.479899 0.032424
0.756782 0.486242 0.032509
0.790777 0.481900 0.027216
0.814892 0.468560 0.025870
0.836220 0.455109 0.022560
0.854554 0.451420 0.025470
0.867976 0.465598 0.039165
0.871990 0.488202 0.067228
-0.061037 0.193758 0.006130
-0.053037 0.193757 0.008853
-0.004409 0.193757 0.023016
0.112178 0.271347 0.018133
0.238284 0.350057 0.010326
0.395122 0.411410 0.024009
0.556381 0.486150 0.051348
0.680810 0.533390 0.068471
0.747902 0.546420 0.068905
0.797609 0.553650 0.065190
0.832268 0.552608 0.062303
0.857251 0.545757 0.056950
0.876788 0.532576 0.046167
0.888434 0.528753 0.050431
0.894882 0.544795 0.084601
0.894078 0.563075 0.132691
-0.041656 0.249925 0.034171
-0.033799 0.249925 0.036649
0.011413 0.249925 0.048964
0.125503 0.322801 0.041089
0.247814 0.406846 0.032661
0.396088 0.457439 0.036596
0.557445 0.524382 0.061296
0.689697 0.579093 0.093274
0.779302 0.606515 0.109307
0.831570 0.612235 0.104205
0.866154 0.612342 0.092897
0.889556 0.606471 0.083442
0.904653 0.599234 0.082307
0.912661 0.599371 0.099640
0.913319 0.615793 0.166106
0.912303 0.634825 0.248817
-0.029020 0.304293 0.065968
-0.021256 0.304293 0.068201
0.021216 0.304293 0.078680
0.131074 0.364164 0.066361
0.251580 0.448075 0.043142
0.400578 0.502126 0.039484
0.554189 0.555591 0.057974
0.700874 0.618716 0.091452
0.797587 0.655511 0.124204
0.856977 0.667738 0.145638
0.890367 0.670102 0.156789
0.914140 0.668429 0.140011
0.924463 0.667956 0.143376
0.930047 0.672737 0.189874
0.929823 0.690608 0.299170
0.928506 0.711076 0.395691
-0.011317 0.354787 0.097106
-0.003686 0.354787 0.099149
0.035010 0.354786 0.107487
0.137327 0.402926 0.088629
0.245016 0.481120 0.050868
0.378934 0.531446 0.037709
0.535895 0.581199 0.050952
0.693532 0.647237 0.092869
0.794851 0.688594 0.140284
0.860412 0.714697 0.182909
0.906704 0.728689 0.217870
0.930755 0.737474 0.242597
0.939948 0.740971 0.267380
0.944267 0.749563 0.338203
0.942481 0.765100 0.460212
0.939532 0.780578 0.530307
0.015158 0.402306 0.115822
0.021233 0.402306 0.117408
0.058523 0.402306 0.121819
0.163017 0.447208 0.098392
0.234849 0.509731 0.047303
0.330887 0.550049 0.020487
0.494941 0.603494 0.031904
0.663277 0.665952 0.066414
0.781327 0.717526 0.128044
0.851452 0.751758 0.213055
0.903576 0.777329 0.288672
0.934566 0.795621 0.353245
0.947971 0.807963 0.410224
0.950675 0.817157 0.510574
0.947716 0.824429 0.591363
0.945635 0.834554 0.636537
0.034473 0.453367 0.133780
0.040454 0.453367 0.134786
0.077381 0.453367 0.135687
0.190815 0.492856 0.097267
0.219407 0.535843 0.049259
0.278267 0.565175 0.017801
0.430960 0.613714 0.023439
0.604673 0.677027 0.067078
0.741699 0.741024 0.154282
0.826032 0.785766 0.287996
0.889588 0.817230 0.426143
0.928501 0.839045 0.513686
0.947057 0.854690 0.573181
0.953332 0.865478 0.627613
0.949240 0.866020 0.684329
0.948369 0.870756 0.708787
0.062966 0.504323 0.127227
0.068865 0.504323 0.127142
0.105587 0.504323 0.120250
0.207883 0.535033 0.090376
0.214282 0.563664 0.049346
0.264957 0.590456 0.035869
0.409175 0.643503 0.066956
0.571655 0.707771 0.145763
0.708892 0.775184 0.309788
0.813909 0.823700 0.472850
0.884444 0.849478 0.580976
0.922733 0.865831 0.645990
0.943921 0.877093 0.686147
0.949494 0.882202 0.711189
0.950599 0.884740 0.725752
0.949597 0.885097 0.737902
0.076166 0.537961 0.114583
0.082050 0.537961 0.113512
0.125491 0.537961 0.107069
0.204641 0.560372 0.090599
0.215255 0.587734 0.079894
0.289328 0.631338 0.115959
0.431588 0.692324 0.196921
0.585966 0.751640 0.318053
0.725211 0.803932 0.457175
0.832170 0.842260 0.568651
0.893324 0.861482 0.640779
0.927123 0.874601 0.688008
0.944452 0.883550 0.720743
0.948896 0.887109 0.738613
0.949580 0.888228 0.744092
0.949797 0.888498 0.745296
-0.101464 -0.097176 0.031960
-0.095688 -0.097176 0.031960
-0.065532 -0.097176 0.031960
0.034953 -0.096047 0.032918
0.068688 -0.090701 0.033551
0.115794 -0.084699 0.036654
0.161883 -0.081996 0.039510
0.202522 -0.081527 0.041910
0.239657 -0.082545 0.042892
0.273933 -0.083986 0.044515
0.311486 -0.085388 0.045898
0.353449 -0.086626 0.048489
0.396982 -0.086660 0.051191
0.439405 -0.085947 0.053444
0.478339 -0.084373 0.056839
0.500448 -0.083257 0.060987
-0.101464 -0.091449 0.031960
-0.093155 -0.088908 0.031960
-0.063045 -0.088908 0.031960
0.034953 -0.087766 0.032918
0.067889 -0.082616 0.033989
0.113983 -0.076758 0.037433
0.159992 -0.073979 0.040358
0.201223 -0.073497 0.042636
0.239267 -0.074513 0.043365
0.273688 -0.075950 0.044834
0.311337 -0.077371 0.046117
0.353268 -0.078597 0.048662
0.396702 -0.078643 0.051339
0.439240 -0.077881 0.053555
0.478294 -0.076246 0.057027
0.500586 -0.075070 0.061303
-0.101464 -0.061383 0.031960
-0.093155 -0.058910 0.031960
-0.042679 -0.038622 0.031960
0.034953 -0.037539 0.032918
0.064331 -0.033270 0.035973
0.106771 -0.027983 0.040575
0.152512 -0.024950 0.043702
0.196173 -0.024435 0.045522
0.237710 -0.025400 0.045284
0.272695 -0.026848 0.046122
0.310727 -0.028287 0.046998
0.352774 -0.029458 0.049426
0.396277 -0.029385 0.052182
0.439150 -0.028306 0.054531
0.478739 -0.026500 0.058370
0.500911 -0.025329 0.062602
-0.101979 0.035315 0.035976
-0.093687 0.035315 0.035976
-0.043177 0.035315 0.035976
0.039354 0.040013 0.039493
0.081722 0.048393 0.040722
0.142046 0.055975 0.039454
0.202374 0.058719 0.038494
0.253018 0.059924 0.037063
0.295985 0.060756 0.036715
0.334757 0.058924 0.037051
0.375828 0.057734 0.037905
0.418119 0.056152 0.039124
0.459925 0.056442 0.040163
0.497094 0.054737 0.041504
0.532154 0.056114 0.043908
0.553137 0.058643 0.046295
-0.101878 0.046920 0.041759
-0.093677 0.046975 0.042141
-0.043642 0.047201 0.043879
0.040127 0.060580 0.049122
0.105319 0.086089 0.052949
0.192307 0.108213 0.051352
0.275564 0.118883 0.046970
0.354784 0.126092 0.044331
0.419090 0.133677 0.043295
0.469619 0.135882 0.042180
0.508876 0.127601 0.042420
0.545215 0.121437 0.043291
0.577075 0.112896 0.044664
0.609513 0.115441 0.045449
0.640354 0.125845 0.048500
0.662417 0.141742 0.053008
-0.100359 0.066591 0.052580
-0.092207 0.066828 0.053737
-0.042329 0.067757 0.058415
0.041019 0.093041 0.061724
0.121818 0.135056 0.065129
0.243918 0.182410 0.069286
0.362603 0.218246 0.066248
0.454317 0.233355 0.058680
0.530283 0.243817 0.053372
0.584638 0.249194 0.052910
0.621148 0.241535 0.052380
0.649760 0.227486 0.051703
0.674708 0.214979 0.051846
0.701632 0.207703 0.052095
