nova/tdt-studio/app/Lut_mau/Halcyon/HALCYON_DAYTONA_V2.cube
LUT_3D_SIZE 6
-0.101290 -0.097742 -0.097284
0.036597 -0.095757 -0.097507
0.175472 -0.073503 -0.095608
0.304428 -0.064440 -0.092384
0.422966 -0.066905 -0.086946
0.519902 -0.069824 -0.082122
-0.100828 0.034434 -0.095518
0.047684 0.042446 -0.094348
0.219529 0.069393 -0.094288
0.391376 0.091960 -0.088752
0.520484 0.103978 -0.082333
0.607659 0.110388 -0.077878
-0.092676 0.095482 -0.065229
0.057686 0.131237 -0.065197
0.494379 0.344782 -0.052961
0.704786 0.396868 -0.049244
0.781339 0.364491 -0.051346
0.834249 0.392546 -0.023499
-0.041656 0.249925 -0.000205
0.118663 0.309848 -0.003072
0.552780 0.522490 0.016903
0.831570 0.613299 0.061575
0.904373 0.599361 0.039004
0.912103 0.635430 0.203246
0.015158 0.402306 0.076690
0.167232 0.442093 0.057151
0.490151 0.601815 -0.016221
0.851046 0.752058 0.168330
0.947971 0.807220 0.369170
0.945600 0.832632 0.608767
0.083604 0.537961 0.064457
0.211343 0.558918 0.049121
0.433355 0.691286 0.151547
0.831393 0.842021 0.535730
0.944391 0.882472 0.700063
0.949797 0.887459 0.726813
-0.101464 -0.097176 0.031960
0.034953 -0.096047 0.032918
0.161883 -0.081996 0.039510
0.273933 -0.083986 0.044515
0.396982 -0.086660 0.051191
0.500448 -0.083257 0.060987
-0.101979 0.035315 0.035976
0.039354 0.040013 0.039493
0.202374 0.058719 0.038494
0.334757 0.058924 0.037051
0.459925 0.056442 0.040163
0.553137 0.058643 0.046295
-0.096064 0.099896 0.069084
0.047794 0.138434 0.075548
0.436117 0.319088 0.084746
0.673234 0.370035 0.073421
0.757357 0.330456 0.065660
0.821836 0.376702 0.102822
-0.058403 0.260035 0.150663
0.082267 0.301280 0.141065
0.503624 0.506019 0.136064
0.815968 0.611069 0.192759
0.898272 0.594064 0.154827
0.908761 0.634148 0.337077
-0.006808 0.417376 0.245776
0.120969 0.435141 0.211860
0.434761 0.592851 0.091577
0.841828 0.752202 0.275955
0.948585 0.812902 0.465369
0.946639 0.838738 0.668224
0.062074 0.558299 0.234952
0.171482 0.559492 0.176758
0.405883 0.685038 0.246154
0.832872 0.840877 0.600890
0.946326 0.883204 0.737375
0.950253 0.888242 0.760661
-0.105965 -0.098055 0.047105
0.027284 -0.097253 0.056177
0.105376 -0.087161 0.096115
0.275588 -0.086839 0.127853
0.413135 -0.086951 0.145561
0.518805 -0.079407 0.178544
-0.105697 0.034655 0.058123
0.027304 0.037214 0.071803
0.132695 0.045926 0.116762
0.314490 0.041017 0.135588
0.444482 0.039184 0.141182
0.565366 0.055560 0.190104
-0.098604 0.112714 0.141948
0.033487 0.148070 0.179086
0.230790 0.235494 0.215265
0.484229 0.223572 0.173726
0.617339 0.157042 0.123800
0.774247 0.292314 0.234741
-0.082194 0.284812 0.267695
0.048069 0.325388 0.294701
0.301858 0.482642 0.255951
0.743050 0.603290 0.311505
0.858638 0.563066 0.238091
0.892232 0.632398 0.447449
-0.044179 0.445368 0.362546
0.077595 0.466570 0.364334
0.190055 0.584260 0.198659
0.762256 0.758758 0.316146
0.950276 0.836487 0.551136
0.947506 0.853349 0.692353
-0.013924 0.574162 0.368504
0.095121 0.577462 0.361025
0.227047 0.660519 0.343271
0.818065 0.841514 0.622760
0.949999 0.880274 0.720775
0.951736 0.881437 0.726425
-0.105690 -0.097240 0.074245
0.026573 -0.097799 0.090800
0.086797 -0.091932 0.140263
0.245107 -0.089411 0.176324
0.406999 -0.087047 0.220852
0.535146 -0.073610 0.266258
-0.104435 0.037360 0.098197
0.025593 0.034657 0.104822
0.092021 0.037134 0.165690
0.287320 0.038650 0.205089
0.445089 0.039664 0.237072
0.591894 0.068378 0.293160
-0.096062 0.133930 0.222793
0.032653 0.150044 0.256477
0.091555 0.167290 0.273551
0.406848 0.202573 0.344409
0.611852 0.144677 0.328821
0.792988 0.347133 0.394867
-0.083962 0.313771 0.377281
0.042289 0.350794 0.425018
0.129138 0.469617 0.496305
0.559261 0.552667 0.513907
0.768464 0.503190 0.434429
0.859614 0.603676 0.528829
-0.063920 0.462876 0.454386
0.055118 0.474186 0.464163
0.062990 0.548174 0.479339
0.561067 0.715328 0.456246
0.913678 0.806493 0.600796
0.930371 0.822770 0.698611
-0.069393 0.525143 0.483068
0.050372 0.523864 0.487687
0.093254 0.624460 0.559965
0.725540 0.839587 0.706891
0.937198 0.891480 0.789003
0.945451 0.895861 0.812301
-0.105264 -0.097833 0.105729
0.026818 -0.099233 0.120498
0.069628 -0.093704 0.168379
0.209534 -0.091608 0.199054
0.395183 -0.088233 0.270052
0.539979 -0.071864 0.323696
-0.103573 0.036623 0.135509
0.026151 0.032872 0.135775
0.059445 0.033799 0.186943
0.245179 0.035877 0.244746
0.436112 0.038845 0.301203
0.593015 0.072358 0.353100
-0.093148 0.154078 0.295471
0.034272 0.160411 0.322213
0.037140 0.117400 0.299038
0.285441 0.153214 0.378597
0.570486 0.129137 0.436045
0.729830 0.321811 0.495782
-0.082184 0.346356 0.485476
0.042325 0.359259 0.517595
0.044347 0.368764 0.568330
0.194289 0.406419 0.552303
0.650041 0.468339 0.626437
0.803229 0.640875 0.703579
-0.075091 0.465384 0.570237
0.046556 0.464101 0.587941
0.047230 0.467520 0.653428
0.202842 0.650334 0.709716
0.769257 0.752778 0.735099
0.883615 0.738522 0.699585
-0.076374 0.479359 0.605738
0.045943 0.475791 0.614391
0.056342 0.548674 0.703683
0.611342 0.847339 0.832503
0.827246 0.871347 0.790964
0.941058 0.895360 0.829988
-0.103860 -0.098330 0.132216
0.028099 -0.099088 0.147164
0.056626 -0.094547 0.188018
0.192604 -0.093016 0.229867
0.405446 -0.088748 0.324116
0.520634 -0.075922 0.352745
-0.101262 0.037180 0.170883
0.027443 0.032736 0.166552
0.043774 0.031934 0.204576
0.203195 0.034179 0.273626
0.437793 0.038939 0.360025
0.564802 0.066461 0.386673
-0.090896 0.174938 0.365487
0.035752 0.176454 0.382674
0.034930 0.095659 0.343772
0.135035 0.105912 0.395449
0.491824 0.173312 0.544664
0.661650 0.328867 0.616715
-0.080446 0.366815 0.546931
0.042916 0.366058 0.561743
0.043005 0.351152 0.600344
0.137934 0.451957 0.651109
0.653411 0.592350 0.746707
0.791904 0.666469 0.788303
-0.075654 0.431866 0.642326
0.046469 0.431538 0.647053
0.054237 0.504264 0.692038
0.340659 0.703609 0.783766
0.712752 0.747591 0.816441
0.870158 0.782169 0.839043
-0.075837 0.450083 0.649432
0.046190 0.449639 0.650039
0.058650 0.552796 0.713753
0.484392 0.820121 0.829317
0.738817 0.862839 0.859647
0.915418 0.886212 0.878009
