nova/tdt-studio/app/Lut_mau/IWLTBAP/1 - LUTs by IWLTBAP (CUBE)/07 - Utility/BMDFilm BMPCC 4K to Rec.709/U-BMDFILM-BMPCC4K-V1-LTR.cube
# Copyright: (C) Copyright 2010-2019 by IWLTBAP SAS
# Cannot be resold, shared or otherwise redistributed
# Website: https://luts.iwltbap.com
TITLE "BMDFilm BMPCC 4K V1 (Utility LOG to Rec.709)"
LUT_3D_SIZE 33
0.000000 0.000000 0.000000
0.000000 0.000000 0.000000
0.001312 0.000000 0.000000
0.020386 0.000000 0.000000
0.044952 0.000000 0.000000
0.077148 0.000000 0.000000
0.115295 0.000000 0.000000
0.155945 0.000000 0.000000
0.196564 0.000000 0.000000
0.239563 0.000000 0.000000
0.285828 0.000000 0.000000
0.335052 0.000000 0.000000
0.386292 0.000000 0.000000
0.438690 0.000000 0.000000
0.490784 0.000000 0.000000
0.542053 0.000000 0.000000
0.591309 0.000000 0.000000
0.638214 0.000000 0.000000
0.682068 0.000000 0.000000
0.722015 0.000000 0.000000
0.758179 0.000000 0.000000
0.792023 0.000000 0.000000
0.822449 0.000000 0.000000
0.848785 0.000000 0.000000
0.872101 0.000000 0.000000
0.892578 0.000000 0.000000
0.910400 0.000000 0.000000
0.925964 0.000000 0.000000
0.939178 0.000000 0.000000
0.950348 0.000000 0.000000
0.960510 0.000000 0.000000
0.970551 0.000000 0.000000
0.980347 0.000000 0.000000
0.000000 0.000000 0.000000
0.000000 0.000000 0.000000
0.003967 0.000000 0.000000
0.023071 0.000000 0.000000
0.048035 0.000000 0.000000
0.082245 0.000000 0.000000
0.119385 0.000000 0.000000
0.157471 0.000000 0.000000
0.196686 0.000000 0.000000
0.239227 0.000000 0.000000
0.285187 0.000000 0.000000
0.334137 0.000000 0.000000
0.385193 0.000000 0.000000
0.437408 0.000000 0.000000
0.489441 0.000000 0.000000
0.540771 0.000000 0.000000
0.590118 0.000000 0.000000
0.637054 0.000000 0.000000
0.681061 0.000000 0.000000
0.721161 0.000000 0.000000
0.757538 0.000000 0.000000
0.791473 0.000000 0.000000
0.822021 0.000000 0.000000
0.848419 0.000000 0.000000
0.871826 0.000000 0.000000
0.892395 0.000000 0.000000
0.910248 0.000000 0.000000
0.925873 0.000000 0.000000
0.939514 0.000000 0.000000
0.950653 0.000000 0.000000
0.960846 0.000000 0.000000
0.970886 0.000000 0.000000
0.980927 0.000000 0.000000
0.000000 0.001099 0.000000
0.000000 0.001892 0.000000
0.006836 0.002747 0.000000
0.026428 0.004303 0.000000
0.052734 0.005798 0.000000
0.086792 0.006287 0.000000
0.121552 0.006958 0.000000
0.157837 0.007996 0.000000
0.196472 0.008789 0.000000
0.238586 0.009399 0.000000
0.284241 0.009827 0.000000
0.332947 0.010162 0.000000
0.383820 0.010345 0.000000
0.435974 0.010345 0.000000
0.488007 0.010010 0.000000
0.539368 0.009583 0.000000
0.588806 0.008789 0.000000
0.635864 0.007904 0.000000
0.680054 0.006683 0.000000
0.720215 0.005341 0.000000
0.756744 0.003723 0.000000
0.790741 0.002045 0.000000
0.821533 0.000549 0.000000
0.848053 0.000000 0.000000
0.871552 0.000000 0.000000
0.892151 0.000000 0.000000
0.910126 0.000000 0.000000
0.925781 0.000000 0.000000
0.939453 0.000000 0.000000
0.950653 0.000000 0.000000
0.960846 0.000000 0.000000
0.970886 0.000000 0.000000
0.980927 0.000000 0.000000
0.000000 0.023987 0.000000
0.000000 0.025055 0.000000
0.009796 0.026306 0.000000
0.029358 0.027374 0.000000
0.056366 0.028198 0.000000
0.088776 0.028717 0.000000
0.122162 0.029022 0.000000
0.157654 0.029358 0.000000
0.195923 0.029602 0.000000
0.237549 0.029938 0.000000
0.282928 0.029968 0.000000
0.331329 0.029877 0.000000
0.382050 0.029724 0.000000
0.434052 0.029388 0.000000
0.486023 0.028748 0.000000
0.537445 0.028076 0.000000
0.586914 0.027252 0.000000
0.634186 0.026031 0.000000
0.678528 0.024780 0.000000
0.718933 0.023346 0.000000
0.755646 0.021759 0.000000
0.789795 0.019989 0.000000
0.820862 0.018158 0.000000
0.847534 0.016479 0.000000
0.871155 0.014740 0.000000
0.891876 0.013062 0.000000
0.909912 0.011505 0.000000
0.925659 0.009857 0.000000
0.939392 0.008636 0.000000
0.950623 0.007782 0.000000
0.960846 0.007202 0.000000
0.970886 0.006866 0.000000
0.980927 0.006622 0.000000
0.000000 0.054657 0.000000
0.000000 0.055389 0.000000
0.008514 0.055908 0.000000
0.030029 0.056183 0.000000
0.057587 0.056183 0.000000
0.089233 0.056213 0.000000
0.122101 0.056183 0.000000
0.157166 0.055939 0.000000
0.194855 0.055756 0.000000
0.236237 0.055573 0.000000
0.281006 0.055328 0.000000
0.329102 0.054871 0.000000
0.379639 0.054260 0.000000
0.431488 0.053558 0.000000
0.483459 0.052765 0.000000
0.534912 0.051697 0.000000
0.584564 0.050446 0.000000
0.632080 0.049133 0.000000
0.676636 0.047791 0.000000
0.717346 0.046112 0.000000
0.754333 0.044281 0.000000
0.788696 0.042511 0.000000
0.820068 0.040497 0.000000
0.846863 0.038635 0.000000
0.870636 0.036926 0.000000
0.891510 0.035431 0.000000
0.909668 0.033905 0.000000
0.925476 0.032532 0.000000
0.939331 0.031677 0.000000
0.950592 0.030945 0.000000
0.960846 0.030640 0.000000
0.970886 0.030426 0.000000
0.980927 0.030151 0.000000
0.000000 0.087494 0.000000
0.000000 0.087433 0.000000
0.008881 0.087341 0.000000
0.030762 0.087036 0.000000
0.058136 0.086731 0.000000
0.089020 0.086304 0.000000
0.121368 0.085999 0.000000
0.156036 0.085571 0.000000
0.193390 0.085114 0.000000
0.234161 0.084473 0.000000
0.278381 0.083954 0.000000
0.326263 0.083191 0.000000
0.376465 0.082275 0.000000
0.428223 0.081360 0.000000
0.480255 0.080200 0.000000
0.531830 0.079041 0.000000
0.581696 0.077759 0.000000
0.629395 0.076355 0.000000
0.674286 0.074921 0.000000
0.715454 0.073242 0.000000
0.752625 0.071503 0.000000
0.787231 0.069855 0.000000
0.818878 0.068054 0.000000
0.846100 0.066284 0.000000
0.870087 0.064728 0.000000
0.891113 0.063019 0.000000
0.909424 0.061584 0.000000
0.925323 0.060547 0.000000
0.939240 0.059601 0.000000
0.950562 0.059143 0.000000
0.960846 0.058899 0.000000
0.970886 0.058655 0.000000
0.980927 0.058380 0.000000
0.000000 0.119080 0.000000
0.000000 0.118774 0.000000
0.010162 0.118500 0.000000
0.031403 0.118195 0.000000
0.058105 0.117737 0.000000
0.088440 0.117279 0.000000
0.120239 0.116638 0.000000
0.154358 0.115997 0.000000
0.191193 0.115265 0.000000
0.231598 0.114441 0.000000
0.275116 0.113525 0.000000
0.322632 0.112610 0.000000
0.372772 0.111542 0.000000
0.424316 0.110535 0.000000
0.476440 0.109283 0.000000
0.528107 0.108032 0.000000
0.578339 0.106720 0.000000
0.626373 0.105225 0.000000
0.671600 0.103760 0.000000
0.713104 0.102234 0.000000
0.750732 0.100708 0.000000
0.785645 0.099091 0.000000
0.817627 0.097443 0.000000
0.845245 0.095886 0.000000
0.869415 0.094574 0.000000
0.890656 0.093140 0.000000
0.909119 0.092102 0.000000
0.925171 0.091125 0.000000
0.939178 0.090546 0.000000
0.950562 0.090149 0.000000
0.960846 0.089935 0.000000
0.970917 0.089691 0.000000
0.980927 0.089630 0.000000
0.000000 0.151550 0.000000
0.000000 0.151367 0.000000
0.011169 0.151062 0.000000
0.031647 0.150696 0.000000
0.057587 0.150177 0.000000
0.087402 0.149567 0.000000
0.118591 0.148865 0.000000
0.152252 0.148071 0.000000
0.188629 0.147186 0.000000
0.228546 0.146118 0.000000
0.271729 0.145081 0.000000
0.318634 0.143951 0.000000
0.368561 0.142700 0.000000
0.420013 0.141449 0.000000
0.472107 0.140106 0.000000
0.524017 0.138733 0.000000
0.574554 0.137329 0.000000
0.623047 0.135925 0.000000
0.668701 0.134491 0.000000
0.710632 0.132965 0.000000
0.748657 0.131439 0.000000
0.783905 0.129944 0.000000
0.816254 0.128510 0.000000
0.844360 0.127045 0.000000
0.868774 0.125854 0.000000
0.890228 0.124817 0.000000
0.908844 0.123840 0.000000
0.925018 0.123108 0.000000
0.939148 0.122711 0.000000
0.950562 0.122589 0.000000
0.960846 0.122345 0.000000
0.970917 0.122253 0.000000
0.980957 0.122131 0.000000
0.000000 0.185913 0.000000
0.000000 0.185760 0.000000
0.011414 0.185364 0.000000
0.031403 0.184967 0.000000
0.056702 0.184448 0.000000
0.085815 0.183807 0.000000
0.116547 0.182983 0.000000
0.149750 0.182159 0.000000
0.185699 0.181183 0.000000
0.225067 0.180115 0.000000
0.267914 0.178894 0.000000
0.314270 0.177704 0.000000
0.363922 0.176300 0.000000
0.415314 0.175018 0.000000
0.467621 0.173615 0.000000
0.519501 0.171997 0.000000
0.570465 0.170532 0.000000
0.619446 0.168976 0.000000
0.665527 0.167572 0.000000
0.708099 0.166016 0.000000
0.746521 0.164612 0.000000
0.782135 0.163300 0.000000
0.814850 0.161896 0.000000
0.843353 0.160706 0.000000
0.868134 0.159607 0.000000
0.889801 0.158722 0.000000
0.908630 0.157990 0.000000
0.924957 0.157532 0.000000
0.939148 0.157349 0.000000
0.950562 0.157227 0.000000
0.960876 0.157104 0.000000
0.970917 0.156921 0.000000
0.980957 0.156921 0.000000
0.000000 0.222900 0.000000
0.000000 0.222626 0.000000
0.011078 0.222382 0.000000
0.030579 0.221985 0.000000
0.055145 0.221283 0.000000
0.083954 0.220764 0.000000
0.114288 0.219879 0.000000
0.146881 0.218964 0.000000
0.182373 0.217957 0.000000
0.221375 0.216858 0.000000
0.263794 0.215637 0.000000
0.309784 0.214294 0.000000
0.359070 0.212982 0.000000
0.410370 0.211578 0.000000
0.462708 0.209991 0.000000
0.514984 0.208527 0.000000
0.566223 0.206940 0.000000
0.615631 0.205414 0.000000
0.662476 0.203766 0.000000
0.705444 0.202362 0.000000
0.744385 0.200867 0.000000
0.780365 0.199585 0.000000
0.813538 0.198395 0.000000
0.842438 0.197357 0.000000
0.867523 0.196472 0.000000
0.889465 0.195770 0.000000
0.908447 0.195374 0.000000
0.924927 0.195129 0.000000
0.939148 0.195007 0.000000
0.950592 0.194916 0.000000
0.960876 0.194824 0.000000
0.970947 0.194733 0.000000
0.980988 0.194702 0.000000
0.000000 0.262543 0.000000
0.000000 0.262268 0.000000
0.009674 0.262024 0.000000
0.028778 0.261627 0.000000
0.052979 0.261139 0.000000
0.081421 0.260498 0.000000
0.111511 0.259674 0.000000
0.143616 0.258759 0.000000
0.178741 0.257751 0.000000
0.217346 0.256592 0.000000
0.259399 0.255432 0.000000
0.305115 0.254211 0.000000
0.354187 0.252808 0.000000
0.405334 0.251373 0.000000
0.458008 0.249969 0.000000
0.510437 0.248474 0.000000
0.562103 0.247009 0.000000
0.611938 0.245544 0.000000
0.659393 0.244080 0.000000
0.703064 0.242706 0.000000
0.742462 0.241425 0.000000
0.778839 0.240204 0.000000
0.812317 0.239166 0.000000
0.841644 0.238190 0.000000
0.867157 0.237549 0.000000
0.889252 0.237122 0.000000
0.908386 0.236908 0.000000
0.924927 0.236694 0.000000
0.939178 0.236664 0.000000
0.950592 0.236542 0.000000
0.960876 0.236450 0.000000
0.970947 0.236420 0.000000
0.980988 0.236420 0.000000
0.000000 0.304901 0.000000
0.000000 0.304688 0.000000
0.007599 0.304382 0.000000
0.026459 0.304016 0.000000
0.050140 0.303497 0.000000
0.078461 0.302917 0.000000
0.108551 0.302216 0.000000
0.140411 0.301361 0.000000
0.175049 0.300446 0.000000
0.213257 0.299347 0.000000
0.255188 0.298218 0.000000
0.300629 0.297028 0.000000
0.349579 0.295746 0.000000
0.400635 0.294495 0.000000
0.453491 0.293213 0.000000
0.506165 0.291901 0.000000
0.558258 0.290558 0.000000
0.608521 0.289215 0.000000
0.656494 0.287933 0.000000
0.700897 0.286804 0.000000
0.740784 0.285706 0.000000
0.777496 0.284760 0.000000
0.811401 0.283875 0.000000
0.841095 0.283264 0.000000
0.866882 0.282867 0.000000
0.889191 0.282654 0.000000
0.908386 0.282562 0.000000
0.924927 0.282471 0.000000
0.939178 0.282471 0.000000
0.950592 0.282318 0.000000
0.960907 0.282318 0.000000
0.970947 0.282318 0.000000
0.980988 0.282257 0.000000
0.000000 0.350372 0.000000
0.000000 0.350128 0.000000
0.005371 0.349854 0.000000
0.023834 0.349579 0.000000
0.047272 0.349060 0.000000
0.075439 0.348602 0.000000
0.105377 0.347870 0.000000
0.137268 0.347168 0.000000
0.171570 0.346313 0.000000
0.209442 0.345306 0.000000
0.251190 0.344360 0.000000
0.296387 0.343262 0.000000
0.345245 0.342133 0.000000
0.396332 0.341034 0.000000
0.449280 0.339874 0.000000
0.502350 0.338715 0.000000
0.554779 0.337494 0.000000
0.605530 0.336395 0.000000
0.653992 0.335358 0.000000
0.699066 0.334442 0.000000
0.739349 0.333649 0.000000
0.776550 0.333008 0.000000
0.810791 0.332489 0.000000
0.840851 0.332153 0.000000
0.866821 0.332123 0.000000
0.889191 0.332001 0.000000
0.908417 0.331970 0.000000
0.924957 0.331879 0.000000
0.939209 0.331879 0.000000
0.950623 0.331848 0.000000
0.960938 0.331787 0.000000
0.970978 0.331787 0.000000
0.981018 0.331787 0.000000
0.000000 0.397949 0.000000
0.000000 0.397797 0.000000
0.003326 0.397552 0.000000
0.021179 0.397308 0.000000
0.044159 0.396851 0.000000
0.072449 0.396423 0.000000
0.102539 0.395905 0.000000
0.134247 0.395233 0.000000
0.168457 0.394562 0.000000
0.205902 0.393707 0.000000
0.247467 0.392944 0.000000
0.292603 0.392029 0.000000
0.341339 0.391113 0.000000
0.392639 0.390167 0.000000
0.445709 0.389252 0.000000
0.499115 0.388336 0.000000
0.551910 0.387482 0.000000
0.603149 0.386658 0.000000
0.652130 0.385925 0.000000
0.697723 0.385315 0.000000
0.738434 0.384888 0.000000
0.776031 0.384644 0.000000
0.810638 0.384552 0.000000
0.840790 0.384399 0.000000
0.866852 0.384399 0.000000
0.889221 0.384369 0.000000
0.908447 0.384369 0.000000
0.924988 0.384369 0.000000
0.939240 0.384369 0.000000
0.950653 0.384369 0.000000
0.960938 0.384308 0.000000
0.971008 0.384308 0.000000
0.981049 0.384308 0.000000
0.000000 0.447510 0.000000
0.000000 0.447418 0.000000
0.001007 0.447174 0.000000
0.018677 0.447021 0.000000
0.041229 0.446655 0.000000
0.069427 0.446320 0.000000
0.099670 0.445892 0.000000
0.131531 0.445374 0.000000
0.165649 0.444885 0.000000
0.202850 0.444244 0.000000
0.244232 0.443665 0.000000
0.289398 0.442963 0.000000
0.338226 0.442230 0.000000
0.389618 0.441589 0.000000
0.442902 0.441010 0.000000
0.496613 0.440369 0.000000
0.549835 0.439789 0.000000
0.601501 0.439301 0.000000
0.650848 0.438995 0.000000
0.697083 0.438690 0.000000
0.738190 0.438599 0.000000
0.775909 0.438599 0.000000
0.810608 0.438599 0.000000
0.840851 0.438599 0.000000
0.866852 0.438538 0.000000
0.889252 0.438538 0.000000
0.908478 0.438538 0.000000
0.925018 0.438538 0.000000
0.939240 0.438538 0.000000
0.950684 0.438599 0.000000
0.960968 0.438660 0.000000
0.971039 0.438660 0.000000
0.981079 0.438660 0.000000
0.000000 0.497986 0.000000
0.000000 0.497894 0.000000
0.000000 0.497742 0.000000
0.016327 0.497559 0.000000
0.038849 0.497467 0.000000
0.066925 0.497223 0.000000
0.097382 0.496887 0.000000
0.129211 0.496582 0.000000
0.163391 0.496185 0.000000
0.200592 0.495758 0.000000
0.241974 0.495392 0.000000
0.287109 0.494995 0.000000
0.335968 0.494568 0.000000
0.387634 0.494171 0.000000
0.441162 0.493866 0.000000
0.495270 0.493622 0.000000
0.548889 0.493408 0.000000
0.600830 0.493256 0.000000
0.650543 0.493225 0.000000
0.697021 0.493164 0.000000
0.738159 0.493164 0.000000
0.775970 0.493225 0.000000
0.810638 0.493164 0.000000
0.840881 0.493164 0.000000
0.866943 0.493225 0.000000
0.889313 0.493225 0.000000
0.908539 0.493225 0.000000
0.925049 0.493225 0.000000
0.939301 0.493256 0.000000
0.950684 0.493317 0.000000
0.960999 0.493378 0.000000
0.971069 0.493408 0.000000
0.981110 0.493408 0.000000
0.000000 0.548950 0.000000
0.000000 0.549042 0.000000
0.000000 0.548950 0.000000
0.014221 0.548828 0.000000
0.036987 0.548737 0.000000
0.064941 0.548615 0.000000
0.095551 0.548523 0.000000
0.127563 0.548340 0.000000
0.161804 0.548096 0.000000
0.199097 0.547943 0.000000
0.240387 0.547760 0.000000
0.285706 0.547577 0.000000
0.334778 0.547424 0.000000
0.386597 0.547363 0.000000
0.440521 0.547363 0.000000
0.494751 0.547272 0.000000
0.548645 0.547272 0.000000
0.600891 0.547272 0.000000
0.650635 0.547272 0.000000
0.697052 0.547333 0.000000
0.738159 0.547333 0.000000
0.776001 0.547333 0.000000
0.810730 0.547333 0.000000
0.840942 0.547333 0.000000
0.866974 0.547363 0.000000
0.889343 0.547363 0.000000
0.908569 0.547485 0.000000
0.925110 0.547485 0.000000
0.939331 0.547577 0.000000
0.950745 0.547577 0.000000
0.961060 0.547699 0.000000
0.971100 0.547760 0.000000
0.981201 0.547760 0.000000
0.000000 0.599609 0.000000
0.000000 0.599884 0.000000
0.000000 0.599823 0.000000
0.012756 0.599823 0.000000
0.035767 0.599792 0.000000
0.063843 0.599792 0.000000
0.094543 0.599731 0.000000
0.126709 0.599731 0.000000
0.161011 0.599701 0.000000
0.198456 0.599640 0.000000
0.239838 0.599640 0.000000
0.285278 0.599640 0.000000
0.334442 0.599640 0.000000
0.386414 0.599640 0.000000
0.440369 0.599701 0.000000
0.494751 0.599701 0.000000
0.548645 0.599731 0.000000
0.600891 0.599731 0.000000
0.650665 0.599731 0.000000
0.697083 0.599792 0.000000
0.738251 0.599823 0.000000
0.776062 0.599823 0.000000
0.810760 0.599884 0.000000
0.841034 0.599884 0.000000
0.867065 0.599945 0.000000
0.889465 0.599976 0.000000
0.908661 0.600037 0.000000
0.925171 0.600128 0.000000
0.939392 0.600128 0.000000
0.950775 0.600250 0.000000
0.961090 0.600281 0.000000
0.971313 0.600098 0.000000
0.981628 0.599884 0.000000
0.000000 0.649200 0.000000
0.000000 0.649475 0.000000
0.000000 0.649475 0.000000
0.012177 0.649475 0.000000
0.035278 0.649475 0.000000
0.063324 0.649475 0.000000
0.094116 0.649475 0.000000
0.126404 0.649567 0.000000
0.160889 0.649567 0.000000
0.198303 0.649567 0.000000
0.239655 0.649567 0.000000
0.285126 0.649567 0.000000
0.334412 0.649597 0.000000
0.386414 0.649597 0.000000
0.440460 0.649597 0.000000
0.494751 0.649658 0.000000
0.548706 0.649658 0.000000
0.600952 0.649750 0.000000
0.650757 0.649750 0.000000
0.697235 0.649841 0.000000
0.738403 0.649841 0.000000
0.776154 0.649902 0.000000
0.810883 0.649902 0.000000
0.841034 0.649994 0.000000
0.867126 0.650055 0.000000
0.889526 0.650085 0.000000
0.908722 0.650146 0.000000
0.925262 0.650177 0.000000
0.939453 0.650269 0.000000
0.950836 0.650330 0.000000
0.961182 0.649933 0.000000
0.971588 0.649445 0.000000
0.982300 0.648865 0.000000
0.000000 0.695129 0.000000
0.000000 0.695374 0.000000
0.000000 0.695374 0.000000
0.011871 0.695374 0.000000
0.035034 0.695404 0.000000
0.063080 0.695465 0.000000
0.094055 0.695465 0.000000
0.126221 0.695435 0.000000
0.160736 0.695465 0.000000
0.198242 0.695496 0.000000
0.239655 0.695526 0.000000
0.285126 0.695526 0.000000
0.334412 0.695587 0.000000
0.386414 0.695587 0.000000
0.440460 0.695618 0.000000
0.494812 0.695618 0.000000
0.548798 0.695648 0.000000
0.601044 0.695679 0.000000
0.650940 0.695770 0.000000
0.697266 0.695770 0.000000
0.738525 0.695801 0.000000
0.776306 0.695862 0.000000
0.810944 0.695923 0.000000
0.841187 0.695923 0.000000
0.867218 0.696045 0.000000
0.889618 0.696075 0.000000
0.908783 0.696106 0.000000
0.925262 0.696136 0.000000
0.939301 0.695740 0.000000
0.950684 0.695129 0.000000
0.961273 0.694611 0.000000
0.971985 0.694000 0.000000
0.983063 0.693237 0.000000
0.000000 0.737000 0.000000
0.000000 0.737213 0.000000
0.000000 0.737213 0.000000
0.011536 0.737213 0.000000
0.034851 0.737305 0.000000
0.062958 0.737305 0.000000
0.093872 0.737305 0.000000
0.126007 0.737335 0.000000
0.160583 0.737335 0.000000
0.198090 0.737335 0.000000
0.239532 0.737366 0.000000
0.285126 0.737366 0.000000
0.334412 0.737396 0.000000
0.386444 0.737396 0.000000
0.440521 0.737488 0.000000
0.494965 0.737488 0.000000
0.548950 0.737549 0.000000
0.601166 0.737579 0.000000
0.651062 0.737579 0.000000
0.697510 0.737640 0.000000
0.738678 0.737701 0.000000
0.776428 0.737732 0.000000
0.811127 0.737793 0.000000
0.841309 0.737854 0.000000
0.867218 0.737762 0.000000
0.889435 0.737640 0.000000
0.908386 0.737335 0.000000
0.924622 0.736786 0.000000
0.938782 0.736176 0.000000
0.950470 0.735474 0.000000
0.961395 0.734741 0.000000
0.972473 0.733978 0.000000
0.983917 0.733124 0.000000
0.000000 0.776123 0.000000
0.000000 0.776276 0.000000
0.000000 0.776337 0.000000
0.011230 0.776337 0.000000
0.034668 0.776337 0.000000
0.062775 0.776337 0.000000
0.093719 0.776337 0.000000
0.126007 0.776367 0.000000
0.160553 0.776367 0.000000
0.198090 0.776398 0.000000
0.239532 0.776398 0.000000
0.285126 0.776428 0.000000
0.334503 0.776459 0.000000
0.386566 0.776489 0.000000
0.440613 0.776520 0.000000
0.495056 0.776520 0.000000
0.549072 0.776581 0.000000
0.601410 0.776642 0.000000
0.651215 0.776672 0.000000
0.697601 0.776703 0.000000
0.738800 0.776733 0.000000
0.776520 0.776733 0.000000
0.811005 0.776581 0.000000
0.841003 0.776398 0.000000
0.866547 0.775970 0.000000
0.888458 0.775391 0.000000
0.907410 0.774750 0.000000
0.923798 0.774048 0.000000
0.938232 0.773346 0.000000
0.950226 0.772552 0.000000
0.961517 0.771698 0.000000
0.973053 0.770782 0.000000
0.984924 0.769897 0.000000
0.000000 0.810303 0.000000
0.000000 0.810425 0.000000
0.000000 0.810455 0.000000
0.011169 0.810486 0.000000
0.034393 0.810547 0.000000
0.062653 0.810547 0.000000
0.093597 0.810547 0.000000
0.125946 0.810577 0.000000
0.160553 0.810577 0.000000
0.198090 0.810608 0.000000
0.239594 0.810608 0.000000
0.285126 0.810638 0.000000
0.334534 0.810669 0.000000
0.386780 0.810669 0.000000
0.440765 0.810730 0.000000
0.495209 0.810760 0.000000
0.549286 0.810791 0.000000
0.601532 0.810791 0.000000
0.651398 0.810852 0.000000
0.697693 0.810791 0.000000
0.738495 0.810455 0.000000
0.775879 0.810059 0.000000
0.810028 0.809601 0.000000
0.839661 0.809052 0.000000
0.865112 0.808411 0.000000
0.887115 0.807739 0.000000
0.906219 0.807037 0.000000
0.922882 0.806305 0.000000
0.937531 0.805481 0.000000
0.949890 0.804596 0.000000
0.961670 0.803711 0.000000
0.973633 0.802765 0.000000
0.985962 0.801788 0.000000
0.000000 0.840637 0.000000
0.000000 0.840759 0.000000
0.000000 0.840790 0.000000
0.010956 0.840790 0.000000
0.034363 0.840820 0.000000
0.062653 0.840820 0.000000
0.093567 0.840820 0.000000
0.125946 0.840820 0.000000
0.160553 0.840851 0.000000
0.198090 0.840881 0.000000
0.239685 0.840881 0.000000
0.285309 0.840912 0.000000
0.334625 0.840942 0.000000
0.386871 0.840973 0.000000
0.440918 0.840973 0.000000
0.495514 0.841034 0.000000
0.549438 0.840912 0.000000
0.601410 0.840546 0.000000
0.650940 0.840149 0.000000
0.696747 0.839783 0.000000
0.737244 0.839264 0.000000
0.774414 0.838715 0.000000
0.808411 0.838135 0.000000
0.837982 0.837494 0.000000
0.863464 0.836853 0.000000
0.885590 0.836121 0.000000
0.904846 0.835419 0.000000
0.921814 0.834625 0.000000
0.936798 0.833771 0.000000
0.949615 0.832886 0.000000
0.961792 0.831940 0.000000
0.974243 0.830963 0.000000
0.987122 0.829926 0.000000
0.000000 0.866852 0.000000
0.000000 0.866974 0.000000
0.000000 0.867004 0.000000
0.010864 0.867004 0.000000
0.034363 0.867004 0.000000
0.062653 0.867035 0.000000
0.093628 0.867004 0.000000
0.125977 0.867004 0.000000
0.160645 0.866974 0.000000
0.198334 0.866974 0.000000
0.239929 0.866974 0.000000
0.285522 0.866943 0.000000
0.334961 0.866821 0.000000
0.387177 0.866577 0.000000
0.441223 0.866272 0.000000
0.495453 0.865906 0.000000
0.549042 0.865509 0.000000
0.600708 0.865112 0.000000
0.649780 0.864685 0.000000
0.695343 0.864166 0.000000
0.735626 0.863678 0.000000
0.772614 0.863098 0.000000
0.806519 0.862518 0.000000
0.836060 0.861908 0.000000
0.861633 0.861237 0.000000
0.883911 0.860504 0.000000
0.903412 0.859772 0.000000
0.920654 0.858948 0.000000
0.936005 0.858124 0.000000
0.949280 0.857269 0.000000
0.961975 0.856323 0.000000
0.974915 0.855408 0.000000
0.988312 0.854370 0.000000
0.000000 0.889160 0.000000
0.000000 0.889252 0.000000
0.000000 0.889252 0.000000
0.011108 0.889221 0.000000
0.034637 0.889191 0.000000
0.062988 0.889160 0.000000
0.094055 0.889130 0.000000
0.126648 0.889008 0.000000
0.161499 0.888824 0.000000
0.199249 0.888611 0.000000
0.240936 0.888397 0.000000
0.286591 0.888184 0.000000
0.335815 0.887878 0.000000
0.387756 0.887604 0.000000
0.441467 0.887268 0.000000
0.495270 0.886963 0.000000
0.548492 0.886536 0.000000
0.599731 0.886139 0.000000
0.648468 0.885712 0.000000
0.693695 0.885254 0.000000
0.733795 0.884735 0.000000
0.770569 0.884186 0.000000
0.804382 0.883636 0.000000
0.833954 0.883057 0.000000
0.859558 0.882355 0.000000
0.882050 0.881714 0.000000
0.901825 0.881012 0.000000
0.919403 0.880280 0.000000
0.935150 0.879517 0.000000
0.948944 0.878693 0.000000
0.962219 0.877838 0.000000
0.975708 0.876984 0.000000
0.989624 0.876099 0.000000
0.000000 0.907440 0.000000
0.000000 0.907501 0.000000
0.000000 0.907471 0.000000
0.012299 0.907440 0.000000
0.035980 0.907349 0.000000
0.064514 0.907288 0.000000
0.095703 0.907166 0.000000
0.128357 0.906982 0.000000
0.163177 0.906830 0.000000
0.200806 0.906647 0.000000
0.242493 0.906433 0.000000
0.287933 0.906189 0.000000
0.336884 0.905975 0.000000
0.388428 0.905640 0.000000
0.441772 0.905365 0.000000
0.495148 0.905029 0.000000
0.547852 0.904694 0.000000
0.598633 0.904327 0.000000
0.647064 0.903931 0.000000
0.691864 0.903503 0.000000
0.731689 0.903046 0.000000
0.768341 0.902618 0.000000
0.802063 0.902100 0.000000
