nova/tdt-studio/app/Lut_mau/IWLTBAP/1 - LUTs by IWLTBAP (CUBE)/07 - Utility/BMDFilm BMPCC 4K to Rec.709/U-BMDFILM-BMPCC4K-V1-LTR.cube
# Copyright: (C) Copyright 2010-2019 by IWLTBAP SAS
# Cannot be resold, shared or otherwise redistributed
# Website: https://luts.iwltbap.com
TITLE "BMDFilm BMPCC 4K V1 (Utility LOG to Rec.709)"
LUT_3D_SIZE 9
0.000000 0.000000 0.000000
0.044952 0.000000 0.000000
0.196564 0.000000 0.000000
0.386292 0.000000 0.000000
0.591309 0.000000 0.000000
0.758179 0.000000 0.000000
0.872101 0.000000 0.000000
0.939178 0.000000 0.000000
0.980347 0.000000 0.000000
0.000000 0.054657 0.000000
0.057587 0.056183 0.000000
0.194855 0.055756 0.000000
0.379639 0.054260 0.000000
0.584564 0.050446 0.000000
0.754333 0.044281 0.000000
0.870636 0.036926 0.000000
0.939331 0.031677 0.000000
0.980927 0.030151 0.000000
0.000000 0.185913 0.000000
0.056702 0.184448 0.000000
0.185699 0.181183 0.000000
0.363922 0.176300 0.000000
0.570465 0.170532 0.000000
0.746521 0.164612 0.000000
0.868134 0.159607 0.000000
0.939148 0.157349 0.000000
0.980957 0.156921 0.000000
0.000000 0.350372 0.000000
0.047272 0.349060 0.000000
0.171570 0.346313 0.000000
0.345245 0.342133 0.000000
0.554779 0.337494 0.000000
0.739349 0.333649 0.000000
0.866821 0.332123 0.000000
0.939209 0.331879 0.000000
0.981018 0.331787 0.000000
0.000000 0.548950 0.000000
0.036987 0.548737 0.000000
0.161804 0.548096 0.000000
0.334778 0.547424 0.000000
0.548645 0.547272 0.000000
0.738159 0.547333 0.000000
0.866974 0.547363 0.000000
0.939331 0.547577 0.000000
0.981201 0.547760 0.000000
0.000000 0.737000 0.000000
0.034851 0.737305 0.000000
0.160583 0.737335 0.000000
0.334412 0.737396 0.000000
0.548950 0.737549 0.000000
0.738678 0.737701 0.000000
0.867218 0.737762 0.000000
0.938782 0.736176 0.000000
0.983917 0.733124 0.000000
0.000000 0.866852 0.000000
0.034363 0.867004 0.000000
0.160645 0.866974 0.000000
0.334961 0.866821 0.000000
0.549042 0.865509 0.000000
0.735626 0.863678 0.000000
0.861633 0.861237 0.000000
0.936005 0.858124 0.000000
0.988312 0.854370 0.000000
0.000000 0.937225 0.000000
0.039642 0.937164 0.000000
0.167328 0.936859 0.000000
0.339478 0.936279 0.000000
0.546478 0.935577 0.000000
0.726990 0.934631 0.000000
0.852417 0.933441 0.000000
0.932312 0.932098 0.000000
0.994049 0.930542 0.000000
0.000000 0.990479 0.000000
0.050140 0.990692 0.000000
0.178436 0.991241 0.000000
0.345886 0.992096 0.000000
0.542877 0.993225 0.000000
0.715881 0.994690 0.000000
0.841064 0.996399 0.000000
0.927979 0.998474 0.000000
1.000000 1.000000 0.000000
0.000000 0.000000 0.038055
0.047485 0.000000 0.045593
0.197723 0.000000 0.055908
0.385590 0.000000 0.054047
0.590210 0.000000 0.049072
0.757599 0.000000 0.042908
0.871918 0.000000 0.037354
0.939545 0.000000 0.034271
0.980927 0.000000 0.033478
0.000000 0.055817 0.055786
0.059845 0.056000 0.056000
0.194885 0.055756 0.055145
0.378540 0.054230 0.051910
0.583527 0.050446 0.046844
0.753723 0.044128 0.041016
0.870544 0.036774 0.036438
0.939301 0.031464 0.033844
0.980927 0.030151 0.033478
0.000000 0.185364 0.051910
0.056061 0.184021 0.051117
0.184723 0.180756 0.049255
0.362793 0.176147 0.045959
0.569702 0.170319 0.041718
0.746246 0.164459 0.037537
0.868073 0.159546 0.034515
0.939148 0.157288 0.033478
0.980957 0.156799 0.033295
0.000000 0.349915 0.041748
0.046539 0.348694 0.041290
0.171112 0.345917 0.039917
0.344818 0.341919 0.038055
0.554626 0.337372 0.035919
0.739319 0.333557 0.034058
0.866852 0.332123 0.033295
0.939209 0.331879 0.033234
0.981049 0.331787 0.033234
0.000000 0.548950 0.034119
0.036987 0.548676 0.033905
0.161835 0.548004 0.033600
0.334839 0.547424 0.033264
0.548737 0.547272 0.033173
0.738251 0.547333 0.033051
0.867004 0.547363 0.033051
0.939362 0.547577 0.033051
0.981262 0.547729 0.033142
0.000000 0.737213 0.032837
0.034943 0.737305 0.032837
0.160736 0.737335 0.032837
0.334534 0.737396 0.032837
0.549011 0.737549 0.032837
0.738678 0.737701 0.032837
0.867218 0.737762 0.032990
0.938782 0.736115 0.034607
0.983978 0.733063 0.037384
0.000000 0.866974 0.032806
0.034576 0.867004 0.032806
0.160767 0.866974 0.032837
0.335022 0.866791 0.033051
0.549072 0.865448 0.034271
0.735626 0.863617 0.035950
0.861572 0.861145 0.038086
0.936005 0.858063 0.040833
0.988342 0.854309 0.044312
0.000000 0.937225 0.037842
0.039856 0.937164 0.038177
0.167450 0.936798 0.038879
0.339569 0.936249 0.040009
0.546448 0.935516 0.041748
0.726959 0.934570 0.043793
0.852356 0.933411 0.046478
0.932281 0.932068 0.049774
0.994080 0.930511 0.053436
0.000000 0.990540 0.047729
0.050262 0.990723 0.047943
0.178497 0.991272 0.048737
0.345917 0.992126 0.050262
0.542847 0.993286 0.052094
0.715790 0.994720 0.054474
0.840973 0.996460 0.057404
0.927948 0.998505 0.060669
1.000000 1.000000 0.064484
0.000000 0.000000 0.175446
0.057892 0.000000 0.186096
0.197205 0.000000 0.191986
0.382599 0.000000 0.188293
0.587494 0.000000 0.180389
0.756226 0.000000 0.171326
0.871490 0.000000 0.163727
0.939514 0.000000 0.159180
0.980957 0.000000 0.158539
0.000000 0.055786 0.191956
0.061462 0.055847 0.191650
0.193512 0.055634 0.189575
0.375702 0.053894 0.184448
0.581177 0.050018 0.176910
0.752594 0.043640 0.168671
0.870178 0.036377 0.162231
0.939301 0.031250 0.158752
0.980957 0.029968 0.158478
0.000000 0.184204 0.183899
0.055695 0.182800 0.182678
0.183258 0.179932 0.179932
0.360687 0.175385 0.175232
0.568146 0.169708 0.169281
0.745544 0.164032 0.163788
0.867950 0.159210 0.159698
0.939178 0.157257 0.158478
0.980988 0.156799 0.158478
0.000000 0.348877 0.169098
0.045776 0.347809 0.168396
0.170410 0.345154 0.166840
0.343933 0.341248 0.164368
0.554108 0.336914 0.161438
0.739258 0.333252 0.159149
0.866943 0.332001 0.158356
0.939240 0.331787 0.158356
0.981049 0.331787 0.158478
0.000000 0.548676 0.159332
0.037079 0.548431 0.159149
0.161896 0.547852 0.158813
0.335022 0.547363 0.158478
0.548950 0.547272 0.158264
0.738434 0.547333 0.158325
0.867065 0.547363 0.158325
0.939392 0.547577 0.158478
0.981323 0.547699 0.158813
0.000000 0.737305 0.158203
0.035156 0.737305 0.158203
0.160889 0.737335 0.158203
0.334625 0.737396 0.158264
0.549164 0.737549 0.158325
0.738800 0.737701 0.158356
0.867218 0.737732 0.158691
0.938721 0.735870 0.160583
0.984131 0.732819 0.163635
0.000000 0.867004 0.158539
0.034729 0.867035 0.158539
0.160950 0.866974 0.158600
0.335327 0.866638 0.158997
0.549072 0.865295 0.160339
0.735413 0.863373 0.162170
0.861359 0.860901 0.164581
0.935913 0.857758 0.167633
0.988525 0.854065 0.171326
0.000000 0.937164 0.164551
0.040100 0.937073 0.164734
0.167725 0.936707 0.165527
0.339813 0.936157 0.166870
0.546417 0.935425 0.168579
0.726746 0.934509 0.170929
0.852081 0.933319 0.173859
0.932190 0.931946 0.177338
0.994263 0.930389 0.181213
0.000000 0.990723 0.175171
0.050690 0.990875 0.175446
0.178864 0.991425 0.176300
0.346130 0.992249 0.177795
0.542755 0.993408 0.179779
0.715515 0.994873 0.182251
0.840729 0.996643 0.185303
0.927856 0.998657 0.188843
1.000000 1.000000 0.192657
0.000000 0.000000 0.379639
0.068970 0.000000 0.382721
0.197937 0.000000 0.381714
0.379578 0.000000 0.374756
0.584106 0.000000 0.363098
0.754272 0.000000 0.350128
0.870850 0.000000 0.339294
0.939362 0.000000 0.333099
0.980988 0.000000 0.332397
0.000000 0.055298 0.381775
0.065674 0.055359 0.380554
0.193207 0.054932 0.376617
0.372772 0.053131 0.368866
0.578186 0.049042 0.357971
0.750946 0.042664 0.346497
0.869690 0.035645 0.337250
0.939270 0.031036 0.332550
0.980988 0.029938 0.332397
0.000000 0.182007 0.367981
0.056671 0.180908 0.366302
0.182190 0.178284 0.362122
0.358307 0.174072 0.355530
0.565948 0.168671 0.347351
0.744537 0.163300 0.339417
0.867737 0.158813 0.333740
0.939240 0.157104 0.332397
0.981018 0.156769 0.332458
0.000000 0.347198 0.347076
0.045197 0.346100 0.346008
0.169464 0.343719 0.343719
0.342773 0.340088 0.340088
0.553253 0.336151 0.336151
0.739044 0.332947 0.333038
0.867004 0.331970 0.332306
0.939270 0.331787 0.332397
0.981079 0.331757 0.332581
0.000000 0.548279 0.333313
0.036774 0.548004 0.333099
0.161804 0.547607 0.332764
0.335022 0.547272 0.332336
0.549072 0.547211 0.332214
0.738495 0.547333 0.332306
0.867157 0.547363 0.332397
0.939423 0.547577 0.332642
0.981415 0.547607 0.333099
0.000000 0.737305 0.332306
0.035278 0.737335 0.332306
0.161011 0.737366 0.332397
0.334839 0.737427 0.332397
0.549316 0.737549 0.332489
0.738922 0.737732 0.332642
0.867218 0.737640 0.332977
0.938629 0.735596 0.334229
0.984314 0.732483 0.336060
0.000000 0.867004 0.332947
0.034790 0.867004 0.332947
0.161102 0.866943 0.333038
0.335571 0.866364 0.333405
0.549133 0.864990 0.334167
0.735199 0.863007 0.335175
0.861023 0.860535 0.336609
0.935760 0.857391 0.338379
0.988770 0.853607 0.340454
0.000000 0.937012 0.336792
0.040619 0.936920 0.336884
0.168304 0.936554 0.337372
0.340088 0.936005 0.338074
0.546387 0.935272 0.338989
0.726349 0.934326 0.340240
0.851685 0.933136 0.341919
0.932037 0.931793 0.343719
0.994476 0.930206 0.345856
0.000000 0.990936 0.342865
0.051056 0.991119 0.342987
0.179413 0.991669 0.343475
0.346466 0.992523 0.344147
0.542633 0.993652 0.345276
0.715118 0.995117 0.346588
0.840302 0.996887 0.348175
0.927673 0.998901 0.350006
1.000000 1.000000 0.352081
0.005829 0.000000 0.600861
0.075806 0.000000 0.600037
0.198669 0.000000 0.596588
0.376373 0.000000 0.588531
0.580200 0.000000 0.577057
0.751892 0.000000 0.564087
0.870026 0.000000 0.553314
0.939148 0.000000 0.547516
0.980560 0.000000 0.547363
0.001831 0.054596 0.596710
0.070343 0.054474 0.595093
0.193115 0.053833 0.590607
0.369568 0.051819 0.582611
0.574615 0.047485 0.571899
0.748932 0.041046 0.560486
0.869049 0.034607 0.551392
0.939240 0.030609 0.547333
0.981018 0.029724 0.547333
0.000000 0.179291 0.581726
0.058167 0.178253 0.580078
0.181244 0.175934 0.576050
0.355713 0.171997 0.569458
0.563354 0.167206 0.561340
0.743317 0.162231 0.553406
0.867462 0.158264 0.548218
0.939270 0.157104 0.547272
0.981049 0.156677 0.547363
0.000000 0.344788 0.560974
0.044373 0.343872 0.559906
0.168365 0.341827 0.557648
0.341339 0.338623 0.554169
0.552185 0.335083 0.550354
0.738800 0.332550 0.547607
0.867065 0.331879 0.547211
0.939331 0.331787 0.547363
0.981110 0.331757 0.547607
0.000000 0.547852 0.547943
0.036224 0.547699 0.547760
0.161530 0.547363 0.547485
0.334869 0.547211 0.547272
0.549133 0.547211 0.547211
0.738617 0.547333 0.547333
0.867218 0.547363 0.547485
0.939453 0.547577 0.547760
0.981567 0.547485 0.547852
0.000000 0.737335 0.547363
0.035156 0.737366 0.547363
0.161011 0.737396 0.547424
0.334869 0.737488 0.547516
0.549469 0.737579 0.547607
0.739014 0.737793 0.547760
0.867126 0.737518 0.547882
0.938477 0.735138 0.547119
0.984589 0.731964 0.546051
0.000000 0.867004 0.548187
0.035095 0.866974 0.548187
0.161285 0.866913 0.548187
0.335876 0.865967 0.547821
0.549042 0.864563 0.547302
0.734772 0.862610 0.546631
0.860565 0.860016 0.545776
0.935608 0.856873 0.544647
0.989075 0.853027 0.543396
0.000000 0.936798 0.546265
0.041260 0.936707 0.546173
0.168854 0.936371 0.545837
0.340454 0.935822 0.545319
0.546234 0.935059 0.544647
0.725861 0.934082 0.543640
0.851135 0.932922 0.542572
0.931824 0.931549 0.541351
0.994843 0.929993 0.539825
0.000000 0.991302 0.542725
0.051758 0.991425 0.542572
0.180023 0.992004 0.542206
0.346741 0.992828 0.541565
0.542450 0.994019 0.540771
0.714508 0.995483 0.539764
0.839722 0.997223 0.538544
0.927429 0.999268 0.537231
1.000000 1.000000 0.535645
0.013672 0.000000 0.776093
0.080139 0.000000 0.774872
0.198364 0.000000 0.771667
0.372345 0.000000 0.765778
0.575531 0.000000 0.757538
0.749146 0.000000 0.748596
0.869110 0.000000 0.741486
0.939270 0.000000 0.738220
0.981018 0.000000 0.738220
0.006226 0.053253 0.771851
0.073151 0.053040 0.770569
0.192230 0.051971 0.767273
0.365723 0.049683 0.761627
0.570374 0.045227 0.753937
0.746552 0.038940 0.746124
0.868347 0.033447 0.740234
0.939270 0.030396 0.738190
0.981049 0.029510 0.738281
0.000000 0.176056 0.761017
0.058838 0.175171 0.759796
0.179779 0.173035 0.756897
0.352600 0.169525 0.752258
0.560303 0.165344 0.746704
0.741821 0.160889 0.741547
0.867188 0.157745 0.738464
0.939301 0.156921 0.738190
0.981079 0.156647 0.738342
0.000000 0.342041 0.746429
0.043030 0.341248 0.745789
0.166870 0.339417 0.744232
0.339478 0.336792 0.741974
0.550934 0.333923 0.739624
0.738586 0.332214 0.738281
0.867096 0.331848 0.738190
0.939362 0.331696 0.738312
0.981140 0.331757 0.738556
0.000000 0.547424 0.738373
0.035370 0.547363 0.738312
0.160980 0.547272 0.738220
0.334686 0.547211 0.738190
0.549072 0.547211 0.738220
0.738647 0.547333 0.738281
0.867249 0.547363 0.738403
0.939514 0.547577 0.738647
0.981812 0.547394 0.737854
0.000000 0.737366 0.738373
0.034851 0.737396 0.738373
0.160889 0.737488 0.738403
0.334839 0.737549 0.738464
0.549469 0.737640 0.738525
0.739105 0.737793 0.738678
0.866669 0.737030 0.737915
0.938293 0.734558 0.735504
0.984985 0.731384 0.732269
0.000000 0.867004 0.738861
0.035004 0.866974 0.738861
0.161652 0.866547 0.738434
0.336121 0.865509 0.737396
0.548859 0.864014 0.735901
0.734253 0.861969 0.733856
0.859955 0.859406 0.731232
0.935333 0.856171 0.727997
0.989502 0.852356 0.724182
0.000000 0.936584 0.731873
0.041809 0.936462 0.731567
0.169495 0.936096 0.730682
0.340881 0.935577 0.729248
0.546051 0.934814 0.727295
0.725220 0.933807 0.724701
0.850433 0.932648 0.721649
0.931519 0.931274 0.718140
0.995239 0.929749 0.713959
0.000000 0.991699 0.721008
0.052551 0.991821 0.720764
0.180725 0.992371 0.719727
0.347260 0.993256 0.718079
0.542145 0.994415 0.715881
0.713837 0.995880 0.713226
0.838989 0.997620 0.710022
0.927185 0.999664 0.706421
1.000000 1.000000 0.702301
0.016357 0.000000 0.885620
0.080719 0.000000 0.884796
0.195892 0.000000 0.882843
0.367004 0.000000 0.879333
0.570129 0.000000 0.874878
0.746094 0.000000 0.870392
0.868164 0.000000 0.867035
0.939270 0.000000 0.865967
0.981049 0.000000 0.865967
0.007965 0.051025 0.882965
0.073059 0.050598 0.882172
0.189606 0.049408 0.880188
0.360779 0.046753 0.876984
0.565552 0.042328 0.873047
0.743988 0.036804 0.869202
0.867615 0.032104 0.866516
0.939270 0.030182 0.865967
0.981079 0.029480 0.865997
0.000000 0.172302 0.876709
0.057434 0.171570 0.876068
0.177094 0.169678 0.874512
0.348785 0.166779 0.872192
0.556946 0.163147 0.869507
0.740265 0.159515 0.867065
0.867065 0.157318 0.865967
0.939301 0.156799 0.865967
0.981110 0.156525 0.866089
0.000000 0.338989 0.869354
0.040710 0.338409 0.869019
0.164734 0.337006 0.868317
0.337250 0.334961 0.867249
0.549561 0.332947 0.866333
0.738434 0.332001 0.865967
0.867096 0.331787 0.865967
0.939392 0.331665 0.866058
0.981201 0.331757 0.866241
0.000000 0.547272 0.865967
0.034271 0.547272 0.865967
0.160370 0.547272 0.865967
0.334320 0.547272 0.865967
0.548950 0.547333 0.865967
0.738678 0.547363 0.866028
0.867310 0.547485 0.866150
0.939545 0.547607 0.866272
0.982178 0.547150 0.864777
0.000000 0.737488 0.866089
0.034271 0.737488 0.866089
0.160522 0.737549 0.866150
0.334625 0.737579 0.866180
0.549469 0.737732 0.866241
0.738983 0.737732 0.866211
0.866180 0.736481 0.864960
0.938019 0.733887 0.862335
0.985382 0.730621 0.859009
0.000000 0.866791 0.866180
0.035004 0.866638 0.865997
0.162018 0.865997 0.865326
0.336365 0.864929 0.864258
0.548645 0.863373 0.862732
0.733551 0.861298 0.860657
0.859192 0.858643 0.858002
0.935028 0.855377 0.854736
0.989960 0.851501 0.850922
0.000000 0.936249 0.858490
0.042419 0.936157 0.858215
0.170258 0.935822 0.857300
0.341248 0.935242 0.855896
0.545746 0.934479 0.853943
0.724365 0.933472 0.851440
0.849609 0.932312 0.848419
0.931244 0.930969 0.844879
0.995758 0.929382 0.840820
0.000000 0.992188 0.847656
0.053345 0.992340 0.847321
0.181641 0.992889 0.846344
0.347656 0.993774 0.844757
0.541931 0.994904 0.842651
0.712952 0.996368 0.840057
0.838165 0.998138 0.836975
0.926910 1.000000 0.833435
1.000000 1.000000 0.829529
0.013763 0.000000 0.947479
0.076965 0.000000 0.947021
0.190948 0.000000 0.946045
0.360107 0.000000 0.944427
0.564087 0.000000 0.942505
0.743011 0.000000 0.940613
0.867340 0.000000 0.939362
0.939270 0.000000 0.939148
0.981079 0.000000 0.939178
0.005249 0.047974 0.946136
0.069092 0.047424 0.945740
0.184784 0.045959 0.944855
0.354553 0.043335 0.943420
0.560242 0.038940 0.941711
0.741455 0.034607 0.940125
0.867096 0.031006 0.939209
0.939270 0.029907 0.939148
0.981079 0.029266 0.939209
0.000000 0.168457 0.943298
0.053375 0.167847 0.942993
0.172882 0.166351 0.942352
0.344055 0.163971 0.941345
0.553284 0.160950 0.940277
0.738892 0.158203 0.939362
0.867004 0.157104 0.939117
0.939331 0.156769 0.939148
0.981140 0.156464 0.939240
0.000000 0.336212 0.940216
0.037384 0.335693 0.940094
0.162109 0.334717 0.939819
0.334869 0.333313 0.939484
0.548492 0.332245 0.939178
0.738281 0.331970 0.939148
0.867096 0.331787 0.939148
0.939423 0.331665 0.939209
0.981201 0.331757 0.939331
0.000000 0.547272 0.939148
0.032990 0.547272 0.939148
0.159637 0.547333 0.939148
0.333740 0.547333 0.939148
0.548645 0.547333 0.939178
0.738617 0.547363 0.939209
0.867310 0.547485 0.939270
0.939545 0.547668 0.939331
0.982544 0.546936 0.938507
0.000000 0.737579 0.939240
0.033295 0.737579 0.939270
0.159973 0.737640 0.939270
0.334320 0.737701 0.939270
0.549316 0.737823 0.939331
0.738800 0.737671 0.939270
0.865448 0.735809 0.938538
0.937714 0.733154 0.937439
0.985870 0.729767 0.936096
0.000000 0.866211 0.939087
0.035126 0.866028 0.939026
0.162354 0.865356 0.938721
0.336609 0.864197 0.938293
0.548248 0.862610 0.937653
0.732605 0.860443 0.936768
0.858276 0.857697 0.935699
0.934692 0.854401 0.934418
0.990570 0.850525 0.932861
0.000000 0.935913 0.935944
0.043091 0.935822 0.935822
0.171051 0.935455 0.935455
0.341736 0.934906 0.934906
0.545380 0.934113 0.934113
0.723389 0.933136 0.933136
0.848633 0.931946 0.931946
0.930847 0.930573 0.930573
0.996368 0.929016 0.929016
0.000000 0.992767 0.931671
0.054352 0.992920 0.931549
0.182587 0.993469 0.931183
0.348175 0.994324 0.930573
0.541534 0.995483 0.929779
0.711914 0.996948 0.928741
0.837128 0.998718 0.927551
0.926514 1.000000 0.926208
1.000000 1.000000 0.924744
0.013031 0.000000 0.982330
0.074219 0.000000 0.982330
0.185944 0.000000 0.982330
0.352600 0.000000 0.982330
0.557831 0.000000 0.982330
0.740143 0.000000 0.981628
0.866882 0.000000 0.981049
0.939270 0.000000 0.981049
0.981079 0.000000 0.981110
0.000000 0.044098 0.982330
0.061371 0.043457 0.982330
0.177887 0.041962 0.982330
0.347351 0.039215 0.982330
0.554810 0.035919 0.982269
0.739197 0.032410 0.981354
0.866852 0.030548 0.981049
0.939270 0.029724 0.981049
0.981110 0.029053 0.981110
0.000000 0.164825 0.982330
0.046173 0.164337 0.982330
0.167603 0.163086 0.982330
0.338867 0.161224 0.982056
0.549835 0.158997 0.981445
0.738007 0.157471 0.981049
0.866943 0.156921 0.981049
0.939331 0.156677 0.981079
0.981140 0.156464 0.981171
0.000000 0.333832 0.981384
0.033203 0.333557 0.981323
0.159271 0.333008 0.981201
0.332947 0.332397 0.981079
0.547913 0.332123 0.981049
0.738098 0.331879 0.981049
0.867065 0.331787 0.981079
0.939423 0.331757 0.981140
0.981262 0.331757 0.981232
0.000000 0.547363 0.981049
0.031525 0.547363 0.981049
0.158661 0.547363 0.981049
0.333130 0.547363 0.981079
0.548309 0.547363 0.981079
0.738495 0.547485 0.981140
0.867310 0.547607 0.981171
0.939453 0.547577 0.981476
0.983032 0.546661 0.983002
0.000000 0.737701 0.981171
0.032196 0.737701 0.981171
0.159393 0.737793 0.981171
0.333893 0.737793 0.981201
0.549103 0.737885 0.981262
0.738190 0.737152 0.981750
0.864563 0.735016 0.982880
0.937347 0.732239 0.984467
0.986481 0.728760 0.986420
0.000000 0.865448 0.982300
0.035095 0.865265 0.982391
0.162781 0.864594 0.982758
0.336731 0.863342 0.983398
0.547821 0.861694 0.984344
0.731598 0.859497 0.985565
0.857269 0.856720 0.987061
0.934235 0.853363 0.988922
0.991150 0.849396 0.991119
0.000000 0.935516 0.986969
0.043793 0.935425 0.987122
0.171875 0.935059 0.987640
0.342194 0.934479 0.988434
0.544922 0.933716 0.989532
0.722229 0.932678 0.990936
0.847473 0.931488 0.992645
0.930389 0.930145 0.994690
0.997009 0.928589 0.996979
0.000000 0.993408 0.993408
0.055298 0.993561 0.993591
0.183716 0.994141 0.994141
0.348816 0.994995 0.994995
0.541107 0.996185 0.996185
0.710815 0.997620 0.997620
0.836029 0.999390 0.999390
0.926086 1.000000 1.000000
1.000000 1.000000 1.000000
