nova/tdt-studio/app/Lut_mau/IWLTBAP/1 - LUTs by IWLTBAP (CUBE)/07 - Utility/BMDFilm BMPCC 4K to Rec.709/U-BMDFILM-BMPCC4K-V1-LTR.cube
# Copyright: (C) Copyright 2010-2019 by IWLTBAP SAS
# Cannot be resold, shared or otherwise redistributed
# Website: https://luts.iwltbap.com
TITLE "BMDFilm BMPCC 4K V1 (Utility LOG to Rec.709)"
LUT_3D_SIZE 5
0.000000 0.000000 0.000000
0.196564 0.000000 0.000000
0.591309 0.000000 0.000000
0.872101 0.000000 0.000000
0.980347 0.000000 0.000000
0.000000 0.185913 0.000000
0.185699 0.181183 0.000000
0.570465 0.170532 0.000000
0.868134 0.159607 0.000000
0.980957 0.156921 0.000000
0.000000 0.548950 0.000000
0.161804 0.548096 0.000000
0.548645 0.547272 0.000000
0.866974 0.547363 0.000000
0.981201 0.547760 0.000000
0.000000 0.866852 0.000000
0.160645 0.866974 0.000000
0.549042 0.865509 0.000000
0.861633 0.861237 0.000000
0.988312 0.854370 0.000000
0.000000 0.990479 0.000000
0.178436 0.991241 0.000000
0.542877 0.993225 0.000000
0.841064 0.996399 0.000000
1.000000 1.000000 0.000000
0.000000 0.000000 0.175446
0.197205 0.000000 0.191986
0.587494 0.000000 0.180389
0.871490 0.000000 0.163727
0.980957 0.000000 0.158539
0.000000 0.184204 0.183899
0.183258 0.179932 0.179932
0.568146 0.169708 0.169281
0.867950 0.159210 0.159698
0.980988 0.156799 0.158478
0.000000 0.548676 0.159332
0.161896 0.547852 0.158813
0.548950 0.547272 0.158264
0.867065 0.547363 0.158325
0.981323 0.547699 0.158813
0.000000 0.867004 0.158539
0.160950 0.866974 0.158600
0.549072 0.865295 0.160339
0.861359 0.860901 0.164581
0.988525 0.854065 0.171326
0.000000 0.990723 0.175171
0.178864 0.991425 0.176300
0.542755 0.993408 0.179779
0.840729 0.996643 0.185303
1.000000 1.000000 0.192657
0.005829 0.000000 0.600861
0.198669 0.000000 0.596588
0.580200 0.000000 0.577057
0.870026 0.000000 0.553314
0.980560 0.000000 0.547363
0.000000 0.179291 0.581726
0.181244 0.175934 0.576050
0.563354 0.167206 0.561340
0.867462 0.158264 0.548218
0.981049 0.156677 0.547363
0.000000 0.547852 0.547943
0.161530 0.547363 0.547485
0.549133 0.547211 0.547211
0.867218 0.547363 0.547485
0.981567 0.547485 0.547852
0.000000 0.867004 0.548187
0.161285 0.866913 0.548187
0.549042 0.864563 0.547302
0.860565 0.860016 0.545776
0.989075 0.853027 0.543396
0.000000 0.991302 0.542725
0.180023 0.992004 0.542206
0.542450 0.994019 0.540771
0.839722 0.997223 0.538544
1.000000 1.000000 0.535645
0.016357 0.000000 0.885620
0.195892 0.000000 0.882843
0.570129 0.000000 0.874878
0.868164 0.000000 0.867035
0.981049 0.000000 0.865967
0.000000 0.172302 0.876709
0.177094 0.169678 0.874512
0.556946 0.163147 0.869507
0.867065 0.157318 0.865967
0.981110 0.156525 0.866089
0.000000 0.547272 0.865967
0.160370 0.547272 0.865967
0.548950 0.547333 0.865967
0.867310 0.547485 0.866150
0.982178 0.547150 0.864777
0.000000 0.866791 0.866180
0.162018 0.865997 0.865326
0.548645 0.863373 0.862732
0.859192 0.858643 0.858002
0.989960 0.851501 0.850922
0.000000 0.992188 0.847656
0.181641 0.992889 0.846344
0.541931 0.994904 0.842651
0.838165 0.998138 0.836975
1.000000 1.000000 0.829529
0.013031 0.000000 0.982330
0.185944 0.000000 0.982330
0.557831 0.000000 0.982330
0.866882 0.000000 0.981049
0.981079 0.000000 0.981110
0.000000 0.164825 0.982330
0.167603 0.163086 0.982330
0.549835 0.158997 0.981445
0.866943 0.156921 0.981049
0.981140 0.156464 0.981171
0.000000 0.547363 0.981049
0.158661 0.547363 0.981049
0.548309 0.547363 0.981079
0.867310 0.547607 0.981171
0.983032 0.546661 0.983002
0.000000 0.865448 0.982300
0.162781 0.864594 0.982758
0.547821 0.861694 0.984344
0.857269 0.856720 0.987061
0.991150 0.849396 0.991119
0.000000 0.993408 0.993408
0.183716 0.994141 0.994141
0.541107 0.996185 0.996185
0.836029 0.999390 0.999390
1.000000 1.000000 1.000000
